public/textures/grade/Panasonic/Arrakis-VLog.cube
TITLE "Generated by Resolve"
LUT_3D_SIZE 9
0 0.0122377 0.0149538
0.0507973 0.00816358 0.0194247
0.18941 0.00125124 0.0062562
0.415564 0.0272068 0
0.70573 0.115694 0.0190738
0.957351 0.243641 0.0798505
1 0.378454 0.150759
1 0.475517 0.200717
1 0.525719 0.226123
0 0.0516213 0.040177
0.0543221 0.05243 0.0291905
0.16289 0.0544137 0.0210575
0.380789 0.0761273 0.012192
0.674571 0.140047 0.024567
0.933639 0.252628 0.076936
1 0.381109 0.14519
1 0.475486 0.194247
1 0.524758 0.219623
0.0402533 0.123278 0.0860304
0.0937514 0.122087 0.0655985
0.143587 0.130617 0.0577401
0.351446 0.131579 0.0383917
0.641215 0.172198 0.0370336
0.905943 0.267216 0.0773938
1 0.385885 0.140398
1 0.47631 0.188357
1 0.523827 0.212848
0.159762 0.260548 0.179797
0.189883 0.255955 0.156664
0.210315 0.258076 0.138155
0.315389 0.270634 0.126711
0.599313 0.276616 0.103258
0.868528 0.332769 0.1131
1 0.425101 0.157397
1 0.501793 0.196765
1 0.543572 0.218219
0.328099 0.458656 0.32372
0.342168 0.452674 0.304006
0.35079 0.45008 0.288685
0.399619 0.451652 0.263462
0.551492 0.472847 0.241169
0.823545 0.48574 0.222751
1 0.535592 0.23212
1 0.587228 0.253285
1 0.617044 0.266377
0.51368 0.660471 0.4878
0.51751 0.657282 0.477852
0.521004 0.654765 0.468452
0.534661 0.656474 0.444862
0.622278 0.659083 0.416739
0.776989 0.683742 0.384344
0.973022 0.69781 0.372564
1 0.722698 0.370169
1 0.738216 0.371221
0.669795 0.819089 0.63711
0.671794 0.818097 0.63241
0.674632 0.81738 0.62742
0.683055 0.817685 0.613916
0.714427 0.822553 0.58587
0.815 0.828077 0.556497
0.937301 0.849042 0.523751
1 0.856809 0.516625
1 0.862318 0.508843
0.777325 0.916884 0.737865
0.778683 0.916808 0.735393
0.780514 0.916701 0.732692
0.785657 0.916991 0.724681
0.798184 0.921981 0.703212
0.865415 0.920699 0.685039
0.946075 0.935515 0.645304
1 0.947143 0.624521
1 0.947677 0.620081
0.830747 0.962386 0.787472
0.831846 0.962402 0.785718
0.833219 0.962478 0.783658
0.836957 0.963043 0.778119
0.846769 0.96643 0.762173
0.894499 0.965927 0.745068
0.963439 0.97351 0.716274
1 0.990326 0.674479
1 0.989395 0.674754
0.00621042 0.0451362 0.0511635
0.0457618 0.038819 0.0545205
0.167697 0.0299229 0.0720836
0.417777 0.0294499 0.0515145
0.71165 0.10103 0.0550851
0.958846 0.236835 0.112047
1 0.379034 0.182116
1 0.480613 0.23209
1 0.530694 0.256519
0.00404364 0.072694 0.0705272
0.0581064 0.0721141 0.0596017
0.16202 0.0681773 0.0684215
0.381643 0.0830243 0.0558328
0.669917 0.150896 0.0691844
0.929763 0.262257 0.116243
1 0.388083 0.179217
1 0.480903 0.225834
1 0.529137 0.249378
0.0298314 0.135866 0.106493
0.0960861 0.130282 0.0933547
0.149126 0.136706 0.0900587
0.349813 0.139727 0.0763714
0.637034 0.181857 0.0775311
0.902419 0.275196 0.114656
1 0.39237 0.1738
1 0.481224 0.218692
1 0.528298 0.242176
0.149065 0.26569 0.197681
0.19559 0.25771 0.177432
0.220249 0.258595 0.159747
0.314137 0.273793 0.151568
0.59736 0.280339 0.130632
0.865431 0.336721 0.141817
1 0.429053 0.185916
1 0.505058 0.223896
1 0.546563 0.24448
0.328695 0.458442 0.336538
0.345785 0.452049 0.31783
0.356954 0.448615 0.303243
0.398077 0.453208 0.2757
0.549325 0.47335 0.257725
0.821775 0.486259 0.239963
1 0.536049 0.250309
1 0.587961 0.272053
1 0.617792 0.285222
0.514748 0.659678 0.49366
0.518807 0.656397 0.48397
0.522927 0.653635 0.474784
0.537896 0.654749 0.451911
0.6215 0.658747 0.422782
0.775601 0.683375 0.391745
0.972137 0.697322 0.379843
1 0.722271 0.37792
1 0.737819 0.379095
0.669841 0.81912 0.637171
0.671824 0.818128 0.632456
0.674647 0.817411 0.627482
0.683085 0.817716 0.613962
0.714427 0.822599 0.585901
0.815 0.828107 0.556527
0.937301 0.849073 0.523781
1 0.85684 0.516655
1 0.862333 0.508888
0.77734 0.916899 0.737881
0.778698 0.916823 0.735409
0.780529 0.916701 0.732723
0.785672 0.916991 0.724697
0.798199 0.921996 0.703227
0.865431 0.920714 0.685054
0.946075 0.935531 0.645319
1 0.947158 0.624537
1 0.947677 0.620096
0.830762 0.962402 0.787488
0.831846 0.962402 0.785733
0.833234 0.962493 0.783673
0.836957 0.963043 0.778134
0.846769 0.966445 0.762188
0.894484 0.965942 0.745068
0.963439 0.97351 0.716289
1 0.990341 0.674495
1 0.989395 0.674769
0.0287633 0.107164 0.113008
0.0692454 0.102968 0.10753
0.14966 0.0917983 0.13257
0.388418 0.0883955 0.155627
0.7131 0.108446 0.135058
0.964157 0.219623 0.161639
1 0.365393 0.223667
1 0.469078 0.268223
1 0.522194 0.291188
0.0205844 0.119371 0.121813
0.0699016 0.118166 0.111742
0.144411 0.112215 0.124849
0.367514 0.111849 0.13994
0.682795 0.135317 0.118914
0.932723 0.253742 0.15964
1 0.386694 0.218997
1 0.483864 0.262974
1 0.53434 0.285878
0.0400702 0.160983 0.148104
0.0987106 0.156237 0.135485
0.158801 0.156512 0.124926
0.357046 0.148959 0.13019
0.634226 0.192035 0.128069
0.897185 0.28719 0.160784
1 0.400687 0.213474
1 0.487556 0.254215
1 0.533654 0.275517
0.129564 0.279744 0.222583
0.183124 0.269276 0.206149
0.230198 0.262394 0.192004
0.314702 0.279744 0.184131
0.59469 0.285512 0.163928
0.861616 0.342214 0.175723
1 0.433463 0.217685
1 0.509117 0.254383
1 0.54995 0.274418
0.327733 0.459358 0.355566
0.347463 0.452125 0.336904
0.361929 0.447929 0.323201
0.396063 0.455634 0.292302
0.546304 0.474022 0.280278
0.818967 0.486961 0.263371
1 0.536782 0.27512
1 0.588678 0.2972
1 0.618647 0.310552
0.515923 0.657755 0.508064
0.521126 0.654169 0.498894
0.526299 0.651026 0.490166
0.54493 0.650553 0.469505
0.619074 0.657832 0.438178
0.772137 0.682063 0.410544
0.969329 0.695827 0.399069
1 0.720867 0.397818
1 0.736522 0.399542
0.671244 0.81677 0.646326
0.673533 0.815641 0.641871
0.676677 0.814755 0.63714
0.686183 0.814542 0.624445
0.709941 0.822568 0.593027
0.81355 0.826474 0.566796
0.934615 0.847471 0.535882
1 0.855207 0.528908
1 0.860716 0.521385
0.777356 0.916915 0.737911
0.778698 0.916823 0.735424
0.780545 0.916716 0.732738
0.785687 0.917006 0.724727
0.798215 0.922011 0.703258
0.865431 0.920729 0.685084
0.946075 0.935546 0.64535
1 0.947173 0.624552
1 0.947692 0.620111
0.830762 0.962402 0.787503
0.831846 0.962417 0.785748
0.833234 0.962493 0.783688
0.836957 0.963058 0.778149
0.846784 0.966445 0.762203
0.894484 0.965942 0.745083
0.963439 0.973526 0.716304
1 0.990341 0.67451
1 0.98941 0.674769
0.0875105 0.219242 0.232578
0.124331 0.215564 0.221454
0.1776 0.206897 0.231662
0.348104 0.195834 0.279911
0.671702 0.206226 0.319966
0.957977 0.258991 0.323461
1 0.334874 0.325383
1 0.442847 0.361013
1 0.498085 0.379095
0.0721904 0.219242 0.22974
0.115099 0.215625 0.218433
0.167773 0.215061 0.212039
0.324926 0.203891 0.258061
0.641764 0.215015 0.289616
0.932937 0.262348 0.28629
1 0.362753 0.309041
1 0.462425 0.34432
1 0.514443 0.362722
0.071046 0.238499 0.243519
0.118944 0.233082 0.230564
0.167651 0.231083 0.219501
0.313634 0.222812 0.245762
0.619974 0.229419 0.266972
0.911269 0.269886 0.256535
1 0.385809 0.296635
1 0.478599 0.331991
1 0.527337 0.35021
0.15375 0.319295 0.294362
0.196963 0.309117 0.277134
0.231556 0.302861 0.264698
0.3337 0.305837 0.247227
0.597711 0.305211 0.253681
0.854826 0.362264 0.26215
1 0.451606 0.297002
1 0.523156 0.327031
1 0.562448 0.343175
0.295018 0.482063 0.402777
0.325811 0.470771 0.38645
0.349752 0.462959 0.374746
0.419638 0.456489 0.350057
0.545327 0.4813 0.33315
0.81561 0.492561 0.312947
1 0.541619 0.323766
1 0.592966 0.343893
1 0.622293 0.355978
0.516396 0.658244 0.53756
0.522591 0.653895 0.527749
0.529046 0.650507 0.518975
0.552392 0.647395 0.498878
0.615595 0.658885 0.462562
0.767559 0.6813 0.439612
0.965682 0.694362 0.42678
1 0.719417 0.425803
1 0.735088 0.428
0.672053 0.812863 0.664439
0.674907 0.811673 0.66038
0.678553 0.810529 0.65597
0.689586 0.809339 0.64416
0.716594 0.815717 0.615747
0.809171 0.82295 0.587381
0.929381 0.844038 0.558877
1 0.851865 0.551888
1 0.857588 0.545174
0.778531 0.911147 0.755413
0.780423 0.910842 0.753185
0.782681 0.910582 0.750805
0.789029 0.910521 0.743694
0.804974 0.913481 0.725139
0.858991 0.917464 0.70161
0.941344 0.93077 0.667781
1 0.943038 0.648219
1 0.943709 0.643641
0.832059 0.958007 0.799496
0.833417 0.957946 0.79794
0.834958 0.957946 0.796033
0.839323 0.95819 0.791058
0.850736 0.960433 0.776989
0.889204 0.96408 0.755444
0.959808 0.96997 0.731106
1 0.986587 0.692287
1 0.986389 0.691142
0.17673 0.380728 0.412787
0.203571 0.374792 0.401083
0.245106 0.371771 0.388785
0.352392 0.357275 0.425238
0.603296 0.351659 0.495537
0.900984 0.381521 0.550866
1 0.446433 0.570031
1 0.49189 0.570306
1 0.516732 0.566308
0.161593 0.373449 0.402548
0.191424 0.367315 0.390036
0.229068 0.363394 0.378225
0.332631 0.355978 0.396857
0.574273 0.348608 0.466407
0.876097 0.377997 0.515694
1 0.439124 0.532097
1 0.484642 0.53135
1 0.510079 0.527916
0.156146 0.380056 0.405478
0.189334 0.372519 0.39176
0.223941 0.367346 0.379202
0.32401 0.365011 0.379644
0.555337 0.353185 0.446769
0.857069 0.379309 0.489143
1 0.435813 0.502281
1 0.480705 0.501167
1 0.506065 0.497307
0.17528 0.422538 0.437156
0.212268 0.412284 0.420111
0.242298 0.405066 0.407126
0.33022 0.40412 0.388876
0.542458 0.393423 0.429114
0.835691 0.409964 0.455146
1 0.455482 0.458595
1 0.501427 0.459281
1 0.542382 0.470298
0.334615 0.531975 0.50045
0.358114 0.521065 0.484443
0.375463 0.51339 0.472587
0.428016 0.505257 0.453529
0.565255 0.513039 0.431403
0.814359 0.519646 0.437659
0.996612 0.567651 0.44625
1 0.616495 0.462303
1 0.6439 0.471458
0.482704 0.687526 0.606928
0.493462 0.68162 0.598764
0.503395 0.676463 0.590906
0.539483 0.667765 0.575814
0.637446 0.664683 0.543435
0.767056 0.690852 0.519036
0.963409 0.702098 0.502419
1 0.725948 0.501228
1 0.741207 0.503059
0.67451 0.816236 0.712291
0.677653 0.814542 0.708049
0.681834 0.813031 0.703655
0.69601 0.810498 0.69218
0.734264 0.811292 0.666957
0.808423 0.824308 0.632303
0.925322 0.844602 0.6056
1 0.851728 0.596017
1 0.856947 0.58851
0.780758 0.908766 0.785016
0.782971 0.908293 0.782818
0.785657 0.907835 0.78024
0.793286 0.907073 0.773602
0.813825 0.907698 0.757031
0.852537 0.917922 0.725048
0.938231 0.927398 0.697856
1 0.940261 0.678477
1 0.940932 0.673274
0.833707 0.953368 0.822828
0.835096 0.953216 0.821408
0.837003 0.953048 0.819669
0.842298 0.952804 0.815015
0.856565 0.953597 0.80209
0.880278 0.96347 0.772946
0.955139 0.965866 0.755108
1 0.981918 0.720424
1 0.982849 0.716915
0.272389 0.550805 0.603769
0.291417 0.544289 0.592859
0.318578 0.537484 0.580026
0.399893 0.534585 0.568475
0.561288 0.514397 0.636423
0.817472 0.520912 0.703273
1 0.551919 0.761654
1 0.599863 0.770703
1 0.619974 0.772396
0.26479 0.548608 0.599176
0.285405 0.540948 0.587167
0.311025 0.533501 0.573785
0.388739 0.531594 0.556634
0.546395 0.512657 0.616068
0.80058 0.515877 0.684443
1 0.546639 0.739605
1 0.593088 0.749508
1 0.613336 0.751171
0.26157 0.551659 0.600015
0.283558 0.543069 0.586526
0.30808 0.535164 0.572976
0.381216 0.531609 0.555261
0.537057 0.517159 0.600565
0.787839 0.51667 0.669673
1 0.546304 0.720409
1 0.590509 0.73138
1 0.609979 0.732677
0.266606 0.572061 0.613993
0.292363 0.560906 0.597391
0.315129 0.552483 0.584222
0.378576 0.546349 0.565789
0.530221 0.541497 0.578637
0.769848 0.53312 0.647623
0.990219 0.559945 0.688014
1 0.597635 0.698054
1 0.615503 0.698756
0.33106 0.634226 0.656138
0.35285 0.623056 0.640818
0.369696 0.615534 0.629694
0.416403 0.606119 0.611215
0.546487 0.60798 0.587579
0.761151 0.597025 0.630808
0.973693 0.613748 0.650813
1 0.639689 0.653056
1 0.653574 0.650385
0.535851 0.733944 0.703548
0.543297 0.728023 0.695567
0.550027 0.722881 0.688212
0.575387 0.714961 0.674327
0.651301 0.709316 0.652796
0.78146 0.720363 0.633249
0.95996 0.728496 0.634348
1 0.751476 0.634455
1 0.765164 0.63537
0.6421 0.849867 0.785321
0.64596 0.847593 0.781933
0.651698 0.845197 0.778439
0.66981 0.84033 0.769696
0.72398 0.833387 0.752697
0.825788 0.833799 0.722103
0.92607 0.855299 0.697581
1 0.860746 0.685389
1 0.865492 0.678447
0.76109 0.924025 0.845457
0.764401 0.923033 0.843824
0.768704 0.921889 0.841901
0.782742 0.918822 0.836271
0.82266 0.912856 0.822751
0.873793 0.917037 0.795224
0.941329 0.930861 0.766217
1 0.944091 0.746822
1 0.944228 0.740246
0.835737 0.958175 0.875364
0.838697 0.957504 0.874037
0.840955 0.957153 0.872358
0.847364 0.956374 0.868025
0.865583 0.955291 0.856443
0.903014 0.958328 0.834058
0.95555 0.968719 0.808042
1 0.981811 0.781704
1 0.984192 0.77438
0.368048 0.703151 0.767758
0.379416 0.697246 0.75964
0.399405 0.687633 0.745983
0.453025 0.679332 0.727611
0.577066 0.671748 0.731929
0.756008 0.647211 0.814435
0.958251 0.6663 0.855589
1 0.668254 0.90695
1 0.699229 0.905409
0.366506 0.70457 0.76791
0.378668 0.698085 0.758984
0.398428 0.688365 0.745296
0.449821 0.679484 0.727001
0.572717 0.673762 0.7252
0.750378 0.64947 0.805951
0.952316 0.665995 0.848264
1 0.6692 0.898482
1 0.699077 0.896971
0.365942 0.707424 0.769207
0.378943 0.699962 0.759136
0.398596 0.69044 0.745769
0.447562 0.681056 0.727352
0.569574 0.677241 0.719265
0.745296 0.653208 0.797147
0.946593 0.667094 0.841093
1 0.671687 0.88957
1 0.700038 0.888533
0.369253 0.718547 0.776226
0.385229 0.709224 0.764019
0.403311 0.699657 0.750774
0.447288 0.689342 0.732494
0.566064 0.689342 0.710979
0.737774 0.667185 0.780118
0.935699 0.674739 0.826917
1 0.682139 0.870558
1 0.706874 0.869703
0.4009 0.752148 0.798642
0.418509 0.740749 0.783902
0.432502 0.732906 0.773495
0.467353 0.722087 0.756359
0.571023 0.717678 0.734066
0.736309 0.710445 0.756756
0.922103 0.706447 0.807538
1 0.716823 0.838758
1 0.733791 0.837659
0.510384 0.812161 0.831525
0.518303 0.806531 0.824277
0.525475 0.801312 0.817517
0.548287 0.792676 0.804807
0.622904 0.78497 0.78468
0.757763 0.788952 0.761379
0.919356 0.779889 0.795956
1 0.787732 0.806424
1 0.794476 0.803662
0.700313 0.883452 0.858534
0.702678 0.881285 0.855299
0.706569 0.878981 0.85214
0.719722 0.874327 0.844404
0.760174 0.867994 0.829709
0.838987 0.866453 0.811261
0.933867 0.876951 0.797742
1 0.881193 0.794064
1 0.885252 0.789181
0.759564 0.951461 0.906371
0.762325 0.950515 0.904814
0.765499 0.949523 0.903227
0.77557 0.947036 0.898543
0.804715 0.942153 0.888182
0.867552 0.937789 0.871916
0.953643 0.940856 0.849195
1 0.954894 0.831571
1 0.954162 0.823377
0.808499 0.983948 0.930785
0.81088 0.983322 0.929885
0.813672 0.982651 0.928664
0.821912 0.980911 0.925307
0.845762 0.977142 0.917281
0.898604 0.97232 0.902846
0.96846 0.974853 0.879026
1 0.986877 0.85861
1 0.991043 0.848386
0.446555 0.810742 0.877577
0.451057 0.807736 0.874037
0.46833 0.796384 0.859571
0.504738 0.783917 0.841123
0.607187 0.779614 0.820417
0.752255 0.764233 0.857313
0.915282 0.757671 0.912581
1 0.768429 0.945891
1 0.763043 0.972015
0.446799 0.812497 0.878523
0.451774 0.808728 0.874098
0.469078 0.797681 0.859983
0.504326 0.785031 0.84152
0.605417 0.780453 0.820859
0.750393 0.766293 0.854276
0.912795 0.758709 0.909895
1 0.769314 0.942763
1 0.763943 0.969085
0.447684 0.81474 0.880034
0.453162 0.810361 0.874632
0.470237 0.799481 0.860746
0.504402 0.786786 0.842435
0.603845 0.781689 0.821439
0.749004 0.768872 0.85098
0.910201 0.76022 0.907301
1 0.770657 0.939559
1 0.765179 0.96582
0.450736 0.821958 0.884459
0.459022 0.815961 0.87715
0.47509 0.805142 0.863798
0.506416 0.792905 0.846204
0.601587 0.786389 0.824613
0.74583 0.777127 0.843412
0.90425 0.765835 0.901213
1 0.775753 0.931945
1 0.769924 0.957412
0.468025 0.844633 0.899886
0.48249 0.833143 0.886275
0.494926 0.824338 0.875227
0.521187 0.812757 0.859602
0.605554 0.80441 0.838163
0.745693 0.802884 0.831815
0.895735 0.785626 0.892241
1 0.793881 0.917464
1 0.787823 0.94226
0.541863 0.878843 0.915999
0.549203 0.872679 0.908522
0.555871 0.86772 0.902495
0.574456 0.858732 0.890532
0.639933 0.849393 0.871611
0.759869 0.848707 0.849882
0.896773 0.839567 0.878187
1 0.839597 0.902968
1 0.831647 0.924346
0.668467 0.92932 0.938552
0.670695 0.927184 0.935683
0.674327 0.924834 0.932845
0.687083 0.919997 0.92575
0.728573 0.912642 0.912123
0.811353 0.908309 0.893874
0.916243 0.913649 0.875898
1 0.907988 0.897353
1 0.906416 0.901259
0.808026 0.970626 0.949508
0.810239 0.969757 0.948333
0.812894 0.968765 0.946731
0.820951 0.966354 0.942596
0.844343 0.961776 0.933394
0.895033 0.957839 0.91902
0.96231 0.960189 0.906035
1 0.967956 0.898756
1 0.96701 0.892927
0.83473 1 0.970275
0.836576 1 0.969329
0.838575 0.999771 0.968215
0.845075 0.998169 0.965469
0.864118 0.994659 0.958511
0.906493 0.990814 0.946502
0.966964 0.990585 0.933425
1 0.994904 0.920317
1 1 0.909453
0.490593 0.864408 0.930251
0.490944 0.864195 0.929961
0.506874 0.852125 0.915526
0.536416 0.837949 0.896941
0.624781 0.829755 0.875608
0.758648 0.820905 0.886732
0.899046 0.800961 0.949279
1 0.816144 0.96669
1 0.817792 0.984619
0.491249 0.865919 0.931151
0.492164 0.865202 0.930312
0.507958 0.853239 0.915953
0.536843 0.839139 0.897551
0.624277 0.83061 0.876081
0.757794 0.82266 0.885176
0.898024 0.802808 0.946944
1 0.817105 0.964904
1 0.818753 0.982727
0.492164 0.867811 0.932311
0.493507 0.866606 0.930861
0.509514 0.854582 0.916716
0.53753 0.840681 0.898405
0.62388 0.831861 0.877043
0.756741 0.824598 0.883024
0.896635 0.805188 0.944274
1 0.818387 0.962905
1 0.820005 0.980758
0.495399 0.873396 0.935851
0.499001 0.870466 0.932372
0.513787 0.858824 0.918669
0.540124 0.845228 0.901213
0.623392 0.836149 0.880018
0.755489 0.831159 0.878752
0.893553 0.811978 0.937575
1 0.822477 0.958297
1 0.824155 0.975402
0.509331 0.890715 0.947555
0.518776 0.882063 0.93756
0.531289 0.872618 0.92636
0.552956 0.860136 0.910567
0.627802 0.850187 0.890227
0.756313 0.85069 0.871214
0.890349 0.832364 0.924071
0.99942 0.836469 0.948852
1 0.837858 0.96495
0.566705 0.916442 0.958907
0.574258 0.909957 0.951354
0.580407 0.904616 0.945083
0.596521 0.895689 0.93373
0.655985 0.885542 0.915602
0.767361 0.882628 0.894896
0.893965 0.877455 0.907607
0.993378 0.872267 0.939055
1 0.872496 0.951629
0.670481 0.955139 0.975021
0.672694 0.953033 0.972641
0.675944 0.950698 0.969787
0.687999 0.945708 0.962997
0.727901 0.938033 0.949828
0.809094 0.932433 0.93196
0.911376 0.935622 0.91429
0.996338 0.928466 0.937881
1 0.927474 0.943374
0.785107 0.990738 0.98732
0.787335 0.989868 0.98613
0.790143 0.988891 0.98468
0.798306 0.986404 0.980774
0.822446 0.98143 0.971908
0.875349 0.976516 0.958144
0.946624 0.97702 0.944625
1 0.982757 0.934188
1 0.977951 0.942016
0.861921 1 0.990539
0.863523 1 0.989593
0.865553 1 0.988617
0.871427 1 0.985946
0.888609 1 0.979385
0.926955 0.999786 0.967681
0.981414 0.999619 0.955749
1 1 0.947631
1 1 0.94316
