public/textures/grade/Panasonic/Arrakis-VLog.cube
TITLE "Generated by Resolve"
LUT_3D_SIZE 33
0 0.0122377 0.0149538
0 0.0122225 0.0137331
0.0090486 0.0122225 0.0113069
0.025742 0.0102998 0.0153506
0.0507973 0.00816358 0.0194247
0.0818494 0.00741588 0.0189364
0.112871 0.00588998 0.0163424
0.147829 0.0037995 0.0120851
0.18941 0.00125124 0.0062562
0.237842 0.000686656 0.000747692
0.289998 0.00596628 0
0.349599 0.0143893 0
0.415564 0.0272068 0
0.486168 0.0449226 0
0.559319 0.0653544 0.00311284
0.633021 0.0888685 0.00956741
0.70573 0.115694 0.0190738
0.775692 0.145205 0.032105
0.841321 0.176837 0.0466621
0.90219 0.209354 0.0624399
0.957351 0.243641 0.0798505
1 0.279332 0.0986801
1 0.314015 0.117082
1 0.347219 0.134554
1 0.378454 0.150759
1 0.407218 0.16556
1 0.433005 0.178866
1 0.45594 0.190723
1 0.475517 0.200717
1 0.49221 0.209018
1 0.505745 0.215946
1 0.51696 0.221515
1 0.525719 0.226123
0 0.0145724 0.0169833
0 0.0145571 0.015671
0.00985733 0.0142061 0.0122377
0.0271763 0.0125734 0.0156252
0.0514534 0.0109407 0.0192416
0.0826123 0.00994888 0.0183261
0.113069 0.00839246 0.0154879
0.147601 0.00639353 0.0113527
0.188922 0.00422675 0.00578317
0.234195 0.00672923 0.00285344
0.286137 0.0122072 0.000671397
0.3458 0.020798 0
0.411749 0.0341192 0
0.482567 0.051133 0.00137331
0.555947 0.0708782 0.00518807
0.629816 0.0937209 0.0114748
0.70248 0.119722 0.0206607
0.772549 0.147982 0.0328527
0.839048 0.178119 0.0466163
0.900206 0.21033 0.062211
0.95552 0.244358 0.0796979
1 0.27985 0.0982223
1 0.314458 0.116625
1 0.347539 0.134112
1 0.378683 0.15024
1 0.40737 0.165026
1 0.433097 0.178317
1 0.456001 0.190188
1 0.475639 0.20029
1 0.49218 0.208469
1 0.505684 0.215427
1 0.516884 0.220966
1 0.525643 0.225559
0 0.0247654 0.0241855
0 0.0243534 0.0225528
0.0136416 0.0233768 0.0184024
0.0311742 0.0233616 0.0171359
0.0556039 0.0221103 0.0205692
0.0847944 0.0206912 0.0175479
0.109712 0.0211032 0.0157626
0.138659 0.022385 0.0138857
0.174853 0.0246891 0.0119631
0.218921 0.0284276 0.00993362
0.271153 0.0347143 0.00833143
0.330922 0.0437781 0.00698863
0.397879 0.0545968 0.00627146
0.469688 0.0681468 0.00712596
0.543999 0.0847791 0.00970474
0.619303 0.104234 0.0145571
0.693172 0.12723 0.0223239
0.763882 0.153246 0.0330663
0.830961 0.182422 0.0463111
0.892515 0.213779 0.0614939
0.948333 0.247013 0.0785382
0.998657 0.281712 0.0969253
1 0.316014 0.115038
1 0.348684 0.132509
1 0.379492 0.148425
1 0.407813 0.163363
1 0.433295 0.176593
1 0.456092 0.18822
1 0.475608 0.198306
1 0.492012 0.206439
1 0.505562 0.213672
1 0.516503 0.219013
1 0.525261 0.223499
0 0.0373083 0.0313268
0.00195315 0.0368505 0.0296788
0.0183871 0.035523 0.0251774
0.03682 0.0356756 0.0222171
0.0513619 0.0379034 0.0269322
0.078645 0.0368505 0.0230564
0.103716 0.0367285 0.0206455
0.132586 0.0374151 0.0184482
0.168338 0.0391546 0.016144
0.211963 0.042359 0.0137636
0.263645 0.0479744 0.0116274
0.323262 0.0553292 0.00994888
0.389425 0.0652781 0.00901808
0.460685 0.0777142 0.00955215
0.534554 0.093019 0.011429
0.609979 0.11165 0.0161135
0.684001 0.133715 0.0233463
0.755138 0.158679 0.0336614
0.822431 0.186542 0.046128
0.88481 0.217288 0.0611582
0.940932 0.249775 0.0775158
0.991806 0.283726 0.095491
1 0.31751 0.11371
1 0.349844 0.1308
1 0.380301 0.146624
1 0.408316 0.161456
1 0.433555 0.174594
1 0.456092 0.186374
1 0.475517 0.196246
1 0.491798 0.204547
1 0.505348 0.211734
1 0.516197 0.217227
1 0.525139 0.221698
0 0.0516213 0.040177
0.00637827 0.0506447 0.0379339
0.0237888 0.0487831 0.0332494
0.0422522 0.0488899 0.029099
0.0543221 0.05243 0.0291905
0.0729229 0.0538491 0.0307317
0.0983444 0.0531167 0.0276036
0.127352 0.0529793 0.0241398
0.16289 0.0544137 0.0210575
0.206149 0.0569772 0.0182956
0.25684 0.0611276 0.01561
0.315373 0.0673991 0.0133211
0.380789 0.0761273 0.012192
0.451392 0.0873884 0.0120089
0.525216 0.101793 0.0139467
0.600626 0.119356 0.0180667
0.674571 0.140047 0.024567
0.746319 0.164263 0.034638
0.813855 0.191226 0.0462806
0.876738 0.221042 0.0608072
0.933639 0.252628 0.076936
0.984863 0.285908 0.0942397
1 0.319234 0.112306
1 0.351125 0.129229
1 0.381109 0.14519
1 0.408911 0.159625
1 0.433921 0.172702
1 0.456214 0.184451
1 0.475486 0.194247
1 0.491585 0.202731
1 0.505089 0.209689
1 0.51603 0.215488
1 0.524758 0.219623
0.0055848 0.0682078 0.0500496
0.0139162 0.0668803 0.0476081
0.0323949 0.0648051 0.0429694
0.0497292 0.0649577 0.0377203
0.0626078 0.0677501 0.0328527
0.0738384 0.0707713 0.0353094
0.0930495 0.071519 0.0353399
0.121614 0.0709392 0.0324254
0.157366 0.0707103 0.0283055
0.199863 0.0714733 0.0240177
0.250278 0.0744488 0.0206912
0.308034 0.0791638 0.0176394
0.372671 0.086656 0.015671
0.442725 0.0967269 0.0150149
0.516258 0.110018 0.0162814
0.591363 0.126589 0.0198367
0.665904 0.146487 0.0262913
0.737896 0.169757 0.0356146
0.80592 0.195712 0.0468605
0.869093 0.22475 0.0606851
0.926604 0.255482 0.0762951
0.978454 0.287968 0.0933852
1 0.320821 0.110979
1 0.35227 0.127993
1 0.38201 0.143771
1 0.409522 0.157992
1 0.434592 0.171267
1 0.456413 0.182681
1 0.475517 0.192584
1 0.491798 0.201297
1 0.504921 0.207828
1 0.515801 0.213626
1 0.524483 0.217746
0.0133822 0.0835584 0.0594034
0.0228428 0.0822156 0.0571603
0.0436103 0.0795605 0.0524605
0.0582742 0.0803235 0.0468605
0.06804 0.0837415 0.0406195
0.082063 0.0844587 0.0419928
0.0933089 0.0880293 0.0407568
0.117098 0.0878767 0.0404974
0.151888 0.0870375 0.0364996
0.194446 0.087068 0.0315251
0.244572 0.0882429 0.0269474
0.301762 0.0918746 0.0231632
0.365942 0.097612 0.0202487
0.435676 0.106523 0.019028
0.508736 0.118364 0.0194247
0.583825 0.133623 0.0222019
0.658198 0.152468 0.0279545
0.730266 0.17435 0.0365148
0.798795 0.199756 0.0473335
0.86244 0.227909 0.0608225
0.920226 0.258122 0.0759136
0.97258 0.289967 0.092607
1 0.322271 0.10988
1 0.35346 0.126864
1 0.382864 0.142489
1 0.410086 0.156573
1 0.434943 0.169802
1 0.456611 0.181216
1 0.475563 0.191104
1 0.491753 0.199725
1 0.504799 0.206241
1 0.515602 0.211994
1 0.524239 0.216144
0.0245212 0.101442 0.0712596
0.0351873 0.100023 0.0685893
0.0558328 0.0976883 0.0634928
0.069276 0.0981003 0.0576944
0.0792859 0.100801 0.0515297
0.0923934 0.101244 0.0491646
0.101747 0.103304 0.0512551
0.115312 0.107439 0.047364
0.146609 0.106523 0.0471351
0.188449 0.105699 0.0420996
0.238331 0.105837 0.0361639
0.295262 0.107729 0.0311131
0.358968 0.111879 0.0270848
0.428336 0.119142 0.0249638
0.500847 0.129412 0.0242618
0.575723 0.143038 0.0262455
0.650111 0.160403 0.0311437
0.722423 0.181262 0.0388037
0.791424 0.20528 0.0490272
0.854978 0.232029 0.0612345
0.913603 0.261326 0.076112
0.966155 0.292317 0.0919661
1 0.323812 0.108965
1 0.354742 0.125673
1 0.38381 0.141161
1 0.410819 0.155276
1 0.435416 0.16846
1 0.457191 0.180102
1 0.475853 0.189654
1 0.491722 0.198047
1 0.504677 0.204532
1 0.515404 0.210269
1 0.523995 0.214618
0.0402533 0.123278 0.0860304
0.0549935 0.121294 0.0829175
0.0720226 0.120058 0.0771801
0.0846418 0.12018 0.0713359
0.0937514 0.122087 0.0655985
0.103029 0.12369 0.0611124
0.114519 0.123461 0.0610208
0.125322 0.126223 0.0621195
0.143587 0.130617 0.0577401
0.182162 0.129427 0.0569009
0.231296 0.12871 0.0509041
0.287861 0.128893 0.043946
0.351446 0.131579 0.0383917
0.419913 0.136461 0.0343175
0.492454 0.145068 0.0327306
0.566934 0.156741 0.0335393
0.641215 0.172198 0.0370336
0.713527 0.191333 0.0434577
0.782742 0.213748 0.0524605
0.846952 0.239277 0.0638895
0.905943 0.267216 0.0773938
0.958877 0.296574 0.0925154
1 0.327321 0.108888
1 0.357565 0.125246
1 0.385885 0.140398
1 0.412161 0.154345
1 0.436439 0.167117
1 0.457877 0.178576
1 0.47631 0.188357
1 0.491966 0.196338
1 0.505074 0.203067
1 0.515358 0.208438
1 0.523827 0.212848
0.0653544 0.14963 0.104112
0.0796368 0.147967 0.100359
0.0924086 0.147127 0.0940414
0.103334 0.147005 0.0884108
0.112139 0.148104 0.0829175
0.116747 0.150683 0.0770886
0.128191 0.149813 0.0746166
0.140291 0.150378 0.0753033
0.153933 0.153735 0.0752117
0.177859 0.158221 0.0704814
0.223438 0.156924 0.068864
0.279591 0.156344 0.0620279
0.342748 0.156893 0.0549325
0.411124 0.160235 0.0494087
0.482948 0.166171 0.0455787
0.557549 0.175845 0.0448615
0.631434 0.18909 0.0462654
0.704082 0.205951 0.0509804
0.773281 0.226459 0.0584878
0.837888 0.250019 0.0685893
0.897353 0.276204 0.0809491
0.951019 0.304326 0.0953536
0.998474 0.333684 0.11078
1 0.362921 0.126604
1 0.390372 0.140887
1 0.415976 0.154391
1 0.43949 0.166949
1 0.460395 0.17818
1 0.478447 0.18761
1 0.493751 0.195422
1 0.506615 0.202029
1 0.516777 0.207401
1 0.525154 0.212009
0.095201 0.181216 0.125948
0.105394 0.180133 0.120806
0.116487 0.179095 0.114992
0.126253 0.17882 0.10927
0.133944 0.179263 0.103563
0.138994 0.180545 0.0982376
0.142885 0.182239 0.0934005
0.157168 0.180957 0.0917678
0.171328 0.181827 0.0924697
0.188296 0.186511 0.0915236
0.218036 0.190906 0.086183
0.270588 0.189441 0.0838636
0.33312 0.188983 0.0766766
0.401175 0.189975 0.0690776
0.473259 0.193835 0.0633555
0.547143 0.200916 0.0603037
0.62182 0.211749 0.0602426
0.694011 0.226184 0.0626993
0.763302 0.24419 0.0684977
0.828489 0.265476 0.0768749
0.888151 0.289631 0.0876478
0.942229 0.315831 0.100389
0.990234 0.34342 0.114626
1 0.37145 0.129671
1 0.398016 0.143725
1 0.422644 0.156649
1 0.44535 0.168597
1 0.465431 0.17908
1 0.48307 0.188235
1 0.497887 0.196231
1 0.510369 0.202655
1 0.520241 0.207614
1 0.528389 0.211917
0.12488 0.218647 0.151324
0.135286 0.217014 0.145449
0.144808 0.215839 0.139498
0.15317 0.21532 0.13373
0.160098 0.215412 0.128359
0.164828 0.215991 0.123323
0.167773 0.217121 0.118379
0.17406 0.217899 0.114199
0.191119 0.216739 0.111788
0.207431 0.218357 0.112749
0.228107 0.223697 0.110155
0.263905 0.228397 0.104921
0.323003 0.227008 0.102113
0.390555 0.226841 0.0946365
0.462654 0.228275 0.0869612
0.536431 0.232929 0.0815442
0.610788 0.240909 0.0788281
0.683345 0.252415 0.0792706
0.753094 0.267994 0.0827955
0.818311 0.286671 0.0890669
0.878492 0.308293 0.098024
0.932769 0.332311 0.109041
0.981613 0.358099 0.122103
1 0.384405 0.135821
1 0.409323 0.148745
1 0.432929 0.161135
1 0.454337 0.172335
1 0.473686 0.182498
1 0.490547 0.191058
1 0.505043 0.198749
1 0.516793 0.204669
1 0.526543 0.209689
1 0.534279 0.213886
0.159762 0.260548 0.179797
0.168658 0.258671 0.173556
0.176837 0.257313 0.167849
0.18407 0.256413 0.162295
0.189883 0.255955 0.156664
0.194308 0.256062 0.151949
0.197498 0.256641 0.147402
0.199863 0.257984 0.14226
0.210315 0.258076 0.138155
0.230304 0.257176 0.134966
0.249073 0.259632 0.136004
0.27332 0.266117 0.131624
0.315389 0.270634 0.126711
0.379324 0.269093 0.123415
0.450813 0.269215 0.115862
0.52491 0.271351 0.108232
0.599313 0.276616 0.103258
0.672389 0.285374 0.101045
0.74226 0.297917 0.102113
0.807752 0.313664 0.105913
0.868528 0.332769 0.1131
0.92343 0.354101 0.121996
0.972183 0.377264 0.132692
1 0.401663 0.145388
1 0.425101 0.157397
1 0.447318 0.168612
1 0.46743 0.178897
1 0.485679 0.188281
1 0.501793 0.196765
1 0.515389 0.203891
1 0.526833 0.209705
1 0.536217 0.214496
1 0.543572 0.218219
0.197925 0.306157 0.211566
0.205417 0.304067 0.205509
0.21236 0.302586 0.199634
0.218616 0.301503 0.194171
0.223835 0.300847 0.189044
0.227558 0.300679 0.184527
0.230594 0.300725 0.180484
0.233265 0.301183 0.175677
0.236072 0.303105 0.169207
0.251606 0.302068 0.165209
0.274174 0.301518 0.161242
0.295369 0.304936 0.162188
0.323369 0.312505 0.155779
0.370581 0.316945 0.151171
0.43888 0.315801 0.147967
0.512489 0.316014 0.14052
0.587259 0.318791 0.133074
0.660533 0.324651 0.128511
0.730922 0.334051 0.126818
0.797009 0.346929 0.128237
0.858137 0.363027 0.132647
0.9131 0.381491 0.139361
0.962875 0.402167 0.148501
1 0.423865 0.158679
1 0.445823 0.169711
1 0.46598 0.179553
1 0.484871 0.189059
1 0.501915 0.197574
1 0.517113 0.205402
1 0.529732 0.211597
1 0.540536 0.217288
1 0.549279 0.221912
1 0.556283 0.225086
0.238834 0.354986 0.246448
0.245106 0.35288 0.240574
0.251041 0.351247 0.23476
0.256168 0.350027 0.229145
0.260502 0.349142 0.224414
0.263676 0.348669 0.220127
0.266392 0.348379 0.216159
0.268894 0.348287 0.211887
0.27187 0.349065 0.206241
0.275441 0.351751 0.198322
0.297093 0.349676 0.195468
0.322057 0.349615 0.190555
0.346075 0.353964 0.190875
0.377523 0.36257 0.182605
0.429496 0.366644 0.178393
0.499931 0.365606 0.175357
0.574365 0.366522 0.168139
0.648066 0.369863 0.161318
0.718868 0.376272 0.157198
0.785428 0.386053 0.155596
0.846891 0.398962 0.157259
0.902907 0.414572 0.161669
0.952987 0.432349 0.168536
0.99649 0.451392 0.176715
1 0.471244 0.185901
1 0.489723 0.194965
1 0.50695 0.203037
1 0.522591 0.210712
1 0.536233 0.217136
1 0.548226 0.223239
1 0.55819 0.228077
1 0.566262 0.232258
1 0.572778 0.23537
0.282368 0.406058 0.28394
0.287877 0.404181 0.278492
0.292744 0.402609 0.272938
0.297002 0.401282 0.267597
0.300511 0.400275 0.263005
0.30309 0.399588 0.259251
0.305425 0.399069 0.255512
0.307713 0.398642 0.251591
0.310491 0.398672 0.246265
0.313893 0.400061 0.239368
0.321798 0.401709 0.231571
0.3467 0.399741 0.22829
0.373709 0.400488 0.223346
0.400397 0.406027 0.222416
0.434485 0.415442 0.211887
0.490211 0.418936 0.208637
0.561563 0.418067 0.205432
0.634958 0.419715 0.198917
0.706264 0.423575 0.192554
0.773419 0.430381 0.18851
0.835523 0.440162 0.187457
0.891814 0.45272 0.189151
0.942336 0.467536 0.193286
0.98674 0.48397 0.199329
1 0.501442 0.206851
1 0.517845 0.214099
1 0.533288 0.221057
1 0.54725 0.227481
1 0.559915 0.233356
1 0.570474 0.238361
1 0.579568 0.242588
1 0.586999 0.246052
1 0.593164 0.249012
0.328099 0.458656 0.32372
0.332448 0.456703 0.318334
0.336553 0.454963 0.31284
0.339696 0.453651 0.308186
0.342168 0.452674 0.304006
0.344457 0.45182 0.300542
0.346395 0.451148 0.297093
0.348379 0.450523 0.293233
0.35079 0.45008 0.288685
0.354055 0.450645 0.282429
0.358282 0.452827 0.274052
0.372519 0.45304 0.267582
0.399619 0.451652 0.263462
0.428336 0.453315 0.258427
0.456916 0.459724 0.255421
0.493233 0.470039 0.242893
0.551492 0.472847 0.241169
0.622049 0.472389 0.238224
0.69308 0.47454 0.232013
0.760769 0.478798 0.226078
0.823545 0.48574 0.222751
0.880552 0.495338 0.221469
0.931594 0.507149 0.222965
0.976471 0.520882 0.226947
1 0.535592 0.23212
1 0.550347 0.237842
1 0.563729 0.243183
1 0.576074 0.248341
1 0.587228 0.253285
1 0.596841 0.257115
1 0.604822 0.2607
1 0.611719 0.264103
1 0.617044 0.266377
0.374914 0.511223 0.364462
0.3785 0.509255 0.359274
0.381491 0.507698 0.354513
0.383719 0.506462 0.350713
0.385702 0.50547 0.346838
0.387411 0.504646 0.343359
0.388922 0.503883 0.34052
0.390555 0.503136 0.337026
0.392584 0.50251 0.332647
0.395544 0.502495 0.327276
0.399695 0.503594 0.320058
0.404349 0.506737 0.310521
0.426307 0.505226 0.305852
0.454719 0.504479 0.300771
0.484291 0.50721 0.295109
0.514839 0.514351 0.290272
0.552926 0.525048 0.27602
0.611536 0.527016 0.275013
0.6804 0.527291 0.272663
0.747524 0.529519 0.266941
0.811048 0.53434 0.261799
0.86894 0.541207 0.258579
0.920317 0.550317 0.257527
0.96582 0.561242 0.258717
1 0.573571 0.261891
1 0.586038 0.265858
1 0.597559 0.269368
1 0.608392 0.273335
1 0.617868 0.27689
1 0.626276 0.280186
1 0.633371 0.282994
1 0.639216 0.285359
1 0.644205 0.287358
0.422293 0.562722 0.405371
0.424521 0.561151 0.401221
0.426627 0.559808 0.397208
0.428382 0.558663 0.393744
0.429786 0.557748 0.390494
0.431113 0.556909 0.387472
0.432319 0.556176 0.38471
0.43357 0.555352 0.381826
0.435126 0.554696 0.377966
0.437934 0.55436 0.372839
0.441733 0.554803 0.366491
0.446189 0.556741 0.35816
0.454139 0.559731 0.34844
0.481254 0.557015 0.34493
0.511025 0.557183 0.339284
0.541146 0.560937 0.332876
0.573114 0.568658 0.326314
0.611017 0.579492 0.309819
0.669947 0.581064 0.310567
0.7355 0.581659 0.308888
0.798093 0.584192 0.303487
0.856565 0.588968 0.299138
0.908797 0.595712 0.295933
0.954742 0.604089 0.294652
0.994827 0.614099 0.295659
1 0.624445 0.298009
1 0.634272 0.300038
1 0.643183 0.302312
1 0.651362 0.304799
1 0.658656 0.306981
1 0.664714 0.309087
1 0.669734 0.310674
1 0.673854 0.311894
0.468635 0.612772 0.446754
0.470268 0.611444 0.443381
0.471717 0.6103 0.440101
0.472999 0.609308 0.437095
0.473991 0.608454 0.434516
0.474876 0.607721 0.431846
0.475807 0.60705 0.42948
0.476738 0.60647 0.426902
0.478386 0.60589 0.423667
0.480858 0.605463 0.419211
0.484169 0.605417 0.413458
0.488136 0.606348 0.405798
0.493462 0.609033 0.396384
0.508904 0.609903 0.389197
0.536782 0.607919 0.384985
0.567132 0.609064 0.378164
0.597314 0.613687 0.371206
0.629923 0.621836 0.362448
0.667597 0.632822 0.344671
0.725277 0.633646 0.347387
0.786267 0.634211 0.345403
0.844373 0.637156 0.341222
0.897063 0.641825 0.336996
0.943481 0.648173 0.334173
0.983948 0.655665 0.332723
1 0.664286 0.333303
1 0.67245 0.333989
1 0.679805 0.334646
1 0.686595 0.335836
1 0.692607 0.336889
1 0.697749 0.337942
1 0.70193 0.339071
1 0.705608 0.340093
0.51368 0.660471 0.4878
0.514763 0.659419 0.485176
0.515877 0.658625 0.482643
0.516854 0.657954 0.480278
0.51751 0.657282 0.477852
0.518151 0.65658 0.476005
0.518654 0.65597 0.474006
0.519539 0.655375 0.471595
0.521004 0.654765 0.468452
0.523125 0.654261 0.464698
0.526162 0.654139 0.45951
0.52987 0.65478 0.453208
0.534661 0.656474 0.444862
0.539651 0.659983 0.433936
0.563806 0.658152 0.429862
0.591989 0.657023 0.424765
0.622278 0.659083 0.416739
0.652232 0.664332 0.409461
0.68426 0.672587 0.398505
0.721477 0.683757 0.380163
0.776989 0.683742 0.384344
0.833097 0.684596 0.382803
0.885496 0.687633 0.379278
0.93228 0.69192 0.375387
0.973022 0.69781 0.372564
1 0.704509 0.371466
1 0.711055 0.370504
1 0.717189 0.369924
1 0.722698 0.370169
1 0.727596 0.37023
1 0.731746 0.370352
1 0.735393 0.371008
1 0.738216 0.371221
0.556985 0.705577 0.52842
0.557549 0.704814 0.526009
0.558175 0.704067 0.523857
0.55874 0.703395 0.521843
0.559243 0.702739 0.519966
0.559701 0.702174 0.518486
0.56022 0.701732 0.516777
0.56109 0.701259 0.514656
0.562448 0.70074 0.51194
0.564324 0.700343 0.50837
0.566949 0.70013 0.504112
0.570275 0.700496 0.498375
0.574716 0.701625 0.491249
0.57966 0.70425 0.482078
0.590631 0.706081 0.472984
0.617487 0.703868 0.469612
0.645655 0.703716 0.464027
0.675303 0.706508 0.454429
0.704555 0.712352 0.44654
0.7364 0.720714 0.433951
0.771664 0.731289 0.41619
0.824155 0.7308 0.421302
0.875166 0.731838 0.420035
0.921584 0.734798 0.416663
0.962615 0.738979 0.413458
0.997604 0.743923 0.410819
1 0.749493 0.409064
1 0.754208 0.407446
1 0.758648 0.406455
1 0.762585 0.405539
1 0.765896 0.404959
1 0.768841 0.404822
1 0.771054 0.40444
0.597284 0.747036 0.566781
0.597742 0.746395 0.565011
0.598215 0.745892 0.563424
0.598779 0.745449 0.561898
0.599405 0.745052 0.56054
0.6 0.74464 0.559182
0.600534 0.74432 0.557671
0.601221 0.743999 0.555901
0.602457 0.743618 0.553552
0.60412 0.743297 0.550454
0.606439 0.743099 0.546792
0.609567 0.743252 0.541741
0.613184 0.743954 0.535515
0.617792 0.745556 0.527413
0.622736 0.74905 0.517082
0.642649 0.748226 0.51191
0.668742 0.746563 0.507546
0.696391 0.747463 0.501076
0.72546 0.750759 0.490715
0.753948 0.757 0.482246
0.784482 0.765362 0.468269
0.817929 0.774929 0.452186
0.866773 0.774334 0.456901
0.912032 0.775479 0.456092
0.95259 0.778103 0.453361
0.987991 0.781872 0.450477
1 0.786297 0.448218
1 0.790082 0.44564
1 0.793484 0.443748
1 0.796521 0.442161
1 0.799146 0.440894
1 0.801541 0.44007
1 0.80325 0.439231
0.634882 0.785 0.603235
0.635294 0.784543 0.601801
0.635752 0.784115 0.600656
0.636286 0.783749 0.599344
0.636851 0.783413 0.598016
0.637415 0.783154 0.596689
0.638025 0.78291 0.595392
0.638819 0.78265 0.593851
0.639887 0.782391 0.591836
0.641154 0.782193 0.589487
0.643229 0.782055 0.586099
0.645991 0.782147 0.581735
0.649363 0.782712 0.576455
0.653544 0.784024 0.569635
0.658595 0.786465 0.560784
0.667781 0.788922 0.551644
0.691997 0.786404 0.548501
0.717784 0.78587 0.543786
0.744381 0.787335 0.535988
0.772351 0.791379 0.52462
0.799344 0.797925 0.515511
0.828611 0.806332 0.500572
0.860685 0.814084 0.486931
0.904402 0.813733 0.491234
0.944091 0.815061 0.490654
0.979004 0.817517 0.488579
1 0.820752 0.486
1 0.82388 0.483635
1 0.826368 0.481056
1 0.828687 0.478721
1 0.830686 0.476844
1 0.832563 0.475853
1 0.833906 0.474632
0.669795 0.819089 0.63711
0.670237 0.818799 0.635874
0.670756 0.818524 0.634714
0.67126 0.818311 0.633539
0.671794 0.818097 0.63241
0.672358 0.817914 0.631296
0.672938 0.817746 0.630259
0.673655 0.817548 0.629175
0.674632 0.81738 0.62742
0.675975 0.817227 0.625147
0.677791 0.817136 0.622217
0.679957 0.817273 0.618769
0.683055 0.817685 0.613916
0.686961 0.818601 0.608133
0.69131 0.820493 0.600702
0.696208 0.823743 0.590616
0.714427 0.822553 0.58587
0.738323 0.821118 0.582208
0.762921 0.82121 0.576425
0.78854 0.823529 0.567681
0.815 0.828077 0.556497
0.840864 0.834684 0.545907
0.86833 0.842832 0.530251
0.898939 0.849149 0.520333
0.937301 0.849042 0.523751
0.971298 0.850217 0.523217
1 0.852201 0.521569
1 0.854704 0.51928
1 0.856809 0.516625
1 0.858457 0.514229
1 0.859907 0.512001
1 0.861341 0.510353
1 0.862318 0.508843
0.702007 0.849409 0.667674
0.702495 0.849256 0.666682
0.702998 0.849104 0.66569
0.703502 0.848951 0.664714
0.704021 0.848814 0.663767
0.70454 0.848692 0.662821
0.705089 0.848585 0.661906
0.70573 0.848493 0.660777
0.706508 0.848386 0.659525
0.707576 0.848325 0.657664
0.709178 0.848295 0.655131
0.711254 0.848341 0.651804
0.713817 0.848524 0.647745
0.71693 0.849287 0.64239
0.721172 0.850645 0.636027
0.725505 0.853223 0.627604
0.735637 0.854871 0.619928
0.757717 0.852583 0.616785
0.780926 0.851957 0.612345
0.804593 0.852903 0.605615
0.82919 0.855879 0.596063
0.853788 0.860929 0.584833
0.878233 0.867521 0.572961
0.903517 0.875288 0.557305
0.932204 0.879606 0.550637
0.965393 0.879866 0.553628
0.994293 0.88098 0.553307
1 0.882841 0.552132
1 0.884169 0.549615
1 0.885374 0.547051
1 0.886412 0.544778
1 0.887404 0.543145
1 0.888151 0.541558
0.730541 0.875532 0.694438
0.730999 0.875425 0.693584
0.731472 0.875303 0.69276
0.731945 0.875212 0.691936
0.732433 0.87512 0.691142
0.732906 0.875059 0.690333
0.733364 0.874998 0.689525
0.733913 0.874937 0.688716
0.734554 0.874907 0.687602
0.735592 0.874861 0.685969
0.736996 0.874876 0.683757
0.738888 0.874983 0.680934
0.741253 0.875273 0.677516
0.744076 0.875975 0.672877
0.747738 0.877134 0.667155
0.751949 0.879149 0.659678
0.756161 0.882139 0.650233
0.775982 0.880171 0.647456
0.797513 0.878965 0.643946
0.819669 0.87892 0.638712
0.842313 0.88072 0.630625
0.865568 0.884367 0.619959
0.888487 0.889647 0.60914
0.911406 0.896086 0.596551
0.934157 0.903456 0.580652
0.960876 0.906218 0.578378
0.988983 0.906477 0.58056
1 0.9075 0.580407
1 0.908324 0.578683
1 0.909072 0.57644
1 0.909957 0.574456
1 0.91046 0.572824
1 0.91107 0.571374
0.75555 0.897963 0.717708
0.755978 0.897871 0.717128
0.756405 0.897795 0.716564
0.756817 0.897749 0.715846
0.757229 0.897704 0.715145
0.757656 0.897673 0.714443
0.758083 0.897642 0.713756
0.758618 0.897597 0.712917
0.759335 0.897566 0.711818
