public/textures/grade/Panasonic/Arrakis-VLog.cube
TITLE "Generated by Resolve"
LUT_3D_SIZE 5
0 0.0122377 0.0149538
0.18941 0.00125124 0.0062562
0.70573 0.115694 0.0190738
1 0.378454 0.150759
1 0.525719 0.226123
0.0402533 0.123278 0.0860304
0.143587 0.130617 0.0577401
0.641215 0.172198 0.0370336
1 0.385885 0.140398
1 0.523827 0.212848
0.328099 0.458656 0.32372
0.35079 0.45008 0.288685
0.551492 0.472847 0.241169
1 0.535592 0.23212
1 0.617044 0.266377
0.669795 0.819089 0.63711
0.674632 0.81738 0.62742
0.714427 0.822553 0.58587
0.937301 0.849042 0.523751
1 0.862318 0.508843
0.830747 0.962386 0.787472
0.833219 0.962478 0.783658
0.846769 0.96643 0.762173
0.963439 0.97351 0.716274
1 0.989395 0.674754
0.0287633 0.107164 0.113008
0.14966 0.0917983 0.13257
0.7131 0.108446 0.135058
1 0.365393 0.223667
1 0.522194 0.291188
0.0400702 0.160983 0.148104
0.158801 0.156512 0.124926
0.634226 0.192035 0.128069
1 0.400687 0.213474
1 0.533654 0.275517
0.327733 0.459358 0.355566
0.361929 0.447929 0.323201
0.546304 0.474022 0.280278
1 0.536782 0.27512
1 0.618647 0.310552
0.671244 0.81677 0.646326
0.676677 0.814755 0.63714
0.709941 0.822568 0.593027
0.934615 0.847471 0.535882
1 0.860716 0.521385
0.830762 0.962402 0.787503
0.833234 0.962493 0.783688
0.846784 0.966445 0.762203
0.963439 0.973526 0.716304
1 0.98941 0.674769
0.17673 0.380728 0.412787
0.245106 0.371771 0.388785
0.603296 0.351659 0.495537
1 0.446433 0.570031
1 0.516732 0.566308
0.156146 0.380056 0.405478
0.223941 0.367346 0.379202
0.555337 0.353185 0.446769
1 0.435813 0.502281
1 0.506065 0.497307
0.334615 0.531975 0.50045
0.375463 0.51339 0.472587
0.565255 0.513039 0.431403
0.996612 0.567651 0.44625
1 0.6439 0.471458
0.67451 0.816236 0.712291
0.681834 0.813031 0.703655
0.734264 0.811292 0.666957
0.925322 0.844602 0.6056
1 0.856947 0.58851
0.833707 0.953368 0.822828
0.837003 0.953048 0.819669
0.856565 0.953597 0.80209
0.955139 0.965866 0.755108
1 0.982849 0.716915
0.368048 0.703151 0.767758
0.399405 0.687633 0.745983
0.577066 0.671748 0.731929
0.958251 0.6663 0.855589
1 0.699229 0.905409
0.365942 0.707424 0.769207
0.398596 0.69044 0.745769
0.569574 0.677241 0.719265
0.946593 0.667094 0.841093
1 0.700038 0.888533
0.4009 0.752148 0.798642
0.432502 0.732906 0.773495
0.571023 0.717678 0.734066
0.922103 0.706447 0.807538
1 0.733791 0.837659
0.700313 0.883452 0.858534
0.706569 0.878981 0.85214
0.760174 0.867994 0.829709
0.933867 0.876951 0.797742
1 0.885252 0.789181
0.808499 0.983948 0.930785
0.813672 0.982651 0.928664
0.845762 0.977142 0.917281
0.96846 0.974853 0.879026
1 0.991043 0.848386
0.490593 0.864408 0.930251
0.506874 0.852125 0.915526
0.624781 0.829755 0.875608
0.899046 0.800961 0.949279
1 0.817792 0.984619
0.492164 0.867811 0.932311
0.509514 0.854582 0.916716
0.62388 0.831861 0.877043
0.896635 0.805188 0.944274
1 0.820005 0.980758
0.509331 0.890715 0.947555
0.531289 0.872618 0.92636
0.627802 0.850187 0.890227
0.890349 0.832364 0.924071
1 0.837858 0.96495
0.670481 0.955139 0.975021
0.675944 0.950698 0.969787
0.727901 0.938033 0.949828
0.911376 0.935622 0.91429
1 0.927474 0.943374
0.861921 1 0.990539
0.865553 1 0.988617
0.888609 1 0.979385
0.981414 0.999619 0.955749
1 1 0.94316
