public/textures/grade/Panasonic/Bat-VLog.cube
TITLE "Generated by Resolve"
LUT_3D_SIZE 5
0.024094 0.0297398 0.0202182
0.104585 0.0302434 0
0.490715 0.138476 0
1 0.408057 0
1 0.536736 0
0.0527047 0.0676127 0.0225528
0.138628 0.0710002 0
0.461234 0.159365 0
0.974868 0.385397 0
1 0.495247 0
0.279377 0.303166 0.159945
0.312078 0.313695 0.151141
0.452064 0.312795 0
0.798779 0.37229 0
0.97023 0.444648 0
0.615488 0.636484 0.430228
0.626307 0.640253 0.428977
0.68632 0.654459 0.409369
0.907347 0.678691 0.271931
1 0.692195 0.0129549
0.831739 0.831571 0.562921
0.838544 0.83331 0.560845
0.876417 0.841138 0.545342
1 0.862135 0.461845
1 0.872862 0.365957
0.0318608 0.0520943 0.0746014
0.071809 0.0589303 0.0913863
0.481743 0.146288 0
1 0.419532 0
1 0.543633 0
0 0.093843 0.121309
0.0888533 0.100786 0.0990921
0.440955 0.186191 0.0214084
0.951034 0.397696 0
1 0.500603 0
0.266773 0.31043 0.220462
0.303975 0.323079 0.211597
0.443046 0.330617 0.119936
0.794888 0.390036 0
0.966674 0.459205 0
0.619532 0.642725 0.443214
0.631083 0.647181 0.44036
0.691997 0.661768 0.421393
0.913252 0.686687 0.291218
1 0.700389 0.0557412
0.831754 0.831601 0.562951
0.838544 0.833326 0.560876
0.876432 0.841169 0.545373
1 0.862165 0.46186
1 0.872877 0.365988
0.0959945 0.224552 0.35172
0.139696 0.230777 0.351873
0.363409 0.300618 0.431098
0.990387 0.41883 0.237217
1 0.532219 0.0973983
0.0745861 0.221927 0.335393
0.130129 0.231373 0.336233
0.345022 0.296605 0.402991
0.893782 0.405646 0.259937
1 0.497169 0.189319
0.0567636 0.360174 0.416022
0.163424 0.373098 0.419959
0.369146 0.384726 0.389105
0.7299 0.45771 0.345159
0.908904 0.520424 0.334096
0.588052 0.667292 0.576883
0.602914 0.671763 0.578866
0.671138 0.692653 0.559396
0.883238 0.727398 0.508324
1 0.746105 0.424826
0.822751 0.861601 0.683787
0.829877 0.864073 0.680156
0.867735 0.874189 0.664027
1 0.896437 0.614221
1 0.908858 0.565377
0.227497 0.454429 0.677302
0.250095 0.455207 0.671794
0.375586 0.473075 0.667704
0.688258 0.575921 0.755001
0.901305 0.623407 0.727535
0.21323 0.441703 0.652567
0.239567 0.443931 0.647349
0.366751 0.458152 0.63267
0.661707 0.557946 0.722759
0.864622 0.607309 0.703853
0.198917 0.469551 0.648234
0.242329 0.476066 0.640406
0.387976 0.494514 0.620523
0.648753 0.580926 0.695613
0.836439 0.631403 0.692851
0.418158 0.745571 0.822782
0.440482 0.75079 0.825635
0.541772 0.766613 0.827344
0.789258 0.802319 0.810315
0.948287 0.832303 0.804364
0.678294 0.928115 0.925261
0.687343 0.929335 0.925109
0.744549 0.934356 0.922164
0.925582 0.949157 0.899077
1 0.968215 0.881636
0.258656 0.520974 0.755108
0.274205 0.522988 0.750713
0.390082 0.530007 0.72369
0.626886 0.602487 0.831556
0.792111 0.670756 0.839124
0.25478 0.51957 0.747768
0.272618 0.522667 0.743694
0.392966 0.533593 0.72076
0.628214 0.606714 0.825986
0.792035 0.674983 0.837903
0.251682 0.54493 0.753491
0.284733 0.555322 0.752697
0.424369 0.577249 0.738903
0.65362 0.648844 0.821637
0.809873 0.713878 0.851591
0.397177 0.788815 0.948806
0.422477 0.794156 0.950927
0.538201 0.807935 0.944183
0.792859 0.840909 0.905135
0.91429 0.881758 0.946929
0.619516 0.965286 1
0.630594 0.966827 1
0.688869 0.972747 1
0.86949 0.989654 1
0.995193 1 1
