public/textures/grade/Panasonic/Bat-VLog.cube
TITLE "Generated by Resolve"
LUT_3D_SIZE 33
0.024094 0.0297398 0.0202182
0.0272221 0.0296788 0.0186923
0.0316625 0.0302892 0.0182193
0.0394141 0.0301366 0.0166476
0.0488594 0.0301823 0.0141146
0.0600748 0.0302129 0.0110018
0.0717479 0.0301976 0.00770581
0.0858015 0.0301671 0.0037232
0.104585 0.0302434 0
0.131029 0.0312047 0
0.163653 0.033753 0
0.203296 0.0379034 0
0.249409 0.0455329 0
0.301885 0.0583658 0
0.360052 0.0778058 0
0.423331 0.105013 0
0.490715 0.138476 0
0.561837 0.17348 0
0.635111 0.207111 0
0.708782 0.242527 0
0.782559 0.277989 0
0.854902 0.312718 0
0.925185 0.346365 0
0.992279 0.37847 0
1 0.408057 0
1 0.435019 0
1 0.458747 0
1 0.47924 0
1 0.496361 0
1 0.510292 0
1 0.521385 0
1 0.530083 0
1 0.536736 0
0.0234531 0.0309453 0.0214542
0.0266728 0.0306096 0.0198825
0.0318456 0.0306706 0.0181888
0.0391394 0.0307012 0.016556
0.0488289 0.0309606 0.0142061
0.060029 0.0311131 0.0112459
0.0718547 0.0311742 0.00802625
0.0860609 0.0313573 0.00425727
0.104906 0.0315709 0
0.131579 0.0323949 0
0.164492 0.0343328 0
0.204074 0.0385595 0
0.250004 0.0466468 0
0.302342 0.0598154 0
0.360372 0.0792859 0
0.423575 0.106645 0
0.490944 0.140017 0
0.561959 0.174838 0
0.635035 0.20798 0
0.708568 0.24332 0
0.782132 0.278584 0
0.854276 0.313161 0
0.924376 0.346685 0
0.991241 0.378668 0
1 0.408148 0
1 0.434958 0
1 0.458579 0
1 0.478996 0
1 0.49601 0
1 0.50988 0
1 0.520897 0
1 0.529549 0
1 0.536156 0
0.0242924 0.0339818 0.0217136
0.0276646 0.0335699 0.0203708
0.0333562 0.0330816 0.0180667
0.04094 0.0327001 0.0150912
0.0500496 0.0328679 0.0129854
0.0608072 0.0336767 0.0111543
0.0729229 0.0339513 0.0081178
0.0873426 0.0341344 0.00433356
0.106462 0.0343633 0
0.133013 0.0353552 0
0.165805 0.0379187 0
0.205325 0.0429694 0
0.251133 0.0514992 0
0.303258 0.0650187 0
0.361196 0.0851453 0
0.424216 0.113298 0
0.491249 0.145434 0
0.562127 0.178408 0
0.634333 0.210971 0
0.707332 0.245808 0
0.780224 0.280583 0
0.851667 0.314702 0
0.920989 0.347784 0
0.986999 0.379232 0
1 0.408225 0
1 0.434592 0
1 0.457801 0
1 0.477821 0
1 0.494514 0
1 0.50808 0
1 0.518868 0
1 0.527337 0
1 0.533791 0
0.0281376 0.0373846 0.0217136
0.0317235 0.0372168 0.0205234
0.03682 0.0373083 0.0184329
0.0432288 0.0373693 0.0147555
0.054139 0.0362249 0.0105745
0.0644541 0.0361639 0.00840772
0.0758373 0.0364843 0.00585946
0.0897841 0.0369116 0.00256352
0.108644 0.0374304 0
0.134157 0.0387884 0
0.166186 0.0415351 0
0.205112 0.0468147 0
0.250706 0.0558633 0
0.302602 0.0698558 0
0.360113 0.0901045 0
0.42269 0.11812 0
0.489372 0.149538 0
0.560357 0.179782 0
0.631662 0.212421 0
0.70399 0.246845 0
0.77612 0.281193 0
0.846677 0.314763 0
0.915099 0.347311 0
0.980133 0.378302 0
1 0.406806 0
1 0.43267 0
1 0.455421 0
1 0.475044 0
1 0.491402 0
1 0.504662 0
1 0.515206 0
1 0.523461 0
1 0.529778 0
0.0319677 0.0423743 0.0218509
0.0360266 0.041825 0.0209659
0.0407721 0.042359 0.0183108
0.0467536 0.0428931 0.0151827
0.0577401 0.0425727 0.00921645
0.071458 0.0409094 0.00387579
0.0821393 0.0404669 0.00183108
0.0952773 0.040589 0
0.112856 0.04094 0
0.136278 0.042237 0
0.166812 0.0452125 0
0.204471 0.05066 0
0.249165 0.0597086 0
0.300389 0.0738231 0
0.357473 0.0943313 0
0.41944 0.121981 0
0.485588 0.152575 0
0.556435 0.180972 0
0.627283 0.212802 0
0.698726 0.246662 0
0.769909 0.280446 0
0.839521 0.313512 0
0.906905 0.345541 0
0.970901 0.375952 0
1 0.403952 0
1 0.429358 0
1 0.451682 0
1 0.470878 0
1 0.486839 0
1 0.499809 0
1 0.510094 0
1 0.518151 0
1 0.5243 0
0.0368811 0.0477913 0.0229648
0.0406653 0.0472419 0.020798
0.0455482 0.0483558 0.0184024
0.0514687 0.0491188 0.0154269
0.0610819 0.0492714 0.0100862
0.0748455 0.0484321 0.00276188
0.0898451 0.0463569 0
0.103059 0.045716 0
0.119646 0.0457008 0
0.140368 0.0464485 0
0.168444 0.0490425 0
0.204166 0.0543984 0
0.247669 0.0635843 0
0.29781 0.0776074 0
0.353948 0.0978408 0
0.415213 0.125032 0
0.480781 0.154986 0
0.55111 0.181979 0
0.621759 0.212177 0
0.692302 0.245563 0
0.762493 0.278859 0
0.831067 0.311406 0
0.897398 0.342947 0
0.960281 0.372854 0
1 0.40032 0
1 0.425208 0
1 0.447059 0
1 0.465858 0
1 0.481468 0
1 0.494148 0
1 0.504189 0
1 0.512047 0
1 0.518044 0
0.0412146 0.0528267 0.0230411
0.0450904 0.0526741 0.0203403
0.0501259 0.0541543 0.0182956
0.0563211 0.0552682 0.0155337
0.0655222 0.055848 0.0108797
0.0779736 0.0557565 0.00416571
0.092607 0.0543832 0
0.110994 0.0518654 0
0.126558 0.0509499 0
0.145434 0.0510872 0
0.171237 0.053254 0
0.20473 0.0581826 0
0.246418 0.0669261 0
0.295293 0.0807813 0
0.35053 0.100969 0
0.410849 0.127413 0
0.475624 0.156512 0
0.545434 0.182788 0
0.616083 0.211231 0
0.685679 0.244099 0
0.754925 0.276905 0
0.822553 0.309026 0
0.887846 0.340063 0
0.949706 0.369451 0
1 0.39646 0
1 0.42092 0
1 0.442374 0
1 0.460792 0
1 0.476081 0
1 0.488487 0
1 0.498299 0
1 0.505989 0
1 0.511849 0
0.0463264 0.0592966 0.0229496
0.0506905 0.0595407 0.0199435
0.0558785 0.0613718 0.0183566
0.0622263 0.0626688 0.0155642
0.0710918 0.0634165 0.0113069
0.0825513 0.0637675 0.00531014
0.0958877 0.0632792 0
0.114229 0.0617075 0
0.134661 0.0585946 0
0.152087 0.0575265 0
0.175341 0.0585641 0
0.206195 0.0627298 0
0.24564 0.071046 0
0.292607 0.0843977 0
0.346288 0.103944 0
0.405447 0.129595 0
0.469306 0.157992 0
0.538155 0.183581 0
0.608942 0.209567 0
0.677531 0.242008 0
0.745602 0.27422 0
0.8121 0.305776 0
0.876234 0.336263 0
0.936904 0.365148 0
0.992462 0.391623 0
1 0.415564 0
1 0.436576 0
1 0.454597 0
1 0.469535 0
1 0.481651 0
1 0.491234 0
1 0.498741 0
1 0.504463 0
0.0527047 0.0676127 0.0225528
0.0577096 0.0683299 0.0195163
0.063035 0.0704051 0.0182498
0.0699779 0.0722667 0.0157015
0.0787976 0.0733349 0.0120699
0.0894484 0.0738689 0.00653086
0.101656 0.073991 0
0.117906 0.0732128 0
0.138628 0.0710002 0
0.160433 0.067277 0
0.181598 0.0667582 0
0.2094 0.0694438 0
0.245624 0.0764935 0
0.289952 0.0890059 0
0.341558 0.107897 0
0.398856 0.132158 0
0.461234 0.159365 0
0.52871 0.184482 0
0.598383 0.209506 0
0.666957 0.239002 0
0.733654 0.270619 0
0.798749 0.301564 0
0.861433 0.33135 0
0.920668 0.359533 0
0.974868 0.385397 0
1 0.408759 0
1 0.429191 0
1 0.446738 0
1 0.461295 0
1 0.473075 0
1 0.482399 0
1 0.489693 0
1 0.495247 0
0.0616465 0.079057 0.0229496
0.0672007 0.0801251 0.0198672
0.0729534 0.0826429 0.019028
0.0802167 0.0848096 0.0163272
0.0891737 0.0861219 0.0131075
0.0994583 0.0871595 0.00857557
0.110903 0.0874952 0.00260929
0.124804 0.0873579 0
0.142748 0.0862593 0
0.165118 0.0829023 0
0.189258 0.0786145 0
0.21442 0.079118 0
0.247242 0.0844282 0
0.287999 0.0952773 0
0.336538 0.112963 0
0.391546 0.135409 0
0.451835 0.16112 0
0.517449 0.185595 0
0.585702 0.209567 0
0.654169 0.23566 0
0.719097 0.266255 0
0.782483 0.296361 0
0.843473 0.325368 0
0.900984 0.352773 0
0.953582 0.377874 0
1 0.400549 0
1 0.420417 0
1 0.437415 0
1 0.451499 0
1 0.462928 0
1 0.471946 0
1 0.479011 0
1 0.484398 0
0.075227 0.0960098 0.0252232
0.0818799 0.0979171 0.0225681
0.088365 0.101106 0.0222171
0.0961929 0.103746 0.019379
0.105272 0.105257 0.016556
0.115297 0.106508 0.0126192
0.124849 0.107103 0.00750744
0.136629 0.107454 0.000411994
0.151659 0.107088 0
0.170459 0.105303 0
0.194385 0.100862 0
0.222477 0.0956588 0
0.251331 0.0972 0
0.287877 0.105013 0
0.332174 0.119722 0
0.383902 0.139605 0
0.441489 0.163607 0
0.50457 0.187076 0
0.570825 0.20972 0
0.638331 0.233265 0
0.701961 0.261494 0
0.763333 0.290517 0
0.822309 0.318547 0
0.877867 0.345037 0
0.928679 0.369299 0
0.974365 0.391196 0
1 0.410376 0
1 0.426795 0
1 0.440391 0
1 0.451438 0
1 0.460136 0
1 0.466972 0
1 0.47219 0
0.0957046 0.120378 0.0308232
0.1037 0.123156 0.0288853
0.111147 0.126528 0.0288701
0.119478 0.12958 0.0264439
0.127916 0.131228 0.0238804
0.13611 0.132219 0.0202029
0.144167 0.133104 0.0161135
0.15375 0.133455 0.00973526
0.166217 0.133745 0.000946059
0.18172 0.133074 0
0.200839 0.130922 0
0.22858 0.125917 0
0.26009 0.120516 0
0.292073 0.123201 0
0.331258 0.132601 0
0.378164 0.148119 0
0.431571 0.168597 0
0.491417 0.189624 0
0.554971 0.210437 0
0.619928 0.232334 0
0.682841 0.25684 0
0.74197 0.284688 0
0.798688 0.311528 0
0.852094 0.336934 0
0.900923 0.360265 0
0.944808 0.381308 0
0.983047 0.399695 0
1 0.415549 0
1 0.428641 0
1 0.439307 0
1 0.447715 0
1 0.454322 0
1 0.459342 0
0.125765 0.149737 0.0407416
0.132937 0.152895 0.0405585
0.140017 0.156466 0.041062
0.147509 0.159289 0.0387274
0.15491 0.161074 0.0362554
0.162036 0.16228 0.0335088
0.168566 0.162936 0.0297398
0.176516 0.163638 0.0247196
0.186481 0.163897 0.0168765
0.199084 0.16376 0.00582895
0.214725 0.162997 0
0.235447 0.160723 0
0.267018 0.155673 0
0.301656 0.150607 0
0.335943 0.154055 0
0.377066 0.164065 0
0.424979 0.179812 0
0.481193 0.196033 0
0.541054 0.214267 0
0.602625 0.233829 0
0.663615 0.254566 0
0.719951 0.280446 0
0.77406 0.305638 0
0.825055 0.329641 0
0.871794 0.351827 0
0.913832 0.371893 0
0.950484 0.389471 0
0.981857 0.404608 0
1 0.417273 0
1 0.427497 0
1 0.435676 0
1 0.442039 0
1 0.446952 0
0.159976 0.183215 0.0575723
0.166369 0.186999 0.0599374
0.172869 0.190219 0.0602121
0.179767 0.19295 0.0581064
0.186404 0.194995 0.0560464
0.192187 0.195987 0.053666
0.197848 0.196841 0.0508583
0.204166 0.19736 0.0464332
0.212436 0.19791 0.0400854
0.222461 0.198062 0.030869
0.234867 0.19765 0.0178988
0.250294 0.196551 0.000656138
0.274144 0.194446 0
0.309346 0.189487 0
0.346502 0.184863 0
0.382422 0.188769 0
0.427405 0.196765 0
0.477897 0.208682 0
0.532723 0.223453 0
0.589593 0.239948 0
0.646983 0.257725 0
0.700145 0.280964 0
0.751369 0.30396 0
0.799771 0.326101 0
0.844343 0.346807 0
0.884504 0.365682 0
0.919631 0.382376 0
0.949844 0.396841 0
0.974884 0.408881 0
0.995117 0.418799 0
1 0.426627 0
1 0.432898 0
1 0.437675 0
0.197238 0.220584 0.0847791
0.203204 0.224384 0.0880751
0.209308 0.227436 0.088426
0.215549 0.229969 0.0864424
0.221286 0.231907 0.0842145
0.226139 0.232883 0.0825513
0.230884 0.233692 0.080354
0.236072 0.234226 0.0767834
0.242802 0.234867 0.0717937
0.250889 0.235096 0.0640116
0.260716 0.23505 0.0534218
0.272541 0.23447 0.0391394
0.290211 0.233524 0.0172122
0.316869 0.231876 0
0.354559 0.227451 0
0.399664 0.220996 0
0.439551 0.22269 0
0.483833 0.229404 0
0.532677 0.23978 0
0.584405 0.252705 0
0.63563 0.269093 0
0.685252 0.288792 0
0.733303 0.308843 0
0.779049 0.328603 0
0.82153 0.347677 0
0.859907 0.365103 0
0.893645 0.380652 0
0.922683 0.394171 0
0.946929 0.4056 0
0.966674 0.415122 0
0.982345 0.422736 0
0.994675 0.428717 0
1 0.433433 0
0.237156 0.260853 0.121508
0.242939 0.264363 0.124102
0.248646 0.267216 0.124407
0.254002 0.269444 0.122972
0.258915 0.271199 0.120943
0.262974 0.272068 0.119875
0.266819 0.27277 0.118318
0.270985 0.273167 0.115541
0.276417 0.273747 0.111955
0.282872 0.273991 0.10605
0.2907 0.274037 0.0977035
0.300008 0.273823 0.086183
0.313237 0.273579 0.06981
0.333593 0.273228 0.0444648
0.362646 0.272343 0.00946059
0.402121 0.26894 0
0.449119 0.263828 0
0.494255 0.263157 0
0.539483 0.26772 0
0.585275 0.277043 0
0.631373 0.289998 0
0.677562 0.305455 0
0.722637 0.322164 0
0.765667 0.339208 0
0.805936 0.355871 0
0.842588 0.371572 0
0.874998 0.385794 0
0.903014 0.398322 0
0.926665 0.409171 0
0.945876 0.418021 0
0.961318 0.425345 0
0.973419 0.431022 0
0.982788 0.435584 0
0.279377 0.303166 0.159945
0.284306 0.305867 0.160845
0.289326 0.308232 0.160418
0.293553 0.309834 0.158709
0.297429 0.311192 0.156603
0.300832 0.31194 0.155627
0.304051 0.312627 0.154833
0.307546 0.313024 0.153124
0.312078 0.313695 0.151141
0.317418 0.314076 0.147707
0.323842 0.314305 0.142763
0.331395 0.314458 0.136309
0.341878 0.314565 0.126131
0.357702 0.314824 0.108843
0.380697 0.315145 0.0803235
0.411719 0.315053 0.0430152
0.452064 0.312795 0
0.500191 0.309117 0
0.545937 0.308934 0
0.590387 0.312886 0
0.634119 0.320699 0
0.677531 0.331548 0
0.719936 0.344381 0
0.760525 0.358206 0
0.798779 0.37229 0
0.833799 0.385916 0
0.864942 0.398566 0
0.892042 0.409918 0
0.915053 0.419883 0
0.933822 0.428061 0
0.94902 0.434958 0
0.961044 0.440452 0
0.97023 0.444648 0
0.321416 0.345098 0.195743
0.326146 0.347601 0.19617
0.330129 0.349355 0.195407
0.333867 0.350896 0.1944
0.337011 0.351919 0.192584
0.339986 0.352819 0.192004
0.342519 0.353231 0.191318
0.345632 0.353918 0.190707
0.349477 0.354574 0.189532
0.353918 0.355047 0.187533
0.359243 0.355459 0.184619
0.365454 0.355764 0.180713
0.374319 0.356313 0.174609
0.387366 0.356909 0.164004
0.406027 0.357885 0.147509
0.431403 0.358938 0.122362
0.463798 0.359548 0.0853285
0.505135 0.358511 0.0352026
0.553399 0.355932 0
0.598688 0.356252 0
0.642176 0.359731 0
0.684245 0.366278 0
0.724865 0.375219 0
0.763638 0.385672 0
0.800214 0.396918 0
0.833783 0.40827 0
0.863798 0.419104 0
0.890181 0.429267 0
0.912474 0.43798 0
0.9308 0.445365 0
0.945769 0.451713 0
0.957687 0.45687 0
0.96672 0.4607 0
0.364584 0.387762 0.231876
0.368261 0.389471 0.231556
0.371664 0.391073 0.231144
0.374563 0.392157 0.230045
0.377371 0.393256 0.228992
0.379705 0.393866 0.228153
0.381994 0.394537 0.228107
0.384649 0.395178 0.227848
0.387701 0.395697 0.22707
0.391669 0.396429 0.226123
0.39617 0.396979 0.224414
0.401495 0.397513 0.222004
0.409339 0.398306 0.217899
0.420737 0.399359 0.210895
0.436652 0.400671 0.199802
0.458015 0.402335 0.183581
0.485481 0.404059 0.160769
0.519097 0.405463 0.131014
0.560647 0.405035 0.0808118
0.608423 0.403662 0.00582895
0.653223 0.404349 0
0.695521 0.407553 0
0.735637 0.413092 0
0.773495 0.420386 0
0.809003 0.42884 0
0.841566 0.437827 0
0.870726 0.446799 0
0.896406 0.455421 0
0.918166 0.462959 0
0.936248 0.469612 0
0.950866 0.475166 0
0.962646 0.47985 0
0.971618 0.483391 0
0.407675 0.430289 0.267414
0.410712 0.431754 0.26714
0.413321 0.432868 0.266529
0.415854 0.433951 0.265873
0.417975 0.434699 0.264866
0.420142 0.435523 0.264454
0.42208 0.436103 0.264454
0.424247 0.436698 0.264393
0.426917 0.437308 0.264057
0.43032 0.438132 0.263706
0.43415 0.438804 0.26273
0.439109 0.439521 0.261036
0.446296 0.440482 0.257939
0.456733 0.441993 0.253086
0.470726 0.443626 0.245106
0.48925 0.445655 0.233524
0.512932 0.447944 0.21735
0.542123 0.450263 0.196094
0.576379 0.452232 0.170626
0.618036 0.452399 0.127855
0.665049 0.451804 0.0499428
0.708812 0.452857 0
0.749599 0.455802 0
0.787549 0.460472 0
0.822766 0.466407 0
0.854871 0.473167 0
0.883818 0.480522 0
0.908751 0.487373 0
0.930144 0.493675 0
0.94815 0.499535 0
0.962432 0.504234 0
0.97409 0.508385 0
0.983185 0.511742 0
0.450431 0.472587 0.302327
0.452888 0.473793 0.302068
0.455146 0.47483 0.301686
0.457008 0.475593 0.301015
0.458946 0.476432 0.30045
0.460777 0.477195 0.300114
0.462318 0.477668 0.30013
0.464118 0.478172 0.300069
0.466529 0.478965 0.300191
0.46923 0.479591 0.299809
0.472953 0.480598 0.299489
0.477913 0.481575 0.298177
0.484794 0.482734 0.295705
0.494499 0.48452 0.292027
0.507179 0.486397 0.285908
0.523735 0.488655 0.276967
0.544656 0.491264 0.264591
0.570413 0.494087 0.248249
0.600946 0.49688 0.228046
0.635523 0.499321 0.205463
0.677073 0.499855 0.16585
0.722835 0.499931 0.0968338
0.764965 0.501152 0.0257572
0.8038 0.503868 0
0.839475 0.507774 0
0.871977 0.512932 0
0.900587 0.518273 0
0.925399 0.52369 0
0.946609 0.528832 0
0.964553 0.533745 0
0.978729 0.537743 0
0.990341 0.541344 0
0.999374 0.544289 0
0.492958 0.514824 0.336675
0.494713 0.515587 0.336202
0.496529 0.516487 0.335912
0.498238 0.517311 0.335592
0.499855 0.518059 0.335195
0.501167 0.518517 0.334707
0.502571 0.519081 0.334905
0.504189 0.519692 0.335058
0.506218 0.520394 0.335134
0.508858 0.521111 0.33489
0.512688 0.522255 0.334554
0.517601 0.523323 0.333333
0.524254 0.524697 0.331319
0.53341 0.526665 0.328374
0.545083 0.528725 0.323445
0.560113 0.531151 0.316258
0.578943 0.533974 0.306355
0.602029 0.537041 0.293126
0.62948 0.540246 0.276493
0.660838 0.543343 0.257069
0.695369 0.546029 0.236378
0.736919 0.547066 0.198199
0.780819 0.547539 0.138659
0.820996 0.548989 0.0699016
0.857603 0.551431 0.00865187
0.890303 0.554772 0
0.919356 0.558663 0
0.94435 0.562829 0
0.965927 0.567193 0
0.983642 0.570947 0
0.998184 0.574563 0
1 0.57734 0
1 0.579889 0
0.534554 0.556344 0.369787
0.53611 0.557153 0.369574
0.537591 0.557916 0.369345
0.538903 0.558526 0.369009
0.540093 0.559045 0.368597
0.541451 0.559655 0.368399
0.542763 0.560174 0.368536
0.544366 0.5608 0.368612
0.546258 0.561303 0.368338
0.549157 0.562264 0.368231
0.552941 0.563424 0.367803
0.557763 0.564599 0.36669
0.564126 0.566049 0.364904
0.572793 0.568078 0.362356
0.583642 0.570245 0.358221
0.597467 0.572778 0.352224
0.614633 0.575662 0.343938
0.635569 0.578866 0.332891
0.66038 0.5823 0.318944
0.688975 0.585763 0.302144
0.720775 0.588998 0.283223
0.754818 0.591852 0.264103
0.79585 0.592935 0.225834
0.837446 0.593683 0.172686
0.875135 0.595163 0.114656
0.908782 0.597375 0.05243
0.938598 0.600168 0.00135805
0.964279 0.60354 0
0.985763 0.606699 0
1 0.609918 0
1 0.612696 0
1 0.615305 0
1 0.617197 0
0.575265 0.597101 0.401587
0.576669 0.597803 0.401266
0.577874 0.598306 0.400717
0.579202 0.598917 0.400275
0.58056 0.599466 0.400092
0.581872 0.599985 0.400137
0.583185 0.600488 0.400153
0.584772 0.601083 0.400137
0.586648 0.601556 0.399817
0.589471 0.602472 0.399542
0.593179 0.603647 0.3991
0.597772 0.604807 0.397986
0.604074 0.606531 0.396597
0.611994 0.608331 0.394141
0.62208 0.610498 0.390463
0.634852 0.613016 0.385275
0.650843 0.616098 0.378241
0.670054 0.619425 0.368887
0.692821 0.622965 0.356832
0.719097 0.626551 0.342
0.748455 0.63006 0.324941
0.780102 0.633204 0.306432
0.813458 0.636255 0.288792
0.85333 0.637293 0.250233
0.892073 0.638193 0.202564
0.92668 0.639612 0.153689
0.957031 0.641535 0.102052
0.98291 0.643839 0.0523995
1 0.646586 0.0140536
1 0.648936 0
1 0.651423 0
1 0.653315 0
1 0.655192 0
0.615488 0.636484 0.430228
0.616861 0.63711 0.429816
0.617914 0.637369 0.429618
0.619196 0.637858 0.429603
0.620478 0.638361 0.429603
0.621744 0.638834 0.429557
0.623011 0.639277 0.42948
0.624567 0.639811 0.429389
0.626307 0.640253 0.428977
0.629007 0.641138 0.428641
0.632547 0.642252 0.428153
0.636866 0.643366 0.42707
0.642847 0.645029 0.425696
0.650202 0.646769 0.423423
0.659892 0.649149 0.42034
0.671702 0.651637 0.415747
0.68632 0.654459 0.409369
0.703975 0.657664 0.401038
0.724956 0.661112 0.390265
0.749157 0.664744 0.377127
0.776486 0.66836 0.361578
0.806226 0.671824 0.344442
0.837522 0.674998 0.326879
0.869322 0.67776 0.310521
0.907347 0.678691 0.271931
0.94284 0.679728 0.229618
0.973968 0.681315 0.189075
1 0.682979 0.149691
1 0.68484 0.11191
1 0.686992 0.0761425
1 0.688762 0.0485695
1 0.690593 0.0281071
1 0.692195 0.0129549
0.654307 0.673487 0.456901
0.655543 0.673961 0.45687
0.656779 0.674403 0.456779
0.657877 0.674739 0.456641
0.65893 0.674998 0.456397
0.660136 0.675425 0.456336
0.661311 0.675822 0.456168
0.662745 0.676326 0.456016
0.664668 0.676966 0.455772
0.667216 0.677775 0.455421
0.670222 0.678523 0.454582
0.674571 0.67982 0.453727
0.679866 0.681132 0.452186
0.687007 0.68304 0.450263
0.695705 0.685039 0.447181
0.707012 0.687678 0.443168
0.720531 0.690394 0.4374
0.736919 0.693446 0.429847
0.756344 0.696788 0.420172
0.778897 0.700298 0.408179
0.804288 0.703899 0.394141
0.83209 0.707424 0.378332
0.861723 0.710704 0.36141
0.891905 0.71371 0.344991
0.921736 0.716304 0.330327
0.957702 0.717067 0.291463
0.98941 0.718303 0.254932
1 0.719554 0.220935
1 0.721004 0.190402
1 0.722744 0.163394
1 0.724178 0.139956
1 0.725719 0.120256
1 0.727108 0.104387
0.690669 0.707362 0.48098
0.691829 0.707759 0.480888
0.692958 0.708186 0.480781
0.694087 0.708568 0.480613
0.695201 0.708965 0.480522
0.696315 0.709316 0.480339
0.697414 0.709697 0.480217
0.698772 0.710124 0.480003
0.700359 0.710536 0.479576
0.702586 0.711162 0.479042
0.705684 0.712077 0.478431
0.709697 0.713252 0.477485
0.714611 0.714412 0.475959
0.721248 0.716197 0.474098
0.729366 0.717998 0.471153
0.739818 0.720378 0.467353
0.752453 0.723003 0.462119
0.767727 0.725856 0.455116
0.785824 0.72903 0.446265
0.806928 0.732403 0.435264
0.830793 0.735897 0.422217
0.856977 0.739391 0.407492
0.884886 0.742733 0.391592
0.913725 0.7458 0.375387
0.942489 0.748653 0.360327
0.971542 0.750957 0.343099
1 0.75172 0.308553
1 0.752651 0.277012
1 0.754086 0.249668
1 0.755261 0.225574
1 0.756756 0.206226
1 0.757778 0.189548
1 0.758999 0.177234
0.72398 0.737881 0.502068
0.725032 0.738201 0.501884
0.726101 0.738567 0.501778
0.727153 0.738872 0.501579
0.728176 0.739208 0.501396
0.729183 0.739544 0.501213
0.730205 0.739849 0.500999
0.73135 0.740169 0.50074
0.732769 0.740444 0.500237
