public/textures/grade/Panasonic/Bat-VLog.cube
TITLE "Generated by Resolve"
LUT_3D_SIZE 9
0.024094 0.0297398 0.0202182
0.0488594 0.0301823 0.0141146
0.104585 0.0302434 0
0.249409 0.0455329 0
0.490715 0.138476 0
0.782559 0.277989 0
1 0.408057 0
1 0.496361 0
1 0.536736 0
0.0319677 0.0423743 0.0218509
0.0577401 0.0425727 0.00921645
0.112856 0.04094 0
0.249165 0.0597086 0
0.485588 0.152575 0
0.769909 0.280446 0
1 0.403952 0
1 0.486839 0
1 0.5243 0
0.0527047 0.0676127 0.0225528
0.0787976 0.0733349 0.0120699
0.138628 0.0710002 0
0.245624 0.0764935 0
0.461234 0.159365 0
0.733654 0.270619 0
0.974868 0.385397 0
1 0.461295 0
1 0.495247 0
0.125765 0.149737 0.0407416
0.15491 0.161074 0.0362554
0.186481 0.163897 0.0168765
0.267018 0.155673 0
0.424979 0.179812 0
0.663615 0.254566 0
0.871794 0.351827 0
1 0.417273 0
1 0.446952 0
0.279377 0.303166 0.159945
0.297429 0.311192 0.156603
0.312078 0.313695 0.151141
0.341878 0.314565 0.126131
0.452064 0.312795 0
0.634119 0.320699 0
0.798779 0.37229 0
0.915053 0.419883 0
0.97023 0.444648 0
0.450431 0.472587 0.302327
0.458946 0.476432 0.30045
0.466529 0.478965 0.300191
0.484794 0.482734 0.295705
0.544656 0.491264 0.264591
0.677073 0.499855 0.16585
0.839475 0.507774 0
0.946609 0.528832 0
0.999374 0.544289 0
0.615488 0.636484 0.430228
0.620478 0.638361 0.429603
0.626307 0.640253 0.428977
0.642847 0.645029 0.425696
0.68632 0.654459 0.409369
0.776486 0.66836 0.361578
0.907347 0.678691 0.271931
1 0.68484 0.11191
1 0.692195 0.0129549
0.753429 0.764233 0.519844
0.757153 0.76527 0.518959
0.76173 0.766613 0.517937
0.774151 0.769741 0.51426
0.80734 0.776989 0.501472
0.877455 0.788891 0.466453
0.979492 0.801343 0.408713
1 0.808042 0.334874
1 0.811612 0.271748
0.831739 0.831571 0.562921
0.834836 0.832395 0.562005
0.838544 0.83331 0.560845
0.848585 0.835569 0.557153
0.876417 0.841138 0.545342
0.937209 0.851209 0.514427
1 0.862135 0.461845
1 0.87013 0.418402
1 0.872862 0.365957
0.0284581 0.0371557 0.037232
0.0397955 0.0382544 0.0403754
0.0961929 0.0387579 0.0317082
0.24831 0.0493324 0
0.48687 0.147341 0
0.774929 0.286122 0
1 0.412711 0
1 0.499367 0
1 0.539055 0
0.0142061 0.0498207 0.0541238
0.0442359 0.0510414 0.0443427
0.0987869 0.0528115 0.0332952
0.24152 0.0745861 0.00335698
0.47921 0.162936 0
0.761959 0.28838 0
1 0.408179 0
1 0.489097 0
1 0.525704 0
0.0361944 0.0786603 0.0547189
0.0656596 0.0816052 0.0518044
0.118196 0.0839246 0.0279698
0.2448 0.0854505 0
0.461662 0.161807 0
0.726406 0.278752 0
0.966628 0.389746 0
1 0.463691 0
1 0.496818 0
0.119951 0.158679 0.0824598
0.150744 0.168826 0.0788586
0.180301 0.172122 0.0565957
0.25893 0.166964 0
0.433112 0.180255 0
0.658915 0.263508 0
0.865873 0.357229 0
1 0.420951 0
1 0.450004 0
0.277714 0.306477 0.180713
0.296391 0.314778 0.178286
0.311421 0.318166 0.170413
0.341299 0.319677 0.150057
0.45127 0.320195 0.0357214
0.634699 0.328771 0
0.799054 0.379065 0
0.915099 0.425711 0
0.970428 0.450263 0
0.451682 0.475059 0.309071
0.460304 0.479011 0.307362
0.467796 0.481605 0.305913
0.486732 0.485847 0.301885
0.546853 0.494469 0.271412
0.67953 0.503761 0.177722
0.842237 0.511955 0
0.949508 0.532906 0
1 0.547997 0
0.615503 0.6365 0.430259
0.620493 0.638392 0.429633
0.626337 0.640284 0.428992
0.642878 0.64506 0.425727
0.686351 0.654505 0.4094
0.776516 0.668391 0.361608
0.907347 0.678721 0.271992
1 0.684886 0.112016
1 0.692226 0.0130312
0.753445 0.764248 0.51986
0.757168 0.765286 0.518975
0.76173 0.766629 0.517952
0.774151 0.769757 0.514275
0.80734 0.777005 0.501488
0.877455 0.788907 0.466468
0.979507 0.801358 0.408728
1 0.808057 0.33489
1 0.811627 0.271763
0.831739 0.831586 0.562936
0.834836 0.832395 0.562005
0.838544 0.83331 0.560861
0.848585 0.835584 0.557168
0.876432 0.841154 0.545357
0.937209 0.851209 0.514427
1 0.86215 0.461845
1 0.87013 0.418402
1 0.872862 0.365972
0.0318608 0.0520943 0.0746014
0.0436408 0.0531777 0.0725109
0.071809 0.0589303 0.0913863
0.241642 0.0595865 0.0498512
0.481743 0.146288 0
0.767086 0.287343 0
1 0.419532 0
1 0.505013 0
1 0.543633 0
0.0271763 0.0605783 0.0836194
0.0454871 0.0644999 0.0816815
0.078172 0.0713054 0.0959182
0.236362 0.0822919 0.0597848
0.47187 0.167742 0
0.74902 0.296407 0
1 0.415869 0
1 0.493751 0
1 0.529107 0
0 0.093843 0.121309
0.0301061 0.0987411 0.116396
0.0888533 0.100786 0.0990921
0.217807 0.114717 0.0711681
0.440955 0.186191 0.0214084
0.710323 0.292592 0
0.951034 0.397696 0
1 0.468681 0
1 0.500603 0
0.083238 0.171252 0.1355
0.121874 0.178576 0.136797
0.160769 0.179904 0.128511
0.23473 0.182773 0.0827497
0.422415 0.198199 0
0.646448 0.278019 0
0.853361 0.366506 0
0.988159 0.427634 0
1 0.455741 0
0.266773 0.31043 0.220462
0.287404 0.318685 0.220279
0.303975 0.323079 0.211597
0.334615 0.326619 0.192828
0.443046 0.330617 0.119936
0.630152 0.341451 0
0.794888 0.390036 0
0.911101 0.435218 0
0.966674 0.459205 0
0.45005 0.479912 0.334279
0.459113 0.484138 0.332982
0.467048 0.487282 0.330098
0.487465 0.49279 0.323629
0.548669 0.502449 0.297002
0.68101 0.513252 0.219257
0.844968 0.522423 0.00857557
0.952819 0.543252 0
1 0.558221 0
0.619532 0.642725 0.443214
0.624903 0.645045 0.440833
0.631083 0.647181 0.44036
0.647883 0.651987 0.43711
0.691997 0.661768 0.421393
0.782559 0.676005 0.37557
0.913252 0.686687 0.291218
1 0.693126 0.147448
1 0.700389 0.0557412
0.753445 0.764263 0.519875
0.757168 0.765301 0.51899
0.761746 0.766644 0.517968
0.774166 0.769772 0.51429
0.80737 0.77702 0.501503
0.87747 0.788922 0.466484
0.979522 0.801389 0.408759
1 0.808072 0.33492
1 0.811643 0.271809
0.831754 0.831601 0.562951
0.834852 0.83241 0.56202
0.838544 0.833326 0.560876
0.8486 0.835599 0.557183
0.876432 0.841169 0.545373
0.937224 0.851225 0.514443
1 0.862165 0.46186
1 0.870146 0.418418
1 0.872877 0.365988
0.0461891 0.105913 0.180041
0.0594797 0.108064 0.178088
0.0841382 0.113268 0.185626
0.175036 0.139452 0.223056
0.464622 0.163851 0.144671
0.755016 0.283803 0
1 0.412955 0
1 0.501472 0
1 0.541817 0
0.0413367 0.112276 0.181201
0.0590524 0.117556 0.181857
0.0925154 0.125154 0.182803
0.180591 0.152361 0.22472
0.456306 0.184787 0.158663
0.734524 0.294652 0.032929
0.984024 0.412116 0
1 0.491966 0
1 0.527993 0
0.0301671 0.127718 0.190646
0.0547036 0.133745 0.190036
0.0920424 0.139773 0.186862
0.177783 0.161517 0.216693
0.430991 0.198123 0.159762
0.692912 0.297383 0.0664225
0.925643 0.402655 0
1 0.474037 0
1 0.506127 0
0 0.196689 0.240421
0.0239414 0.205905 0.242817
0.0832074 0.208881 0.236866
0.193256 0.20911 0.211429
0.383352 0.234104 0.174212
0.613916 0.306142 0.125994
0.825193 0.38471 0.0468757
0.961303 0.440986 0
1 0.467521 0
0.232578 0.321996 0.272725
0.256168 0.330632 0.277211
0.273274 0.335073 0.275837
0.315358 0.336355 0.268513
0.419287 0.347219 0.231342
0.613077 0.363195 0.124132
0.779858 0.41001 0.0573892
0.897017 0.453376 0.022034
0.952834 0.476509 0.00959792
0.439109 0.485344 0.37966
0.448615 0.489677 0.380285
0.457206 0.493324 0.379782
0.480079 0.501137 0.370932
0.541787 0.513771 0.34995
0.67155 0.528023 0.301671
0.838056 0.540047 0.178546
0.946838 0.5617 0.101076
0.999878 0.576852 0.0674144
0.616968 0.651942 0.486976
0.622629 0.654459 0.485374
0.629526 0.657465 0.483131
0.647288 0.664027 0.475303
0.6916 0.6748 0.464927
0.781689 0.690547 0.430182
0.910582 0.703182 0.369711
1 0.710811 0.270985
1 0.718303 0.225925
0.76051 0.780514 0.554772
0.764462 0.78172 0.554314
0.76907 0.783139 0.553658
0.781613 0.786435 0.550942
0.814832 0.793896 0.540581
0.884672 0.806287 0.510964
0.986023 0.819501 0.463294
1 0.826764 0.404456
1 0.830549 0.354482
0.839429 0.844892 0.588129
0.84242 0.845594 0.587259
0.846143 0.846555 0.586282
0.85626 0.84889 0.583032
0.884337 0.85478 0.57261
0.944732 0.864713 0.544198
1 0.875563 0.496544
1 0.883482 0.459052
1 0.886213 0.413108
0.0959945 0.224552 0.35172
0.110796 0.22678 0.351904
0.139696 0.230777 0.351873
0.198779 0.249805 0.379477
0.363409 0.300618 0.431098
0.713252 0.33666 0.356619
0.990387 0.41883 0.237217
1 0.49572 0.147951
1 0.532219 0.0973983
0.0866407 0.22269 0.34345
0.104936 0.226688 0.344945
0.13608 0.231022 0.344549
0.198718 0.248814 0.363745
0.357916 0.301427 0.420996
0.688731 0.338186 0.353353
0.945891 0.414618 0.254353
1 0.483268 0.188464
1 0.515541 0.157458
0.0745861 0.221927 0.335393
0.0967117 0.227176 0.337591
0.130129 0.231373 0.336233
0.195941 0.24535 0.342077
0.345022 0.296605 0.402991
0.656901 0.332189 0.340017
0.893782 0.405646 0.259937
1 0.467918 0.210285
1 0.497169 0.189319
0.050782 0.249973 0.356359
0.0869001 0.255589 0.354696
0.128801 0.256565 0.34548
0.197086 0.262715 0.335485
0.32813 0.298543 0.375189
0.597681 0.331594 0.322942
0.803769 0.39646 0.272984
0.934966 0.449729 0.24593
0.993469 0.4757 0.236896
0.0567636 0.360174 0.416022
0.117861 0.369268 0.420706
0.163424 0.373098 0.419959
0.230716 0.376257 0.413413
0.369146 0.384726 0.389105
0.556237 0.411658 0.364172
0.7299 0.45771 0.345159
0.850523 0.498909 0.337163
0.908904 0.520424 0.334096
0.38793 0.508202 0.467857
0.399512 0.512856 0.471992
0.409888 0.516197 0.474571
0.438178 0.522576 0.476677
0.510552 0.534173 0.469673
0.634058 0.556115 0.447517
0.805844 0.573831 0.386145
0.916884 0.597391 0.360861
0.970932 0.61294 0.353323
0.588052 0.667292 0.576883
0.595117 0.669612 0.578286
0.602914 0.671763 0.578866
0.623331 0.677653 0.577661
0.671138 0.692653 0.559396
0.758846 0.711208 0.537575
0.883238 0.727398 0.508324
1 0.737621 0.447379
1 0.746105 0.424826
0.740688 0.793698 0.653208
0.744976 0.795254 0.652049
0.750027 0.79707 0.650538
0.763485 0.801648 0.644923
0.797803 0.812482 0.628016
0.865415 0.82562 0.610422
0.964385 0.840436 0.580606
1 0.849653 0.547646
1 0.854231 0.514336
0.822751 0.861601 0.683787
0.825986 0.862745 0.68217
0.829877 0.864073 0.680156
0.840345 0.867491 0.673823
0.867735 0.874189 0.664027
0.926116 0.884474 0.645716
1 0.896437 0.614221
1 0.90518 0.592813
1 0.908858 0.565377
0.174395 0.357549 0.542
0.184527 0.359579 0.542519
0.204929 0.361868 0.541268
0.252338 0.371069 0.544442
0.362371 0.410117 0.60383
0.567498 0.473991 0.643244
0.842451 0.5234 0.602747
1 0.5196 0.515511
1 0.540856 0.488106
0.163165 0.349264 0.526253
0.175555 0.351873 0.527016
0.196902 0.353826 0.524865
0.243519 0.360647 0.52401
0.350744 0.396902 0.575723
0.54757 0.46041 0.618387
0.806271 0.507713 0.580835
1 0.505348 0.502449
1 0.525261 0.478935
0.152071 0.342092 0.511711
0.167208 0.345434 0.512764
0.189731 0.347372 0.510094
0.236118 0.35227 0.505821
0.33959 0.384115 0.547646
0.528359 0.447623 0.594385
0.772946 0.493416 0.560327
0.970001 0.493385 0.490837
1 0.512627 0.471138
0.13344 0.340978 0.496132
0.156786 0.346242 0.497139
0.181964 0.34876 0.493858
0.2309 0.353002 0.486717
0.332082 0.375372 0.502297
0.499367 0.433143 0.555978
0.720104 0.476371 0.529931
0.898299 0.483162 0.478691
0.959304 0.502205 0.465995
0.124987 0.414908 0.558312
0.164614 0.420188 0.556023
0.196063 0.420005 0.546914
0.258564 0.418067 0.524056
0.369985 0.432471 0.508217
0.506523 0.472984 0.549386
0.703502 0.507164 0.528023
0.847929 0.529107 0.503716
0.90663 0.547951 0.499245
0.261555 0.552407 0.617395
0.280888 0.557565 0.620813
0.297795 0.561227 0.622705
0.34165 0.568032 0.624002
0.438102 0.579461 0.619883
0.584573 0.598566 0.604593
0.742168 0.624826 0.593225
0.854902 0.651499 0.586389
0.91014 0.667903 0.586053
0.499916 0.707485 0.692515
0.508568 0.709621 0.693889
0.518669 0.711772 0.695033
0.54612 0.716762 0.697017
0.611139 0.725048 0.696376
0.714885 0.73991 0.687831
0.832685 0.762814 0.672694
0.954635 0.776455 0.638041
1 0.786755 0.62858
0.687251 0.823575 0.766308
0.691966 0.824628 0.76643
0.697597 0.826032 0.766659
0.712261 0.829419 0.766339
0.744686 0.839445 0.761791
0.827375 0.850446 0.746868
0.923308 0.868605 0.725185
1 0.880232 0.713664
1 0.885969 0.691859
0.7691 0.888991 0.804761
0.771939 0.89012 0.804364
0.775174 0.891478 0.803754
0.787106 0.893172 0.803723
0.826001 0.894057 0.805402
0.888869 0.908598 0.77734
0.973007 0.92224 0.756558
1 0.932021 0.745647
1 0.937057 0.73434
0.227497 0.454429 0.677302
0.234104 0.455314 0.67657
0.250095 0.455207 0.671794
0.28394 0.454505 0.66183
0.375586 0.473075 0.667704
0.509834 0.516503 0.748394
0.688258 0.575921 0.755001
0.820737 0.61268 0.747829
0.901305 0.623407 0.727535
0.220264 0.447578 0.664652
0.227924 0.448829 0.663996
0.244602 0.448936 0.659144
0.27895 0.447929 0.648219
0.37055 0.464576 0.649271
0.499992 0.506584 0.728313
0.674067 0.56582 0.737957
0.803189 0.60267 0.732982
0.881666 0.61413 0.714687
0.21323 0.441703 0.652567
0.222202 0.443442 0.652079
0.239567 0.443931 0.647349
0.274815 0.443091 0.636027
0.366751 0.458152 0.63267
0.491936 0.498985 0.709422
0.661707 0.557946 0.722759
0.787793 0.59501 0.719982
0.864622 0.607309 0.703853
0.199985 0.435386 0.632303
0.21323 0.438575 0.632029
0.232395 0.440208 0.627894
0.27129 0.441474 0.617914
0.362676 0.454826 0.610681
0.483543 0.493782 0.676402
0.644175 0.551843 0.699428
0.764935 0.589746 0.700847
0.839475 0.603326 0.689113
0.198917 0.469551 0.648234
0.221897 0.475105 0.64715
0.242329 0.476066 0.640406
0.291814 0.478584 0.627268
0.387976 0.494514 0.620523
0.506508 0.528618 0.654154
0.648753 0.580926 0.695613
0.762768 0.618326 0.699275
0.836439 0.631403 0.692851
0.255573 0.594598 0.744488
0.274571 0.599252 0.746029
0.293004 0.602457 0.745739
0.343313 0.606973 0.73962
0.454368 0.613657 0.715831
0.585946 0.636713 0.70193
0.704311 0.674571 0.742306
0.81677 0.704479 0.740475
0.890852 0.713115 0.734447
0.418158 0.745571 0.822782
0.42858 0.748165 0.824323
0.440482 0.75079 0.825635
0.471199 0.756344 0.827405
0.541772 0.766613 0.827344
0.656214 0.782376 0.822522
0.789258 0.802319 0.810315
0.895384 0.820722 0.806226
0.948287 0.832303 0.804364
0.588952 0.865843 0.886
0.594842 0.867079 0.886503
0.601541 0.868116 0.886595
0.620066 0.871229 0.887114
0.666285 0.878019 0.886748
0.753307 0.88867 0.882338
0.873625 0.899397 0.870558
0.958083 0.915145 0.861036
1 0.922148 0.847684
0.678294 0.928115 0.925261
0.682567 0.928817 0.925338
0.687343 0.929335 0.925109
0.702052 0.931289 0.924956
0.744549 0.934356 0.922164
0.827039 0.939193 0.913909
0.925582 0.949157 0.899077
1 0.962829 0.88249
1 0.968215 0.881636
0.250797 0.501808 0.736522
0.254108 0.502113 0.735576
0.268818 0.502495 0.73022
0.300343 0.499352 0.715084
0.381384 0.506752 0.702495
0.493431 0.540612 0.751507
0.635477 0.584802 0.811856
0.751614 0.631327 0.804578
0.809445 0.647822 0.80766
0.247028 0.498665 0.729335
0.250935 0.499229 0.728511
0.266331 0.500084 0.723491
0.298848 0.497795 0.709148
0.380575 0.505562 0.69662
0.4925 0.539178 0.743282
0.632853 0.583947 0.805615
0.748119 0.630564 0.8
0.805844 0.647517 0.803922
0.243259 0.495964 0.722179
0.247959 0.496849 0.721416
0.264118 0.498268 0.716838
0.297917 0.497047 0.703563
0.380728 0.505562 0.691508
0.492378 0.53875 0.73518
0.630762 0.583978 0.799741
0.745296 0.630869 0.796048
0.802716 0.648066 0.800626
0.236316 0.494316 0.710384
0.243763 0.496345 0.709865
0.26125 0.498283 0.705211
0.29897 0.500114 0.695003
0.384665 0.511086 0.6851
0.497124 0.543633 0.720699
0.629969 0.58912 0.790478
0.742596 0.636225 0.790814
0.799512 0.654093 0.796933
0.233509 0.517388 0.718105
0.252689 0.524285 0.719127
0.271397 0.526757 0.714443
0.318608 0.531197 0.704326
0.410147 0.547234 0.699336
0.528344 0.578958 0.714778
0.646021 0.620264 0.792142
0.754574 0.666423 0.798444
0.810315 0.684703 0.806332
0.283024 0.626459 0.808331
0.300328 0.630655 0.808225
0.320027 0.633417 0.805844
0.371649 0.63714 0.795438
0.47361 0.646265 0.775036
0.594614 0.672358 0.771862
0.704128 0.7075 0.815671
0.801266 0.744305 0.839963
0.854475 0.760922 0.847242
0.395514 0.773709 0.911665
0.406683 0.776211 0.912932
0.419409 0.778744 0.913954
0.453193 0.784482 0.915221
0.530388 0.794003 0.912123
0.661051 0.806073 0.892958
0.790158 0.826398 0.873457
0.86981 0.851438 0.901732
0.919402 0.864698 0.906676
0.547112 0.891234 0.974884
0.553826 0.892317 0.975128
0.561608 0.893553 0.975341
0.582635 0.896727 0.975662
0.634287 0.903441 0.974594
0.726833 0.91429 0.969223
0.83827 0.928389 0.960449
0.930312 0.94168 0.950011
0.977523 0.950332 0.95021
0.637308 0.953094 1
0.642084 0.953719 1
0.647578 0.954284 1
0.663264 0.956283 1
0.703349 0.960632 1
0.77995 0.968032 0.999237
0.87776 0.977935 0.988846
0.963699 0.986587 0.979461
1 0.993423 0.974227
0.258656 0.520974 0.755108
0.25893 0.520958 0.754971
0.274205 0.522988 0.750713
0.308583 0.522316 0.737072
0.390082 0.530007 0.72369
0.500755 0.560601 0.75491
0.626886 0.602487 0.831556
0.738079 0.648875 0.837491
0.792111 0.670756 0.839124
0.256794 0.520088 0.7514
0.257633 0.520104 0.751064
0.27332 0.52256 0.747158
0.308782 0.522866 0.734585
0.391302 0.531426 0.722057
0.502449 0.562081 0.751598
0.62739 0.604257 0.82884
0.738003 0.650568 0.836332
0.791959 0.672572 0.838437
0.25478 0.51957 0.747768
0.256413 0.519707 0.747204
0.272618 0.522667 0.743694
0.309331 0.524025 0.732235
0.392966 0.533593 0.72076
0.504768 0.564279 0.748196
0.628214 0.606714 0.825986
0.738186 0.652857 0.83534
0.792035 0.674983 0.837903
0.251362 0.52163 0.742412
0.255299 0.522667 0.74197
0.272892 0.526665 0.739223
0.312993 0.530022 0.729534
0.399451 0.542367 0.72108
0.513573 0.573312 0.742824
0.632746 0.615808 0.821241
0.740887 0.661234 0.835294
0.794507 0.683619 0.838956
0.251682 0.54493 0.753491
0.265248 0.550988 0.75555
0.284733 0.555322 0.752697
0.332799 0.560693 0.743236
0.424369 0.577249 0.738903
0.545922 0.608865 0.746273
0.65362 0.648844 0.821637
0.756802 0.691218 0.84625
0.809873 0.713878 0.851591
0.294804 0.64416 0.837903
0.31252 0.649348 0.838529
0.332647 0.652476 0.836179
0.384466 0.657069 0.826307
0.483665 0.667628 0.808865
0.602289 0.693889 0.807584
0.711238 0.728756 0.843412
0.801724 0.762753 0.8851
0.852476 0.784039 0.890227
0.397177 0.788815 0.948806
0.408804 0.791379 0.94992
0.422477 0.794156 0.950927
0.457404 0.79939 0.950881
0.538201 0.807935 0.944183
0.671931 0.818494 0.917693
0.792859 0.840909 0.905135
0.868681 0.864393 0.937407
0.91429 0.881758 0.946929
0.530968 0.904555 1
0.538018 0.905852 1
0.545922 0.906981 1
0.567956 0.910353 1
0.621073 0.916945 1
0.717052 0.927382 1
0.837354 0.93962 0.996796
0.930632 0.952087 0.978576
0.966018 0.962402 0.992264
0.619516 0.965286 1
0.624643 0.965988 1
0.630594 0.966827 1
0.646952 0.968627 1
0.688869 0.972747 1
0.768673 0.97995 1
0.86949 0.989654 1
0.950469 0.99913 1
0.995193 1 1
