public/textures/grade/Panasonic/Cliff-VLog.cube
TITLE "Generated by Resolve"
LUT_3D_SIZE 33
0 0 0
0 0 0
0 0 0
0.00720226 0 0
0.0238041 0 0
0.0405737 0 0
0.0564431 0 0
0.0745556 0 0
0.0966506 0 0
0.123339 0 0
0.152316 0 0
0.184878 0 0
0.220279 0 0
0.256214 0 0
0.290364 0 0
0.320165 0 0
0.344717 0 0
0.362982 0 0
0.373648 0 0
0.377691 3.0518e-05 0
0.376242 0.000381476 0
0.369131 0.000534066 0
0.357153 0.000518807 0
0.341573 0.000289921 0
0.320745 0.00660716 0
0.295766 0.0187381 0
0.270314 0.0305333 0
0.245701 0.0416724 0.016434
0.223407 0.0520333 0.0320897
0.203204 0.0609903 0.0452277
0.186419 0.0687266 0.0561074
0.172213 0.0749218 0.0649882
0.160952 0.0800641 0.0720836
0 0 0
0 0 0
0 0 0
0.00703441 0 0
0.0235599 0 0
0.0404212 0 0
0.0563973 0 0
0.0746777 0 0
0.0971542 0 0
0.122515 0 0
0.151888 0 0
0.185336 0 0
0.221485 0 0
0.258045 0 0
0.2925 0 0
0.323812 0 0
0.34931 0 0
0.367788 0 0
0.379049 0 0
0.384588 0.0016022 0
0.384283 0.00195315 0
0.378042 0.00195315 0
0.366934 0.00195315 0
0.352224 0.0015259 0
0.331441 0.00877394 0
0.306737 0.0208896 0
0.281514 0.0327611 0
0.257206 0.0442664 0.0158999
0.23473 0.054551 0.0316014
0.214511 0.0635996 0.0451972
0.197559 0.0714275 0.056611
0.18352 0.0778515 0.0657359
0.171695 0.0831006 0.0728771
0 0 0
0 0 0
0 0 0
0.00337224 0 0
0.0191653 0 0
0.0354162 0 0
0.0508431 0 0
0.0686809 0 0
0.0911269 0 0
0.118791 0 0
0.151293 0 0
0.18764 0 0
0.226383 0 0
0.265599 0 0
0.302861 0 0
0.335988 0 0
0.363607 0 0
0.384695 0.00521859 0
0.400458 0.00727855 0
0.40972 0.00759899 0
0.412741 0.00770581 0
0.409888 0.00761425 0
0.401617 0.00733959 0
0.389044 0.0069276 0
0.369299 0.0174105 0
0.346258 0.0297856 0
0.322118 0.0419623 0
0.298528 0.0533761 0.0118715
0.276036 0.0641337 0.0293889
0.255833 0.0733959 0.044358
0.238621 0.0818036 0.0571298
0.223835 0.0880446 0.0672465
0.212161 0.0934615 0.0758831
0 0.00335698 0
0 0.00302129 0
0 0.00173953 0
0.00268559 0 0
0.0188296 0 0
0.0348211 0 0
0.0502174 0 0
0.0682841 0 0
0.0911727 0 0
0.11931 0 0
0.152621 0 0
0.190265 0 0
0.230793 0 0
0.271763 0 0
0.310979 0 0
0.346578 0.00518807 0
0.376867 0.0116732 0
0.402197 0.0138094 0
0.421378 0.0141909 0
0.434256 0.0144808 0
0.440558 0.014313 0
0.440253 0.0142367 0
0.435019 0.0138705 0
0.424338 0.0156405 0
0.406516 0.0275578 0
0.385702 0.0398566 0
0.363241 0.0521859 0
0.340566 0.0639353 0.00671397
0.318944 0.0747234 0.0253147
0.299321 0.0847181 0.0417487
0.282002 0.0923171 0.0551461
0.267506 0.0991226 0.0672007
0.255497 0.104723 0.0773785
0 0.0168612 0
0 0.0165103 0
0 0.015198 0
0 0.0133364 0
0.0181277 0.0112612 0
0.0353704 0.00952163 0
0.0509041 0.00825513 0
0.0687114 0.0071107 0
0.091249 0.00602731 0
0.119326 0.0049897 0
0.152834 0.00437934 0
0.191211 0.00437934 0
0.232868 0.00549325 0
0.275639 0.00819409 0
0.317357 0.0125734 0
0.355215 0.0183719 0
0.389471 0.0214084 0
0.418875 0.0217746 0
0.441337 0.0220188 0
0.456855 0.0222477 0
0.4663 0.0222629 0
0.469749 0.0220035 0
0.46743 0.0215305 0
0.458274 0.0273442 0
0.442756 0.0394598 0
0.424659 0.0517739 0
0.404273 0.0639506 0
0.383429 0.0758221 0
0.362875 0.0867628 0.0193027
0.343954 0.0961166 0.0370336
0.327443 0.104067 0.0518196
0.313344 0.111116 0.0651255
0.301289 0.116686 0.0764019
0 0.0305333 0
0 0.0302892 0
0 0.0286412 0
0 0.0269627 0
0.0144656 0.0252689 0
0.0336004 0.022858 0
0.0504463 0.0210269 0
0.068925 0.0193027 0
0.091371 0.017792 0
0.118776 0.0164034 0
0.151934 0.015671 0
0.19057 0.0159304 0
0.233219 0.0174716 0
0.277745 0.0204471 0
0.321157 0.0252079 0
0.362905 0.0294652 0
0.401175 0.0299229 0
0.432944 0.0302586 0
0.458396 0.0305028 0
0.477485 0.0306401 0
0.489586 0.0306096 0
0.495552 0.0305028 0
0.496513 0.0299077 0
0.488838 0.0402686 0
0.476402 0.0521401 0
0.46041 0.0643778 0
0.442222 0.0766308 0
0.423636 0.088716 0
0.404486 0.0988632 0.0130159
0.386847 0.107973 0.0305028
0.371084 0.116258 0.046891
0.357565 0.123186 0.061387
0.346136 0.128878 0.0734722
0 0.0430457 0
0 0.04271 0
0 0.0411536 0
0 0.0397345 0
0.0116884 0.0382086 0
0.0298772 0.0365911 0
0.048249 0.0341039 0
0.0677958 0.0316625 0
0.0908064 0.0295872 0
0.117739 0.0278172 0
0.150561 0.0268559 0
0.189014 0.026978 0
0.232212 0.0285191 0
0.278126 0.0318914 0
0.323735 0.037171 0
0.369162 0.0378729 0
0.40972 0.0382086 0
0.444739 0.0386053 0
0.472602 0.0388342 0
0.493782 0.0390173 0
0.508675 0.038941 0
0.517555 0.0387427 0
0.519646 0.0412299 0
0.514305 0.052491 0
0.504356 0.0645457 0
0.490837 0.0769207 0
0.474678 0.089128 0
0.457771 0.100099 0
0.44062 0.110231 0.00585946
0.424475 0.119631 0.0243381
0.40972 0.127779 0.0416266
0.396918 0.134981 0.0570993
0.386053 0.140612 0.0700999
0 0.0573739 0
0 0.0568856 0
0 0.0554513 0
0 0.0542611 0
0.00846876 0.0528573 0
0.0264897 0.0514992 0
0.0438392 0.0500649 0
0.0651713 0.0471199 0
0.0897536 0.0443427 0
0.116335 0.0417334 0
0.148745 0.0400397 0
0.187152 0.0398871 0
0.230869 0.0415351 0
0.277714 0.0450294 0
0.326863 0.0474556 0
0.374807 0.0479591 0
0.418219 0.0483253 0
0.455741 0.0485695 0
0.486702 0.0487068 0
0.510567 0.0489509 0
0.527977 0.0489204 0
0.539208 0.0486 0
0.542916 0.0558328 0
0.540383 0.0673381 0
0.533181 0.0792859 0
0.521996 0.091249 0
0.508431 0.102647 0
0.493782 0.113909 0
0.478981 0.123934 0
0.464134 0.13312 0.0169223
0.450614 0.14139 0.0349126
0.439048 0.14844 0.0509041
0.429084 0.153979 0.0645914
0 0.0743572 0
0 0.0740673 0
0 0.0730602 0
0 0.0720989 0
0.0052491 0.0712139 0
0.022858 0.0700389 0
0.0396735 0.0688029 0
0.0597086 0.0671244 0
0.0865644 0.0634775 0
0.11426 0.0602731 0
0.146777 0.0576181 0
0.184863 0.0565499 0
0.22855 0.0577707 0
0.277455 0.0604105 0
0.329747 0.0606546 0
0.380118 0.0610056 0
0.426383 0.0612802 0
0.467247 0.0614328 0
0.501167 0.0615854 0
0.528191 0.0617533 0
0.54902 0.0617685 0
0.562768 0.0638743 0
0.568444 0.0744945 0
0.568856 0.0862287 0
0.564431 0.097612 0
0.556497 0.109163 0
0.54609 0.120363 0
0.533745 0.13109 0
0.52137 0.141329 0
0.508904 0.150423 0.00758373
0.497658 0.158724 0.0266117
0.487068 0.165515 0.0428016
0.47834 0.171389 0.0575265
0 0.0949874 0
0 0.0949111 0
0 0.094377 0
0 0.0940871 0
0.00164797 0.0935988 0
0.0189822 0.0929427 0
0.0357519 0.0921645 0
0.0551156 0.0907607 0
0.0802319 0.0887617 0
0.110536 0.0843824 0
0.143816 0.0800946 0
0.182101 0.0777447 0
0.225757 0.0782635 0
0.277287 0.0779583 0
0.331518 0.0777905 0
0.385 0.0778668 0
0.43447 0.0779126 0
0.478431 0.0779278 0
0.515892 0.0780957 0
0.54641 0.0781262 0
0.570336 0.0780041 0
0.585718 0.0869459 0
0.594934 0.0972457 0
0.598642 0.108232 0
0.597742 0.11957 0
0.593286 0.13109 0
0.585718 0.142504 0
0.577264 0.153429 0
0.567147 0.163302 0
0.557061 0.17229 0
0.547799 0.180331 0.0157168
0.539635 0.187259 0.0330968
0.531823 0.192782 0.0479133
0 0.119478 0
0 0.119966 0
0 0.12018 0
0 0.120577 0
0 0.120668 0
0.0156405 0.120531 0
0.0320134 0.120272 0
0.0510262 0.119463 0
0.0755627 0.118151 0
0.104311 0.115801 0
0.139971 0.110811 0
0.179202 0.106523 0
0.225711 0.103456 0
0.277592 0.101228 0
0.332967 0.0997024 0
0.388663 0.098909 0
0.441627 0.0984665 0
0.489143 0.0982071 0
0.530312 0.0982986 0
0.564538 0.0985122 0
0.590219 0.104723 0
0.608927 0.114076 0
0.621653 0.124559 0
0.629099 0.13576 0
0.631876 0.147173 0
0.631113 0.158526 0
0.627436 0.170062 0
0.622019 0.180743 0
0.615198 0.190631 0
0.608072 0.199847 0
0.600916 0.207477 0.00425727
0.594491 0.214282 0.0217594
0.588464 0.219593 0.0369726
0 0.147936 0
0 0.149538 0
0 0.150622 0
0 0.15172 0
0 0.152773 0
0.0130617 0.153155 0
0.0291905 0.153429 0
0.0478828 0.15314 0
0.0719463 0.152407 0
0.100938 0.151003 0
0.133532 0.148425 0
0.17792 0.143618 0
0.226459 0.138018 0
0.279454 0.13312 0
0.33547 0.129366 0
0.392813 0.126848 0
0.448615 0.125383 0
0.499641 0.124743 0
0.543954 0.124743 0
0.580377 0.130358 0
0.609308 0.138476 0
0.63183 0.147768 0
0.648295 0.158083 0
0.659556 0.169253 0
0.6663 0.180789 0
0.669184 0.192187 0
0.668879 0.203235 0
0.667079 0.214115 0
0.663279 0.223911 0
0.658915 0.232715 0
0.654398 0.240558 0
0.65005 0.247242 0.0103456
0.64593 0.252323 0.0251774
0 0.181689 0
0 0.183963 0
0 0.186328 0
0 0.188281 0
0 0.189883 0
0.0125277 0.191119 0
0.0280613 0.191638 0
0.0466316 0.192142 0
0.0699168 0.192126 0
0.0987716 0.191363 0
0.130327 0.189761 0
0.169772 0.187228 0
0.221195 0.182193 0
0.278614 0.17644 0
0.33843 0.170047 0
0.397787 0.164675 0
0.455116 0.162249 0
0.508247 0.162753 0
0.554757 0.165911 0
0.594583 0.17142 0
0.627604 0.17911 0
0.653956 0.188327 0
0.674311 0.198489 0
0.689296 0.209491 0
0.69987 0.22092 0
0.706432 0.232303 0
0.709667 0.243275 0
0.710292 0.253742 0
0.71017 0.26363 0
0.708476 0.272114 0
0.706325 0.279866 0
0.703731 0.285969 0
0.701732 0.291264 0.0134127
0 0.2206 0
0 0.223911 0
0 0.2271 0
0 0.229984 0
0 0.232441 0
0.0148165 0.234119 0
0.0298619 0.235325 0
0.0478065 0.236408 0
0.0708782 0.237018 0
0.0994278 0.237461 0
0.129793 0.23682 0
0.167651 0.235111 0
0.213581 0.232441 0
0.271885 0.227298 0
0.334432 0.222232 0
0.397345 0.217014 0
0.458015 0.213596 0
0.514458 0.213046 0
0.564599 0.215213 0
0.607919 0.21973 0
0.644511 0.226825 0
0.67451 0.235706 0
0.698604 0.245624 0
0.717052 0.256382 0
0.731075 0.267536 0
0.741131 0.278691 0
0.747814 0.289494 0
0.751904 0.30013 0
0.754009 0.309377 0
0.755169 0.317937 0
0.754879 0.324987 0
0.754772 0.331151 0
0.753857 0.335912 0.00292973
0 0.26482 0
0 0.269444 0
0 0.273548 0
0 0.277302 0
0.00657664 0.280446 0
0.0217136 0.282536 0
0.0366217 0.284413 0
0.0540475 0.285847 0
0.0768902 0.28748 0
0.103838 0.288518 0
0.132891 0.288899 0
0.169345 0.288258 0
0.213718 0.286671 0
0.266285 0.284108 0
0.330144 0.279454 0
0.396109 0.275425 0
0.460044 0.271962 0
0.519677 0.270695 0
0.57351 0.272099 0
0.62031 0.276066 0
0.660395 0.282353 0
0.693874 0.290455 0
0.720928 0.299672 0
0.74287 0.309895 0
0.760601 0.320821 0
0.773571 0.331762 0
0.783139 0.342214 0
0.789746 0.352026 0
0.794308 0.360861 0
0.797818 0.368978 0
0.79971 0.375799 0
0.801068 0.381415 0
0.801801 0.386221 0
0 0.315206 0
0 0.320546 0
0 0.325704 0
0.00535592 0.329946 0
0.021149 0.333455 0
0.0357977 0.335958 0
0.0504311 0.338201 0
0.0672465 0.340139 0
0.0894179 0.342473 0
0.113848 0.344259 0
0.141207 0.345617 0
0.176272 0.346044 0
0.21915 0.345617 0
0.270542 0.344549 0
0.328298 0.342061 0
0.395071 0.338125 0
0.461799 0.335698 0
0.52459 0.334432 0
0.581613 0.335256 0
0.631662 0.338445 0
0.674617 0.343923 0
0.711421 0.351202 0
0.741817 0.35996 0
0.766918 0.369467 0
0.786587 0.379568 0
0.802594 0.389609 0
0.814542 0.399481 0
0.823682 0.408652 0
0.830564 0.417426 0
0.835599 0.424567 0
0.839155 0.431159 0
0.841688 0.436072 0
0.84361 0.440497 0
0 0.371466 0
0 0.377493 0
0.0137179 0.3832 0
0.0294957 0.387488 0
0.0446021 0.390784 0
0.0590982 0.393851 0
0.0733959 0.396384 0
0.0897841 0.398642 0
0.108995 0.401419 0
0.130037 0.403876 0
0.156222 0.405997 0
0.189715 0.407416 0
0.231342 0.408164 0
0.28069 0.407843 0
0.33669 0.406943 0
0.397635 0.404654 0
0.465232 0.402075 0
0.530053 0.401587 0
0.589487 0.402457 0
0.642145 0.405188 0
0.687999 0.409827 0
0.727413 0.416159 0
0.760174 0.424018 0
0.787182 0.432807 0
0.809705 0.441886 0
0.827543 0.451102 0
0.841672 0.460029 0
0.852735 0.468498 0
0.861799 0.476249 0
0.867979 0.482872 0
0.873106 0.488762 0
0.876875 0.493629 0
0.879393 0.497292 0
0.0166476 0.433082 0
0.0337224 0.439582 0
0.0494087 0.444587 0
0.064744 0.449012 0
0.0792859 0.452232 0
0.0931411 0.455329 0
0.104952 0.457618 0
0.11841 0.460365 0
0.134203 0.463325 0
0.153368 0.466178 0
0.178775 0.468711 0
0.21117 0.47068 0
0.251179 0.472236 0.0016022
0.298451 0.472755 0.00450141
0.35227 0.472602 0.00415045
0.411093 0.472206 0
0.472847 0.469688 0.0128634
0.537881 0.469627 0
0.598352 0.47071 0
0.652827 0.47332 0
0.700359 0.477485 0
0.741466 0.482994 0
0.77644 0.489708 0
0.805356 0.497429 0
0.829694 0.50547 0
0.849165 0.51368 0
0.865125 0.521523 0
0.877821 0.529427 0
0.887694 0.536141 0
0.895354 0.541924 0
0.901579 0.547204 0
0.906081 0.551644 0
0.909514 0.554711 0.0111086
0.0666209 0.499046 0
0.0826276 0.504311 0
0.0972152 0.508995 0
0.109682 0.512535 0
0.121157 0.515877 0.000961318
0.131258 0.518334 0.00248722
0.140612 0.520821 0.00444038
0.151904 0.523445 0.00656138
0.166262 0.52604 0.00881972
0.18558 0.529198 0.0121614
0.210224 0.531823 0.0156863
0.241016 0.534188 0.0196841
0.279316 0.536065 0.0239414
0.324514 0.537224 0.0273442
0.375723 0.537606 0.0282292
0.431922 0.537682 0.0246738
0.490272 0.538109 0.0153201
0.550668 0.535698 0.0426184
0.610101 0.537255 0
0.664698 0.539818 0
0.713024 0.543648 0
0.755077 0.548516 0
0.791257 0.554269 0
0.821576 0.560998 0
0.846891 0.568093 0
0.867735 0.575204 0
0.884688 0.5823 0
0.898665 0.588922 0
0.909377 0.594797 0
0.91809 0.60029 0
0.924819 0.604517 0.0102998
0.930159 0.608347 0.0270695
0.934035 0.611368 0.0420691
0.12343 0.565728 0.0247349
0.134768 0.570199 0.0264897
0.144884 0.573617 0.0280308
0.154543 0.576852 0.0297856
0.163561 0.579324 0.0311589
0.1729 0.581842 0.0328069
0.182208 0.584009 0.0343633
0.193194 0.586221 0.0361028
0.207446 0.588617 0.0382086
0.226368 0.591424 0.0411536
0.249729 0.593942 0.044358
0.279149 0.596201 0.0479744
0.315282 0.598016 0.0515755
0.358083 0.599512 0.0551461
0.406424 0.600107 0.0563058
0.459297 0.600412 0.0540932
0.514672 0.600916 0.0471656
0.570092 0.601633 0.0428626
0.626108 0.600198 0.0681773
0.67924 0.602625 0.0262303
0.727138 0.60618 0
0.769131 0.610544 0
0.805508 0.615564 0
0.836271 0.621393 0
0.862089 0.627604 0
0.883833 0.633829 0
0.90161 0.639979 0
0.915633 0.645609 0.000320439
0.927321 0.650553 0.0203555
0.93666 0.655314 0.0408637
0.943481 0.659052 0.0599374
0.948974 0.66244 0.077348
0.953597 0.665049 0.0917678
0.176181 0.630716 0.0615396
0.186404 0.634012 0.0632334
0.19617 0.636927 0.0649119
0.205402 0.639048 0.06598
0.21474 0.641276 0.0674296
0.223926 0.643214 0.0688182
0.232837 0.644816 0.0700236
0.243259 0.646403 0.0713054
0.257252 0.648524 0.0733196
0.274861 0.65037 0.0754711
0.297551 0.65272 0.0786297
0.32517 0.654597 0.0818494
0.35877 0.656153 0.0846723
0.398688 0.657649 0.0874647
0.443381 0.658335 0.0882277
0.492378 0.658793 0.0863966
0.543893 0.659419 0.0806897
0.595743 0.660502 0.0710765
0.64622 0.660487 0.0915389
0.697063 0.660609 0.0974441
0.743267 0.66389 0.0627146
0.784436 0.667903 0.037644
0.819745 0.672206 0.0227054
0.850385 0.677073 0.0179599
0.876265 0.682521 0.0221103
0.897993 0.688075 0.0337224
0.915724 0.693095 0.050782
0.929854 0.697887 0.0714885
0.941299 0.702403 0.0938277
0.95053 0.706401 0.113634
0.957656 0.709697 0.129885
0.963256 0.71252 0.143572
0.967529 0.7149 0.154925
0.238041 0.691554 0.102098
0.247318 0.693416 0.102861
0.256596 0.69543 0.103975
0.26566 0.6972 0.105043
0.274525 0.698756 0.106035
0.282734 0.699748 0.10663
0.291035 0.701015 0.107561
0.300984 0.702388 0.108659
0.314199 0.703838 0.11014
0.330526 0.705135 0.111437
0.351461 0.70692 0.11339
0.376837 0.708339 0.115099
0.407767 0.709499 0.116762
0.444251 0.71075 0.118379
0.485328 0.711254 0.118349
0.530083 0.711666 0.116686
0.577386 0.71223 0.112673
0.625208 0.713237 0.106249
0.671931 0.714687 0.0990921
0.717067 0.713558 0.141817
0.76083 0.715709 0.132723
0.800336 0.719158 0.114321
0.834318 0.72311 0.104112
0.863722 0.727443 0.102296
0.888747 0.732067 0.109148
0.909728 0.73666 0.121843
0.926696 0.741085 0.13814
0.940612 0.745144 0.155352
0.951965 0.749187 0.172839
0.960693 0.752483 0.188464
0.967742 0.755581 0.202365
0.972839 0.757885 0.213657
0.977203 0.759884 0.223697
0.306813 0.745464 0.136889
0.315511 0.746899 0.137667
0.323995 0.74815 0.138369
0.332235 0.749279 0.139055
0.339971 0.749859 0.139345
0.347692 0.750759 0.139986
0.355184 0.751598 0.140597
0.364218 0.752483 0.141314
0.375799 0.753048 0.141985
0.390845 0.754147 0.143038
0.409842 0.755352 0.144183
0.432807 0.756191 0.145144
0.460319 0.757137 0.146288
0.493248 0.7579 0.147112
0.530037 0.758251 0.146883
0.570611 0.758465 0.145769
0.613077 0.759045 0.143526
0.656779 0.759884 0.140063
0.699397 0.761227 0.136202
0.73991 0.761532 0.158419
0.780056 0.76083 0.18996
0.816449 0.764096 0.179965
0.848524 0.767559 0.176349
0.876219 0.771298 0.179049
0.899916 0.775235 0.18822
0.919615 0.779324 0.201251
0.936065 0.783459 0.217548
0.949126 0.786999 0.233921
0.959533 0.790188 0.249821
0.968048 0.793347 0.264393
0.974395 0.795758 0.277485
0.979492 0.798016 0.288869
0.983261 0.799817 0.297932
0.379461 0.792004 0.171237
0.38706 0.792813 0.17171
0.394583 0.7935 0.172152
0.401404 0.79379 0.172274
0.40827 0.794415 0.172717
0.415244 0.794873 0.173068
0.421805 0.795377 0.17348
0.429984 0.795819 0.173861
0.439872 0.796078 0.17409
0.453101 0.796735 0.174838
0.469596 0.797513 0.175601
0.489967 0.797848 0.17615
0.514687 0.798566 0.177096
0.543206 0.798871 0.177584
0.576028 0.798932 0.177722
0.612207 0.799298 0.177722
0.650584 0.799558 0.177493
0.689418 0.800305 0.177447
0.728099 0.801404 0.177737
0.764645 0.802411 0.188617
0.800046 0.801556 0.225132
0.833524 0.802716 0.240284
0.863066 0.805814 0.242573
0.888411 0.80911 0.250111
0.910231 0.812497 0.262425
0.928466 0.816068 0.277546
0.943328 0.819516 0.29456
0.955413 0.82266 0.311849
0.96524 0.825727 0.328328
0.972564 0.828214 0.343343
0.978683 0.830564 0.356603
0.983063 0.832319 0.367376
0.986587 0.833997 0.376425
0.45185 0.830549 0.205127
0.458625 0.830854 0.205539
0.464744 0.831159 0.205859
0.470848 0.831159 0.205936
0.476722 0.831479 0.206317
0.482734 0.831662 0.206577
0.488334 0.831922 0.206943
0.495369 0.832105 0.207263
0.504143 0.83238 0.207767
0.515175 0.832395 0.207904
0.52958 0.8327 0.208682
0.547402 0.832868 0.209506
0.568627 0.833005 0.210498
0.593774 0.832929 0.21146
0.622629 0.833188 0.212757
0.654017 0.833112 0.214237
0.687388 0.833234 0.216175
0.721965 0.833738 0.218814
0.756588 0.834623 0.223163
0.789334 0.835981 0.230716
0.820081 0.835416 0.26569
0.849485 0.834806 0.300359
0.876448 0.837552 0.30808
0.89955 0.840589 0.320424
0.919219 0.843717 0.336172
0.935927 0.84683 0.354116
0.949264 0.849958 0.373007
0.960037 0.852857 0.391745
0.968994 0.855634 0.40914
0.97554 0.857877 0.424598
0.980911 0.859998 0.43798
0.984741 0.861555 0.448966
0.987961 0.86302 0.458167
0.522622 0.86067 0.24094
0.528237 0.860761 0.241306
0.53341 0.860945 0.241764
0.538735 0.861006 0.242115
0.543511 0.861036 0.242451
0.548379 0.860883 0.242466
0.553201 0.86096 0.242741
0.558953 0.861036 0.243198
0.566308 0.861143 0.243824
0.57612 0.861143 0.244526
0.587869 0.860914 0.245243
0.602747 0.861051 0.246448
0.621256 0.861051 0.248157
0.642435 0.860899 0.249943
0.666957 0.860731 0.25243
0.694408 0.860929 0.25594
0.723308 0.86099 0.260365
0.753445 0.861265 0.266377
0.78352 0.862089 0.274403
0.81265 0.863355 0.285512
0.83978 0.863127 0.316915
0.865461 0.862501 0.352026
0.888869 0.863752 0.375372
0.909606 0.866468 0.391852
0.927275 0.869429 0.411093
0.941726 0.872312 0.43151
0.953582 0.87509 0.451789
0.963378 0.877714 0.47126
0.971023 0.880232 0.489403
0.976959 0.882536 0.505196
0.98201 0.884474 0.518395
0.985306 0.885939 0.529458
0.98793 0.887327 0.538689
0.588174 0.883604 0.279484
0.592721 0.883558 0.279927
0.596887 0.88365 0.280522
0.601251 0.883635 0.28101
0.605402 0.883665 0.281529
0.609369 0.883696 0.282078
0.613443 0.883665 0.282551
0.61799 0.883726 0.283223
0.624323 0.88368 0.284001
0.631861 0.883436 0.284566
0.641855 0.883406 0.286
0.654292 0.883375 0.287877
0.669459 0.883009 0.28986
0.687526 0.882963 0.293248
0.708278 0.882734 0.297108
0.731411 0.88304 0.30277
0.756359 0.883131 0.309651
0.782086 0.883497 0.318776
0.808423 0.884016 0.330266
0.833906 0.885084 0.344854
0.857557 0.885191 0.375082
0.879927 0.8851 0.410239
0.900557 0.885039 0.443397
0.918486 0.887587 0.46302
0.934127 0.890242 0.484428
0.946929 0.893004 0.506188
0.957244 0.895644 0.527657
0.965774 0.898085 0.54728
0.97258 0.900649 0.564981
0.977768 0.902708 0.580316
0.982116 0.904646 0.593484
0.985199 0.906065 0.604028
0.987655 0.907439 0.612543
0.645441 0.901045 0.321462
0.649149 0.901015 0.322133
0.652781 0.900984 0.322805
0.656016 0.90103 0.323552
0.659495 0.900999 0.324163
0.662943 0.900969 0.32459
0.666072 0.900999 0.325353
0.670024 0.900954 0.326223
0.675242 0.900877 0.327337
