public/textures/grade/Panasonic/Cliff-VLog.cube
TITLE "Generated by Resolve"
LUT_3D_SIZE 9
0 0 0
0.0238041 0 0
0.0966506 0 0
0.220279 0 0
0.344717 0 0
0.376242 0.000381476 0
0.320745 0.00660716 0
0.223407 0.0520333 0.0320897
0.160952 0.0800641 0.0720836
0 0.0168612 0
0.0181277 0.0112612 0
0.091249 0.00602731 0
0.232868 0.00549325 0
0.389471 0.0214084 0
0.4663 0.0222629 0
0.442756 0.0394598 0
0.362875 0.0867628 0.0193027
0.301289 0.116686 0.0764019
0 0.0743572 0
0.0052491 0.0712139 0
0.0865644 0.0634775 0
0.22855 0.0577707 0
0.426383 0.0612802 0
0.54902 0.0617685 0
0.564431 0.097612 0
0.52137 0.141329 0
0.47834 0.171389 0.0575265
0 0.181689 0
0 0.189883 0
0.0699168 0.192126 0
0.221195 0.182193 0
0.455116 0.162249 0
0.627604 0.17911 0
0.69987 0.22092 0
0.71017 0.26363 0
0.701732 0.291264 0.0134127
0 0.371466 0
0.0446021 0.390784 0
0.108995 0.401419 0
0.231342 0.408164 0
0.465232 0.402075 0
0.687999 0.409827 0
0.809705 0.441886 0
0.861799 0.476249 0
0.879393 0.497292 0
0.176181 0.630716 0.0615396
0.21474 0.641276 0.0674296
0.257252 0.648524 0.0733196
0.35877 0.656153 0.0846723
0.543893 0.659419 0.0806897
0.743267 0.66389 0.0627146
0.876265 0.682521 0.0221103
0.941299 0.702403 0.0938277
0.967529 0.7149 0.154925
0.45185 0.830549 0.205127
0.476722 0.831479 0.206317
0.504143 0.83238 0.207767
0.568627 0.833005 0.210498
0.687388 0.833234 0.216175
0.820081 0.835416 0.26569
0.919219 0.843717 0.336172
0.968994 0.855634 0.40914
0.987961 0.86302 0.458167
0.693889 0.914397 0.365927
0.705043 0.914 0.368841
0.717647 0.913893 0.372946
0.748455 0.91368 0.384039
0.810101 0.91397 0.416419
0.886641 0.916625 0.494377
0.944762 0.920668 0.61323
0.975891 0.930877 0.688563
0.988708 0.937652 0.72958
0.804883 0.942168 0.52079
0.810315 0.942031 0.5252
0.816907 0.942138 0.530251
0.833555 0.942229 0.544732
0.870085 0.943694 0.582757
0.919799 0.947921 0.656245
0.959976 0.952605 0.758953
0.984527 0.963348 0.817288
0.99498 0.96965 0.84622
0 0 0.0451514
0.0211643 0 0.0438849
0.0990005 0 0.0260471
0.239643 0 0
0.377386 0 0
0.422889 0 0
0.375937 0 0
0.282719 0.0396582 0.0216526
0.218265 0.0706035 0.0627146
0 0.0175784 0.0344701
0.0122377 0.0141756 0.0323644
0.103212 0.00228885 0.0114443
0.25655 0 0
0.429892 0.000915541 0
0.519188 0.00547799 0
0.505364 0.0391546 0
0.435859 0.0837262 0.00660716
0.377874 0.111711 0.0606088
0 0.0766613 0.00840772
0 0.0770886 0.00672923
0.082887 0.0690166 0.00323491
0.255253 0.0479133 0
0.467521 0.0439155 0
0.597116 0.0580911 0
0.623117 0.0994888 0
0.592309 0.139361 0
0.55668 0.166827 0.0345006
0 0.188754 0
0 0.197681 0
0.0611276 0.200656 0
0.224887 0.188983 0
0.481788 0.166033 0
0.66743 0.181781 0
0.747265 0.222477 0
0.764752 0.263828 0
0.761212 0.290211 0
0 0.382177 0
0.0335241 0.403082 0
0.099321 0.414099 0
0.226246 0.420447 0.00488289
0.474968 0.410834 0
0.711238 0.414328 0
0.838102 0.444984 0
0.892393 0.478859 0
0.91136 0.499718 0
0.170672 0.639643 0.0739757
0.208835 0.650248 0.0796521
0.250553 0.657176 0.0851453
0.353506 0.664866 0.0956893
0.543374 0.665797 0.0923171
0.748486 0.66836 0.0725109
0.884169 0.685908 0.0319371
0.949676 0.705272 0.107149
0.975814 0.717449 0.166201
0.45185 0.830579 0.205173
0.476722 0.831495 0.206348
0.504128 0.83241 0.207797
0.568643 0.833036 0.210544
0.687404 0.833265 0.216205
0.820096 0.835447 0.265751
0.919219 0.843748 0.336248
0.968994 0.855665 0.409216
0.987961 0.863035 0.458244
0.693889 0.914412 0.365957
0.705043 0.914015 0.368856
0.717647 0.913909 0.372976
0.748455 0.91368 0.38407
0.810101 0.91397 0.416449
0.886656 0.91664 0.494408
0.944762 0.920668 0.61326
0.975891 0.930892 0.688594
0.988708 0.937652 0.72961
0.804883 0.942184 0.520821
0.810315 0.942031 0.525216
0.816907 0.942138 0.530282
0.833555 0.942245 0.544747
0.870085 0.943694 0.582773
0.919799 0.947921 0.65626
0.959976 0.952621 0.758968
0.984527 0.963363 0.817304
0.99498 0.96965 0.84625
0 0 0.11371
0.0163272 0 0.11841
0.0916152 0 0.108598
0.242267 0 0.0460517
0.403037 0 0
0.463706 0 0
0.42826 0 0
0.342458 0.0223392 0.012726
0.278721 0.0564126 0.0547036
0 0.016495 0.1131
0.00881972 0.0136568 0.11841
0.0923018 0.0049897 0.10782
0.273533 0 0.0281529
0.467445 0 0
0.564279 0 0
0.564065 0.0352636 0
0.509239 0.0785229 0.000106813
0.459739 0.103029 0.0486915
0 0.076173 0.0845808
0 0.0778515 0.0870069
0.0726787 0.0739605 0.0834211
0.260197 0.058854 0.0350195
0.496849 0.0470588 0
0.637568 0.0668193 0
0.676249 0.105913 0
0.658228 0.142321 0
0.630884 0.167254 0.035584
0 0.192615 0.0363775
0 0.205249 0.0353246
0.0485084 0.209476 0.0406348
0.22707 0.196506 0.033341
0.508537 0.171557 0
0.70692 0.187091 0
0.794095 0.227008 0
0.817929 0.267674 0
0.818509 0.29308 0.0219577
0 0.394568 0.0227054
0.0191958 0.416999 0.0270542
0.0851301 0.429511 0.0337682
0.218341 0.436286 0.0469215
0.486793 0.421622 0.0174868
0.740642 0.420401 0
0.872312 0.450034 0
0.928725 0.483452 0
0.948684 0.503975 0.0406958
0.157183 0.65948 0.116411
0.194003 0.670497 0.119478
0.235538 0.677714 0.123232
0.339727 0.684886 0.131411
0.541207 0.681773 0.129686
0.760479 0.678965 0.11696
0.902296 0.693584 0.0906691
0.968627 0.711986 0.165591
0.993973 0.723613 0.219409
0.436912 0.845899 0.23856
0.462608 0.846433 0.23978
0.491051 0.846998 0.241505
0.558953 0.846235 0.245335
0.683742 0.843778 0.253697
0.822324 0.843412 0.301213
0.923171 0.849607 0.380926
0.972412 0.86096 0.455283
0.991089 0.868391 0.503532
0.693889 0.914412 0.365988
0.705028 0.914015 0.368902
0.717632 0.913924 0.373007
0.748455 0.913695 0.3841
0.810101 0.913985 0.41648
0.886656 0.916655 0.494453
0.944762 0.920684 0.613321
0.975891 0.930907 0.68864
0.988708 0.937667 0.729656
0.804883 0.942184 0.520836
0.810315 0.942046 0.525246
0.816907 0.942138 0.530297
0.833555 0.942245 0.544778
0.870085 0.943709 0.582803
0.919814 0.947921 0.656291
0.959991 0.952621 0.758984
0.984527 0.963363 0.817319
0.99498 0.969665 0.846265
0 0 0.225742
0.00717174 0 0.244373
0.0756085 0 0.247562
0.2215 0 0.209613
0.408774 0 0.0692454
0.498695 0 0
0.483116 0 0
0.412268 0 0.0112917
0.352071 0.0354772 0.0578317
0 0.0157473 0.25037
0.00180056 0.013962 0.273442
0.0767071 0.00747692 0.277317
0.250263 0 0.233448
0.489998 0 0.0680705
0.619608 0 0
0.641428 0 0
0.609491 0.0438392 0.00259403
0.574319 0.0712291 0.0462196
0 0.0735637 0.229633
0 0.0762493 0.251133
0.0655222 0.0739757 0.261219
0.252415 0.0546731 0.231693
0.535653 0 0.0567941
0.689067 0.0293889 0
0.742214 0.0865644 0
0.741238 0.126177 0.0232548
0.726482 0.151125 0.0709392
0 0.192462 0.174594
0 0.206897 0.18677
0.0380255 0.214893 0.19324
0.216327 0.206638 0.184817
0.530388 0.187228 0.0897688
0.746456 0.203113 0.00595102
0.842634 0.242985 0.0275273
0.874281 0.282353 0.102922
0.880293 0.306996 0.152667
0 0.405707 0.136828
0 0.430686 0.138567
0.0563211 0.444999 0.141741
0.201572 0.454597 0.147524
0.497124 0.434806 0.1252
0.772931 0.430045 0
0.909239 0.45977 0.0387427
0.966522 0.493294 0.13959
0.987427 0.513603 0.194629
0.131487 0.679408 0.210178
0.169711 0.691386 0.211093
0.212268 0.699565 0.212467
0.318914 0.706813 0.215793
0.534188 0.700175 0.216358
0.771389 0.691051 0.2168
0.91902 0.702815 0.221424
0.985016 0.7205 0.286778
1 0.73228 0.332372
0.406516 0.86894 0.346334
0.433921 0.869108 0.34757
0.464652 0.868971 0.349065
0.537346 0.866239 0.353597
0.673655 0.859678 0.366613
0.82208 0.856611 0.406683
0.924712 0.859327 0.497276
0.973922 0.870451 0.565301
0.992187 0.878035 0.606744
0.679057 0.931212 0.507408
0.691463 0.930648 0.511284
0.705333 0.930037 0.51545
0.738781 0.92845 0.52752
0.805066 0.926711 0.559731
0.885573 0.928435 0.623209
0.944411 0.932174 0.723537
0.97673 0.94287 0.781353
0.989532 0.949615 0.811994
0.802121 0.950942 0.626551
0.80798 0.950729 0.630121
0.814862 0.950729 0.634974
0.832395 0.950683 0.647608
0.870024 0.951705 0.680125
0.921447 0.956161 0.739803
0.962875 0.962371 0.818906
0.987488 0.97232 0.867628
0.998077 0.978805 0.890867
0 0 0.368353
0 0 0.408377
0.0561685 0 0.434333
0.194125 0 0.417166
0.394034 0 0.333349
0.539086 0 0.197848
0.571542 0 0.108324
0.536522 0 0.103426
0.495384 0.0280003 0.122988
0 0.0265354 0.406012
0 0.0265965 0.451667
0.0600595 0.0233463 0.482963
0.218418 0.00721752 0.474418
0.466651 0 0.394583
0.653834 0 0.259236
0.722423 0 0.168185
0.723247 0.00590524 0.150027
0.706874 0.0395972 0.161486
0 0.0789502 0.405661
0 0.0831311 0.454978
0.0565957 0.0832227 0.490822
0.223133 0.0700694 0.495949
0.504845 0.0494392 0.424277
0.722286 0.0174411 0.296635
0.812131 0.0176242 0.218906
0.833692 0.0591135 0.2056
0.832227 0.0991226 0.215396
0 0.192691 0.377874
0 0.207904 0.424231
0.0432136 0.216388 0.456138
0.203265 0.214023 0.478752
0.526452 0.192782 0.429557
0.793408 0.165972 0.321523
0.913054 0.186236 0.275349
0.957397 0.228901 0.282963
0.969909 0.257893 0.298405
0 0.408881 0.352438
0 0.435172 0.371252
0.0460975 0.452186 0.382834
0.174609 0.467842 0.390829
0.486305 0.451179 0.372198
0.785 0.449897 0.327398
0.927825 0.481636 0.347189
0.987808 0.515084 0.384894
1 0.534722 0.41062
0.0867323 0.693019 0.400809
0.123247 0.705821 0.401068
0.164416 0.715328 0.401007
0.271748 0.726207 0.397498
0.512306 0.716899 0.394232
0.771038 0.702403 0.397818
0.925368 0.713146 0.415854
0.990662 0.731289 0.466133
1 0.743252 0.498802
0.360723 0.885115 0.512367
0.392447 0.885084 0.513664
0.426291 0.884245 0.514977
0.507713 0.880446 0.519173
0.656046 0.871153 0.530587
0.814862 0.86566 0.560113
0.919829 0.868254 0.631861
0.970321 0.880079 0.682689
0.98909 0.887922 0.713252
0.665629 0.941573 0.659968
0.679042 0.940749 0.663066
0.693812 0.939864 0.666285
0.729839 0.937911 0.675883
0.799741 0.935241 0.69958
0.883391 0.936996 0.744457
0.94464 0.942855 0.811231
0.977295 0.95346 0.853391
0.990662 0.960296 0.874891
0.802853 0.960113 0.762371
0.809003 0.960067 0.765209
0.816022 0.960052 0.7682
0.834165 0.959838 0.776867
0.872862 0.960754 0.798993
0.925109 0.965576 0.838056
0.968048 0.974777 0.88574
0.992142 0.983795 0.923079
1 0.990295 0.939162
0 0.0293126 0.487511
0 0.0304265 0.545205
0.0518807 0.0294194 0.602396
0.185718 0.01944 0.633707
0.41915 0 0.596567
0.612879 0.009308 0.517861
0.711055 0.0372778 0.427558
0.736568 0.0596933 0.374838
0.733776 0.0838178 0.355642
0 0.0703288 0.513878
0 0.074464 0.576318
0.0560922 0.0762798 0.635096
0.19791 0.0688182 0.673304
0.457084 0.0471046 0.64448
0.67454 0.0588083 0.575769
0.788556 0.0914473 0.496025
0.828489 0.115526 0.450767
0.836301 0.138537 0.433539
0 0.113298 0.527993
0.00047303 0.120897 0.592966
0.0576638 0.12604 0.651698
0.202808 0.121798 0.695506
0.480629 0.100542 0.675929
0.717128 0.111757 0.615381
0.842664 0.147265 0.545022
0.892241 0.17525 0.5075
0.906188 0.197742 0.493507
0 0.213077 0.53611
0.00268559 0.230121 0.60528
0.0573281 0.241779 0.657084
0.199542 0.246235 0.706996
0.4981 0.228122 0.70544
0.768826 0.236515 0.659098
0.913909 0.272007 0.605905
0.975372 0.304265 0.582437
0.996811 0.326619 0.575555
0 0.417029 0.558755
0.0246586 0.443976 0.603296
0.0713664 0.460822 0.633295
0.193027 0.477653 0.669032
0.470039 0.470573 0.681178
0.777264 0.467842 0.650736
0.94754 0.489128 0.621347
1 0.516777 0.617899
1 0.53521 0.621607
0.108202 0.697047 0.623835
0.142489 0.709819 0.632975
0.181353 0.719387 0.640055
0.27837 0.730892 0.646708
0.484672 0.730449 0.639796
0.754879 0.716121 0.629755
0.914244 0.728161 0.634211
0.980667 0.747417 0.658335
1 0.759731 0.675334
0.371206 0.887327 0.699351
0.397696 0.888197 0.699626
0.426307 0.888426 0.699504
0.497292 0.887388 0.698756
0.6336 0.882673 0.699641
0.804028 0.874266 0.716731
0.913405 0.878401 0.755703
0.965164 0.8907 0.786374
0.984558 0.899092 0.806043
0.669306 0.947112 0.781704
0.681376 0.946822 0.783307
0.694636 0.946563 0.78526
0.727626 0.945678 0.790097
0.798413 0.943252 0.805478
0.884108 0.944427 0.834333
0.946593 0.95317 0.872419
0.978988 0.962798 0.905303
0.992493 0.969635 0.920134
0.808682 0.967346 0.847013
0.814786 0.967391 0.848844
0.82208 0.967346 0.851011
0.840223 0.967208 0.857252
0.878965 0.967971 0.872099
0.930724 0.973312 0.898817
0.973098 0.983444 0.929732
0.996612 0.992554 0.957122
1 0.999023 0.969039
0 0.131167 0.571603
0.0146181 0.137804 0.627604
0.0651255 0.147066 0.712566
0.195209 0.150729 0.785214
0.449027 0.138521 0.802319
0.698024 0.13994 0.774441
0.833539 0.176211 0.739055
0.892775 0.227665 0.701106
0.913924 0.251667 0.682368
0.000518807 0.159884 0.587533
0.0176394 0.1682 0.645487
0.0684825 0.17995 0.726986
0.200153 0.186465 0.799405
0.460914 0.175036 0.819608
0.719387 0.176715 0.796368
0.859953 0.212726 0.76527
0.922179 0.263584 0.73106
0.945632 0.28806 0.714672
0.00222782 0.191348 0.600259
0.0209659 0.202441 0.661204
0.0722057 0.216526 0.738872
0.203723 0.225422 0.810117
0.469657 0.215595 0.833494
0.73724 0.217395 0.814557
0.882841 0.253361 0.788113
0.947662 0.302907 0.756786
0.972015 0.326925 0.742214
0.00715648 0.269474 0.623056
0.0302586 0.288441 0.690623
0.0797131 0.306477 0.755871
0.208759 0.321614 0.822553
0.478416 0.31548 0.851606
0.761608 0.316014 0.840589
0.916594 0.350576 0.820386
0.98587 0.395163 0.795102
1 0.417594 0.783841
0.0311894 0.442252 0.673487
0.0636912 0.472267 0.732464
0.108202 0.492119 0.771603
0.223758 0.512352 0.819135
0.472618 0.513054 0.84622
0.762325 0.507774 0.841718
0.927306 0.534173 0.826764
1 0.565545 0.811017
1 0.58294 0.805905
0.144594 0.705043 0.770336
0.178668 0.718425 0.786618
0.215961 0.727886 0.797986
0.310124 0.73962 0.813352
0.50428 0.740398 0.819089
0.744869 0.733364 0.813825
0.904646 0.744442 0.804196
0.978607 0.761364 0.803693
1 0.772625 0.806897
0.399985 0.888365 0.829526
0.425391 0.888945 0.829999
0.453712 0.889235 0.830228
0.52192 0.888579 0.829679
0.650477 0.885298 0.828092
0.797955 0.884504 0.831403
0.909468 0.889433 0.84802
0.960922 0.902174 0.86389
0.979797 0.910597 0.8757
0.693294 0.947906 0.866758
0.704631 0.947631 0.867384
0.717327 0.947402 0.868376
0.748394 0.947219 0.870848
0.809979 0.947997 0.878859
0.887541 0.952438 0.896178
0.949783 0.961242 0.919951
0.98172 0.971237 0.942046
0.99501 0.978317 0.952865
0.828504 0.969863 0.904555
0.833783 0.970062 0.90576
0.839994 0.970184 0.907073
0.855695 0.971084 0.910674
0.889326 0.973892 0.920104
0.937255 0.980026 0.938552
0.978408 0.990295 0.961227
1 1 0.980896
1 1 0.989776
0.0403143 0.246937 0.631861
0.045716 0.253208 0.661509
0.0878157 0.276356 0.763607
0.212238 0.296956 0.858473
0.463294 0.297902 0.903975
0.735958 0.301167 0.906859
0.896406 0.331212 0.896101
0.968109 0.367163 0.883558
0.995407 0.395575 0.871275
0.0426337 0.266011 0.641001
0.0493324 0.274144 0.674479
0.0914168 0.298619 0.772107
0.215 0.320363 0.863264
0.466835 0.322499 0.909102
0.741604 0.325154 0.91284
0.903822 0.354833 0.903471
0.976349 0.390249 0.891997
1 0.417578 0.87982
0.0457923 0.288518 0.651102
0.0531319 0.298375 0.688273
0.0953078 0.32401 0.780728
0.218326 0.347295 0.868498
0.469841 0.350072 0.913527
0.746853 0.352819 0.918669
0.910323 0.381262 0.909911
0.983307 0.415671 0.899123
1 0.442756 0.888075
0.0537575 0.34641 0.673518
0.0641184 0.362448 0.720821
0.107149 0.390127 0.799649
0.226825 0.415747 0.877104
0.474464 0.420645 0.919707
0.753841 0.422065 0.926207
0.920348 0.447944 0.919783
0.994598 0.48011 0.910842
1 0.504768 0.90016
0.0777142 0.477378 0.715724
0.100832 0.512413 0.784604
0.143282 0.537179 0.832441
0.252827 0.561929 0.885451
0.481758 0.568673 0.917556
0.75111 0.566979 0.922164
0.918532 0.584833 0.917586
0.992981 0.61236 0.909133
1 0.631571 0.901289
0.178912 0.71667 0.839704
0.212879 0.731899 0.860487
0.250187 0.742245 0.874449
0.342565 0.754604 0.893385
0.52781 0.757 0.902403
0.749004 0.753582 0.899565
0.897841 0.763104 0.895537
0.965408 0.782589 0.889052
0.99237 0.794522 0.887129
0.429129 0.890105 0.89749
0.455116 0.890913 0.898314
0.482994 0.89131 0.898695
0.549187 0.891432 0.898726
0.671656 0.889555 0.896544
0.809384 0.890867 0.897307
0.908736 0.899657 0.90486
0.960021 0.91194 0.911955
0.97818 0.920501 0.918822
0.715511 0.948745 0.913863
0.726162 0.948653 0.913985
0.738338 0.948775 0.914595
0.76759 0.949111 0.916274
0.825284 0.950896 0.92108
0.896651 0.957046 0.932448
0.953475 0.967529 0.949599
0.984802 0.978119 0.964935
0.997559 0.984817 0.972992
0.84448 0.971817 0.937133
0.849378 0.972061 0.937881
0.855268 0.972473 0.938872
0.869856 0.973617 0.941512
0.901305 0.977279 0.948684
0.944747 0.984939 0.962356
0.982986 0.995651 0.980133
1 1 0.995117
1 1 1
0.074052 0.323384 0.667689
0.0743267 0.324117 0.670314
0.106416 0.357015 0.781064
0.225589 0.389166 0.886046
0.469352 0.398657 0.940352
0.742535 0.402502 0.952544
0.910445 0.428656 0.94992
0.987137 0.460594 0.94284
1 0.480629 0.937087
0.0765087 0.338506 0.674952
0.0772717 0.340612 0.681804
0.109865 0.374151 0.788235
0.228382 0.40676 0.889479
0.471092 0.416571 0.942214
0.744503 0.420188 0.954513
0.912856 0.445594 0.952514
0.989487 0.476875 0.945266
1 0.496559 0.940063
0.0795453 0.356085 0.683207
0.0808576 0.359808 0.694804
0.114168 0.393668 0.79617
0.231785 0.427131 0.89276
0.472923 0.437003 0.943877
0.746151 0.440604 0.95613
0.91458 0.464775 0.953979
0.991623 0.495018 0.947509
1 0.514672 0.942824
0.0880293 0.402457 0.702968
0.0910811 0.411704 0.72752
0.12639 0.446632 0.815793
0.241367 0.480125 0.900008
0.477394 0.490593 0.946685
0.748089 0.493141 0.957732
0.917082 0.514931 0.956329
0.994171 0.542947 0.950317
1 0.561257 0.946334
0.111925 0.51194 0.744274
0.124697 0.54023 0.798764
0.164782 0.570336 0.855207
0.271992 0.598962 0.911574
0.490455 0.609033 0.945281
0.746532 0.608621 0.952132
0.911894 0.624765 0.949966
0.987182 0.648051 0.94461
1 0.664668 0.938582
0.198871 0.725002 0.864378
0.232227 0.742428 0.888197
0.27013 0.754009 0.904448
0.362448 0.76704 0.924804
0.543206 0.770565 0.93434
0.753414 0.769116 0.932342
0.895994 0.779248 0.928237
0.961654 0.796353 0.924544
0.98674 0.808988 0.920562
0.446906 0.89221 0.92575
0.472786 0.893126 0.926452
0.500557 0.893706 0.926986
0.566537 0.893889 0.927016
0.685786 0.893034 0.924956
0.817533 0.895644 0.924681
0.911727 0.905425 0.930022
0.959625 0.918151 0.935225
0.978943 0.926192 0.93933
0.728374 0.949645 0.934081
0.738979 0.949691 0.934325
0.750744 0.949828 0.934722
0.779263 0.950347 0.936065
0.834806 0.952865 0.939941
0.903181 0.95993 0.949035
0.95642 0.971283 0.963226
0.986893 0.98204 0.975952
0.999527 0.988815 0.983063
0.85359 0.97319 0.95172
0.858412 0.973663 0.952392
0.863859 0.973983 0.953246
0.878126 0.975494 0.955749
0.908309 0.979217 0.961608
0.950011 0.987411 0.973648
0.985855 0.998962 0.988922
1 1 1
1 1 1
