public/textures/grade/Panasonic/Cliff-VLog.cube
TITLE "Generated by Resolve"
LUT_3D_SIZE 5
0 0 0
0.0966506 0 0
0.344717 0 0
0.320745 0.00660716 0
0.160952 0.0800641 0.0720836
0 0.0743572 0
0.0865644 0.0634775 0
0.426383 0.0612802 0
0.564431 0.097612 0
0.47834 0.171389 0.0575265
0 0.371466 0
0.108995 0.401419 0
0.465232 0.402075 0
0.809705 0.441886 0
0.879393 0.497292 0
0.45185 0.830549 0.205127
0.504143 0.83238 0.207767
0.687388 0.833234 0.216175
0.919219 0.843717 0.336172
0.987961 0.86302 0.458167
0.804883 0.942168 0.52079
0.816907 0.942138 0.530251
0.870085 0.943694 0.582757
0.959976 0.952605 0.758953
0.99498 0.96965 0.84622
0 0 0.11371
0.0916152 0 0.108598
0.403037 0 0
0.42826 0 0
0.278721 0.0564126 0.0547036
0 0.076173 0.0845808
0.0726787 0.0739605 0.0834211
0.496849 0.0470588 0
0.676249 0.105913 0
0.630884 0.167254 0.035584
0 0.394568 0.0227054
0.0851301 0.429511 0.0337682
0.486793 0.421622 0.0174868
0.872312 0.450034 0
0.948684 0.503975 0.0406958
0.436912 0.845899 0.23856
0.491051 0.846998 0.241505
0.683742 0.843778 0.253697
0.923171 0.849607 0.380926
0.991089 0.868391 0.503532
0.804883 0.942184 0.520836
0.816907 0.942138 0.530297
0.870085 0.943709 0.582803
0.959991 0.952621 0.758984
0.99498 0.969665 0.846265
0 0 0.368353
0.0561685 0 0.434333
0.394034 0 0.333349
0.571542 0 0.108324
0.495384 0.0280003 0.122988
0 0.0789502 0.405661
0.0565957 0.0832227 0.490822
0.504845 0.0494392 0.424277
0.812131 0.0176242 0.218906
0.832227 0.0991226 0.215396
0 0.408881 0.352438
0.0460975 0.452186 0.382834
0.486305 0.451179 0.372198
0.927825 0.481636 0.347189
1 0.534722 0.41062
0.360723 0.885115 0.512367
0.426291 0.884245 0.514977
0.656046 0.871153 0.530587
0.919829 0.868254 0.631861
0.98909 0.887922 0.713252
0.802853 0.960113 0.762371
0.816022 0.960052 0.7682
0.872862 0.960754 0.798993
0.968048 0.974777 0.88574
1 0.990295 0.939162
0 0.131167 0.571603
0.0651255 0.147066 0.712566
0.449027 0.138521 0.802319
0.833539 0.176211 0.739055
0.913924 0.251667 0.682368
0.00222782 0.191348 0.600259
0.0722057 0.216526 0.738872
0.469657 0.215595 0.833494
0.882841 0.253361 0.788113
0.972015 0.326925 0.742214
0.0311894 0.442252 0.673487
0.108202 0.492119 0.771603
0.472618 0.513054 0.84622
0.927306 0.534173 0.826764
1 0.58294 0.805905
0.399985 0.888365 0.829526
0.453712 0.889235 0.830228
0.650477 0.885298 0.828092
0.909468 0.889433 0.84802
0.979797 0.910597 0.8757
0.828504 0.969863 0.904555
0.839994 0.970184 0.907073
0.889326 0.973892 0.920104
0.978408 0.990295 0.961227
1 1 0.989776
0.074052 0.323384 0.667689
0.106416 0.357015 0.781064
0.469352 0.398657 0.940352
0.910445 0.428656 0.94992
1 0.480629 0.937087
0.0795453 0.356085 0.683207
0.114168 0.393668 0.79617
0.472923 0.437003 0.943877
0.91458 0.464775 0.953979
1 0.514672 0.942824
0.111925 0.51194 0.744274
0.164782 0.570336 0.855207
0.490455 0.609033 0.945281
0.911894 0.624765 0.949966
1 0.664668 0.938582
0.446906 0.89221 0.92575
0.500557 0.893706 0.926986
0.685786 0.893034 0.924956
0.911727 0.905425 0.930022
0.978943 0.926192 0.93933
0.85359 0.97319 0.95172
0.863859 0.973983 0.953246
0.908309 0.979217 0.961608
0.985855 0.998962 0.988922
1 1 1
