public/textures/grade/Panasonic/Gems-VLog.cube
TITLE "Generated by Resolve"
LUT_3D_SIZE 5
0 0 0.00790417
0.083772 0 0
0.501884 0.188693 0
0.468116 0.468116 0.468116
0.523156 0.523156 0.523156
0 0.0459907 0.00944533
0.035935 0.0493782 0
0.516472 0.19585 0
0.480552 0.480552 0.480552
0.540413 0.540413 0.540413
0 0.384955 0.232105
0 0.414878 0.248264
0.36846 0.401862 0.145327
0.581628 0.551705 0.512673
0.681102 0.623117 0.556039
0.400183 0.857908 0.670115
0.441871 0.860456 0.669001
0.618875 0.87306 0.6607
0.894102 0.897719 0.737804
0.941894 0.92903 0.818067
0.869245 0.963409 0.887755
0.882017 0.963745 0.893767
0.931426 0.968719 0.919936
0.993133 0.994522 0.983536
1 1 1
0 0 0.115785
0.0411688 0.00843824 0.119905
0.503517 0.167361 0
0.474601 0.474601 0.474601
0.529702 0.529702 0.529702
0 0.0481422 0.124483
0.0431373 0.0562753 0.0826581
0.554131 0.188174 0
0.49044 0.49044 0.49044
0.550698 0.550698 0.550698
0 0.398627 0.278904
0 0.427573 0.294255
0.385412 0.420661 0.206516
0.662089 0.567071 0.454749
0.798718 0.629328 0.457282
0.422217 0.862104 0.681468
0.464073 0.865583 0.681865
0.636423 0.879423 0.676951
0.901106 0.904463 0.758556
0.946899 0.935256 0.836515
0.869261 0.963424 0.88777
0.882033 0.963745 0.893782
0.931441 0.968734 0.919966
0.993149 0.994522 0.983566
1 1 1
0 0 0.441596
0 0 0.521614
0.445838 0.269581 0.709224
0.745296 0.520088 0.46247
0.602869 0.601068 0.600412
0 0.00898756 0.480156
0 0.0425116 0.561913
0.441566 0.289326 0.686122
0.865812 0.527504 0.451179
0.787594 0.601358 0.548882
0.125109 0.25861 0.289677
0 0.379538 0.48603
0.405737 0.442176 0.507805
1 0.562005 0.400397
1 0.630869 0.472358
0.482673 0.877928 0.819944
0.5393 0.880201 0.82092
0.710903 0.893645 0.810987
0.925582 0.928191 0.85713
0.96527 0.955779 0.912139
0.927779 0.976349 0.955749
0.935027 0.978225 0.957946
0.965072 0.98735 0.970291
1 1 1
1 1 1
0.0401465 0.0401465 0.0401465
0.0848249 0.0848249 0.0848249
0.338842 0.275608 0.700435
0.883589 0.662837 1
0.972152 0.749233 1
0.0698711 0.0698711 0.0698711
0.125704 0.125704 0.125704
0.364233 0.296086 0.816388
0.8869 0.672572 1
0.965774 0.752316 1
0.240772 0.240772 0.240772
0.31989 0.31989 0.31989
0.397253 0.5028 0.975433
0.851575 0.719768 0.965927
0.920699 0.793576 0.937163
0.564034 0.894331 0.998474
0.611597 0.899535 0.994034
0.772305 0.914473 0.969039
0.94873 0.950042 0.953201
0.980224 0.973922 0.97319
0.96083 0.988037 0.995224
0.966476 0.989487 0.995468
0.990234 0.99675 0.998169
1 1 1
1 1 1
0.168933 0.168933 0.168933
0.215457 0.215457 0.215457
0.388266 0.401801 0.946273
0.866697 0.681834 1
0.942611 0.767361 1
0.192325 0.192325 0.192325
0.244404 0.244404 0.244404
0.39408 0.434287 0.976867
0.862119 0.691722 1
0.936538 0.775433 1
0.310582 0.310582 0.310582
0.397436 0.397436 0.397436
0.44303 0.616068 1
0.851087 0.761257 1
0.912367 0.828855 0.972717
0.605585 0.903441 1
0.656718 0.909529 1
0.806851 0.927443 0.996429
0.961288 0.963256 0.972427
0.986862 0.985656 0.988495
0.978302 0.99321 0.999146
0.983398 0.994797 0.999344
1 1 1
1 1 1
1 1 1
