public/textures/grade/Panasonic/Gems-VLog.cube
TITLE "Generated by Resolve"
LUT_3D_SIZE 33
0 0 0.00790417
0 0 0.00535592
0.00234989 0.000976577 0.00350958
0.0111696 0.000640879 0.000961318
0.0218509 0 0
0.0343328 0 0
0.0471046 0 0
0.0623178 0 0
0.083772 0 0
0.113954 0 0
0.15375 0 0
0.205356 0.00234989 0
0.269627 0.01149 0
0.347707 0.0298924 0
0.437034 0.0623331 0
0.506767 0.116579 0
0.501884 0.188693 0
0.37882 0.270924 0.174441
0.328878 0.328878 0.328878
0.364065 0.364065 0.364065
0.391638 0.391638 0.391638
0.412131 0.412131 0.412131
0.427771 0.427771 0.427771
0.449104 0.449104 0.449104
0.468116 0.468116 0.468116
0.483268 0.483268 0.483268
0.494774 0.494774 0.494774
0.503487 0.503487 0.503487
0.510079 0.510079 0.510079
0.514961 0.514961 0.514961
0.518547 0.518547 0.518547
0.521218 0.521218 0.521218
0.523156 0.523156 0.523156
0 0.000991836 0.00874342
0 0.000747692 0.00636301
0.00228885 0.00141909 0.0027924
0.011017 0.00102235 0.000396735
0.0216831 0.000442512 0
0.0335699 6.10361e-05 0
0.0460975 0 0
0.0614939 0 0
0.0830243 0 0
0.113481 0 0
0.153735 0 0
0.205417 0.00306706 0
0.269749 0.0124056 0
0.347829 0.0309606 0
0.437125 0.0634165 0
0.507042 0.11751 0
0.502785 0.189441 0
0.378683 0.271305 0.175128
0.329122 0.329122 0.329122
0.364294 0.364294 0.364294
0.391806 0.391806 0.391806
0.412299 0.412299 0.412299
0.427832 0.427832 0.427832
0.449256 0.449256 0.449256
0.468757 0.468757 0.468757
0.483879 0.483879 0.483879
0.495399 0.495399 0.495399
0.504189 0.504189 0.504189
0.510765 0.510765 0.510765
0.51574 0.51574 0.51574
0.51928 0.51928 0.51928
0.521996 0.521996 0.521996
0.523903 0.523903 0.523903
0 0.00514229 0.00758373
0 0.00477607 0.00561532
0.000503548 0.00419623 0.00231937
0.00833143 0.00389105 0
0.0189364 0.00343328 0
0.0313573 0.00296025 0
0.0441749 0.00259403 0
0.0598154 0.00201419 0
0.0815595 0.00122072 0
0.112291 0.000885023 0
0.152728 0.00204471 0
0.204623 0.00624094 0
0.269047 0.0158541 0
0.347127 0.0346532 0
0.436759 0.0676127 0
0.50811 0.121141 0
0.506569 0.191806 0
0.378897 0.272404 0.176364
0.329915 0.329915 0.329915
0.364981 0.364981 0.364981
0.392477 0.392477 0.392477
0.413001 0.413001 0.413001
0.428199 0.428199 0.428199
0.451698 0.451698 0.451698
0.471138 0.471138 0.471138
0.48632 0.48632 0.48632
0.497948 0.497948 0.497948
0.506783 0.506783 0.506783
0.513436 0.513436 0.513436
0.518364 0.518364 0.518364
0.522026 0.522026 0.522026
0.524819 0.524819 0.524819
0.526772 0.526772 0.526772
0 0.00953689 0.00791943
0 0.00909438 0.00598154
0 0.00900282 0.00297551
0.00321965 0.00883497 0.000762951
0.014313 0.00827039 0
0.0271763 0.0074464 0
0.0408484 0.00666819 0
0.057435 0.00570687 0
0.0798199 0.00436408 0
0.110658 0.00395209 0
0.150698 0.00509651 0
0.202396 0.00936904 0
0.266957 0.0193484 0
0.345174 0.0384985 0
0.435035 0.071519 0
0.507942 0.124086 0
0.510048 0.193591 0
0.380926 0.273014 0.174929
0.330541 0.330541 0.330541
0.36556 0.36556 0.36556
0.393072 0.393072 0.393072
0.413581 0.413581 0.413581
0.429526 0.429526 0.429526
0.45388 0.45388 0.45388
0.47335 0.47335 0.47335
0.488502 0.488502 0.488502
0.500145 0.500145 0.500145
0.509071 0.509071 0.509071
0.515892 0.515892 0.515892
0.520928 0.520928 0.520928
0.524666 0.524666 0.524666
0.527428 0.527428 0.527428
0.529488 0.529488 0.529488
0 0.0148928 0.00842298
0 0.0144045 0.00627146
0 0.014847 0.00347906
0 0.0160525 0
0.00764477 0.0146334 0
0.020798 0.0140841 0
0.0346838 0.013138 0
0.0517281 0.0120394 0
0.0741283 0.0105287 0
0.106188 0.00915541 0
0.148028 0.00881972 0
0.199084 0.0129549 0
0.263401 0.0227359 0
0.341573 0.0419471 0
0.431861 0.0752117 0
0.506584 0.12665 0
0.512169 0.194644 0
0.384695 0.273198 0.170886
0.33106 0.33106 0.33106
0.365988 0.365988 0.365988
0.393469 0.393469 0.393469
0.414054 0.414054 0.414054
0.432212 0.432212 0.432212
0.45565 0.45565 0.45565
0.475135 0.475135 0.475135
0.49044 0.49044 0.49044
0.502235 0.502235 0.502235
0.511193 0.511193 0.511193
0.517968 0.517968 0.517968
0.523186 0.523186 0.523186
0.526955 0.526955 0.526955
0.5299 0.5299 0.5299
0.532052 0.532052 0.532052
0 0.0210422 0.00901808
0 0.0209201 0.00648508
0 0.0216983 0.00411994
0 0.0227817 0.00077821
0 0.022446 0
0.0128481 0.0214237 0
0.0268559 0.0207828 0
0.0444038 0.0197604 0
0.0674296 0.0182956 0
0.099321 0.016495 0
0.141375 0.0156863 0
0.194797 0.0173342 0
0.259251 0.0265812 0
0.337118 0.0455329 0
0.427543 0.0784466 0
0.504234 0.128817 0
0.514427 0.195529 0
0.389914 0.272969 0.164508
0.33138 0.33138 0.33138
0.366293 0.366293 0.366293
0.393774 0.393774 0.393774
0.416007 0.416007 0.416007
0.434684 0.434684 0.434684
0.457313 0.457313 0.457313
0.476768 0.476768 0.476768
0.492027 0.492027 0.492027
0.503899 0.503899 0.503899
0.513054 0.513054 0.513054
0.519982 0.519982 0.519982
0.525277 0.525277 0.525277
0.529107 0.529107 0.529107
0.532097 0.532097 0.532097
0.534203 0.534203 0.534203
0 0.0273899 0.00920119
0 0.0274205 0.00654612
0 0.0284733 0.00456245
0 0.0297551 0.00155642
0 0.0315251 0
0.00468452 0.0292363 0
0.0188449 0.0285039 0
0.0364996 0.0276188 0
0.0596323 0.026154 0
0.091783 0.0242618 0
0.134463 0.0231785 0
0.188052 0.0242924 0
0.254841 0.0302281 0
0.332372 0.0487831 0
0.423011 0.0818647 0
0.50132 0.130571 0
0.516335 0.196017 0
0.39559 0.272541 0.157153
0.33164 0.33164 0.33164
0.366445 0.366445 0.366445
0.393957 0.393957 0.393957
0.418006 0.418006 0.418006
0.436866 0.436866 0.436866
0.458534 0.458534 0.458534
0.478035 0.478035 0.478035
0.493446 0.493446 0.493446
0.505409 0.505409 0.505409
0.514565 0.514565 0.514565
0.521538 0.521538 0.521538
0.526955 0.526955 0.526955
0.530892 0.530892 0.530892
0.53402 0.53402 0.53402
0.536309 0.536309 0.536309
0 0.0354467 0.00941482
0 0.0357214 0.00675975
0 0.0370794 0.00518807
0 0.0384222 0.00230411
0 0.0403601 0
0 0.0399023 0
0.00839246 0.0379339 0
0.0262608 0.0374609 0
0.0497292 0.0362249 0
0.0814221 0.0341955 0
0.124804 0.032517 0
0.179049 0.0330053 0
0.246647 0.038056 0
0.326253 0.0527199 0
0.416648 0.0848096 0
0.49691 0.132174 0
0.517067 0.196201 0
0.403494 0.271595 0.146273
0.331685 0.331685 0.331685
0.366537 0.366537 0.366537
0.394934 0.394934 0.394934
0.419852 0.419852 0.419852
0.439048 0.439048 0.439048
0.4598 0.4598 0.4598
0.479286 0.479286 0.479286
0.494652 0.494652 0.494652
0.506752 0.506752 0.506752
0.516075 0.516075 0.516075
0.523217 0.523217 0.523217
0.528725 0.528725 0.528725
0.532723 0.532723 0.532723
0.535882 0.535882 0.535882
0.53814 0.53814 0.53814
0 0.0459907 0.00944533
0 0.0466316 0.0069276
0 0.0482643 0.00567636
0 0.0500649 0.00329595
0 0.052079 0
0 0.0547189 0
0 0.0521706 0
0.0120851 0.049897 0
0.035935 0.0493782 0
0.0674907 0.0476844 0
0.111208 0.0457465 0
0.166354 0.045304 0
0.234516 0.0489967 0
0.315999 0.0606546 0
0.408072 0.0888533 0
0.490288 0.133928 0
0.516472 0.19585 0
0.414511 0.270085 0.130327
0.331609 0.331609 0.331609
0.366369 0.366369 0.366369
0.396628 0.396628 0.396628
0.422019 0.422019 0.422019
0.44152 0.44152 0.44152
0.460945 0.460945 0.460945
0.480552 0.480552 0.480552
0.496086 0.496086 0.496086
0.508156 0.508156 0.508156
0.51754 0.51754 0.51754
0.52491 0.52491 0.52491
0.53048 0.53048 0.53048
0.534768 0.534768 0.534768
0.538003 0.538003 0.538003
0.540413 0.540413 0.540413
0 0.0601968 0.00996414
0 0.0611276 0.00750744
0 0.0631418 0.00666819
0 0.065156 0.00448615
0 0.0673228 0.000686656
0 0.0699016 0
0 0.0721752 0
0 0.0684672 0
0.0180362 0.0657206 0
0.0496529 0.0651865 0
0.0922408 0.0630198 0
0.148852 0.0620127 0
0.218219 0.064271 0
0.300313 0.0738689 0
0.395575 0.0952163 0
0.481041 0.136202 0
0.514382 0.195331 0
0.429145 0.267887 0.108034
0.331395 0.331395 0.331395
0.366155 0.366155 0.366155
0.398276 0.398276 0.398276
0.424094 0.424094 0.424094
0.444205 0.444205 0.444205
0.462196 0.462196 0.462196
0.481758 0.481758 0.481758
0.497383 0.497383 0.497383
0.509834 0.509834 0.509834
0.519448 0.519448 0.519448
0.526833 0.526833 0.526833
0.532647 0.532647 0.532647
0.536904 0.536904 0.536904
0.540337 0.540337 0.540337
0.542916 0.542916 0.542916
0 0.0820783 0.0126345
0 0.0837873 0.0106661
0 0.0864576 0.0104524
0 0.0888075 0.00865187
0 0.0910201 0.00518807
0 0.0933394 0.000900282
0 0.095613 0
0 0.0977646 0
0 0.0930343 0
0.0265202 0.0890516 0
0.0674601 0.0873426 0
0.124804 0.0846265 0
0.195514 0.0850843 0
0.279362 0.0921492 0
0.375326 0.108721 0
0.467994 0.139116 0
0.509682 0.194736 0
0.44773 0.265003 0.0777447
0.3308 0.3308 0.3308
0.366949 0.366949 0.366949
0.399985 0.399985 0.399985
0.426261 0.426261 0.426261
0.446952 0.446952 0.446952
0.463416 0.463416 0.463416
0.483055 0.483055 0.483055
0.498741 0.498741 0.498741
0.51133 0.51133 0.51133
0.521157 0.521157 0.521157
0.528817 0.528817 0.528817
0.534859 0.534859 0.534859
0.539254 0.539254 0.539254
0.542809 0.542809 0.542809
0.545464 0.545464 0.545464
0 0.112306 0.0198978
0 0.114733 0.0188449
0 0.117662 0.0193332
0 0.120439 0.0184634
0 0.122652 0.0155795
0 0.124498 0.0115206
0 0.126436 0.0071107
0 0.128588 0
0 0.130938 0
0 0.1252 0
0.0391546 0.119921 0
0.0942702 0.117159 0
0.16582 0.114321 0
0.251377 0.115846 0
0.34905 0.126009 0
0.450782 0.149767 0
0.501198 0.194476 0
0.469535 0.261616 0.0386511
0.341741 0.328084 0.312749
0.367712 0.367712 0.367712
0.401419 0.401419 0.401419
0.428397 0.428397 0.428397
0.449744 0.449744 0.449744
0.466804 0.466804 0.466804
0.484398 0.484398 0.484398
0.500221 0.500221 0.500221
0.512764 0.512764 0.512764
0.522896 0.522896 0.522896
0.530724 0.530724 0.530724
0.53698 0.53698 0.53698
0.541588 0.541588 0.541588
0.545296 0.545296 0.545296
0.54789 0.54789 0.54789
0 0.15053 0.0349584
0 0.153521 0.0357824
0 0.156985 0.0374609
0 0.159899 0.0372931
0 0.16228 0.0353246
0 0.164294 0.0323796
0 0.16582 0.0283818
0 0.167697 0.022858
0 0.169879 0.0135805
0 0.172503 4.57771e-05
0.000579843 0.165759 0.00248722
0.0574197 0.158755 0
0.129412 0.1552 0
0.215808 0.152392 0
0.315877 0.155047 0
0.425055 0.167971 0
0.498192 0.199771 0
0.477089 0.257023 0.00384527
0.369207 0.322621 0.267979
0.368353 0.368353 0.368353
0.402533 0.402533 0.402533
0.430335 0.430335 0.430335
0.452461 0.452461 0.452461
0.470192 0.470192 0.470192
0.485603 0.485603 0.485603
0.501579 0.501579 0.501579
0.514244 0.514244 0.514244
0.524285 0.524285 0.524285
0.532387 0.532387 0.532387
0.538628 0.538628 0.538628
0.543618 0.543618 0.543618
0.547341 0.547341 0.547341
0.550332 0.550332 0.550332
0 0.197253 0.0636149
0 0.20119 0.0674144
0 0.204776 0.0699626
0 0.208042 0.0709697
0 0.21088 0.0706798
0 0.212802 0.0684825
0 0.214557 0.0657359
0 0.216114 0.0610819
0 0.218097 0.0538949
0 0.220203 0.0423133
0 0.222873 0.0231937
0.00987259 0.215442 0.024033
0.0844282 0.206516 0.0165866
0.173373 0.202274 0
0.274556 0.199619 0
0.388128 0.20322 0
0.489632 0.220005 0
0.504341 0.260044 0
0.419623 0.318914 0.19379
0.369924 0.369924 0.369924
0.403906 0.403906 0.403906
0.432349 0.432349 0.432349
0.455375 0.455375 0.455375
0.474083 0.474083 0.474083
0.489433 0.489433 0.489433
0.504341 0.504341 0.504341
0.517632 0.517632 0.517632
0.528344 0.528344 0.528344
0.536828 0.536828 0.536828
0.543847 0.543847 0.543847
0.549111 0.549111 0.549111
0.553506 0.553506 0.553506
0.556771 0.556771 0.556771
0 0.25304 0.11133
0 0.257542 0.116289
0 0.261524 0.119677
0 0.26511 0.12166
0 0.268147 0.12253
0 0.270298 0.121965
0 0.27219 0.120714
0 0.273869 0.118135
0 0.275944 0.114092
0 0.27779 0.106355
0 0.279652 0.0934462
0 0.281514 0.0701457
0.0250401 0.274922 0.0639506
0.123964 0.264363 0.0583505
0.227237 0.259403 0.00866712
0.341604 0.256947 0
0.462348 0.261616 0
0.536782 0.281941 0
0.501457 0.324636 0.0816968
0.418433 0.375296 0.318242
0.412894 0.412894 0.412894
0.441154 0.441154 0.441154
0.464637 0.464637 0.464637
0.484169 0.484169 0.484169
0.500938 0.500938 0.500938
0.514809 0.514809 0.514809
0.528298 0.528298 0.528298
0.539452 0.539452 0.539452
0.548501 0.548501 0.548501
0.5561 0.5561 0.5561
0.562081 0.562081 0.562081
0.566705 0.566705 0.566705
0.570489 0.570489 0.570489
0 0.316854 0.168231
0 0.321874 0.173342
0 0.326345 0.177203
0 0.330144 0.179812
0 0.333364 0.18146
0 0.335683 0.181827
0 0.337819 0.181933
0 0.339712 0.180941
0 0.342138 0.179492
0 0.344228 0.175692
0 0.34612 0.169055
0 0.347601 0.157641
0 0.34876 0.138766
0.0505684 0.344182 0.125185
0.178088 0.33164 0.12398
0.29337 0.326284 0.0650339
0.415396 0.324498 0
0.53402 0.330419 0
0.586267 0.350835 0
0.540932 0.387945 0.16434
0.476997 0.428611 0.361212
0.461021 0.461021 0.461021
0.484489 0.484489 0.484489
0.50457 0.50457 0.50457
0.521813 0.521813 0.521813
0.536599 0.536599 0.536599
0.549386 0.549386 0.549386
0.561028 0.561028 0.561028
0.570993 0.570993 0.570993
0.57879 0.57879 0.57879
0.585397 0.585397 0.585397
0.590326 0.590326 0.590326
0.594507 0.594507 0.594507
0 0.384955 0.232105
0 0.390799 0.237079
0 0.396445 0.241443
0 0.400687 0.244129
0 0.404288 0.246098
0 0.407141 0.247196
0 0.409751 0.248127
0 0.412009 0.248157
0 0.414878 0.248264
0 0.417411 0.246937
0 0.419745 0.243702
0 0.421683 0.237903
0 0.422751 0.227878
0.0338293 0.422919 0.211658
0.107179 0.420264 0.192813
0.247562 0.406287 0.194949
0.36846 0.401862 0.145327
0.491005 0.401404 0.0786755
0.604349 0.407385 0.0037232
0.66099 0.423575 0.0259403
0.648157 0.450675 0.151019
0.611887 0.481315 0.29427
0.587701 0.509056 0.400687
0.579004 0.532387 0.470039
0.581628 0.551705 0.512673
0.591989 0.567544 0.536385
0.60679 0.580453 0.547585
0.620584 0.591791 0.556481
0.633555 0.601678 0.563149
0.646082 0.609216 0.565225
0.659709 0.615213 0.562783
0.67155 0.619821 0.559487
0.681102 0.623117 0.556039
0 0.455116 0.300694
0 0.46244 0.30605
0 0.468162 0.309728
0 0.473259 0.312856
0 0.477089 0.314702
0 0.480735 0.316518
0 0.483467 0.317388
0 0.486778 0.318608
0 0.490242 0.319326
0 0.493477 0.319158
0 0.496406 0.317922
0 0.498665 0.314992
0.029633 0.500313 0.309712
0.0685283 0.500557 0.300282
0.112947 0.500175 0.285084
0.193484 0.498299 0.265705
0.331685 0.484337 0.268376
0.451362 0.482673 0.223789
0.564569 0.483833 0.182635
0.665751 0.490379 0.136294
0.741146 0.501762 0.112657
0.780957 0.518074 0.132021
0.799466 0.536675 0.175677
0.812116 0.554803 0.219226
0.826444 0.570962 0.252293
0.843885 0.584649 0.273823
0.861372 0.596246 0.288045
0.877546 0.606729 0.299168
0.889693 0.615625 0.309209
0.900496 0.622797 0.316014
0.910521 0.628809 0.320409
0.918624 0.633585 0.323659
0.924361 0.637003 0.325917
0 0.529259 0.371283
0 0.535607 0.375113
0 0.541314 0.3785
0 0.545739 0.380758
0 0.549905 0.382895
0 0.553124 0.384176
0 0.556329 0.385626
0 0.559716 0.386954
0 0.563149 0.387869
0 0.567102 0.388769
0.0217594 0.57055 0.388693
0.0500801 0.573327 0.387579
0.0850538 0.575341 0.384939
0.119966 0.576226 0.379675
0.155886 0.575921 0.370336
0.204868 0.577325 0.351614
0.304631 0.572824 0.341482
0.429999 0.56231 0.341268
0.537591 0.56434 0.299336
0.633356 0.567559 0.277775
0.715282 0.574914 0.255741
0.780835 0.584833 0.241779
0.829816 0.59649 0.24036
0.865385 0.609079 0.248493
0.891707 0.621515 0.260792
0.911604 0.633173 0.273899
0.927092 0.643763 0.286305
0.940322 0.653727 0.297429
0.950408 0.661982 0.306798
0.958251 0.669078 0.3149
0.964202 0.674876 0.321752
0.968917 0.679713 0.327657
0.972259 0.683284 0.332128
0 0.604654 0.438499
0 0.610178 0.441688
0.00247196 0.614618 0.444114
0.0119478 0.618738 0.446326
0.0205081 0.621927 0.447837
0.0296025 0.625086 0.449439
0.0386206 0.627832 0.450706
0.0491188 0.630686 0.451987
0.0629129 0.633768 0.453132
0.0815595 0.637324 0.454475
0.102693 0.640299 0.455085
0.125765 0.642817 0.454932
0.149859 0.644755 0.453635
0.175235 0.646082 0.450996
0.207141 0.646479 0.444205
0.251301 0.647898 0.430915
0.302739 0.652918 0.406867
0.426642 0.641703 0.41474
0.530755 0.636957 0.408392
0.620417 0.642206 0.3738
0.696193 0.647181 0.363653
0.758068 0.654994 0.354635
0.806851 0.664302 0.350683
0.84448 0.674464 0.351965
0.872984 0.684733 0.357015
0.894438 0.694545 0.363912
0.911696 0.704112 0.371969
0.924224 0.712428 0.380819
0.933455 0.719783 0.38996
0.940291 0.726452 0.399374
0.944976 0.731624 0.407172
0.948516 0.736141 0.41445
0.950973 0.739757 0.420539
0.0813916 0.677226 0.500496
0.0928969 0.681025 0.502846
0.103075 0.68423 0.504875
0.111589 0.686687 0.506325
0.120058 0.689082 0.50782
0.127779 0.691249 0.509209
0.134585 0.692958 0.51017
0.142473 0.69482 0.511162
0.152468 0.6972 0.512566
0.163882 0.699351 0.513497
0.177966 0.701991 0.514702
0.193408 0.704128 0.515099
0.210452 0.705776 0.514488
0.233234 0.707408 0.512352
0.264729 0.708705 0.506203
0.305715 0.710796 0.494911
0.352911 0.715557 0.476219
0.44506 0.711299 0.473976
0.544869 0.704112 0.477943
0.626429 0.705303 0.466117
0.695903 0.712077 0.441413
0.75169 0.717937 0.438468
0.795605 0.725261 0.437049
0.829648 0.733745 0.439841
0.856184 0.742702 0.446265
0.876982 0.751812 0.455009
0.892256 0.759854 0.464652
0.903487 0.767163 0.475013
0.911833 0.773693 0.485298
0.918074 0.77966 0.495537
0.922393 0.784314 0.503929
0.925689 0.788388 0.511559
0.928038 0.791638 0.517861
0.179095 0.738308 0.555871
0.185077 0.74023 0.557229
0.19118 0.742229 0.558724
0.196841 0.744015 0.560052
0.202152 0.745571 0.561166
0.206546 0.746715 0.561868
0.211215 0.748028 0.562783
0.216648 0.749432 0.563699
0.223377 0.751019 0.56466
0.23122 0.752621 0.565499
0.241093 0.754589 0.566522
0.25388 0.756329 0.566537
0.271519 0.75819 0.565362
0.295796 0.760403 0.562478
0.326497 0.762463 0.556146
0.364294 0.76524 0.545525
0.406699 0.770245 0.528984
0.484672 0.767666 0.525597
0.575372 0.760159 0.531884
0.648676 0.759258 0.52781
0.709316 0.764111 0.515831
0.75967 0.771298 0.504402
0.798352 0.777447 0.509804
0.828992 0.784878 0.517235
0.853117 0.792844 0.526772
0.871321 0.80058 0.538003
0.885039 0.807691 0.549737
0.895201 0.814145 0.561425
0.902998 0.820218 0.573236
0.908736 0.825208 0.583291
0.913039 0.829694 0.592721
0.916136 0.833021 0.599832
0.918486 0.835935 0.60621
0.251423 0.787472 0.603098
0.255665 0.788861 0.604166
0.259648 0.790127 0.605158
0.263218 0.79115 0.605905
0.266789 0.79202 0.606439
0.270634 0.792981 0.607004
0.274479 0.793896 0.607492
0.279149 0.794965 0.60798
0.285008 0.795911 0.608072
0.293492 0.797391 0.608347
0.304768 0.799084 0.608164
0.319265 0.800702 0.606989
0.338155 0.802457 0.604562
0.362768 0.804639 0.600443
0.392203 0.806867 0.593408
0.426596 0.810071 0.582528
0.46392 0.815564 0.566964
0.542596 0.809995 0.571893
0.61941 0.804089 0.579141
0.682704 0.803265 0.580575
0.735027 0.807111 0.578637
0.77818 0.813962 0.57525
0.812757 0.82089 0.578454
0.839414 0.827451 0.589349
0.86038 0.834485 0.602045
0.876524 0.841428 0.615564
0.888853 0.847898 0.628931
0.898192 0.85388 0.641917
0.90518 0.858961 0.653269
0.910674 0.863569 0.663874
0.914687 0.867353 0.672679
0.917861 0.870634 0.680415
0.920043 0.872969 0.685985
0.317556 0.82742 0.640314
0.32256 0.827985 0.640375
0.327031 0.828351 0.640238
0.331746 0.828824 0.640192
0.3364 0.829404 0.640162
0.340871 0.83006 0.640146
0.345312 0.830671 0.640101
0.350652 0.831373 0.640009
0.357122 0.832044 0.639536
0.366522 0.833097 0.639002
0.378637 0.83444 0.638193
0.393652 0.835782 0.636469
0.413153 0.837674 0.634195
0.436545 0.839719 0.630198
0.464118 0.842329 0.624201
0.49514 0.846098 0.615686
0.536751 0.849393 0.609064
0.609216 0.842771 0.621057
0.672175 0.839124 0.630045
0.724926 0.839307 0.635599
0.768719 0.842969 0.639933
0.804425 0.849027 0.644083
0.834669 0.85713 0.645518
0.857481 0.862974 0.659068
0.87541 0.86923 0.67332
0.889555 0.875517 0.687938
0.900465 0.881392 0.701854
0.908736 0.886625 0.714443
0.915251 0.891402 0.726162
0.920134 0.895277 0.735744
0.92401 0.898802 0.744503
0.926863 0.901457 0.751156
0.929137 0.903807 0.757061
0.400183 0.857908 0.670115
0.405463 0.858289 0.67013
0.409903 0.858457 0.669871
0.414939 0.858793 0.669856
0.419837 0.859144 0.669856
0.424659 0.859464 0.669764
0.429465 0.859754 0.669627
0.435187 0.860136 0.66952
0.441871 0.860456 0.669001
0.45153 0.861112 0.668666
0.4636 0.862135 0.668116
0.477592 0.863478 0.667033
0.495918 0.865431 0.665583
0.517006 0.86775 0.663127
0.542153 0.871061 0.659739
0.568963 0.875364 0.654414
0.618875 0.87306 0.6607
0.675166 0.868894 0.672328
0.725643 0.867369 0.682414
0.768566 0.868788 0.690867
0.804257 0.872755 0.69781
0.834012 0.878508 0.705592
0.85893 0.885405 0.713298
0.878874 0.892088 0.723278
0.894102 0.897719 0.737804
0.906279 0.903426 0.752346
0.916014 0.90898 0.766506
0.923445 0.913771 0.778836
0.929122 0.917906 0.78941
0.9337 0.921584 0.798871
0.937041 0.924437 0.806241
0.939788 0.92697 0.812757
0.941894 0.92903 0.818067
0.492973 0.881041 0.700908
0.497749 0.881392 0.701091
0.502419 0.881727 0.701244
0.506584 0.882002 0.701289
0.510567 0.882246 0.701198
0.514824 0.882582 0.70135
0.519081 0.882902 0.701427
0.524117 0.883299 0.701503
0.530694 0.883848 0.70161
0.539101 0.884581 0.701701
0.549065 0.885359 0.701396
0.562509 0.886687 0.701366
0.578164 0.888334 0.700923
0.596948 0.891051 0.70042
0.6177 0.894469 0.69897
0.647898 0.896483 0.70135
0.692943 0.892958 0.712383
0.736034 0.890883 0.723201
0.775692 0.891066 0.7337
0.809995 0.893645 0.742962
0.838987 0.897856 0.751842
0.863279 0.90312 0.761303
0.883665 0.909163 0.77203
0.900908 0.916106 0.780774
0.913893 0.921386 0.795148
0.924163 0.926467 0.808667
0.932494 0.931411 0.821729
0.939025 0.935805 0.833234
0.944137 0.93962 0.843229
0.948287 0.942992 0.852064
0.951278 0.945571 0.858793
0.95375 0.947799 0.864622
0.955627 0.949584 0.869276
0.582574 0.900008 0.733989
0.586557 0.900389 0.734356
0.590417 0.900771 0.734722
0.594217 0.901152 0.735012
0.597848 0.901534 0.735378
0.601434 0.9019 0.735668
0.604898 0.902281 0.735973
0.609094 0.902724 0.736278
0.614069 0.903227 0.736461
0.620752 0.90396 0.736751
0.629511 0.905028 0.737316
0.640452 0.906447 0.737957
0.653056 0.908186 0.738262
0.668742 0.910796 0.739101
0.686793 0.913863 0.739879
0.721294 0.911665 0.750134
0.755657 0.91014 0.760433
0.78854 0.909804 0.770245
0.818891 0.911086 0.779706
0.846326 0.914107 0.789334
0.870253 0.918502 0.79942
0.890272 0.923583 0.809903
0.906783 0.928969 0.820935
0.921004 0.935073 0.830625
0.932357 0.94052 0.843351
0.941314 0.945403 0.856519
0.948257 0.949676 0.867948
0.953765 0.953506 0.878065
0.958358 0.957076 0.887465
0.961898 0.959976 0.895079
0.964797 0.962539 0.901793
0.966888 0.964431 0.906737
0.968612 0.966064 0.910994
0.661204 0.91632 0.767865
0.664393 0.916732 0.768292
0.66746 0.917144 0.768795
0.670527 0.917525 0.769207
0.673503 0.917937 0.769635
0.676356 0.918334 0.770047
0.67921 0.91873 0.770443
0.682368 0.919158 0.770871
0.686229 0.919692 0.77116
