public/textures/grade/Panasonic/Gems-VLog.cube
TITLE "Generated by Resolve"
LUT_3D_SIZE 9
0 0 0.00790417
0.0218509 0 0
0.083772 0 0
0.269627 0.01149 0
0.501884 0.188693 0
0.391638 0.391638 0.391638
0.468116 0.468116 0.468116
0.510079 0.510079 0.510079
0.523156 0.523156 0.523156
0 0.0148928 0.00842298
0.00764477 0.0146334 0
0.0741283 0.0105287 0
0.263401 0.0227359 0
0.512169 0.194644 0
0.393469 0.393469 0.393469
0.475135 0.475135 0.475135
0.517968 0.517968 0.517968
0.532052 0.532052 0.532052
0 0.0459907 0.00944533
0 0.052079 0
0.035935 0.0493782 0
0.234516 0.0489967 0
0.516472 0.19585 0
0.396628 0.396628 0.396628
0.480552 0.480552 0.480552
0.52491 0.52491 0.52491
0.540413 0.540413 0.540413
0 0.15053 0.0349584
0 0.16228 0.0353246
0 0.169879 0.0135805
0.129412 0.1552 0
0.498192 0.199771 0
0.402533 0.402533 0.402533
0.485603 0.485603 0.485603
0.532387 0.532387 0.532387
0.550332 0.550332 0.550332
0 0.384955 0.232105
0 0.404288 0.246098
0 0.414878 0.248264
0 0.422751 0.227878
0.36846 0.401862 0.145327
0.648157 0.450675 0.151019
0.581628 0.551705 0.512673
0.633555 0.601678 0.563149
0.681102 0.623117 0.556039
0.0813916 0.677226 0.500496
0.120058 0.689082 0.50782
0.152468 0.6972 0.512566
0.210452 0.705776 0.514488
0.352911 0.715557 0.476219
0.695903 0.712077 0.441413
0.856184 0.742702 0.446265
0.911833 0.773693 0.485298
0.928038 0.791638 0.517861
0.400183 0.857908 0.670115
0.419837 0.859144 0.669856
0.441871 0.860456 0.669001
0.495918 0.865431 0.665583
0.618875 0.87306 0.6607
0.804257 0.872755 0.69781
0.894102 0.897719 0.737804
0.929122 0.917906 0.78941
0.941894 0.92903 0.818067
0.725994 0.930327 0.799908
0.735088 0.931777 0.801511
0.745632 0.933608 0.803586
0.771664 0.938369 0.808911
0.845701 0.937667 0.836759
0.919097 0.949157 0.873381
0.962112 0.968078 0.914565
0.981338 0.981796 0.950896
0.989258 0.989029 0.969665
0.869245 0.963409 0.887755
0.875273 0.963531 0.890578
0.882017 0.963745 0.893767
0.898375 0.964538 0.901671
0.931426 0.968719 0.919936
0.968627 0.980011 0.949187
0.993133 0.994522 0.983536
1 1 1
1 1 1
0 0 0.0385901
0.00956741 0.00125124 0.0401923
0.0681468 0.00888075 0.0181277
0.275303 0.00466926 0
0.506432 0.183627 0
0.390249 0.390249 0.390249
0.470588 0.470588 0.470588
0.512581 0.512581 0.512581
0.525673 0.525673 0.525673
0 0.014374 0.0477607
0.0090486 0.0158694 0.0299229
0.0717021 0.0158083 0.0096437
0.263294 0.0328069 0
0.509056 0.189258 0
0.39527 0.39527 0.39527
0.478508 0.478508 0.478508
0.521401 0.521401 0.521401
0.535576 0.535576 0.535576
0 0.0507362 0.0414435
0 0.053254 0.0333562
0.0385748 0.0536049 0.013077
0.236164 0.0557107 0
0.520851 0.19353 0
0.402945 0.402945 0.402945
0.484611 0.484611 0.484611
0.529076 0.529076 0.529076
0.544656 0.544656 0.544656
0 0.154299 0.0677653
0 0.166018 0.0688487
0 0.172625 0.0491646
0.134218 0.161517 0
0.514336 0.205753 0
0.409796 0.409796 0.409796
0.492042 0.492042 0.492042
0.53785 0.53785 0.53785
0.555917 0.555917 0.555917
0 0.391257 0.247791
0 0.410758 0.261906
0 0.421485 0.264668
0.0179294 0.429557 0.246494
0.376623 0.410773 0.168688
0.674846 0.457923 0.139773
0.611353 0.558556 0.491753
0.674464 0.605844 0.52604
0.726635 0.626535 0.515541
0.0930343 0.682277 0.506447
0.130037 0.693706 0.513817
0.160723 0.70132 0.518257
0.21767 0.710201 0.520653
0.359915 0.72015 0.481834
0.700938 0.717067 0.447608
0.858793 0.747417 0.4551
0.913405 0.778286 0.49604
0.929152 0.795666 0.528176
0.400198 0.857923 0.67013
0.419867 0.859159 0.669886
0.441901 0.860471 0.669032
0.495964 0.865461 0.665614
0.618921 0.873075 0.660746
0.804273 0.872786 0.697871
0.894118 0.897734 0.737865
0.929137 0.917937 0.789471
0.941909 0.929061 0.818112
0.726009 0.930327 0.799924
0.735103 0.931777 0.801541
0.745647 0.933608 0.803601
0.771679 0.938369 0.808927
0.845701 0.937682 0.836774
0.919097 0.949157 0.873396
0.962127 0.968078 0.914595
0.981338 0.981796 0.950927
0.989258 0.989029 0.96968
0.869245 0.963409 0.88777
0.875273 0.963546 0.890578
0.882017 0.963745 0.893767
0.898375 0.964538 0.901686
0.931441 0.968719 0.919951
0.968627 0.980011 0.949203
0.993133 0.994522 0.983551
1 1 1
1 1 1
0 0 0.115785
0.00515755 0 0.111803
0.0411688 0.00843824 0.119905
0.264439 0.0205844 0.0180667
0.503517 0.167361 0
0.395544 0.395544 0.395544
0.474601 0.474601 0.474601
0.516609 0.516609 0.516609
0.529702 0.529702 0.529702
0 0.00674449 0.112291
0.00103761 0.0121462 0.106477
0.0435187 0.0227359 0.106737
0.25774 0.0382696 0.0207828
0.530617 0.178698 0
0.405447 0.405447 0.405447
0.483513 0.483513 0.483513
0.526513 0.526513 0.526513
0.540642 0.540642 0.540642
0 0.0481422 0.124483
0 0.0516976 0.122103
0.0431373 0.0562753 0.0826581
0.231281 0.0652018 0.0206302
0.554131 0.188174 0
0.413581 0.413581 0.413581
0.49044 0.49044 0.49044
0.535088 0.535088 0.535088
0.550698 0.550698 0.550698
0 0.160082 0.129397
0 0.170459 0.132189
0 0.172595 0.117021
0.138659 0.167041 0.0616617
0.53782 0.210575 0
0.421439 0.421439 0.421439
0.504219 0.504219 0.504219
0.545342 0.545342 0.545342
0.56347 0.56347 0.56347
0 0.398627 0.278904
0 0.417014 0.291371
0 0.427573 0.294255
0.0518654 0.435889 0.279088
0.385412 0.420661 0.206516
0.718959 0.466194 0.125978
0.662089 0.567071 0.454749
0.729397 0.612757 0.486427
0.798718 0.629328 0.457282
0.121294 0.693446 0.524468
0.154772 0.704173 0.531853
0.183001 0.711543 0.536324
0.236133 0.720394 0.538582
0.378042 0.731075 0.499779
0.712276 0.728313 0.463905
0.867079 0.758328 0.478035
0.916671 0.788907 0.528176
0.931716 0.805875 0.560784
0.422217 0.862104 0.681468
0.442313 0.863432 0.681758
0.464073 0.865583 0.681865
0.516976 0.871061 0.679698
0.636423 0.879423 0.676951
0.815351 0.879728 0.716793
0.901106 0.904463 0.758556
0.934524 0.924254 0.808591
0.946899 0.935256 0.836515
0.726009 0.930343 0.799939
0.735119 0.931792 0.801556
0.745663 0.933623 0.803632
0.771695 0.938384 0.808942
0.845731 0.937697 0.836805
0.919112 0.949157 0.873411
0.962127 0.968093 0.914611
0.981353 0.981811 0.950957
0.989273 0.989044 0.969711
0.869261 0.963424 0.88777
0.875273 0.963546 0.890593
0.882033 0.963745 0.893782
0.89839 0.964553 0.901686
0.931441 0.968734 0.919966
0.968643 0.980026 0.949218
0.993149 0.994522 0.983566
1 1 1
1 1 1
0 0 0.309255
0 0 0.30753
0.0277867 0 0.309545
0.165286 0.0535439 0.333013
0.634104 0.163195 0.0504005
0.4121 0.4121 0.4121
0.481651 0.481651 0.481651
0.523522 0.523522 0.523522
0.536873 0.536873 0.536873
0 0 0.300053
0 0.00311284 0.299336
0.0334325 0.0170138 0.295735
0.167636 0.0745251 0.323095
0.633722 0.180346 0.0645457
0.424933 0.424933 0.424933
0.496818 0.496818 0.496818
0.536355 0.536355 0.536355
0.551049 0.551049 0.551049
0 0.0195621 0.286931
0 0.032929 0.28603
0.0187839 0.0486305 0.278019
0.15967 0.0956588 0.296391
0.617563 0.194141 0.0652628
0.434897 0.434897 0.434897
0.510887 0.510887 0.510887
0.546822 0.546822 0.546822
0.563134 0.563134 0.563134
0 0.152163 0.282292
0 0.16199 0.297749
0 0.171206 0.287816
0.147112 0.172045 0.219074
0.55227 0.221286 0.062089
0.445792 0.445792 0.445792
0.530022 0.530022 0.530022
0.566079 0.566079 0.566079
0.582345 0.582345 0.582345
0 0.39855 0.335378
0 0.417472 0.347555
0 0.42829 0.350637
0.110536 0.438926 0.34052
0.391089 0.429709 0.273793
0.792538 0.472053 0.138857
0.775906 0.572152 0.374365
0.858976 0.614923 0.404974
0.917571 0.631342 0.399359
0.159869 0.703655 0.556771
0.188907 0.713848 0.563668
0.214405 0.721523 0.568215
0.262104 0.730907 0.570092
0.400992 0.740993 0.533852
0.724361 0.74081 0.497841
0.879606 0.770962 0.522377
0.927687 0.801465 0.575875
0.941146 0.818647 0.610681
0.466407 0.869261 0.723415
0.485481 0.871382 0.724804
0.50721 0.873747 0.725978
0.558434 0.878828 0.72546
0.659754 0.893523 0.717952
0.832929 0.893187 0.760266
0.914122 0.917006 0.803738
0.944747 0.935927 0.849958
0.955962 0.946166 0.874311
0.776501 0.938796 0.846311
0.784817 0.940368 0.848112
0.794034 0.942168 0.850095
0.815991 0.946838 0.854536
0.873426 0.950957 0.874815
0.938247 0.961425 0.909529
0.975021 0.978943 0.947387
0.991363 0.991577 0.97792
0.998108 0.998032 0.993393
0.896025 0.970321 0.91426
0.899748 0.971328 0.915801
0.905303 0.971954 0.918471
0.919951 0.97293 0.925963
0.948745 0.97705 0.942763
0.980789 0.9879 0.970077
0.999664 1 1
1 1 1
1 1 1
0 0 0.441596
0 0 0.469306
0 0 0.521614
0.11809 0.0230411 0.630457
0.445838 0.269581 0.709224
0.958541 0.391699 0.408743
0.745296 0.520088 0.46247
0.62443 0.57908 0.563378
0.602869 0.601068 0.600412
0 0 0.463828
0 0 0.495552
0 0.0133974 0.546441
0.12163 0.0517586 0.640253
0.447608 0.282109 0.70219
0.963439 0.403983 0.419577
0.814267 0.524086 0.456199
0.719524 0.579492 0.537331
0.70927 0.59704 0.562295
0 0.00898756 0.480156
0 0.0237583 0.514794
0 0.0425116 0.561913
0.115023 0.0844282 0.633906
0.441566 0.289326 0.686122
0.961074 0.412253 0.421988
0.865812 0.527504 0.451179
0.790234 0.584543 0.52723
0.787594 0.601358 0.548882
0 0.0763104 0.475639
0 0.106722 0.523857
0 0.131914 0.56495
0.0883955 0.164797 0.594369
0.414633 0.297322 0.632532
0.939681 0.421759 0.409628
0.941299 0.528771 0.433371
0.907607 0.583566 0.498802
0.92105 0.599985 0.51751
0.125109 0.25861 0.289677
0.0510262 0.323659 0.390478
0 0.379538 0.48603
0 0.441032 0.595956
0.405737 0.442176 0.507805
0.839277 0.489296 0.393164
1 0.562005 0.400397
1 0.609125 0.44625
1 0.630869 0.472358
0.122866 0.70338 0.648783
0.158343 0.718181 0.662043
0.192157 0.727825 0.670344
0.268101 0.738369 0.677607
0.4589 0.740291 0.649073
0.734356 0.75256 0.60325
0.896849 0.783581 0.624552
0.944579 0.814527 0.671626
0.957214 0.831815 0.701381
0.482673 0.877928 0.819944
0.509667 0.879301 0.820951
0.5393 0.880201 0.82092
0.614694 0.881392 0.818662
0.710903 0.893645 0.810987
0.845029 0.906767 0.824262
0.925582 0.928191 0.85713
0.954986 0.946227 0.893156
0.96527 0.955779 0.912139
0.816342 0.943984 0.908629
0.823743 0.945495 0.909514
0.832166 0.947219 0.910536
0.853101 0.951476 0.913054
0.894911 0.960952 0.919661
0.951003 0.971771 0.943389
0.984268 0.98703 0.972824
0.998474 0.998535 0.99559
1 1 1
0.927779 0.976349 0.955749
0.931167 0.977218 0.956756
0.935027 0.978225 0.957946
0.944579 0.980819 0.961105
0.965072 0.98735 0.970291
0.992721 0.996109 0.990921
1 1 1
1 1 1
1 1 1
0.00178531 0.00178531 0.00178531
0.0131838 0.0131838 0.0131838
0.035523 0.035523 0.035523
0.0787366 0.0836347 0.193698
0.298405 0.207187 0.621927
0.734813 0.519951 0.961089
0.927687 0.649454 0.821454
1 0.664622 0.803311
1 0.671366 0.80351
0.0157473 0.0157473 0.0157473
0.0306096 0.0306096 0.0306096
0.0510872 0.0548562 0.0751049
0.0917525 0.104982 0.27744
0.320806 0.220401 0.707881
0.738125 0.528435 0.960494
0.934051 0.660044 0.830335
1 0.66981 0.806516
1 0.678706 0.809659
0.0304723 0.0304723 0.0304723
0.0471046 0.049073 0.0565652
0.0608835 0.0754711 0.138643
0.100633 0.128191 0.362661
0.337697 0.232731 0.780209
0.739361 0.535454 0.957702
0.938781 0.668849 0.836484
1 0.682048 0.817441
1 0.689067 0.818723
0.0585946 0.0757305 0.11458
0.0732128 0.107546 0.186831
0.0825208 0.139269 0.282322
0.107027 0.190173 0.521645
0.364843 0.271901 0.87924
0.73167 0.543359 0.939803
0.935866 0.677333 0.834623
1 0.694636 0.821836
1 0.703502 0.824781
0.205402 0.205402 0.205402
0.24622 0.24622 0.24622
0.281025 0.281025 0.281025
0.165637 0.373816 0.602716
0.386023 0.454917 0.853071
0.699123 0.583993 0.859297
0.897856 0.690166 0.783612
0.990784 0.714458 0.783459
1 0.72932 0.791638
0.297856 0.643168 0.722438
0.255238 0.683864 0.789654
0.241016 0.711559 0.835615
0.262623 0.743389 0.884627
0.456672 0.759564 0.879927
0.756725 0.772488 0.80058
0.906294 0.806271 0.79237
0.951339 0.835904 0.815625
0.963088 0.852094 0.832029
0.463737 0.894606 0.942168
0.490913 0.896712 0.941665
0.519829 0.898802 0.940597
0.587213 0.903151 0.936141
0.713405 0.91014 0.921691
0.868727 0.918532 0.9037
0.937438 0.939788 0.91812
0.964645 0.956191 0.938842
0.974136 0.965316 0.951202
0.821118 0.958022 0.969635
0.829206 0.95903 0.969406
0.838575 0.960235 0.969177
0.861036 0.963073 0.968429
0.907439 0.969406 0.967773
0.963577 0.979339 0.972488
0.991363 0.993179 0.989868
1 1 1
1 1 1
0.939284 0.984176 0.98616
0.94287 0.984863 0.98645
0.946944 0.985672 0.986801
0.956909 0.987716 0.987808
0.978439 0.992325 0.991028
1 1 1
1 1 1
1 1 1
1 1 1
0.0401465 0.0401465 0.0401465
0.0537881 0.0537881 0.0537881
0.0848249 0.0848249 0.0848249
0.147692 0.147692 0.147692
0.338842 0.275608 0.700435
0.681056 0.472419 1
0.883589 0.662837 1
0.948196 0.727749 1
0.972152 0.749233 1
0.0527199 0.0527199 0.0527199
0.0692607 0.0692607 0.0692607
0.103868 0.103868 0.103868
0.159365 0.164752 0.192569
0.350408 0.28365 0.755123
0.68452 0.47834 1
0.886519 0.668482 1
0.947433 0.73022 1
0.966705 0.748287 1
0.0698711 0.0698711 0.0698711
0.0909133 0.0909133 0.0909133
0.125704 0.125704 0.125704
0.171099 0.185107 0.245808
0.364233 0.296086 0.816388
0.686351 0.483406 1
0.8869 0.672572 1
0.947082 0.73402 1
0.965774 0.752316 1
0.120958 0.120958 0.120958
0.148272 0.148272 0.148272
0.182986 0.182986 0.182986
0.199695 0.244923 0.371298
0.378592 0.339971 0.912352
0.686091 0.499718 1
0.878462 0.681193 1
0.936507 0.741985 0.99585
0.954253 0.760983 0.991287
0.240772 0.240772 0.240772
0.283192 0.283192 0.283192
0.31989 0.31989 0.31989
0.288609 0.403571 0.542809
0.397253 0.5028 0.975433
0.685603 0.58706 1
0.851575 0.719768 0.965927
0.904799 0.774487 0.939712
0.920699 0.793576 0.937163
0.545525 0.545525 0.545525
0.572198 0.572198 0.572198
0.551492 0.60502 0.628458
0.375509 0.707179 0.89044
0.477638 0.764004 1
0.769543 0.791974 0.908888
0.871199 0.840223 0.912169
0.909697 0.874601 0.908415
0.927077 0.887114 0.915816
0.564034 0.894331 0.998474
0.587259 0.896956 0.996521
0.611597 0.899535 0.994034
0.667781 0.905028 0.986847
0.772305 0.914473 0.969039
0.885481 0.929992 0.951034
0.94873 0.950042 0.953201
0.972076 0.966018 0.965576
0.980224 0.973922 0.97319
0.863508 0.961105 0.98854
0.870207 0.96228 0.988128
0.877272 0.96347 0.987594
0.895689 0.966766 0.986419
0.932326 0.974105 0.984863
0.973419 0.985855 0.987976
0.998291 0.998322 0.998749
1 1 1
1 1 1
0.96083 0.988037 0.995224
0.963623 0.988754 0.995346
0.966476 0.989487 0.995468
0.974304 0.991638 0.995987
0.990234 0.99675 0.998169
1 1 1
1 1 1
1 1 1
1 1 1
0.111254 0.111254 0.111254
0.120882 0.120882 0.120882
0.160708 0.160708 0.160708
0.217227 0.229313 0.266804
0.374319 0.336645 0.855177
0.670039 0.488396 1
0.877501 0.666682 1
0.937224 0.731807 1
0.954803 0.752407 1
0.124453 0.124453 0.124453
0.135454 0.135454 0.135454
0.176089 0.176089 0.176089
0.226688 0.245136 0.296925
0.378286 0.349477 0.883452
0.672419 0.494423 1
0.875257 0.670298 1
0.934325 0.73489 1
0.951843 0.755779 1
0.139849 0.139849 0.139849
0.153155 0.153155 0.153155
0.19443 0.19443 0.19443
0.237507 0.264317 0.331579
0.382712 0.366629 0.913298
0.674449 0.502235 1
0.8719 0.674495 1
0.930556 0.73872 1
0.948013 0.759762 1
0.180636 0.180636 0.180636
0.20087 0.20087 0.20087
0.243977 0.243977 0.243977
0.264729 0.319219 0.4224
0.390982 0.419211 0.969253
0.678828 0.530297 1
0.862577 0.688457 1
0.920439 0.751049 1
0.937789 0.772396 1
0.274754 0.274754 0.274754
0.322301 0.322301 0.322301
0.364904 0.364904 0.364904
0.370169 0.455222 0.545403
0.423239 0.568276 1
0.700481 0.632944 1
0.84918 0.739498 1
0.898848 0.791791 0.977081
0.91342 0.811292 0.971145
0.563226 0.563226 0.563226
0.593042 0.593042 0.593042
0.554131 0.637644 0.678264
0.388937 0.73814 0.954345
0.522591 0.786694 1
0.787274 0.815793 0.94023
0.881102 0.857114 0.945113
0.917296 0.889632 0.942245
0.930053 0.904036 0.944732
0.589868 0.899046 1
0.612879 0.901884 1
0.637156 0.90483 1
0.693584 0.911391 1
0.79266 0.922072 0.991226
0.898299 0.938094 0.971084
0.956222 0.958083 0.966796
0.975418 0.973663 0.978119
0.983215 0.981552 0.98381
0.88368 0.965026 0.995438
0.889906 0.966232 0.994919
0.896819 0.96759 0.994324
0.913909 0.971069 0.992966
0.946517 0.978378 0.990967
0.982452 0.990127 0.993347
1 1 1
1 1 1
1 1 1
0.9729 0.991302 0.997879
0.97528 0.992004 0.997971
0.977829 0.992752 0.998062
0.984817 0.994965 0.998566
0.999329 0.99971 1
1 1 1
1 1 1
1 1 1
1 1 1
0.168933 0.168933 0.168933
0.169711 0.169711 0.169711
0.215457 0.215457 0.215457
0.266423 0.295445 0.355535
0.388266 0.401801 0.946273
0.676188 0.519524 1
0.866697 0.681834 1
0.925093 0.745708 1
0.942611 0.767361 1
0.179782 0.179782 0.179782
0.182147 0.182147 0.182147
0.228611 0.228611 0.228611
0.274235 0.310216 0.379767
0.391165 0.416403 0.9617
0.678157 0.528008 1
0.864652 0.686259 1
0.922805 0.749523 1
0.940093 0.771115 1
0.192325 0.192325 0.192325
0.19704 0.19704 0.19704
0.244404 0.244404 0.244404
0.283268 0.328161 0.408331
0.39408 0.434287 0.976867
0.680064 0.53875 1
0.862119 0.691722 1
0.91989 0.754101 1
0.936538 0.775433 1
0.226123 0.226123 0.226123
0.237644 0.237644 0.237644
0.287297 0.287297 0.287297
0.311833 0.377127 0.472145
0.403021 0.485374 1
0.686122 0.572534 1
0.856657 0.708522 1
0.911284 0.767346 1
0.926467 0.787778 1
0.310582 0.310582 0.310582
0.347539 0.347539 0.347539
0.397436 0.397436 0.397436
0.432624 0.489921 0.542931
0.44303 0.616068 1
0.719387 0.673793 1
0.851087 0.761257 1
0.8981 0.809781 0.978302
0.912367 0.828855 0.972717
0.578683 0.578683 0.578683
0.612131 0.612131 0.612131
0.517739 0.675563 0.755001
0.389853 0.764675 0.999496
0.549859 0.804974 1
0.800641 0.832624 0.949233
0.889677 0.870619 0.952346
0.92372 0.900603 0.952132
0.936278 0.914687 0.954635
0.605585 0.903441 1
0.631327 0.906157 1
0.656718 0.909529 1
0.710735 0.916121 1
0.806851 0.927443 0.996429
0.907378 0.943648 0.976608
0.961288 0.963256 0.972427
0.979385 0.978012 0.983063
0.986862 0.985656 0.988495
0.892607 0.967651 0.998199
0.898924 0.968963 0.997665
0.90544 0.970291 0.99707
0.922026 0.973816 0.995666
0.953033 0.981125 0.993698
0.986694 0.992691 0.995834
1 1 1
1 1 1
1 1 1
0.978302 0.99321 0.999146
0.980682 0.993942 0.999222
0.983398 0.994797 0.999344
0.989975 0.996979 0.999786
1 1 1
1 1 1
1 1 1
1 1 1
1 1 1
