public/textures/grade/Panasonic/Guardians-VLog.cube
TITLE "Generated by Resolve"
LUT_3D_SIZE 33
0 0.00486763 0.00132753
0.00178531 0.00430304 0.000854505
0.026627 0.0010071 0
0.0454261 0 0
0.0652628 0 0
0.0843061 0 0
0.102129 0 0
0.122362 0 0
0.147509 0 0
0.177569 0 0
0.213519 0 0
0.255726 0 0
0.303853 0 0
0.357916 0 0
0.417655 0 0
0.482185 0 0
0.550042 0 0
0.619669 0 0
0.689281 0 0
0.757748 0 0
0.82295 0 0
0.883543 0 0
0.938766 0 0
0.987945 0 0
1 0 0
1 0 0
1 0 0
1 0 0
1 0 0
1 0 0
1 0 0
1 0 0
1 0 0
0 0.00910964 0.000183108
0.00111391 0.00842298 0
0.0255741 0.00517281 0
0.04477 0.00341802 0
0.0638743 0.00077821 0
0.0832685 0 0
0.101076 0 0
0.121294 0 0
0.146242 0 0
0.176333 0 0
0.212329 0 0
0.25452 0 0
0.302586 0 0
0.356619 0 0
0.416388 0 0
0.480888 0 0
0.548653 0 0
0.618372 0 0
0.687968 0 0
0.756283 0 0
0.821408 0 0
0.882002 0 0
0.937179 0 0
0.986297 0 0
1 0 0
1 0 0
1 0 0
1 0 0
1 0 0
1 0 0
1 0 0
1 0 0
1 0 0
0 0.0222934 0
0 0.0214389 0
0.0192111 0.0182498 0
0.0389563 0.0156405 0
0.0593118 0.0128328 0
0.0791638 0.010071 0
0.0973678 0.00764477 0
0.118074 0.00466926 0
0.143526 0.00111391 0
0.174029 0 0
0.209964 0 0
0.252033 0 0
0.300175 0 0
0.35436 0 0
0.414038 0 0
0.478401 0 0
0.546197 0 0
0.615732 0 0
0.6851 0 0
0.753353 0 0
0.818448 0 0
0.878843 0 0
0.933837 0 0
0.982879 0 0
1 0 0
1 0 0
1 0 0
1 0 0
1 0 0
1 0 0
1 0 0
1 0 0
1 0 0
0 0.0345159 0
0 0.0336461 0
0.0136568 0.03093 0
0.0329442 0.028687 0
0.0543374 0.0260014 0
0.0751812 0.02327 0
0.0939193 0.0209049 0
0.115099 0.0179599 0
0.140642 0.0143893 0
0.171801 0.0101015 0
0.208347 0.00485237 0
0.250843 0 0
0.298924 0 0
0.352804 0 0
0.412512 0 0
0.476707 0 0
0.544244 0 0
0.613703 0 0
0.68307 0 0
0.751095 0 0
0.815946 0 0
0.876265 0 0
0.931121 0 0
0.979934 0 0
1 0 0
1 0 0
1 0 0
1 0 0
1 0 0
1 0 0
1 0 0
1 0 0
1 0 0
0 0.0479591 0
0 0.0470893 0
0.00833143 0.0449531 0
0.0269474 0.0430304 0
0.0480812 0.0404974 0
0.0695354 0.0379339 0
0.0888228 0.0355077 0
0.110719 0.0328679 0
0.137057 0.0294347 0
0.168536 0.0251621 0
0.205386 0.0200351 0
0.248295 0.014023 0
0.29691 0.00701915 0
0.351232 0 0
0.410712 0 0
0.474708 0 0
0.542184 0 0
0.611368 0 0
0.680507 0 0
0.748409 0 0
0.81297 0 0
0.873014 0 0
0.927703 0 0
0.976486 0 0
1 0 0
1 0 0
1 0 0
1 0 0
1 0 0
1 0 0
1 0 0
1 0 0
1 0 0
0 0.0618753 0
0 0.0609903 0
0.00218204 0.0593729 0
0.0209659 0.0578012 0
0.0417487 0.0557565 0
0.0632639 0.0534066 0
0.0828107 0.0510262 0
0.104906 0.0482643 0
0.132067 0.0449989 0
0.164233 0.0409247 0
0.201709 0.0361181 0
0.244846 0.0303044 0
0.293782 0.0235142 0
0.34847 0.0158541 0
0.408484 0.00735485 0
0.472709 0 0
0.539727 0 0
0.608667 0 0
0.677592 0 0
0.745052 0 0
0.809522 0 0
0.869474 0 0
0.923949 0 0
0.972503 0 0
1 0 0
1 0 0
1 0 0
1 0 0
1 0 0
1 0 0
1 0 0
1 0 0
1 0 0
0 0.0752117 0
0 0.074403 0
0 0.0732891 0
0.015198 0.0717479 0
0.0356451 0.0699474 0
0.0569314 0.0678874 0
0.0766003 0.0657206 0
0.0991989 0.0633097 0
0.126696 0.0600137 0
0.159335 0.0559701 0
0.197223 0.051194 0
0.240757 0.0456855 0
0.290257 0.0392615 0
0.345144 0.0318761 0
0.405249 0.0235752 0
0.469764 0.0147097 0
0.537301 0.00552377 0
0.606149 0 0
0.674601 0 0
0.741955 0 0
0.806058 0 0
0.865705 0 0
0.920058 0 0
0.968551 0 0
1 0 0
1 0 0
1 0 0
1 0 0
1 0 0
1 0 0
1 0 0
1 0 0
1 0 0
0 0.0903792 0
0 0.089601 0
0 0.0888838 0
0.00881972 0.0877546 0
0.0296025 0.0862287 0
0.0504463 0.0845197 0
0.0700389 0.0824903 0
0.0923934 0.0800946 0
0.120256 0.0770428 0
0.153506 0.0732128 0
0.192096 0.0686961 0
0.235981 0.0633707 0
0.285847 0.0570687 0
0.3411 0.0500649 0
0.401556 0.042298 0
0.466148 0.0337682 0
0.533715 0.0248722 0
0.602808 0.0161135 0
0.671702 0.00769055 0
0.738735 0 0
0.802502 0 0
0.861875 0 0
0.915953 0 0
0.964187 0 0
1 0 0
1 0 0
1 0 0
1 0 0
1 0 0
1 0 0
1 0 0
1 0 0
1 0 0
0 0.109316 0
0 0.108827 0
0 0.108324 0
0.000396735 0.107698 0
0.0220493 0.106294 0
0.0425422 0.104784 0
0.062211 0.103258 0
0.0843824 0.101183 0
0.112154 0.0983291 0
0.145693 0.094789 0
0.184894 0.0903639 0
0.229511 0.0853437 0
0.280034 0.079469 0
0.335592 0.0727398 0
0.396216 0.0652934 0
0.461097 0.0573587 0
0.528817 0.049073 0
0.59762 0.0404669 0
0.66659 0.0325475 0
0.733989 0.0253605 0
0.797971 0.0190585 0
0.857313 0.0140383 0
0.91136 0.0104677 0
0.959503 0.00820935 0
1 0.00698863 0
1 0.00688182 0
1 0.00756847 0
1 0.00888075 0
1 0.0106355 0
1 0.0121614 0
1 0.0139467 0
1 0.0152132 0
1 0.0166171 0
0 0.132509 0
0 0.132052 0
0 0.132174 0
0 0.132036 0
0.0131991 0.1308 0
0.0337072 0.12961 0
0.0530098 0.128222 0
0.0750134 0.126589 0
0.102693 0.124208 0
0.13608 0.121004 0
0.175647 0.116854 0
0.22089 0.111971 0
0.272023 0.106371 0
0.328252 0.100175 0
0.389242 0.0932021 0
0.454215 0.0856641 0
0.522072 0.0779889 0
0.591119 0.0703899 0
0.660029 0.062974 0
0.72726 0.0563058 0
0.791104 0.0505379 0
0.850385 0.0461433 0
0.90428 0.0430152 0
0.952346 0.0412909 0
0.994553 0.0407111 0
1 0.0411078 0
1 0.0421912 0
1 0.0440681 0
1 0.0458686 0
1 0.0480812 0
1 0.0498512 0
1 0.0516823 0
1 0.0530098 0
0 0.160403 0
0 0.160128 0
0 0.160739 0
0 0.160998 0
0.00215152 0.160418 0
0.0235904 0.159396 0
0.0425422 0.158267 0
0.0643168 0.156771 0
0.091722 0.15491 0
0.12488 0.152163 0
0.164446 0.148577 0
0.210254 0.144076 0
0.261891 0.13875 0
0.318654 0.132906 0
0.380224 0.126528 0
0.445487 0.119585 0
0.513375 0.112398 0
0.582376 0.105501 0
0.651377 0.0988937 0
0.718395 0.0927901 0
0.782116 0.0877852 0
0.841215 0.0840467 0
0.894957 0.0816205 0
0.942809 0.080415 0
0.984863 0.080354 0
1 0.0813611 0
1 0.083238 0
1 0.0852216 0
1 0.0873121 0
1 0.0897841 0
1 0.091783 0
1 0.093843 0
1 0.0955978 0
0 0.193271 0
0 0.193347 0
0 0.194263 0
0 0.19501 0
0 0.19501 0
0.0119326 0.19411 0
0.0315404 0.193378 0
0.0529641 0.192294 0
0.0799725 0.190829 0
0.112902 0.18851 0
0.152163 0.185458 0
0.198047 0.181552 0
0.249912 0.176761 0
0.307256 0.171252 0
0.369268 0.165347 0
0.434958 0.159091 0
0.502998 0.15256 0
0.571908 0.146273 0
0.640864 0.140398 0
0.707622 0.13492 0
0.77113 0.130648 0
0.830045 0.127703 0
0.883604 0.126055 0
0.931258 0.125505 0
0.973068 0.125963 0
1 0.127459 0
1 0.129519 0
1 0.132326 0
1 0.134752 0
1 0.137224 0
1 0.139681 0
1 0.141909 0
1 0.14345 0
0 0.231296 0
0 0.231998 0
0 0.233494 0
0 0.234348 0
0 0.234714 0
0 0.234653 0
0.0190433 0.233783 0
0.0410773 0.233127 0
0.0675364 0.231907 0
0.0999619 0.23006 0
0.138964 0.227817 0
0.184482 0.224537 0
0.236149 0.220447 0
0.293873 0.215442 0
0.356191 0.21001 0
0.422217 0.204349 0
0.49012 0.198276 0
0.559152 0.192584 0
0.62797 0.187411 0
0.694774 0.183017 0
0.758038 0.179507 0
0.816632 0.177218 0
0.869932 0.176226 0
0.917357 0.176379 0
0.958907 0.177417 0
0.994324 0.17937 0
1 0.181857 0
1 0.184726 0
1 0.1879 0
1 0.190539 0
1 0.193317 0
1 0.195315 0
1 0.19736 0
0 0.274434 0
0 0.27602 0
0 0.277638 0
0 0.278813 0
0 0.279683 0
0 0.279835 0
0.00749218 0.279454 0
0.0293584 0.278798 0
0.0558938 0.277958 0
0.0878157 0.27686 0
0.126116 0.274876 0
0.170855 0.272282 0
0.222217 0.268864 0
0.279744 0.26453 0
0.342031 0.259663 0
0.408148 0.254566 0
0.476219 0.249516 0
0.545464 0.24445 0
0.614099 0.239933 0
0.680476 0.235996 0
0.743404 0.233158 0
0.801663 0.23151 0
0.854612 0.231128 0
0.901778 0.231907 0
0.943069 0.233524 0
0.978256 0.235935 0
1 0.239063 0
1 0.242359 0
1 0.245457 0
1 0.248737 0
1 0.251316 0
1 0.253864 0
1 0.255604 0
0 0.322454 0
0 0.324804 0
0 0.326635 0
0 0.328054 0
0 0.329183 0
0 0.329549 0
0 0.329747 0
0.0197604 0.329015 0
0.0461585 0.328725 0
0.0775311 0.32781 0
0.114855 0.326436 0
0.158831 0.324437 0
0.209491 0.321675 0
0.266041 0.318181 0
0.328008 0.313954 0
0.393774 0.309483 0
0.461952 0.304997 0
0.53106 0.300587 0
0.599435 0.296666 0
0.66566 0.293629 0
0.728298 0.291554 0
0.786053 0.290364 0
0.838651 0.290608 0
0.885374 0.291752 0
0.92636 0.293889 0
0.961456 0.29691 0
0.991196 0.300084 0
1 0.303548 0
1 0.306935 0
1 0.310338 0
1 0.313069 0
1 0.315724 0
1 0.317952 0
0 0.375601 0
0 0.37818 0
0 0.380331 0
0 0.381781 0
0 0.383062 0
0 0.383612 0
0 0.384039 0
0.0126345 0.383536 0
0.038819 0.383444 0
0.0695048 0.382895 0
0.106188 0.381933 0
0.149294 0.380636 0
0.198978 0.378683 0
0.254429 0.375891 0
0.315084 0.372259 0
0.380194 0.368475 0
0.447807 0.364416 0
0.516503 0.360616 0
0.584466 0.35729 0
0.650233 0.354788 0
0.712413 0.353262 0
0.769757 0.352804 0
0.821958 0.353399 0
0.86833 0.355077 0
0.908904 0.357565 0
0.943603 0.360678 0
0.973083 0.364096 0
0.997269 0.367727 0
1 0.371588 0
1 0.374762 0
1 0.377966 0
1 0.380301 0
1 0.382589 0
0 0.432837 0
0 0.43534 0
0 0.437522 0
0 0.439078 0
0 0.440253 0
0 0.440925 0
0 0.441428 0
0.0109255 0.441093 0
0.0362707 0.441199 0
0.0660868 0.440909 0
0.10161 0.440345 0
0.143496 0.439612 0
0.191684 0.438193 0
0.245991 0.435996 0
0.305409 0.433234 0
0.369207 0.43006 0
0.435737 0.426551 0
0.503487 0.423209 0
0.570733 0.420401 0
0.635813 0.418357 0
0.697292 0.417288 0
0.754025 0.417243 0
0.805753 0.418158 0
0.851637 0.420111 0
0.891752 0.422843 0
0.926146 0.426139 0
0.955337 0.429694 0
0.9794 0.4336 0
0.999237 0.437339 0
1 0.440543 0
1 0.443778 0
1 0.446159 0
1 0.448417 0
0 0.492531 0
0 0.495186 0
0 0.496971 0
0 0.498482 0
0 0.499382 0
0 0.500175 0
0 0.500389 0
0.0169375 0.500359 0
0.0406348 0.500481 0
0.069337 0.500618 0
0.103426 0.500328 0
0.143526 0.499886 0
0.190066 0.499046 0
0.242466 0.497414 0
0.300252 0.495201 0
0.362387 0.492607 0
0.427558 0.48983 0
0.493782 0.486793 0
0.559884 0.484443 0
0.623697 0.482856 0
0.684367 0.482078 0
0.740429 0.482307 0
0.791516 0.483436 0
0.836851 0.485527 0
0.876371 0.48838 0
0.910399 0.491753 0
0.939239 0.495354 0
0.963134 0.499458 0
0.982605 0.502968 0
0.998306 0.506142 0
1 0.509346 0
1 0.512047 0
1 0.513924 0
0 0.554299 0
0 0.556161 0
0 0.557809 0
0 0.558785 0
0 0.559716 0
0 0.560052 0
0.0129854 0.560067 0
0.0310216 0.560479 0
0.0529488 0.560571 0
0.0800793 0.560952 0
0.112184 0.560891 0
0.150103 0.560586 0
0.194827 0.560082 0
0.244724 0.558999 0
0.300267 0.557275 0
0.360128 0.5552 0
0.42356 0.552819 0
0.488029 0.550362 0
0.552193 0.548302 0
0.614923 0.546929 0
0.674403 0.546365 0
0.729488 0.546761 0
0.779583 0.548043 0
0.824277 0.550134 0
0.863142 0.552987 0
0.896666 0.556313 0
0.925093 0.559869 0
0.948669 0.563882 0
0.967849 0.567315 0
0.983551 0.570672 0
0.995758 0.573495 0
1 0.576135 0.00280766
1 0.577966 0.00518807
0 0.61529 0
0 0.616846 0
0 0.6177 0
0 0.61854 0
0.00933852 0.618479 0
0.024445 0.618936 0
0.0386053 0.619348 0
0.0543984 0.619501 0
0.0745708 0.620005 0
0.0993668 0.620172 0
0.129381 0.620478 0
0.164965 0.620279 0
0.20676 0.619821 0
0.254475 0.61915 0
0.307012 0.617853 0
0.364523 0.616083 0
0.425132 0.614145 0
0.487556 0.612222 0
0.549752 0.610239 0
0.610712 0.609064 0
0.668635 0.608591 0
0.722438 0.609049 0
0.771405 0.610376 0
0.815244 0.61239 0
0.85333 0.615137 0
0.886229 0.618341 0
0.914275 0.621958 0
0.937331 0.62565 0
0.956176 0.628946 0.00434882
0.971725 0.632258 0.00901808
0.983658 0.634852 0.0128939
0.993286 0.637339 0.016556
1 0.639307 0.0194705
0 0.674159 0
0.00326543 0.6748 0
0.0196689 0.675303 0
0.0337224 0.675624 0
0.0475013 0.676143 0
0.0606241 0.676585 0
0.0723583 0.676722 0
0.0867933 0.677134 0
0.105043 0.677562 0
0.127138 0.677699 0
0.155016 0.677974 0
0.187701 0.677852 0
0.225986 0.677501 0
0.270893 0.677012 0
0.320577 0.675898 0
0.374685 0.674479 0
0.432609 0.672724 0
0.492271 0.671031 0
0.552346 0.669566 0
0.611185 0.668544 0
0.667063 0.667933 0
0.719188 0.668223 0
0.766873 0.669474 0
0.809628 0.671366 0
0.846815 0.67393 0
0.879179 0.677211 0.00251774
0.906554 0.680583 0.0087892
0.92903 0.683848 0.0148165
0.947433 0.6869 0.0202945
0.9626 0.689952 0.0255131
0.974273 0.692332 0.0296178
0.983688 0.694652 0.0334173
0.990997 0.696574 0.0365454
0.0431983 0.729183 0
0.0561837 0.729595 0
0.0692454 0.730129 0
0.0816358 0.730587 0
0.0932174 0.730953 0
0.104036 0.731075 0
0.114824 0.731395 0
0.127367 0.731746 0
0.143084 0.731807 0
0.163272 0.732082 0
0.188128 0.732357 0
0.2177 0.732174 0
0.252964 0.731746 0
0.294179 0.731411 0
0.340429 0.730388 0
0.391043 0.729137 0
0.445533 0.727581 0
0.502052 0.72604 0
0.559442 0.724681 0
0.616007 0.723659 0
0.669947 0.723232 0
0.720394 0.723568 0
0.766613 0.724727 0.000869764
0.808072 0.726467 0.00729381
0.844236 0.728771 0.014023
0.875486 0.731456 0.0208133
0.901946 0.734417 0.0274662
0.923934 0.737408 0.0337072
0.942107 0.740536 0.039765
0.956664 0.743008 0.0446021
0.968261 0.745495 0.0491493
0.977218 0.747295 0.0525063
0.984329 0.749065 0.0556191
0.102617 0.780575 0
0.113832 0.781018 0
0.124666 0.781399 0
0.134585 0.781399 0
0.144503 0.781689 0
0.153994 0.781964 0
0.163348 0.782147 0
0.174258 0.782376 0
0.187839 0.7823 0
0.205631 0.782483 0
0.227604 0.78265 0
0.253986 0.782376 0
0.285603 0.781933 0
0.323278 0.781537 0
0.365606 0.780606 0
0.412741 0.77937 0
0.463478 0.77792 0
0.516838 0.776394 0
0.571054 0.775128 0
0.624735 0.774197 0.00340276
0.676402 0.773693 0.00886549
0.725017 0.773785 0.014786
0.769497 0.774685 0.0212711
0.809384 0.776211 0.0280766
0.844526 0.778164 0.0348974
0.874769 0.780514 0.0416724
0.900389 0.783154 0.0483101
0.922042 0.786145 0.0549477
0.939483 0.788693 0.060502
0.953872 0.791241 0.0657054
0.96492 0.793225 0.0697337
0.973846 0.795132 0.0734417
0.980545 0.796445 0.076051
0.164965 0.82742 0
0.174197 0.827695 0
0.182757 0.827604 0
0.191577 0.827756 0
0.199924 0.827909 0
0.20795 0.828077 0
0.215747 0.828214 0
0.224796 0.828107 0
0.23682 0.828122 0
0.252247 0.828183 0
0.271458 0.828229 0
0.294774 0.827832 0
0.323369 0.827604 0
0.356847 0.826841 0.000183108
0.395224 0.82591 0.00384527
0.438346 0.824735 0.00781262
0.485695 0.82359 0.0123598
0.535439 0.822095 0.0167391
0.586511 0.820706 0.0214084
0.637125 0.819593 0.0264134
0.686305 0.819104 0.0320897
0.732464 0.818952 0.0378119
0.775219 0.819409 0.0439307
0.813581 0.820661 0.0506142
0.8477 0.822538 0.0576181
0.876905 0.824552 0.0641947
0.901656 0.826825 0.0705577
0.922377 0.82919 0.0765545
0.939529 0.831769 0.0823835
0.953292 0.833814 0.0870527
0.964263 0.835889 0.0914015
0.972702 0.837354 0.0945449
0.9794 0.838804 0.0974746
0.227268 0.868879 0.00581369
0.234546 0.868833 0.00675975
0.241993 0.868788 0.00770581
0.249195 0.868864 0.00881972
0.256199 0.86894 0.00988785
0.263172 0.86894 0.0108492
0.269749 0.869001 0.0118563
0.277638 0.869047 0.0130159
0.287526 0.868772 0.0139773
0.300877 0.868711 0.0157473
0.317647 0.868589 0.0178836
0.337957 0.868101 0.0199741
0.363012 0.867796 0.0229953
0.39292 0.866896 0.0258335
0.427955 0.866148 0.0295872
0.467048 0.864973 0.0332647
0.51014 0.863584 0.037171
0.556146 0.862058 0.0412451
0.603769 0.860578 0.045594
0.651423 0.85948 0.0504921
0.698161 0.858732 0.0557565
0.742199 0.858488 0.0613718
0.782956 0.858778 0.0673075
0.819898 0.859693 0.0736248
0.852583 0.861128 0.0801251
0.880934 0.86302 0.0867018
0.904921 0.865095 0.0929427
0.924926 0.867109 0.0985733
0.941283 0.869123 0.103731
0.954849 0.871229 0.108614
0.965286 0.872847 0.112398
0.973709 0.874449 0.115862
0.980224 0.875761 0.118669
0.286809 0.904646 0.0356909
0.293263 0.904631 0.0366064
0.299306 0.904631 0.0374762
0.305119 0.904341 0.0379034
0.310948 0.904341 0.0387579
0.316732 0.904326 0.0395514
0.322438 0.90428 0.0403143
0.329107 0.904265 0.0412604
0.33785 0.904219 0.0424506
0.348974 0.903914 0.0436103
0.363363 0.903593 0.0452125
0.381292 0.903334 0.0474098
0.40325 0.902693 0.0495918
0.429862 0.901946 0.0523079
0.460777 0.900832 0.0550851
0.496651 0.899809 0.0586709
0.535943 0.898436 0.0622263
0.578332 0.896941 0.0660105
0.622568 0.895415 0.0700084
0.667369 0.894087 0.0743725
0.711223 0.893248 0.0793164
0.753323 0.892836 0.0846265
0.792142 0.892927 0.0902419
0.827497 0.893492 0.0960555
0.858869 0.894606 0.102144
0.886122 0.896132 0.108248
0.909453 0.898085 0.114443
0.92874 0.899825 0.119738
0.944518 0.901534 0.124529
0.95761 0.903349 0.129091
0.967742 0.904799 0.132677
0.975906 0.906249 0.135988
0.982238 0.907454 0.138689
0.342061 0.934737 0.06392
0.34725 0.934707 0.0646525
0.352529 0.93463 0.0653086
0.357488 0.9346 0.0660105
0.36257 0.934508 0.0666209
0.367346 0.934462 0.067277
0.372274 0.934371 0.0678569
0.377935 0.934279 0.068574
0.38526 0.933852 0.0690166
0.39498 0.9337 0.0702068
0.407507 0.93344 0.0716869
0.423178 0.933104 0.0735027
0.442206 0.932372 0.0751965
0.465934 0.931685 0.0776379
0.493629 0.93051 0.0799268
0.525689 0.929458 0.0830549
0.561578 0.927962 0.0860151
0.600534 0.926467 0.0894331
0.641642 0.924971 0.0931716
0.683543 0.923583 0.0971542
0.724987 0.922469 0.101503
0.764645 0.92192 0.106432
0.801938 0.921843 0.111742
0.835828 0.92221 0.11722
0.86595 0.923156 0.123033
0.892302 0.924422 0.128786
0.914641 0.925917 0.13431
0.933379 0.927474 0.139406
0.948867 0.929229 0.14435
0.961318 0.930587 0.148226
0.971222 0.932052 0.151904
0.978973 0.933074 0.154574
0.985046 0.934142 0.157107
0.39176 0.95993 0.0897383
0.396139 0.959869 0.0903182
0.400641 0.959747 0.0908064
0.404822 0.959686 0.0913558
0.40914 0.959564 0.0918135
0.413321 0.959442 0.0922866
0.417334 0.959365 0.0927749
0.422385 0.959213 0.0932937
0.428428 0.958801 0.0935836
