public/textures/grade/Panasonic/Guardians-VLog.cube
TITLE "Generated by Resolve"
LUT_3D_SIZE 9
0 0.00486763 0.00132753
0.0652628 0 0
0.147509 0 0
0.303853 0 0
0.550042 0 0
0.82295 0 0
1 0 0
1 0 0
1 0 0
0 0.0479591 0
0.0480812 0.0404974 0
0.137057 0.0294347 0
0.29691 0.00701915 0
0.542184 0 0
0.81297 0 0
1 0 0
1 0 0
1 0 0
0 0.109316 0
0.0220493 0.106294 0
0.112154 0.0983291 0
0.280034 0.079469 0
0.528817 0.049073 0
0.797971 0.0190585 0
1 0.00698863 0
1 0.0106355 0
1 0.0166171 0
0 0.231296 0
0 0.234714 0
0.0675364 0.231907 0
0.236149 0.220447 0
0.49012 0.198276 0
0.758038 0.179507 0
0.958907 0.177417 0
1 0.1879 0
1 0.19736 0
0 0.432837 0
0 0.440253 0
0.0362707 0.441199 0
0.191684 0.438193 0
0.435737 0.426551 0
0.697292 0.417288 0
0.891752 0.422843 0
0.999237 0.437339 0
1 0.448417 0
0 0.674159 0
0.0475013 0.676143 0
0.105043 0.677562 0
0.225986 0.677501 0
0.432609 0.672724 0
0.667063 0.667933 0
0.846815 0.67393 0
0.947433 0.6869 0.0202945
0.990997 0.696574 0.0365454
0.227268 0.868879 0.00581369
0.256199 0.86894 0.00988785
0.287526 0.868772 0.0139773
0.363012 0.867796 0.0229953
0.51014 0.863584 0.037171
0.698161 0.858732 0.0557565
0.852583 0.861128 0.0801251
0.941283 0.869123 0.103731
0.980224 0.875761 0.118669
0.434775 0.980346 0.112154
0.449805 0.979934 0.113832
0.467124 0.979339 0.115587
0.510887 0.977508 0.119448
0.608545 0.973053 0.127367
0.750896 0.967147 0.139742
0.879911 0.966445 0.158251
0.957565 0.970733 0.176822
0.991714 0.974716 0.188266
0.54519 1 0.169436
0.555352 1 0.17023
0.566888 1 0.171221
0.59765 1 0.17322
0.670314 1 0.177707
0.786999 1 0.187121
0.900053 1 0.201175
0.970748 1 0.216159
1 1 0.226093
0 0.00373846 0.0612497
0.0569314 0 0.0500496
0.143679 0 0.0339666
0.302052 0 0.00839246
0.548623 0 0
0.821515 0 0
1 0 0
1 0 0
1 0 0
0 0.0480354 0.0459602
0.0350958 0.0446937 0.0425422
0.13695 0.0312505 0.0251316
0.296391 0.00979629 0.00560006
0.541466 0 0
0.811933 0 0
1 0 0
1 0 0
1 0 0
0 0.109987 0.0196994
0.0196841 0.10869 0.0193179
0.111788 0.100893 0.0133669
0.281865 0.0822766 0
0.52961 0.0528115 0
0.798276 0.0237888 0
1 0.0126345 0
1 0.0169528 0
1 0.0234226 0
0 0.232959 0
0 0.237369 0
0.0686198 0.235157 0
0.238651 0.224063 0
0.4934 0.202884 0
0.760113 0.184878 0
0.960372 0.183658 0
1 0.19469 0
1 0.204501 0
0 0.43563 0
0 0.443519 0
0.0408484 0.4448 0
0.195712 0.442481 0
0.440146 0.43151 0
0.700938 0.422614 0
0.894652 0.428702 0
1 0.443565 0.00335698
1 0.454887 0.0163272
0 0.676555 0
0.0519875 0.678691 0
0.108843 0.679957 0
0.229892 0.680385 0
0.435691 0.675471 0
0.669963 0.671077 0
0.849409 0.677394 0.0159915
0.949523 0.690181 0.0416266
0.992676 0.699489 0.0576791
0.227237 0.86891 0.00582895
0.256168 0.868971 0.0099031
0.287495 0.868818 0.0139925
0.362997 0.867826 0.0230259
0.51014 0.86363 0.0371862
0.698177 0.858763 0.0557717
0.852583 0.861158 0.0801404
0.941283 0.869169 0.103746
0.980224 0.875792 0.1187
0.43476 0.980362 0.112169
0.44979 0.97995 0.113848
0.467109 0.979355 0.115602
0.510872 0.977523 0.119448
0.608545 0.973068 0.127382
0.750896 0.967147 0.139757
0.879911 0.966461 0.158267
0.957565 0.970748 0.176837
0.991714 0.974731 0.188281
0.545174 1 0.169436
0.555337 1 0.170245
0.566873 1 0.171221
0.597635 1 0.17322
0.670314 1 0.177722
0.786999 1 0.187121
0.900069 1 0.20119
0.970764 1 0.216175
1 1 0.226108
0 0.000564584 0.151705
0.0480964 0 0.142229
0.132555 0 0.124086
0.295995 0 0.0915847
0.545373 0 0.0478218
0.818967 0 0.00622568
1 0 0
1 0 0
1 0 0
0 0.0467689 0.135241
0.0334478 0.043595 0.130068
0.12256 0.0342718 0.114244
0.291554 0.0117037 0.0865187
0.539055 0 0.0494545
0.809873 0 0.0147707
1 0 0
1 0 0
1 0 0.00199893
0 0.10898 0.108827
0.0137636 0.109621 0.109468
0.0900435 0.106828 0.106676
0.281376 0.0842603 0.0759747
0.528923 0.0563973 0.049836
0.797513 0.0286717 0.0245823
1 0.0185702 0.0159304
1 0.0235752 0.0207523
1 0.0305943 0.0271916
0 0.233265 0.0543679
0 0.238773 0.061738
0.0662242 0.238224 0.0626993
0.239673 0.227481 0.0542458
0.496315 0.207187 0.0388647
0.761761 0.190616 0.0285801
0.961318 0.190402 0.0326085
1 0.202014 0.0458991
1 0.212161 0.056611
0 0.438087 0
0 0.446738 0.00875868
0.0454261 0.448814 0.0157168
0.199313 0.447547 0.0232548
0.445121 0.437232 0.0257572
0.705562 0.429221 0.0312047
0.898116 0.436042 0.0487068
1 0.451118 0.0706951
1 0.46273 0.0858625
0.00317388 0.681331 9.15541e-05
0.0619211 0.684047 0.00906386
0.118303 0.685817 0.0168002
0.238437 0.686748 0.0296483
0.443381 0.682338 0.0434424
0.676753 0.678248 0.0598306
0.854719 0.68452 0.0841993
0.953765 0.697108 0.109438
0.996521 0.706386 0.125338
0.236469 0.874037 0.0610208
0.265126 0.874113 0.0649271
0.296513 0.874174 0.0691539
0.371023 0.872969 0.0771649
0.517143 0.868788 0.0899367
0.703944 0.863859 0.1066
0.857252 0.866148 0.129412
0.945159 0.873945 0.151965
0.983627 0.880308 0.166171
0.43473 0.980377 0.112184
0.44976 0.979965 0.113863
0.467094 0.979385 0.115602
0.510857 0.977554 0.119463
0.60853 0.973083 0.127398
0.750896 0.967163 0.139757
0.879927 0.966476 0.158282
0.957565 0.970764 0.176837
0.991714 0.974731 0.188296
0.545174 1 0.169451
0.555337 1 0.170245
0.566857 1 0.171221
0.597635 1 0.173236
0.670314 1 0.177737
0.786999 1 0.187137
0.900069 1 0.20119
0.970764 1 0.216175
1 1 0.226108
0 0 0.341131
0.0349432 0 0.332372
0.115068 0 0.317403
0.277928 0 0.281773
0.53373 0 0.228473
0.810391 0 0.178515
1 0 0.14966
1 0 0.141161
1 0 0.140871
0 0.0444648 0.319997
0.0223545 0.0418708 0.314687
0.10399 0.0356756 0.304112
0.271672 0.0156252 0.273686
0.528206 0 0.227207
0.801556 0 0.185946
1 0 0.165347
1 0 0.163119
1 0 0.166033
0 0.106828 0.293294
0.00585946 0.107668 0.292149
0.0870375 0.105089 0.286458
0.259312 0.089189 0.260456
0.519844 0.060502 0.222721
0.790722 0.0345006 0.191669
0.994476 0.0262608 0.179339
1 0.0326543 0.183001
1 0.040116 0.189044
0 0.231113 0.236393
0 0.237568 0.242786
0.0558175 0.240131 0.245304
0.20766 0.236362 0.241489
0.494774 0.210605 0.202655
0.758968 0.196475 0.188769
0.957687 0.197482 0.189731
1 0.209903 0.201831
1 0.220752 0.212406
0 0.43798 0.166949
0 0.447395 0.180072
0.0456245 0.451469 0.186999
0.195743 0.452171 0.19173
0.447074 0.441825 0.183871
0.708583 0.434806 0.18262
0.899077 0.442649 0.197375
1 0.458167 0.217823
1 0.469505 0.231739
0.0126192 0.683925 0.163561
0.0694438 0.687617 0.172427
0.124849 0.689982 0.1794
0.24332 0.69163 0.1897
0.447578 0.687785 0.197879
0.681514 0.683711 0.206973
0.858183 0.690089 0.226596
0.955932 0.702541 0.248997
0.998138 0.711788 0.2636
0.24744 0.879301 0.226917
0.275563 0.879408 0.229984
0.306554 0.879591 0.233433
0.380148 0.878569 0.23946
0.524712 0.874327 0.247654
0.710491 0.869413 0.258427
0.862074 0.871275 0.275669
0.94873 0.878782 0.294804
0.986389 0.884718 0.30695
0.448783 0.987778 0.274632
0.463523 0.98732 0.275792
0.480385 0.986633 0.276814
0.523644 0.984894 0.279515
0.619577 0.980102 0.283879
0.759991 0.973922 0.291341
0.886824 0.972686 0.304707
0.962814 0.976364 0.319509
0.996185 0.97998 0.329091
0.555276 1 0.281956
0.565042 1 0.2822
0.576333 1 0.282826
0.606607 1 0.283955
0.678798 1 0.28719
0.793515 1 0.29279
0.904952 1 0.30338
0.974716 1 0.316274
1 1 0.324468
0 0 0.648981
0.00732433 0 0.641474
0.087892 0 0.628626
0.248188 0 0.597726
0.507012 0 0.542931
0.788739 0 0.48687
0.999603 0 0.453971
1 0 0.443641
1 0 0.442542
0 0.048249 0.622278
0 0.0476539 0.617655
0.0805371 0.0433051 0.608087
0.242741 0.0281376 0.583169
0.502571 0 0.535348
0.781674 0 0.487068
0.98967 0 0.461997
1 0 0.457511
1 0 0.459495
0 0.107836 0.592035
0 0.110338 0.590204
0.0690318 0.109087 0.583947
0.231495 0.0982223 0.563973
0.493599 0.0727398 0.523262
0.77232 0.0486915 0.483589
0.978195 0.0432441 0.465904
1 0.0516976 0.466285
1 0.0603494 0.470832
0 0.229313 0.529717
0 0.23714 0.533669
0.0462348 0.24036 0.533272
0.204273 0.237125 0.52343
0.468467 0.219684 0.492592
0.744854 0.204807 0.46537
0.945541 0.207752 0.459785
1 0.221454 0.467765
1 0.232792 0.476097
0 0.434684 0.448005
0 0.445731 0.458854
0.039765 0.451377 0.464332
0.182895 0.455314 0.468009
0.413123 0.451835 0.464134
0.706004 0.438499 0.436316
0.89398 0.447761 0.445197
0.998322 0.463813 0.461067
1 0.475395 0.472587
0.0160525 0.682902 0.424414
0.0704814 0.687327 0.431495
0.124071 0.690288 0.43682
0.239292 0.693156 0.444083
0.43975 0.690669 0.446616
0.680629 0.685191 0.441764
0.857511 0.691478 0.452415
0.953857 0.704219 0.470222
0.99527 0.713314 0.482139
0.24892 0.878904 0.470726
0.277028 0.879469 0.473274
0.307042 0.879499 0.475242
0.379507 0.878889 0.478996
0.522667 0.874891 0.482063
0.70901 0.869108 0.48333
0.861006 0.870375 0.491737
0.946731 0.877516 0.505409
0.983825 0.883284 0.514946
0.449241 0.986679 0.51899
0.463828 0.986221 0.519539
0.480507 0.985611 0.520027
0.522957 0.983658 0.520684
0.618204 0.978668 0.520912
0.758434 0.971832 0.521035
0.884825 0.969879 0.526589
0.959976 0.973144 0.536217
0.992844 0.976547 0.543252
0.555428 1 0.53933
0.565301 1 0.539406
0.576471 1 0.539559
0.6065 1 0.539345
0.677699 1 0.538369
0.792126 1 0.537697
0.902892 1 0.541222
0.971389 1 0.548486
1 1 0.554345
0 0.0337987 0.964096
0 0.0344549 0.959319
0.0558175 0.0314794 0.948562
0.219028 0.0182345 0.92285
0.477867 0 0.875532
0.761303 0 0.823667
0.972549 0 0.792584
1 0 0.783383
1 0 0.783062
0 0.0847791 0.934401
0 0.0872511 0.930831
0.0493782 0.0869612 0.922362
0.212863 0.0776837 0.900374
0.472038 0.0544594 0.858976
0.754574 0.0308385 0.813352
0.964263 0.0258488 0.787717
1 0.0349737 0.782361
1 0.0439307 0.783795
0 0.135164 0.904219
0 0.139864 0.902159
0.0423133 0.141482 0.895659
0.20557 0.135821 0.877226
0.463615 0.116716 0.840497
0.74519 0.0976425 0.800427
0.953216 0.0962692 0.779522
1 0.107988 0.777218
1 0.118593 0.780362
0 0.243763 0.839872
0 0.25333 0.841627
0.0297093 0.258122 0.839155
0.189761 0.258167 0.827634
0.44332 0.246464 0.800214
0.721965 0.234531 0.769863
0.926162 0.239094 0.757595
1 0.254017 0.760571
1 0.265797 0.766079
0 0.438453 0.747005
0 0.450935 0.754406
0.0352636 0.45774 0.757137
0.180468 0.462974 0.755611
0.415061 0.459815 0.742809
0.686305 0.453071 0.723507
0.882445 0.461006 0.720851
0.987869 0.477089 0.730175
1 0.488594 0.738277
0.016907 0.682826 0.699428
0.0710613 0.688243 0.704662
0.124178 0.691646 0.707912
0.237217 0.695552 0.711482
0.430442 0.695293 0.71075
0.656443 0.693187 0.708049
0.85539 0.693843 0.698802
0.949615 0.706661 0.711498
0.990372 0.715709 0.720546
0.249012 0.877928 0.720607
0.276158 0.878294 0.721736
0.305486 0.878447 0.722698
0.376562 0.878279 0.724407
0.515755 0.874846 0.724147
0.699413 0.869047 0.720989
0.857374 0.868254 0.718471
0.943404 0.874983 0.726146
0.979965 0.880751 0.733257
0.445686 0.983948 0.75552
0.459815 0.983276 0.755322
0.476036 0.982742 0.755367
0.517906 0.980926 0.754986
0.611475 0.976028 0.752926
0.751339 0.968795 0.748837
0.879637 0.965438 0.746746
0.955093 0.968017 0.750774
0.987625 0.971206 0.755291
0.549859 1 0.773877
0.559426 1 0.773648
0.570367 1 0.773419
0.599847 1 0.772351
0.670588 1 0.769711
0.784863 1 0.764935
0.896788 1 0.761944
0.965545 1 0.764446
0.995682 1 0.767758
0 0.143511 1
0 0.147677 1
0.0177157 0.152636 1
0.188205 0.149767 1
0.4486 0.134173 1
0.73138 0.118212 1
0.940993 0.119097 1
1 0.132021 0.999237
1 0.14313 1
0 0.176745 1
0 0.182177 1
0.0144503 0.188159 1
0.18436 0.187106 1
0.443656 0.174258 1
0.724788 0.160327 1
0.933242 0.163058 0.994278
1 0.177142 0.990707
1 0.188617 0.99263
0 0.21265 1
0 0.219013 1
0.012253 0.226078 1
0.180896 0.226841 1
0.438346 0.216297 1
0.717784 0.204501 1
0.92491 0.208804 0.983413
1 0.223819 0.981353
1 0.235569 0.983978
0 0.296483 1
0 0.306386 1
0.0108492 0.315099 1
0.174716 0.319142 1
0.426856 0.313191 1
0.701671 0.305364 0.971405
0.905364 0.3122 0.958114
1 0.328313 0.959243
1 0.340368 0.963317
0 0.462135 0.951751
0 0.47715 0.957961
0.0308232 0.485328 0.959167
0.179324 0.492119 0.954803
0.413306 0.491539 0.939605
0.675425 0.487892 0.920806
0.871717 0.495659 0.914794
0.977447 0.510811 0.91989
1 0.522362 0.92604
0.0177462 0.691981 0.893492
0.0738537 0.698116 0.897185
0.12784 0.702113 0.899062
0.242161 0.706569 0.899489
0.435752 0.706661 0.893599
0.66302 0.703944 0.884123
0.846876 0.707134 0.880995
0.945327 0.718242 0.887831
0.986572 0.726711 0.894194
0.252186 0.881178 0.895003
0.279316 0.881712 0.895476
0.309194 0.882292 0.895964
0.379538 0.881941 0.89546
0.517418 0.878782 0.891981
0.695857 0.873655 0.886473
0.846647 0.873671 0.886076
0.943023 0.877012 0.885374
0.978592 0.882521 0.890852
0.446571 0.984604 0.916335
0.460914 0.984146 0.91606
0.476692 0.983413 0.915496
0.518135 0.981537 0.914061
0.610162 0.976699 0.910216
0.746944 0.969451 0.904341
0.873823 0.965469 0.901198
0.952575 0.96672 0.900999
0.985382 0.969604 0.903487
0.548989 1 0.929442
0.558465 1 0.929061
0.569268 1 0.928359
0.59855 1 0.927077
0.66804 1 0.923049
0.780301 1 0.916945
0.892058 1 0.912688
0.962295 1 0.911894
0.992599 1 0.913344
0 0.268849 1
0 0.272145 1
0 0.285084 1
0.163363 0.29102 1
0.425437 0.285237 1
0.704616 0.277378 1
0.910491 0.284153 1
1 0.300313 1
1 0.312459 1
0 0.290074 1
0 0.293935 1
0 0.307103 1
0.162799 0.313954 1
0.422995 0.309026 1
0.70103 0.302388 1
0.905928 0.309606 1
1 0.32575 1
1 0.338094 1
0 0.31371 1
0 0.318425 1
0 0.331991 1
0.162234 0.339529 1
0.420722 0.335943 1
0.696727 0.329793 1
0.900587 0.337469 1
1 0.353872 1
1 0.365972 1
0 0.373587 1
0 0.381323 1
0 0.394919 1
0.163363 0.403738 1
0.415946 0.40235 1
0.687083 0.397925 1
0.888014 0.406195 1
0.996872 0.422492 1
1 0.434333 1
0 0.502113 1
0 0.518853 1
0.0242008 0.529503 1
0.178805 0.538979 1
0.413642 0.539986 1
0.671046 0.537591 1
0.864729 0.545205 1
0.969619 0.559915 1
1 0.57055 1
0.0146944 0.70901 0.991043
0.0740978 0.716091 0.99443
0.130694 0.720943 0.996033
0.247822 0.725887 0.995117
0.442481 0.726268 0.987076
0.66772 0.723568 0.975509
0.846189 0.727062 0.972
0.944198 0.737179 0.977203
0.985473 0.745068 0.982452
0.255375 0.888899 0.985397
0.283162 0.88954 0.985504
0.313207 0.889876 0.985306
0.384421 0.889784 0.983978
0.522774 0.886503 0.978515
0.70074 0.88098 0.970275
0.851362 0.880034 0.966888
0.940887 0.884169 0.96965
0.978225 0.888685 0.97351
0.449531 0.988403 0.998886
0.463615 0.98793 0.998398
0.47953 0.987182 0.99762
0.521065 0.985199 0.99556
0.613214 0.980346 0.990555
0.749142 0.972869 0.982849
0.873899 0.968688 0.978439
0.950164 0.969665 0.979248
0.985672 0.971511 0.980621
0.55082 1 1
0.560067 1 1
0.57113 1 1
0.600565 1 1
0.669596 1 1
0.781064 1 0.992676
0.891234 1 0.987457
0.961074 1 0.98703
0.992233 1 0.987839
0 0.35021 1
0 0.3505 1
0 0.36701 1
0.150713 0.379065 1
0.414527 0.377539 1
0.6907 0.372961 1
0.893721 0.381262 1
1 0.397696 1
1 0.409735 1
0 0.365774 1
0 0.366369 1
0 0.383429 1
0.151629 0.395682 1
0.413642 0.394659 1
0.688457 0.390494 1
0.890639 0.398917 1
0.999954 0.41532 1
1 0.427222 1
0 0.383337 1
0 0.385 1
0 0.402304 1
0.152544 0.414755 1
0.412741 0.414267 1
0.685893 0.410544 1
0.887114 0.419028 1
0.995972 0.43534 1
1 0.447105 1
0 0.430228 1
0 0.434333 1
0 0.451682 1
0.157076 0.464042 1
0.410925 0.465034 1
0.679652 0.462058 1
0.878264 0.470512 1
0.985687 0.48632 1
1 0.497734 1
0 0.537438 1
0 0.5505 1
0.0178378 0.564065 1
0.17763 0.575219 1
0.41416 0.577447 1
0.669245 0.575311 1
0.860929 0.582498 1
0.964767 0.59646 1
1 0.60676 1
0.00717174 0.722591 1
0.0706645 0.731044 1
0.129824 0.736202 1
0.250156 0.742107 1
0.446418 0.742596 1
0.670466 0.739513 1
0.846662 0.742626 1
0.943999 0.75227 1
0.985183 0.760006 1
0.255268 0.895354 1
0.283757 0.896025 1
0.314611 0.896635 1
0.386954 0.896391 1
0.525933 0.892958 1
0.703944 0.887114 1
0.853742 0.885817 1
0.941588 0.889921 1
0.978866 0.89424 1
0.450355 0.99176 1
0.464836 0.991257 1
0.480888 0.990448 1
0.522637 0.988525 1
0.615152 0.98349 1
0.751171 0.975814 1
0.875639 0.971359 1
0.951751 0.971984 1
0.985748 0.974105 1
0.551736 1 1
0.561273 1 1
0.572396 1 1
0.601663 1 1
0.671016 1 1
0.782376 1 1
0.892287 1 1
0.961654 1 1
0.992615 1 1
