public/textures/grade/Panasonic/Guardians-VLog.cube
TITLE "Generated by Resolve"
LUT_3D_SIZE 5
0 0.00486763 0.00132753
0.147509 0 0
0.550042 0 0
1 0 0
1 0 0
0 0.109316 0
0.112154 0.0983291 0
0.528817 0.049073 0
1 0.00698863 0
1 0.0166171 0
0 0.432837 0
0.0362707 0.441199 0
0.435737 0.426551 0
0.891752 0.422843 0
1 0.448417 0
0.227268 0.868879 0.00581369
0.287526 0.868772 0.0139773
0.51014 0.863584 0.037171
0.852583 0.861128 0.0801251
0.980224 0.875761 0.118669
0.54519 1 0.169436
0.566888 1 0.171221
0.670314 1 0.177707
0.900053 1 0.201175
1 1 0.226093
0 0.000564584 0.151705
0.132555 0 0.124086
0.545373 0 0.0478218
1 0 0
1 0 0
0 0.10898 0.108827
0.0900435 0.106828 0.106676
0.528923 0.0563973 0.049836
1 0.0185702 0.0159304
1 0.0305943 0.0271916
0 0.438087 0
0.0454261 0.448814 0.0157168
0.445121 0.437232 0.0257572
0.898116 0.436042 0.0487068
1 0.46273 0.0858625
0.236469 0.874037 0.0610208
0.296513 0.874174 0.0691539
0.517143 0.868788 0.0899367
0.857252 0.866148 0.129412
0.983627 0.880308 0.166171
0.545174 1 0.169451
0.566857 1 0.171221
0.670314 1 0.177737
0.900069 1 0.20119
1 1 0.226108
0 0 0.648981
0.087892 0 0.628626
0.507012 0 0.542931
0.999603 0 0.453971
1 0 0.442542
0 0.107836 0.592035
0.0690318 0.109087 0.583947
0.493599 0.0727398 0.523262
0.978195 0.0432441 0.465904
1 0.0603494 0.470832
0 0.434684 0.448005
0.039765 0.451377 0.464332
0.413123 0.451835 0.464134
0.89398 0.447761 0.445197
1 0.475395 0.472587
0.24892 0.878904 0.470726
0.307042 0.879499 0.475242
0.522667 0.874891 0.482063
0.861006 0.870375 0.491737
0.983825 0.883284 0.514946
0.555428 1 0.53933
0.576471 1 0.539559
0.677699 1 0.538369
0.902892 1 0.541222
1 1 0.554345
0 0.143511 1
0.0177157 0.152636 1
0.4486 0.134173 1
0.940993 0.119097 1
1 0.14313 1
0 0.21265 1
0.012253 0.226078 1
0.438346 0.216297 1
0.92491 0.208804 0.983413
1 0.235569 0.983978
0 0.462135 0.951751
0.0308232 0.485328 0.959167
0.413306 0.491539 0.939605
0.871717 0.495659 0.914794
1 0.522362 0.92604
0.252186 0.881178 0.895003
0.309194 0.882292 0.895964
0.517418 0.878782 0.891981
0.846647 0.873671 0.886076
0.978592 0.882521 0.890852
0.548989 1 0.929442
0.569268 1 0.928359
0.66804 1 0.923049
0.892058 1 0.912688
0.992599 1 0.913344
0 0.35021 1
0 0.36701 1
0.414527 0.377539 1
0.893721 0.381262 1
1 0.409735 1
0 0.383337 1
0 0.402304 1
0.412741 0.414267 1
0.887114 0.419028 1
1 0.447105 1
0 0.537438 1
0.0178378 0.564065 1
0.41416 0.577447 1
0.860929 0.582498 1
1 0.60676 1
0.255268 0.895354 1
0.314611 0.896635 1
0.525933 0.892958 1
0.853742 0.885817 1
0.978866 0.89424 1
0.551736 1 1
0.572396 1 1
0.671016 1 1
0.892287 1 1
0.992615 1 1
