public/textures/grade/Panasonic/Licorice-VLog.cube
TITLE "Generated by Resolve"
LUT_3D_SIZE 5
0 0 0.0439918
0.0858167 0 0.035874
0.666194 0 0
1 0 0
1 0 0
0 0.093492 0.0848707
0.0224918 0.0905165 0.0619516
0.655406 0 0
1 0 0
1 0 0
0 0.467567 0.323278
0.0423743 0.481544 0.319219
0.452766 0.44361 0.0961013
1 0.347631 0
1 0.35761 0
0.263218 0.985794 0.591363
0.269917 0.984802 0.575082
0.387564 0.949767 0.501091
1 0.858961 0.295262
1 0.843153 0.274937
0.370336 1 0.615625
0.405921 1 0.612482
0.601495 1 0.592584
1 1 0.411429
1 0.990646 0.392172
0 0 0.184131
0.0901961 0 0.157549
0.667048 0 0.0533303
1 0 0.0231937
1 0 0.0242466
0 0.0937972 0.158953
0.062623 0.0940261 0.129473
0.667781 0.00860609 0.0611887
1 0 0.0448005
1 0 0.0554208
0 0.471916 0.34519
0.0869917 0.482841 0.348592
0.465812 0.456474 0.170474
1 0.365911 0.0728466
1 0.377111 0.0890211
0.277668 0.986694 0.600885
0.284199 0.985672 0.585382
0.39266 0.95433 0.511284
1 0.863188 0.3131
1 0.847623 0.293828
0.370291 1 0.615641
0.405859 1 0.612497
0.60148 1 0.592599
1 1 0.411444
1 0.990662 0.392187
0 0 0.676402
0.0628367 0 0.656474
0.613153 0 0.559258
1 0 0.440146
1 0 0.434577
0 0.0444343 0.636255
0.0405432 0.0665141 0.627436
0.601892 0.0392309 0.548424
1 0 0.448661
1 0 0.455711
0 0.491173 0.519783
0.0716411 0.501183 0.518486
0.46717 0.476158 0.45391
1 0.412055 0.347356
1 0.428092 0.362997
0.386099 0.944671 0.743786
0.411627 0.937423 0.734676
0.462318 0.930938 0.643824
1 0.865675 0.453513
1 0.853956 0.438804
0.51371 1 0.7579
0.517754 1 0.743252
0.601007 1 0.677836
1 1 0.522362
1 0.987274 0.504128
0 0.0188144 1
0.00109865 0.0502632 1
0.554437 0.114305 1
1 0.0607614 1
1 0.0770581 1
0 0.147768 1
0 0.175738 1
0.531807 0.208545 1
1 0.159899 1
1 0.177249 1
0 0.503166 1
0.0133974 0.520745 1
0.452232 0.506416 0.995102
1 0.480705 0.932616
1 0.494652 0.933852
0.23125 0.979309 0.970886
0.262699 0.970138 0.958724
0.478645 0.931579 0.904479
0.922942 0.895491 0.821485
1 0.885863 0.784497
0.516106 1 0.973632
0.542016 1 0.966674
0.6757 1 0.93228
0.957656 1 0.816526
1 0.997971 0.786618
0 0.339986 1
0 0.361028 1
0.475349 0.377142 1
1 0.349889 1
1 0.365072 1
0 0.386481 1
0 0.408026 1
0.465766 0.415473 1
1 0.392264 1
1 0.406653 1
0 0.591501 1
0.00428779 0.614557 1
0.435187 0.594949 1
1 0.57586 1
1 0.585077 1
0.349737 0.995453 1
0.374655 0.985809 1
0.540703 0.947112 1
0.917372 0.91487 0.933059
1 0.911406 0.923262
0.494118 1 1
0.519539 1 1
0.649332 1 1
0.932525 1 0.938643
1 1 0.925582
