public/textures/grade/Panasonic/Licorice-VLog.cube
TITLE "Generated by Resolve"
LUT_3D_SIZE 9
0 0 0.0439918
0 0 0.0338598
0.0858167 0 0.035874
0.328496 0 0.0225376
0.666194 0 0
1 0 0
1 0 0
1 0 0
1 0 0
0 0.0269017 0.0371099
0 0.0256962 0.0299077
0.0682536 0.0162966 0.0319219
0.31667 0 0.0276799
0.668132 0 0
1 0 0
1 0 0
1 0 0
1 0 0
0 0.093492 0.0848707
0 0.0953231 0.0753338
0.0224918 0.0905165 0.0619516
0.273899 0.0533608 0.0310826
0.655406 0 0
1 0 0
1 0 0
1 0 0
1 0 0
0 0.235737 0.178515
0 0.244099 0.181659
0 0.245319 0.17496
0.165515 0.228061 0.0851148
0.59263 0.15256 0
0.981247 0.0910048 0
1 0.06215 0
1 0.0627451 0
1 0.0713359 0
0 0.467567 0.323278
0 0.475914 0.327077
0.0423743 0.481544 0.319219
0.0964828 0.492378 0.257145
0.452766 0.44361 0.0961013
0.891966 0.373526 0
1 0.347631 0
1 0.349905 0
1 0.35761 0
0.126314 0.755077 0.487083
0.146746 0.760555 0.479423
0.162432 0.764126 0.468711
0.185046 0.767636 0.433371
0.363302 0.731395 0.368353
0.773785 0.679316 0.196246
1 0.639841 0.127337
1 0.632959 0.110704
1 0.636103 0.113313
0.263218 0.985794 0.591363
0.266819 0.985672 0.5841
0.269917 0.984802 0.575082
0.275578 0.981048 0.548821
0.387564 0.949767 0.501091
0.732113 0.889113 0.411307
1 0.858961 0.295262
1 0.84448 0.276753
1 0.843153 0.274937
0.33196 1 0.62446
0.33254 1 0.618235
0.33312 1 0.610895
0.337789 1 0.586694
0.50396 1 0.568643
0.776226 0.992279 0.503197
1 0.969512 0.380804
1 0.952605 0.365362
1 0.949111 0.360998
0.370336 1 0.615625
0.386481 1 0.614206
0.405921 1 0.612482
0.460533 1 0.607797
0.601495 1 0.592584
0.820706 1 0.52871
1 1 0.411429
1 0.995102 0.397299
1 0.990646 0.392172
0 0 0.0968948
0 0 0.0822156
0.0923171 0 0.0712139
0.330114 0 0.0428473
0.667857 0 0.0150301
1 0 0
1 0 0
1 0 0
1 0 0
0 0.0248875 0.0871138
0 0.0240635 0.0753643
0.0805219 0.0167391 0.0647288
0.320317 0 0.0505531
0.671611 0 0.020676
1 0 0
1 0 0
1 0 0
1 0 0
0 0.0961624 0.0994736
0 0.0972305 0.0885328
0.0458534 0.0923171 0.0746166
0.27776 0.0620737 0.0586862
0.661112 0 0.0249027
1 0 0
1 0 0
1 0 0
1 0 0.00317388
0 0.238331 0.189715
0 0.246326 0.193622
0 0.248432 0.189502
0.16849 0.234638 0.116289
0.600427 0.161044 0.0288396
0.986023 0.103761 0.000961318
1 0.0773022 0
1 0.0791333 0.00433356
1 0.0880903 0.0119631
0 0.470329 0.330373
0 0.478813 0.334478
0.0640421 0.483558 0.329702
0.118242 0.494942 0.27541
0.459495 0.449821 0.124605
0.897749 0.380514 0.0259251
1 0.355459 0.00572213
1 0.358221 0.013611
1 0.365774 0.0231785
0.136156 0.756817 0.491386
0.155535 0.761868 0.483787
0.170993 0.765606 0.473503
0.193454 0.769406 0.439612
0.366567 0.734874 0.374533
0.777966 0.682643 0.206744
1 0.64332 0.141466
1 0.6365 0.126146
1 0.639399 0.128328
0.263233 0.98584 0.591394
0.266835 0.985702 0.584146
0.269932 0.984848 0.575128
0.275593 0.981094 0.548867
0.387533 0.949813 0.501122
0.732097 0.889158 0.411368
1 0.858991 0.295293
1 0.844511 0.276783
1 0.843198 0.274968
0.331975 1 0.624475
0.332555 1 0.618265
0.33312 1 0.61091
0.337789 1 0.586709
0.503929 1 0.568643
0.776196 0.992279 0.503227
1 0.969528 0.380819
1 0.952621 0.365362
1 0.949126 0.360998
0.370306 1 0.615625
0.38645 1 0.614221
0.405905 1 0.612497
0.460517 1 0.607797
0.60148 1 0.592599
0.820706 1 0.52871
1 1 0.411444
1 0.995117 0.397299
1 0.990662 0.392172
0 0 0.184131
0 0 0.173358
0.0901961 0 0.157549
0.323125 0 0.102419
0.667048 0 0.0533303
1 0 0.0320134
1 0 0.0231937
1 0 0.0223697
1 0 0.0242466
0 0.0172885 0.175174
0 0.0195926 0.166491
0.081651 0.0162356 0.148775
0.316793 0 0.105928
0.673289 0 0.0575265
1 0 0.0374456
1 0 0.0333104
1 0 0.0357061
1 0 0.039704
0 0.0937972 0.158953
0 0.0968643 0.14728
0.062623 0.0940261 0.129473
0.284627 0.0682231 0.106462
0.667781 0.00860609 0.0611887
1 0 0.0457465
1 0 0.0448005
1 0 0.0504005
1 0 0.0554208
0 0.239963 0.210895
0 0.247501 0.215045
0 0.247501 0.206394
0.176562 0.240055 0.153796
0.611719 0.16994 0.0788128
0.98967 0.119036 0.0554208
1 0.0968948 0.0528878
1 0.099733 0.0601663
1 0.10811 0.0666056
0 0.471916 0.34519
0 0.480385 0.349737
0.0869917 0.482841 0.348592
0.153735 0.492546 0.3075
0.465812 0.456474 0.170474
0.903639 0.389166 0.0924086
1 0.365911 0.0728466
1 0.36936 0.0801404
1 0.377111 0.0890211
0.167971 0.755871 0.507454
0.185138 0.760647 0.500038
0.198962 0.764263 0.490105
0.219638 0.768597 0.459205
0.370672 0.741894 0.393744
0.785779 0.689082 0.240375
1 0.650401 0.184833
1 0.643992 0.172778
1 0.646876 0.174456
0.277668 0.986694 0.600885
0.280919 0.98645 0.593759
0.284199 0.985672 0.585382
0.290028 0.982208 0.56083
0.39266 0.95433 0.511284
0.738842 0.893706 0.42356
1 0.863188 0.3131
1 0.848707 0.295491
1 0.847623 0.293828
0.331975 1 0.624506
0.332555 1 0.61828
0.333135 1 0.610941
0.337789 1 0.58674
0.503899 1 0.568658
0.776196 0.992309 0.503243
1 0.969543 0.380835
1 0.952651 0.365377
1 0.949142 0.361028
0.370291 1 0.615641
0.386404 1 0.614221
0.405859 1 0.612497
0.460487 1 0.607813
0.60148 1 0.592599
0.820691 1 0.528725
1 1 0.411444
1 0.995117 0.397314
1 0.990662 0.392187
0 0 0.374166
0 0 0.366201
0.0778821 0 0.349523
0.292821 0 0.306859
0.64892 0 0.214023
0.993744 0 0.158358
1 0 0.136095
1 0 0.13286
1 0 0.134981
0 0.00128176 0.361517
0 0.00799573 0.356329
0.0708934 0.0142061 0.340383
0.288975 0 0.304936
0.657679 0 0.21416
1 0 0.166918
1 0 0.150607
1 0 0.151278
1 0 0.155627
0 0.0719768 0.33933
0 0.0809186 0.336492
0.0549935 0.0857252 0.324254
0.268528 0.0730144 0.292393
0.656931 0.0188144 0.203479
1 0 0.165774
1 0 0.154116
1 0 0.158099
1 0 0.164706
0 0.242512 0.298848
0 0.25069 0.29662
0.041001 0.250889 0.284001
0.218509 0.241718 0.250843
0.619043 0.18883 0.179248
0.989578 0.144625 0.151751
1 0.127382 0.149737
1 0.131823 0.157916
1 0.140658 0.165484
0 0.475502 0.388907
0 0.483192 0.39292
0.0619974 0.484428 0.391241
0.20354 0.479652 0.379187
0.467872 0.464164 0.249485
0.910079 0.400946 0.175891
1 0.381781 0.159518
1 0.386603 0.163272
1 0.394842 0.16907
0.219409 0.744762 0.553719
0.246723 0.747127 0.55021
0.259693 0.74966 0.541329
0.278706 0.752712 0.513497
0.368063 0.747433 0.429023
0.790188 0.694011 0.296407
1 0.657511 0.249989
1 0.652155 0.239429
1 0.65597 0.240223
0.332784 0.970764 0.646616
0.335088 0.970291 0.639124
0.337224 0.969818 0.630396
0.339391 0.967422 0.605158
0.394522 0.955535 0.537865
0.743343 0.896849 0.459739
1 0.866148 0.361379
1 0.852506 0.344976
1 0.851743 0.342641
0.377386 1 0.663203
0.377722 1 0.656657
0.378347 1 0.648432
0.382895 1 0.622889
0.51548 1 0.592691
0.78526 0.995789 0.531441
1 0.972305 0.419547
1 0.955581 0.403967
1 0.9523 0.399374
0.399512 1 0.638209
0.401434 1 0.630747
0.418341 1 0.627878
0.472129 1 0.623194
0.609491 1 0.608438
0.827283 1 0.54699
1 1 0.436316
1 0.996872 0.421881
1 0.992508 0.416709
0 0 0.676402
0 0 0.671183
0.0628367 0 0.656474
0.268223 0 0.622812
0.613153 0 0.559258
0.977707 0 0.478294
1 0 0.440146
1 0 0.432532
1 0 0.434577
0 0 0.659159
0 0 0.656672
0.055848 0 0.645396
0.262516 0.00231937 0.615
0.613565 0 0.55874
0.98645 0 0.482872
1 0 0.450767
1 0 0.447807
1 0 0.452522
0 0.0444343 0.636255
0 0.0569467 0.636042
0.0405432 0.0665141 0.627436
0.245975 0.0844587 0.598535
0.601892 0.0392309 0.548424
0.984192 0 0.475898
1 0 0.448661
1 0 0.449454
1 0 0.455711
0 0.221668 0.586267
0 0.233997 0.589593
0.0145571 0.237568 0.584726
0.208972 0.236149 0.562249
0.558434 0.211917 0.513787
0.958846 0.17258 0.437156
1 0.163989 0.418387
1 0.173678 0.422858
1 0.183993 0.430182
0 0.491173 0.519783
0 0.499596 0.522255
0.0716411 0.501183 0.518486
0.193118 0.493751 0.50074
0.46717 0.476158 0.45391
0.898848 0.424308 0.358801
1 0.412055 0.347356
1 0.419333 0.355215
1 0.428092 0.362997
0.114565 0.752621 0.635203
0.169696 0.752026 0.632425
0.213764 0.749538 0.627787
0.289586 0.73994 0.613352
0.425986 0.730602 0.555734
0.786419 0.699535 0.417105
1 0.666941 0.368261
1 0.664225 0.360342
1 0.66862 0.36286
0.386099 0.944671 0.743786
0.398459 0.941222 0.739483
0.411627 0.937423 0.734676
0.433463 0.929747 0.71751
0.462318 0.930938 0.643824
0.736477 0.896117 0.539712
1 0.865675 0.453513
1 0.854017 0.439857
1 0.853956 0.438804
0.477577 1 0.774426
0.479973 1 0.768139
0.482734 1 0.760342
0.491249 1 0.737163
0.511116 1 0.661189
0.776394 0.992782 0.604425
1 0.968704 0.505379
1 0.952529 0.491524
1 0.949432 0.487922
0.51371 1 0.7579
0.515709 1 0.751415
0.517754 1 0.743252
0.523842 1 0.719478
0.601007 1 0.677836
0.816831 1 0.621286
1 1 0.522362
1 0.991775 0.508858
1 0.987274 0.504128
0 0 0.980407
0 0 0.979217
0.0441901 0 0.969985
0.245716 0 0.939727
0.590249 0 0.893324
0.96466 0 0.842329
1 0 0.811078
1 0 0.806928
1 0 0.8112
0 0 0.961227
0 0 0.961975
0.0331884 0 0.955093
0.235981 0.0298314 0.92845
0.581918 0.0210422 0.885039
0.960647 0 0.838712
1 0 0.810788
1 0 0.808865
1 0 0.81416
0 0.0430152 0.940734
0 0.0587778 0.942946
0.0204929 0.0724498 0.937942
0.223026 0.094255 0.914412
0.568231 0.092958 0.872587
0.950423 0.0521706 0.829953
1 0.0382544 0.804303
1 0.0453956 0.803708
1 0.0547646 0.809445
0 0.218479 0.89601
0 0.233829 0.901778
0 0.241077 0.899428
0.194766 0.242649 0.881041
0.52932 0.243046 0.837812
0.913939 0.20708 0.799084
1 0.195773 0.77261
1 0.204913 0.772137
1 0.215503 0.77818
0 0.484657 0.827787
0 0.495384 0.831434
0.0318761 0.497917 0.828443
0.188174 0.491829 0.81413
0.460578 0.481193 0.771725
0.828107 0.457221 0.728038
1 0.44477 0.687663
1 0.453071 0.68455
1 0.462776 0.689662
0.0594034 0.776425 0.785931
0.114015 0.776181 0.782528
0.156374 0.773831 0.777081
0.225834 0.764035 0.7608
0.426459 0.740826 0.721721
0.733761 0.722042 0.668925
1 0.69073 0.592706
1 0.689982 0.581201
1 0.695689 0.584375
0.275975 0.958343 0.854765
0.293126 0.954452 0.849607
0.310567 0.949584 0.843381
0.362356 0.937087 0.827085
0.519036 0.910765 0.789227
0.722866 0.898894 0.689174
0.994873 0.871687 0.609445
1 0.860761 0.590814
1 0.861708 0.590509
0.45095 1 0.88127
0.464607 1 0.877348
0.48098 1 0.872786
0.526635 1 0.860258
0.632639 0.996353 0.827497
0.761486 0.992477 0.730007
0.991669 0.968124 0.635172
1 0.952316 0.621973
1 0.949599 0.618936
0.566293 1 0.885451
0.577264 1 0.882445
0.590234 1 0.878904
0.62504 1 0.869245
0.665324 1 0.821485
0.799252 1 0.744595
1 1 0.648478
1 0.98912 0.635493
1 0.984985 0.630564
0 0.0188144 1
0 0.0315251 1
0.00109865 0.0502632 1
0.209476 0.0729839 1
0.554437 0.114305 1
0.937514 0.0757 1
1 0.0607614 1
1 0.0674144 1
1 0.0770581 1
0 0.0822766 1
0 0.0976577 1
0 0.11545 1
0.201633 0.129351 1
0.543923 0.15996 1
0.927428 0.123049 1
1 0.109316 1
1 0.116472 1
1 0.126101 1
0 0.147768 1
0 0.162203 1
0 0.175738 1
0.192966 0.183551 1
0.531807 0.208545 1
0.914748 0.172808 1
1 0.159899 1
1 0.167559 1
1 0.177249 1
0 0.276204 1
0 0.29102 1
0 0.300877 1
0.177249 0.30193 1
0.49926 0.320134 1
0.879713 0.286992 1
1 0.275135 0.999939
1 0.282994 1
1 0.292561 1
0 0.503166 1
0 0.516625 1
0.0133974 0.520745 1
0.181216 0.515877 1
0.452232 0.506416 0.995102
0.805493 0.49369 0.950393
1 0.480705 0.932616
1 0.48632 0.929961
1 0.494652 0.933852
0.121309 0.783993 0.984833
0.172839 0.784634 0.980758
0.212634 0.782238 0.974273
0.280598 0.772366 0.956954
0.453254 0.749981 0.921218
0.727489 0.734951 0.875334
0.981125 0.720409 0.849546
1 0.7205 0.829953
1 0.726024 0.827436
0.23125 0.979309 0.970886
0.245304 0.975097 0.965225
0.262699 0.970138 0.958724
0.31754 0.957397 0.941817
0.478645 0.931579 0.904479
0.727275 0.902632 0.855146
0.922942 0.895491 0.821485
1 0.886854 0.796124
1 0.885863 0.784497
0.392081 1 0.976486
0.407279 1 0.972137
0.425788 1 0.967269
0.476417 1 0.95433
0.598962 1 0.924498
0.780941 0.986053 0.869307
0.939651 0.978988 0.816159
1 0.970367 0.799588
1 0.967315 0.789197
0.516106 1 0.973632
0.527825 1 0.970367
0.542016 1 0.966674
0.580331 1 0.956603
0.6757 1 0.93228
0.796445 1 0.866575
0.957656 1 0.816526
1 1 0.796674
1 0.997971 0.786618
0 0.22565 1
0 0.231907 1
0 0.249714 1
0.170062 0.256168 1
0.50515 0.288167 1
0.892775 0.254108 1
1 0.2421 1
1 0.249409 1
1 0.258808 1
0 0.257328 1
0 0.264317 1
0 0.281102 1
0.167407 0.286168 1
0.497627 0.312688 1
0.88394 0.282109 1
1 0.270008 1
1 0.277272 1
1 0.286915 1
0 0.291676 1
0 0.299702 1
0 0.315312 1
0.164538 0.319051 1
0.49015 0.338567 1
0.873411 0.313237 1
1 0.301518 1
1 0.308598 1
1 0.317769 1
0 0.375631 1
0 0.386435 1
0 0.39939 1
0.162463 0.400214 1
0.471382 0.4056 1
0.846143 0.390387 1
1 0.378561 1
1 0.384924 1
1 0.393576 1
0 0.54818 1
0 0.565103 1
0.00732433 0.571572 1
0.182666 0.567498 1
0.442222 0.554299 1
0.788525 0.548196 1
1 0.534661 1
1 0.538308 1
1 0.545464 1
0.0950179 0.801312 1
0.156542 0.802884 1
0.201175 0.800931 1
0.273976 0.790814 1
0.448554 0.76733 1
0.726802 0.751461 0.983749
0.971084 0.74023 0.95639
1 0.74023 0.947311
1 0.745144 0.945129
0.354284 0.988464 1
0.366018 0.984176 1
0.378088 0.979202 1
0.416495 0.966476 1
0.535439 0.941466 0.969604
0.735424 0.91725 0.92694
0.917845 0.908278 0.900328
1 0.902937 0.893126
1 0.903227 0.888472
0.380606 1 1
0.396063 1 1
0.414466 1 1
0.464256 1 1
0.583474 1 0.983337
0.770108 0.994934 0.941421
0.924315 0.985397 0.908522
1 0.981842 0.897429
1 0.979843 0.892622
0.497078 1 1
0.50898 1 1
0.523064 1 1
0.561105 1 1
0.654414 1 0.987564
0.811337 1 0.94934
0.938567 1 0.910964
1 1 0.898695
1 1 0.89482
0 0.339986 1
0 0.340566 1
0 0.361028 1
0.152056 0.366918 1
0.475349 0.377142 1
0.858549 0.361685 1
1 0.349889 1
1 0.35642 1
1 0.365072 1
0 0.361578 1
0 0.363104 1
0 0.382879 1
0.15259 0.388098 1
0.471031 0.394827 1
0.851774 0.381445 1
1 0.369589 1
1 0.37586 1
1 0.384436 1
0 0.386481 1
0 0.389136 1
0 0.408026 1
0.152926 0.411902 1
0.465766 0.415473 1
0.843442 0.404227 1
1 0.392264 1
1 0.398215 1
1 0.406653 1
0 0.450095 1
0 0.455802 1
0 0.472053 1
0.157671 0.473762 1
0.45359 0.469749 1
0.821973 0.46247 1
1 0.449989 1
1 0.455116 1
1 0.462989 1
0 0.591501 1
0 0.605371 1
0.00428779 0.614557 1
0.185183 0.610773 1
0.435187 0.594949 1
0.775097 0.590341 1
1 0.57586 1
1 0.578622 1
1 0.585077 1
0.084596 0.818006 1
0.153292 0.820829 1
0.200626 0.819104 1
0.275273 0.808652 1
0.44828 0.784375 1
0.725917 0.766857 1
0.966278 0.757092 0.990478
1 0.756893 0.982452
1 0.761501 0.980468
0.349737 0.995453 1
0.36199 0.991058 1
0.374655 0.985809 1
0.413489 0.972671 1
0.540703 0.947112 1
0.744167 0.922087 0.961242
0.917372 0.91487 0.933059
1 0.910277 0.926009
1 0.911406 0.923262
0.391226 1 1
0.404105 1 1
0.419638 1 1
0.465278 1 1
0.58294 1 1
0.764614 1 0.967254
0.918807 0.991897 0.934661
1 0.985763 0.923766
1 0.984176 0.921477
0.494118 1 1
0.506035 1 1
0.519539 1 1
0.557534 1 1
0.649332 1 1
0.80235 1 0.97377
0.932525 1 0.938643
1 1 0.92694
1 1 0.925582
