public/textures/grade/Panasonic/Licorice-VLog.cube
TITLE "Generated by Resolve"
LUT_3D_SIZE 33
0 0 0.0439918
0 0 0.0431678
0 0 0.0402991
0 0 0.0363012
0 0 0.0338598
0.0140078 0 0.0336309
0.0325628 0 0.0339055
0.0553292 0 0.034638
0.0858167 0 0.035874
0.126452 0 0.0370947
0.180438 0 0.0363012
0.250217 0 0.0301671
0.328496 0 0.0225376
0.409094 0 0.014435
0.491432 0 0.00527962
0.577646 0 0
0.666194 0 0
0.755383 0 0
0.842008 0 0
0.925216 0 0
1 0 0
1 0 0
1 0 0
1 0 0
1 0 0
1 0 0
1 0 0
1 0 0
1 0 0
1 0 0
1 0 0
1 0 0
1 0 0
0 0 0.0432898
0 0 0.0425116
0 0 0.0398871
0 0 0.0361334
0 0 0.0331731
0.0137026 0 0.0330663
0.0323033 0 0.0334478
0.0550698 0 0.0343481
0.0857252 0 0.0358282
0.126162 0 0.0371405
0.180041 0 0.0364996
0.249912 0 0.0305333
0.328542 0 0.0229496
0.409461 0 0.0148623
0.491798 0 0.00569162
0.578271 0 0
0.667063 0 0
0.756207 0 0
0.842802 0 0
0.926207 0 0
1 0 0
1 0 0
1 0 0
1 0 0
1 0 0
1 0 0
1 0 0
1 0 0
1 0 0
1 0 0
1 0 0
1 0 0
1 0 0
0 0 0.0407568
0 0 0.0399176
0 0 0.037644
0 0 0.0354925
0 0 0.0322271
0.0104677 0 0.0311894
0.02916 0 0.0318608
0.051606 0 0.0330816
0.0818952 0 0.0350042
0.122362 0 0.0371099
0.176379 0 0.0374609
0.246769 0 0.0322576
0.326604 0 0.0245823
0.409003 0 0.016495
0.492302 0 0.00743114
0.579293 0 0
0.668421 0 0
0.758175 0 0
0.845548 0 0
0.92932 0 0
1 0 0
1 0 0
1 0 0
1 0 0
1 0 0
1 0 0
1 0 0
1 0 0
1 0 0
1 0 0
1 0 0
1 0 0
1 0 0
0 0.011902 0.0382544
0 0.0118868 0.0373388
0 0.0115206 0.035111
0 0.0106966 0.0331884
0 0.00935378 0.0317388
0.00570687 0.00851453 0.0298161
0.0238193 0.00674449 0.0296483
0.0461128 0.00369268 0.0311742
0.0764324 0 0.0338445
0.116655 0 0.0367437
0.170336 0 0.0380255
0.240955 0 0.0338293
0.322667 0 0.0261387
0.406912 0 0.0180209
0.491035 0 0.00880446
0.578836 0 0
0.668971 0 0
0.759197 0 0
0.846998 0 0
0.931441 0 0
1 0 0
1 0 0
1 0 0
1 0 0
1 0 0
1 0 0
1 0 0
1 0 0
1 0 0
1 0 0
1 0 0
1 0 0
1 0 0
0 0.0269017 0.0371099
0 0.0269169 0.0361181
0 0.0269169 0.0340124
0 0.0264744 0.0318151
0 0.0256962 0.0299077
0.00148013 0.0241855 0.0286717
0.0175021 0.0229801 0.0285954
0.0385443 0.0206302 0.0291905
0.0682536 0.0162966 0.0319219
0.108537 0.00936904 0.0357366
0.162554 0 0.038407
0.23328 0 0.0356603
0.31667 0 0.0276799
0.403128 0 0.0195163
0.488823 0 0.0102388
0.57731 0 0.000686656
0.668132 0 0
0.759213 0 0
0.847471 0 0
0.93228 0 0
1 0 0
1 0 0
1 0 0
1 0 0
1 0 0
1 0 0
1 0 0
1 0 0
1 0 0
1 0 0
1 0 0
1 0 0
1 0 0
0 0.0412909 0.0441749
0 0.0414588 0.0431983
0 0.0414588 0.0409857
0 0.0411383 0.0386969
0 0.0404059 0.0364996
0 0.0393072 0.0346227
0.00933852 0.0385138 0.0335851
0.0294804 0.0377661 0.0316167
0.0589761 0.0346227 0.0306859
0.0984207 0.0286717 0.0341802
0.152148 0.018967 0.0375677
0.223041 0.00563058 0.0361028
0.30898 0 0.0284276
0.397818 0 0.0201724
0.484398 0 0.00973526
0.574777 0 0.00178531
0.666529 0 0
0.757885 0 0
0.846983 0 0
0.932738 0 0
1 0 0
1 0 0
1 0 0
1 0 0
1 0 0
1 0 0
1 0 0
1 0 0
1 0 0
1 0 0
1 0 0
1 0 0
1 0 0
0 0.054902 0.0531014
0 0.0551766 0.0520943
0 0.055375 0.0499123
0 0.055314 0.0475166
0 0.0547951 0.0450599
0 0.0536812 0.0427405
0.00154116 0.052781 0.0412299
0.0225834 0.0512856 0.0396582
0.0468757 0.0515755 0.0343633
0.0897231 0.0454871 0.0348211
0.142123 0.0373846 0.0372168
0.212482 0.0248417 0.0363775
0.29984 0.00836194 0.0288701
0.391379 0 0.0209812
0.480964 0 0.0115206
0.571023 0 0.0011902
0.663249 0 0
0.755703 0 0
0.845121 0 0
0.93106 0 0
1 0 0
1 0 0
1 0 0
1 0 0
1 0 0
1 0 0
1 0 0
1 0 0
1 0 0
1 0 0
1 0 0
1 0 0
1 0 0
0 0.0710613 0.0657359
0 0.0715343 0.0646677
0 0.0718853 0.0623178
0 0.0719463 0.0596323
0 0.0715343 0.056733
0 0.0708171 0.054078
0 0.0700542 0.0521248
0.0114443 0.068864 0.0500649
0.0339818 0.0697185 0.0440986
0.0757458 0.0658122 0.0378271
0.130617 0.0568856 0.0388495
0.20058 0.0448463 0.0373999
0.288777 0.0290379 0.0296483
0.382345 0.0123903 0.0216373
0.474571 0 0.0124819
0.567102 0 0.00300603
0.661051 0 0
0.753506 0 0
0.843626 0 0
0.930297 0 0
1 0 0
1 0 0
1 0 0
1 0 0
1 0 0
1 0 0
1 0 0
1 0 0
1 0 0
1 0 0
1 0 0
1 0 0
1 0 0
0 0.093492 0.0848707
0 0.0942397 0.0838178
0 0.0949874 0.0815747
0 0.0952773 0.0784314
0 0.0953231 0.0753338
0 0.0944686 0.0718853
0 0.093431 0.0689097
0 0.0924697 0.0660105
0.0224918 0.0905165 0.0619516
0.0552834 0.0904097 0.0489204
0.113146 0.0832532 0.0429694
0.184817 0.070161 0.039765
0.273899 0.0533608 0.0310826
0.369818 0.0362097 0.022797
0.465217 0.0198367 0.0137789
0.559503 0.00370794 0.0041352
0.655406 0 0
0.750408 0 0
0.841871 0 0
0.929107 0 0
1 0 0
1 0 0
1 0 0
1 0 0
1 0 0
1 0 0
1 0 0
1 0 0
1 0 0
1 0 0
1 0 0
1 0 0
1 0 0
0 0.121386 0.109071
0 0.122515 0.10837
0 0.123552 0.106722
0 0.124437 0.104585
0 0.124681 0.10164
0 0.124361 0.0983444
0 0.123751 0.0950637
0 0.122728 0.0912184
0.00173953 0.121202 0.0858778
0.0372931 0.119188 0.073579
0.0893873 0.114992 0.0547189
0.163561 0.103609 0.0445258
0.254337 0.0851759 0.0331426
0.352331 0.0660716 0.0236057
0.451255 0.0488289 0.0144656
0.54876 0.0326696 0.00500496
0.646922 0.0165255 0
0.743786 0.00103761 0
0.836866 0 0
0.925841 0 0
1 0 0
1 0 0
1 0 0
1 0 0
1 0 0
1 0 0
1 0 0
1 0 0
1 0 0
1 0 0
1 0 0
1 0 0
1 0 0
0 0.154528 0.134173
0 0.156344 0.134478
0 0.157931 0.134066
0 0.159213 0.132952
0 0.160021 0.131167
0 0.160113 0.128527
0 0.15993 0.125643
0 0.15935 0.121935
0 0.158297 0.116518
0.0174258 0.155383 0.107286
0.0535134 0.155917 0.0753338
0.13521 0.144686 0.0515602
0.22916 0.127047 0.0381018
0.329656 0.10634 0.0251164
0.431739 0.086183 0.0145724
0.532616 0.0676738 0.00469978
0.63386 0.0512856 0
0.733043 0.035523 0
0.828229 0.0209964 0
0.918914 0.00784314 0
1 0 0
1 0 0
1 0 0
1 0 0
1 0 0
1 0 0
1 0 0
1 0 0
1 0 0
1 0 0
1 0 0
1 0 0
1 0 0
0 0.19173 0.154559
0 0.194537 0.156268
0 0.196765 0.157412
0 0.198611 0.158068
0 0.200137 0.158129
0 0.200595 0.156863
0 0.200961 0.1552
0 0.200809 0.152392
0 0.200153 0.147829
0 0.198169 0.139712
0.0445258 0.195682 0.117678
0.107942 0.188296 0.0834669
0.19704 0.176623 0.0478676
0.301946 0.156313 0.0306401
0.40679 0.135286 0.0163729
0.511467 0.115541 0.00460822
0.615991 0.0967422 0
0.717815 0.0779736 0
0.815473 0.0618296 0
0.908278 0.0481727 0
0.994278 0.0371405 0
1 0.0278782 0
1 0.0205081 0
1 0.0151827 0
1 0.0117647 0
1 0.00975052 0
1 0.00900282 0
1 0.00923171 0
1 0.0102998 0
1 0.01149 0
1 0.0129854 0
1 0.0141756 0
1 0.0154421 0
0 0.235737 0.178515
0 0.23859 0.180133
0 0.241093 0.18143
0 0.243 0.181979
0 0.244099 0.181659
0 0.244877 0.181003
0 0.245258 0.179858
0 0.245624 0.178286
0 0.245319 0.17496
0 0.243809 0.16878
0.0414282 0.242222 0.152728
0.0715648 0.243534 0.110369
0.165515 0.228061 0.0851148
0.265766 0.214466 0.0436408
0.376059 0.193179 0.0234226
0.484718 0.172122 0.00715648
0.59263 0.15256 0
0.698009 0.134707 0
0.798398 0.118486 0
0.8934 0.103746 0
0.981247 0.0910048 0
1 0.0798352 0
1 0.0712596 0
1 0.0655528 0
1 0.06215 0
1 0.0606851 0
1 0.0604105 0
1 0.0611734 0
1 0.0627451 0
1 0.065095 0
1 0.0670024 0
1 0.0693675 0
1 0.0713359 0
0 0.286091 0.207904
0 0.288731 0.209354
0 0.291234 0.210529
0 0.293019 0.210986
0 0.294209 0.210834
0 0.295232 0.210529
0 0.295583 0.209598
0 0.295995 0.208286
0 0.295872 0.205753
0.00746166 0.295171 0.20148
0.0420844 0.29572 0.18761
0.0574807 0.299519 0.151934
0.134768 0.288441 0.126024
0.229099 0.274937 0.0834058
0.339361 0.258869 0.0412604
0.453986 0.237278 0.0179446
0.565423 0.216556 0
0.673426 0.197711 0
0.776822 0.181231 0
0.874235 0.167041 0
0.964004 0.155322 0
1 0.145983 0
1 0.138766 0
1 0.133822 0
1 0.131121 0
1 0.130098 0
1 0.130434 0
1 0.131762 0
1 0.134112 0
1 0.136339 0
1 0.138857 0
1 0.141115 0
1 0.142855 0
0 0.341482 0.241627
0 0.344274 0.243198
0 0.346944 0.244541
0 0.348867 0.245182
0 0.350179 0.245274
0 0.351202 0.245106
0 0.351705 0.24448
0 0.352178 0.243473
0 0.352255 0.241566
0.0271611 0.35198 0.238407
0.0462043 0.354971 0.223743
0.0613718 0.358389 0.197147
0.103105 0.355978 0.162554
0.198032 0.338994 0.143374
0.298497 0.327901 0.078233
0.416327 0.30898 0.0421454
0.533669 0.287526 0.0157473
0.644938 0.267918 0
0.751598 0.250507 0
0.851087 0.235508 0
0.942718 0.223743 0
1 0.214633 0
1 0.207919 0
1 0.203433 0
1 0.201144 0
1 0.200504 0
1 0.201373 0
1 0.20293 0
1 0.204898 0
1 0.207523 0
1 0.209583 0
1 0.211917 0
1 0.213764 0
0 0.402136 0.280278
0 0.405066 0.281971
0 0.407843 0.283421
0 0.409689 0.284077
0 0.410956 0.284245
0 0.412055 0.28426
0 0.412573 0.283772
0 0.413199 0.283101
0.0211948 0.413489 0.281666
0.040238 0.415991 0.274434
0.0554208 0.419181 0.261402
0.0701915 0.422309 0.240635
0.0822919 0.42475 0.205554
0.168002 0.411337 0.188052
0.267826 0.394217 0.161288
0.373602 0.384573 0.0809796
0.496635 0.363806 0.0484627
0.613626 0.343359 0.0195163
0.723262 0.324971 0
0.825498 0.3093 0
0.918929 0.296895 0
1 0.287114 0
1 0.280003 0
1 0.275456 0
1 0.273304 0
1 0.272801 0
1 0.273365 0
1 0.274754 0
1 0.276677 0
1 0.279194 0
1 0.281193 0
1 0.283391 0
1 0.285237 0
0 0.467567 0.323278
0 0.470481 0.324956
0 0.472847 0.326131
0 0.474845 0.326986
0 0.475914 0.327077
0 0.477012 0.327169
0.015671 0.477455 0.326726
0.0308537 0.47921 0.324361
0.0423743 0.481544 0.319219
0.0560311 0.48455 0.311925
0.0703288 0.487419 0.300847
0.0847944 0.490242 0.284031
0.0964828 0.492378 0.257145
0.143023 0.486992 0.23064
0.23769 0.469291 0.215763
0.342275 0.453361 0.178637
0.452766 0.44361 0.0961013
0.576471 0.422889 0.0623484
0.691646 0.403571 0.0307774
0.796658 0.386954 0.00776684
0.891966 0.373526 0
0.978469 0.363012 0
1 0.355413 0
1 0.350286 0
1 0.347631 0
1 0.346563 0
1 0.346868 0
1 0.347982 0
1 0.349905 0
1 0.35201 0
1 0.354177 0
1 0.355886 0
1 0.35761 0
0 0.536187 0.36936
0 0.538918 0.370886
0 0.541085 0.371954
0.0194858 0.542489 0.372045
0.0295109 0.545037 0.370001
0.0383154 0.54696 0.367559
0.0464637 0.548806 0.365133
0.0557717 0.550866 0.361944
0.066331 0.552911 0.357259
0.0789807 0.555581 0.350805
0.092134 0.558038 0.341131
0.10428 0.560449 0.327031
0.114656 0.56228 0.305608
0.123751 0.562432 0.272847
0.21149 0.547234 0.262211
0.314504 0.528252 0.243503
0.421576 0.514595 0.19324
0.535241 0.503655 0.118044
0.655634 0.484138 0.0849317
0.765408 0.466667 0.0517586
0.863645 0.452186 0.0279393
0.951598 0.440726 0.01149
1 0.432212 0.0009308
1 0.426444 0
1 0.422919 0
1 0.421271 0
1 0.421057 0
1 0.421775 0
1 0.423514 0
1 0.425132 0
1 0.427024 0.00134279
1 0.428534 0.00340276
1 0.430076 0.00544747
0.0242161 0.607797 0.414527
0.0364691 0.611292 0.413199
0.0469215 0.61384 0.411399
0.0567636 0.616297 0.409583
0.0654612 0.618219 0.407401
0.0733043 0.619852 0.405158
0.0807355 0.621485 0.402869
0.0889143 0.623148 0.399939
0.0978408 0.624918 0.395621
0.107515 0.626902 0.389609
0.117754 0.62916 0.381186
0.127504 0.631083 0.369009
0.136294 0.632502 0.351186
0.143313 0.632639 0.324712
0.195758 0.623438 0.306172
0.290654 0.605264 0.293797
0.397452 0.586908 0.268345
0.504494 0.576242 0.203082
0.617639 0.563867 0.143038
0.731563 0.546136 0.113451
0.834165 0.530663 0.0834058
0.924819 0.51812 0.0587625
1 0.508705 0.0421302
1 0.502113 0.0315099
1 0.49778 0.0252079
1 0.495399 0.0220951
1 0.49453 0.0212253
1 0.494697 0.0217594
1 0.495979 0.0237583
1 0.497215 0.0256046
1 0.498787 0.0278325
1 0.50016 0.0297856
1 0.501396 0.0314946
0.0751354 0.683146 0.451896
0.0850385 0.685374 0.450187
0.0937972 0.687541 0.448402
0.100862 0.689082 0.446372
0.107469 0.690684 0.444297
0.113329 0.692134 0.442267
0.118471 0.693416 0.440055
0.123796 0.694453 0.43711
0.130358 0.696086 0.433295
0.137362 0.697444 0.427634
0.145266 0.699306 0.420172
0.152926 0.700664 0.409339
0.160098 0.701579 0.394049
0.16614 0.701381 0.372061
0.190768 0.696361 0.34844
0.273564 0.680293 0.338598
0.376699 0.660792 0.323232
0.482643 0.644816 0.288304
0.587228 0.63711 0.208759
0.697322 0.623041 0.16965
0.803037 0.607217 0.143862
0.896696 0.593851 0.119356
0.978149 0.583352 0.0991379
1 0.575814 0.0838636
1 0.570703 0.0729686
1 0.56759 0.0665446
1 0.566033 0.0632639
1 0.565911 0.0624552
1 0.566384 0.0627604
1 0.567208 0.0637217
1 0.56846 0.0653544
1 0.569772 0.0670939
1 0.57052 0.068101
0.126314 0.755077 0.487083
0.132479 0.756878 0.48542
0.137514 0.758022 0.483299
0.142397 0.75938 0.481437
0.146746 0.760555 0.479423
0.150378 0.761257 0.47715
0.153933 0.762173 0.475105
0.157885 0.76318 0.47245
0.162432 0.764126 0.468711
0.167651 0.76524 0.46363
0.173327 0.766262 0.456565
0.1794 0.767285 0.446906
0.185046 0.767636 0.433371
0.18999 0.766979 0.414496
0.194141 0.764508 0.38822
0.267353 0.750118 0.379629
0.363302 0.731395 0.368353
0.467689 0.712886 0.347036
0.569711 0.700236 0.300191
0.6692 0.694255 0.21912
0.773785 0.679316 0.196246
0.86952 0.665492 0.174258
0.952972 0.654276 0.154513
1 0.645869 0.138918
1 0.639841 0.127337
1 0.63592 0.119326
1 0.633783 0.114382
1 0.633036 0.111833
1 0.632959 0.110704
1 0.633631 0.110933
1 0.634287 0.11136
1 0.635355 0.11252
1 0.636103 0.113313
0.168902 0.822461 0.519295
0.172808 0.823636 0.517555
0.176333 0.824598 0.515633
0.179492 0.825437 0.513634
0.182086 0.825849 0.511482
0.184787 0.82652 0.509514
0.187243 0.827146 0.507515
0.18999 0.827787 0.504967
0.193057 0.828138 0.501305
0.196902 0.828916 0.496544
0.200992 0.829313 0.489998
0.2056 0.829862 0.481209
0.209873 0.829572 0.468925
0.213672 0.828412 0.452232
0.216892 0.825864 0.429603
0.269749 0.81445 0.417594
0.357687 0.797055 0.408331
0.458106 0.777813 0.393347
0.558801 0.761868 0.36286
0.654917 0.75285 0.30399
0.748272 0.746197 0.238682
0.844526 0.731899 0.221942
0.929107 0.720195 0.203632
1 0.711101 0.187991
1 0.704341 0.175875
1 0.700008 0.167575
1 0.697078 0.161868
1 0.695521 0.158495
1 0.694942 0.156771
1 0.695308 0.156527
1 0.695598 0.156466
1 0.696422 0.157198
1 0.697108 0.157824
0.205722 0.884215 0.547967
0.208164 0.884855 0.546105
0.210117 0.885054 0.543969
0.212222 0.885496 0.542031
0.214191 0.885924 0.540124
0.216007 0.88629 0.538216
0.217639 0.88661 0.536233
0.219257 0.88658 0.533578
0.221592 0.8869 0.530282
0.224308 0.887266 0.525872
0.227146 0.88716 0.519646
0.230457 0.887114 0.511437
0.23357 0.88629 0.500267
0.236469 0.884642 0.485145
0.238911 0.881712 0.46511
0.279362 0.871809 0.451652
0.360021 0.855589 0.443488
0.45536 0.836622 0.431632
0.552758 0.819257 0.41001
0.646555 0.807263 0.369131
0.736171 0.801541 0.299825
0.82385 0.792432 0.261738
0.908766 0.780087 0.246754
0.981598 0.770474 0.232395
1 0.763165 0.220676
1 0.758038 0.212131
1 0.754513 0.206149
1 0.752438 0.202472
1 0.751659 0.200717
1 0.751324 0.199817
1 0.751614 0.199832
1 0.751904 0.199985
1 0.752392 0.200443
0.237049 0.938857 0.572045
0.238331 0.938827 0.570016
0.239796 0.93904 0.568154
0.241169 0.939193 0.566247
0.242466 0.939284 0.564324
0.243671 0.939422 0.562493
0.244541 0.939239 0.560464
0.245762 0.939269 0.558099
0.247333 0.939269 0.554925
0.249256 0.939208 0.550729
0.251087 0.938689 0.544823
0.253483 0.938155 0.537224
0.255573 0.936843 0.526833
0.257755 0.934936 0.513176
0.259312 0.931319 0.494835
0.295186 0.922011 0.481773
0.370275 0.906538 0.474266
0.459403 0.888441 0.46424
0.553628 0.870344 0.447105
0.644663 0.856321 0.416236
0.731106 0.848051 0.364614
0.812146 0.84358 0.298741
0.892378 0.832563 0.28333
0.964782 0.822354 0.271153
1 0.81471 0.260578
1 0.80911 0.252399
1 0.805417 0.24683
1 0.802945 0.243122
1 0.80148 0.240909
1 0.801038 0.240085
1 0.800763 0.239567
1 0.801099 0.239872
1 0.801389 0.240162
0.263218 0.985794 0.591363
0.264195 0.985824 0.589578
0.26511 0.985763 0.587686
0.26598 0.985718 0.585885
0.266819 0.985672 0.5841
0.267613 0.985611 0.582361
0.268269 0.985351 0.580423
0.268925 0.985046 0.578103
0.269917 0.984802 0.575082
0.271153 0.984405 0.571023
0.272541 0.983734 0.565698
0.27393 0.982605 0.558389
0.275578 0.981048 0.548821
0.276905 0.978302 0.536004
0.27805 0.974258 0.519097
0.316777 0.964813 0.508064
0.387564 0.949767 0.501091
0.471321 0.932296 0.492103
0.561196 0.91426 0.477592
0.648737 0.899275 0.452537
0.732113 0.889113 0.411307
0.810208 0.88394 0.350988
0.882368 0.877577 0.313558
0.95314 0.867002 0.304372
1 0.858961 0.295262
1 0.852995 0.287816
1 0.848798 0.282414
1 0.84625 0.279042
1 0.84448 0.276753
1 0.843717 0.275715
1 0.843168 0.275013
1 0.843259 0.275074
1 0.843153 0.274937
0.285496 1 0.606317
0.285954 1 0.604486
0.286458 1 0.602594
0.287022 1 0.600885
0.287526 1 0.599039
0.288029 1 0.597345
0.288502 1 0.595529
0.289082 1 0.593454
0.289662 1 0.590539
0.290318 1 0.586557
0.291249 1 0.581353
0.292363 1 0.574639
0.293202 1 0.565393
0.294286 1 0.553674
0.296132 1 0.537194
0.343587 0.999039 0.530037
0.410986 0.984649 0.523766
0.490089 0.967651 0.515297
0.575006 0.950103 0.502251
0.659052 0.934798 0.480385
0.738537 0.923781 0.44564
0.81294 0.917311 0.395544
0.881148 0.913176 0.342977
0.946441 0.904204 0.331914
1 0.895827 0.324331
1 0.889555 0.317632
1 0.885145 0.312596
1 0.882338 0.309255
1 0.880385 0.30692
1 0.879408 0.305699
1 0.87866 0.304784
1 0.878538 0.30457
1 0.878279 0.30425
0.303929 1 0.616144
0.304356 1 0.614466
0.304753 1 0.612848
0.305089 1 0.611093
0.305394 1 0.609369
0.305715 1 0.607706
0.305852 1 0.605844
0.306172 1 0.6038
0.30663 1 0.601099
0.307195 1 0.597467
0.307774 1 0.592523
0.308217 1 0.585794
0.30901 1 0.577371
0.310109 1 0.565774
0.324956 1 0.55317
0.37586 1 0.548165
0.44004 1 0.542306
0.514305 0.995102 0.534203
0.593835 0.978225 0.521859
0.673274 0.963287 0.501915
0.749386 0.95198 0.470878
0.819989 0.944884 0.427314
0.885191 0.941161 0.371374
0.944701 0.934249 0.353918
1 0.925856 0.347768
1 0.919509 0.341833
1 0.915068 0.337194
1 0.911803 0.333577
1 0.909667 0.331136
1 0.908568 0.329763
1 0.907729 0.32874
1 0.907469 0.328344
1 0.907332 0.328084
0.319326 1 0.621912
0.319585 1 0.620233
0.31986 1 0.618708
0.320104 1 0.61706
0.320287 1 0.615457
0.320409 1 0.613794
0.320592 1 0.612116
0.320821 1 0.610239
0.321065 1 0.607507
