public/textures/grade/Other/Presetpro - Cinematic Fade.cube
#Copyright Tim Martin Presetpro.com
TITLE "Presetpro - Cinematic Fade"
#LUT size
LUT_3D_SIZE 64
#LUT data points
0.039216 0.039216 0.039216
0.047059 0.039216 0.043137
0.054902 0.039216 0.043137
0.062745 0.039216 0.047059
0.066667 0.043137 0.050980
0.078431 0.047059 0.047059
0.090196 0.043137 0.050980
0.090196 0.043137 0.043137
0.101961 0.039216 0.043137
0.105882 0.043137 0.043137
0.125490 0.047059 0.050980
0.129412 0.043137 0.050980
0.133333 0.047059 0.054902
0.149020 0.054902 0.062745
0.156863 0.054902 0.058824
0.164706 0.050980 0.058824
0.176471 0.050980 0.054902
0.188235 0.054902 0.058824
0.196078 0.054902 0.054902
0.207843 0.058824 0.058824
0.215686 0.058824 0.058824
0.223529 0.058824 0.062745
0.239216 0.058824 0.066667
0.250980 0.062745 0.062745
0.270588 0.058824 0.058824
0.278431 0.058824 0.062745
0.294118 0.058824 0.058824
0.301961 0.058824 0.062745
0.317647 0.058824 0.066667
0.333333 0.058824 0.070588
0.352941 0.058824 0.070588
0.368627 0.058824 0.070588
0.376471 0.054902 0.070588
0.396078 0.058824 0.070588
0.407843 0.050980 0.070588
0.427451 0.047059 0.074510
0.443137 0.047059 0.070588
0.458824 0.039216 0.070588
0.478431 0.043137 0.078431
0.494118 0.043137 0.074510
0.513725 0.039216 0.078431
0.525490 0.031373 0.078431
0.541176 0.031373 0.078431
0.564706 0.031373 0.086275
0.576471 0.031373 0.082353
0.600000 0.027451 0.086275
0.619608 0.023529 0.082353
0.635294 0.019608 0.086275
0.654902 0.019608 0.082353
0.674510 0.023529 0.086275
0.690196 0.027451 0.078431
0.713725 0.035294 0.082353
0.729412 0.039216 0.082353
0.749020 0.050980 0.082353
0.768627 0.058824 0.086275
0.784314 0.070588 0.086275
0.803922 0.078431 0.078431
0.823529 0.090196 0.086275
0.847059 0.098039 0.086275
0.858824 0.113725 0.082353
0.882353 0.129412 0.086275
0.898039 0.141176 0.074510
0.913725 0.152941 0.074510
0.933333 0.164706 0.078431
0.043137 0.043137 0.043137
0.047059 0.047059 0.047059
0.050980 0.047059 0.039216
0.062745 0.047059 0.043137
0.070588 0.047059 0.047059
0.082353 0.050980 0.050980
0.086275 0.047059 0.043137
0.094118 0.047059 0.047059
0.105882 0.050980 0.050980
0.113725 0.050980 0.050980
0.125490 0.054902 0.054902
0.129412 0.050980 0.047059
0.133333 0.054902 0.050980
0.149020 0.054902 0.054902
0.156863 0.054902 0.058824
0.164706 0.054902 0.050980
0.176471 0.058824 0.050980
0.188235 0.066667 0.058824
0.203922 0.066667 0.058824
0.211765 0.062745 0.058824
0.219608 0.062745 0.062745
0.235294 0.062745 0.066667
0.250980 0.062745 0.062745
0.258824 0.062745 0.066667
0.262745 0.062745 0.058824
0.274510 0.062745 0.062745
0.294118 0.066667 0.062745
0.301961 0.058824 0.062745
0.321569 0.062745 0.070588
0.341176 0.066667 0.078431
0.345098 0.062745 0.070588
0.356863 0.058824 0.066667
0.372549 0.058824 0.070588
0.392157 0.062745 0.070588
0.411765 0.054902 0.074510
0.427451 0.054902 0.070588
0.447059 0.050980 0.074510
0.462745 0.050980 0.078431
0.482353 0.047059 0.074510
0.498039 0.047059 0.078431
0.509804 0.039216 0.078431
0.525490 0.043137 0.082353
0.545098 0.035294 0.082353
0.564706 0.031373 0.078431
0.580392 0.035294 0.086275
0.596078 0.035294 0.082353
0.611765 0.027451 0.074510
0.631373 0.031373 0.078431
0.654902 0.031373 0.086275
0.670588 0.031373 0.082353
0.690196 0.035294 0.082353
0.713725 0.039216 0.086275
0.725490 0.047059 0.082353
0.749020 0.058824 0.078431
0.772549 0.066667 0.082353
0.784314 0.074510 0.078431
0.803922 0.082353 0.082353
0.823529 0.094118 0.078431
0.847059 0.105882 0.082353
0.862745 0.117647 0.078431
0.886275 0.133333 0.090196
0.898039 0.149020 0.078431
0.909804 0.156863 0.074510
0.929412 0.172549 0.082353
0.043137 0.050980 0.047059
0.050980 0.050980 0.043137
0.058824 0.054902 0.047059
0.066667 0.050980 0.047059
0.074510 0.054902 0.043137
0.082353 0.050980 0.043137
0.090196 0.050980 0.047059
0.090196 0.050980 0.043137
0.098039 0.054902 0.047059
0.109804 0.054902 0.043137
0.125490 0.054902 0.047059
0.133333 0.054902 0.050980
0.137255 0.054902 0.043137
0.152941 0.058824 0.050980
0.160784 0.058824 0.054902
0.168627 0.058824 0.054902
0.180392 0.062745 0.054902
0.188235 0.066667 0.058824
0.200000 0.066667 0.062745
0.203922 0.066667 0.058824
0.219608 0.062745 0.062745
0.227451 0.066667 0.058824
0.243137 0.062745 0.062745
0.254902 0.066667 0.058824
0.266667 0.066667 0.062745
0.282353 0.070588 0.070588
0.298039 0.070588 0.066667
0.309804 0.066667 0.070588
0.321569 0.070588 0.074510
0.333333 0.066667 0.066667
0.349020 0.066667 0.074510
0.364706 0.066667 0.074510
0.376471 0.062745 0.074510
0.396078 0.066667 0.074510
0.411765 0.062745 0.078431
0.431373 0.058824 0.074510
0.443137 0.054902 0.074510
0.454902 0.054902 0.070588
0.482353 0.054902 0.078431
0.494118 0.054902 0.078431
0.517647 0.050980 0.082353
0.525490 0.043137 0.082353
0.545098 0.047059 0.082353
0.564706 0.043137 0.086275
0.580392 0.043137 0.090196
0.603922 0.043137 0.090196
0.619608 0.035294 0.082353
0.639216 0.039216 0.086275
0.650980 0.035294 0.078431
0.674510 0.043137 0.082353
0.690196 0.043137 0.078431
0.709804 0.050980 0.082353
0.733333 0.058824 0.082353
0.752941 0.062745 0.082353
0.764706 0.070588 0.078431
0.788235 0.082353 0.086275
0.800000 0.090196 0.078431
0.823529 0.098039 0.082353
0.843137 0.113725 0.086275
0.866667 0.121569 0.082353
0.886275 0.133333 0.082353
0.898039 0.149020 0.078431
0.917647 0.156863 0.078431
0.929412 0.172549 0.074510
0.047059 0.054902 0.043137
0.054902 0.058824 0.039216
0.058824 0.054902 0.039216
0.062745 0.058824 0.043137
0.074510 0.062745 0.043137
0.082353 0.062745 0.047059
0.090196 0.058824 0.047059
0.098039 0.058824 0.050980
0.101961 0.058824 0.050980
0.117647 0.062745 0.058824
0.121569 0.062745 0.050980
0.133333 0.062745 0.054902
0.141176 0.062745 0.058824
0.145098 0.062745 0.058824
0.156863 0.062745 0.054902
0.164706 0.062745 0.058824
0.176471 0.066667 0.054902
0.188235 0.070588 0.062745
0.200000 0.066667 0.062745
0.207843 0.070588 0.062745
0.219608 0.070588 0.066667
0.231373 0.070588 0.062745
0.247059 0.066667 0.066667
0.258824 0.070588 0.062745
0.266667 0.070588 0.066667
0.270588 0.070588 0.058824
0.290196 0.074510 0.066667
0.305882 0.070588 0.062745
0.321569 0.070588 0.066667
0.337255 0.070588 0.070588
0.349020 0.070588 0.070588
0.360784 0.070588 0.074510
0.380392 0.066667 0.070588
0.396078 0.066667 0.074510
0.415686 0.070588 0.074510
0.423529 0.062745 0.074510
0.439216 0.062745 0.078431
0.458824 0.058824 0.074510
0.478431 0.062745 0.078431
0.490196 0.058824 0.070588
0.509804 0.050980 0.082353
0.529412 0.054902 0.082353
0.541176 0.043137 0.078431
0.564706 0.050980 0.082353
0.584314 0.047059 0.086275
0.600000 0.047059 0.082353
0.619608 0.043137 0.082353
0.635294 0.043137 0.078431
0.662745 0.047059 0.082353
0.670588 0.050980 0.078431
0.698039 0.050980 0.078431
0.713725 0.054902 0.082353
0.729412 0.062745 0.082353
0.752941 0.070588 0.078431
0.772549 0.078431 0.086275
0.788235 0.082353 0.086275
0.807843 0.101961 0.078431
0.823529 0.105882 0.082353
0.843137 0.117647 0.078431
0.862745 0.129412 0.078431
0.882353 0.145098 0.078431
0.901961 0.152941 0.078431
0.917647 0.164706 0.074510
0.937255 0.180392 0.082353
0.050980 0.058824 0.047059
0.054902 0.062745 0.050980
0.062745 0.066667 0.047059
0.066667 0.062745 0.047059
0.078431 0.062745 0.050980
0.082353 0.070588 0.050980
0.086275 0.066667 0.050980
0.094118 0.062745 0.050980
0.105882 0.062745 0.054902
0.109804 0.066667 0.050980
0.121569 0.066667 0.054902
0.125490 0.066667 0.054902
0.137255 0.066667 0.050980
0.152941 0.070588 0.058824
0.164706 0.070588 0.062745
0.168627 0.070588 0.054902
0.180392 0.070588 0.058824
0.188235 0.074510 0.058824
0.196078 0.074510 0.062745
0.207843 0.070588 0.054902
0.219608 0.070588 0.058824
0.227451 0.074510 0.062745
0.243137 0.070588 0.058824
0.254902 0.078431 0.066667
0.266667 0.070588 0.066667
0.286275 0.074510 0.074510
0.298039 0.070588 0.066667
0.309804 0.074510 0.074510
0.321569 0.070588 0.066667
0.341176 0.074510 0.074510
0.352941 0.074510 0.074510
0.364706 0.074510 0.070588
0.384314 0.070588 0.074510
0.392157 0.074510 0.070588
0.415686 0.070588 0.074510
0.431373 0.070588 0.074510
0.443137 0.066667 0.074510
0.458824 0.066667 0.078431
0.478431 0.062745 0.078431
0.490196 0.062745 0.074510
0.517647 0.062745 0.082353
0.533333 0.058824 0.086275
0.545098 0.054902 0.078431
0.568627 0.054902 0.086275
0.584314 0.054902 0.082353
0.607843 0.054902 0.086275
0.619608 0.050980 0.078431
0.631373 0.050980 0.074510
0.650980 0.054902 0.082353
0.670588 0.054902 0.082353
0.690196 0.058824 0.082353
0.713725 0.062745 0.086275
0.725490 0.066667 0.086275
0.749020 0.074510 0.082353
0.768627 0.078431 0.086275
0.784314 0.090196 0.082353
0.803922 0.101961 0.078431
0.819608 0.113725 0.086275
0.843137 0.121569 0.082353
0.858824 0.133333 0.082353
0.878431 0.145098 0.078431
0.894118 0.156863 0.078431
0.921569 0.168627 0.078431
0.933333 0.184314 0.074510
0.050980 0.070588 0.047059
0.058824 0.066667 0.047059
0.058824 0.070588 0.043137
0.066667 0.070588 0.047059
0.074510 0.070588 0.050980
0.086275 0.074510 0.047059
0.090196 0.070588 0.047059
0.101961 0.074510 0.050980
0.105882 0.070588 0.050980
0.113725 0.070588 0.054902
0.125490 0.074510 0.050980
0.129412 0.070588 0.050980
0.141176 0.070588 0.054902
0.149020 0.074510 0.050980
0.152941 0.070588 0.050980
0.164706 0.074510 0.054902
0.184314 0.074510 0.058824
0.192157 0.078431 0.062745
0.207843 0.074510 0.066667
0.215686 0.078431 0.062745
0.227451 0.078431 0.066667
0.231373 0.078431 0.066667
0.239216 0.078431 0.062745
0.250980 0.078431 0.066667
0.270588 0.074510 0.070588
0.282353 0.082353 0.070588
0.298039 0.082353 0.066667
0.309804 0.082353 0.070588
0.317647 0.078431 0.070588
0.337255 0.082353 0.074510
0.352941 0.082353 0.070588
0.360784 0.082353 0.066667
0.380392 0.074510 0.074510
0.396078 0.078431 0.074510
0.415686 0.082353 0.074510
0.427451 0.074510 0.074510
0.443137 0.074510 0.078431
0.462745 0.070588 0.078431
0.478431 0.070588 0.082353
0.498039 0.070588 0.082353
0.513725 0.062745 0.082353
0.533333 0.066667 0.082353
0.549020 0.058824 0.082353
0.568627 0.062745 0.082353
0.580392 0.062745 0.086275
0.600000 0.058824 0.086275
0.615686 0.058824 0.082353
0.635294 0.062745 0.082353
0.654902 0.066667 0.082353
0.674510 0.070588 0.082353
0.698039 0.070588 0.086275
0.717647 0.074510 0.086275
0.733333 0.078431 0.078431
0.749020 0.086275 0.082353
0.776471 0.090196 0.078431
0.792157 0.101961 0.082353
0.807843 0.105882 0.082353
0.823529 0.117647 0.082353
0.847059 0.129412 0.078431
0.862745 0.141176 0.078431
0.886275 0.156863 0.078431
0.901961 0.168627 0.078431
0.917647 0.176471 0.070588
0.937255 0.188235 0.078431
0.050980 0.078431 0.050980
0.054902 0.082353 0.050980
0.058824 0.078431 0.050980
0.066667 0.078431 0.050980
0.074510 0.078431 0.047059
0.086275 0.086275 0.054902
0.090196 0.078431 0.050980
0.090196 0.078431 0.043137
0.105882 0.078431 0.039216
0.113725 0.082353 0.043137
0.121569 0.082353 0.047059
0.129412 0.078431 0.047059
0.137255 0.078431 0.050980
0.156863 0.082353 0.058824
0.160784 0.078431 0.058824
0.168627 0.078431 0.058824
0.188235 0.078431 0.062745
0.192157 0.078431 0.054902
0.200000 0.078431 0.058824
0.211765 0.082353 0.062745
0.219608 0.082353 0.066667
0.231373 0.086275 0.062745
0.243137 0.082353 0.066667
0.254902 0.086275 0.062745
0.270588 0.086275 0.058824
0.278431 0.086275 0.062745
0.294118 0.086275 0.066667
0.313725 0.090196 0.070588
0.321569 0.090196 0.074510
0.337255 0.086275 0.078431
0.352941 0.086275 0.074510
0.364706 0.086275 0.078431
0.388235 0.082353 0.074510
0.396078 0.086275 0.070588
0.415686 0.082353 0.074510
0.431373 0.078431 0.078431
0.447059 0.078431 0.078431
0.458824 0.074510 0.078431
0.482353 0.074510 0.078431
0.490196 0.078431 0.074510
0.521569 0.074510 0.082353
0.529412 0.074510 0.078431
0.549020 0.070588 0.082353
0.568627 0.074510 0.086275
0.584314 0.074510 0.090196
0.603922 0.070588 0.086275
0.619608 0.070588 0.082353
0.639216 0.074510 0.082353
0.658824 0.070588 0.078431
0.682353 0.078431 0.086275
0.698039 0.082353 0.086275
0.717647 0.086275 0.086275
0.733333 0.086275 0.082353
0.756863 0.094118 0.090196
0.776471 0.098039 0.082353
0.792157 0.105882 0.086275
0.803922 0.117647 0.074510
0.823529 0.125490 0.078431
0.847059 0.137255 0.078431
0.866667 0.152941 0.078431
0.882353 0.164706 0.078431
0.901961 0.176471 0.074510
0.917647 0.188235 0.070588
0.933333 0.192157 0.074510
0.058824 0.086275 0.054902
0.058824 0.086275 0.054902
0.062745 0.086275 0.047059
0.070588 0.082353 0.047059
0.074510 0.086275 0.050980
0.082353 0.086275 0.054902
0.090196 0.090196 0.050980
0.098039 0.086275 0.050980
0.113725 0.086275 0.047059
0.121569 0.090196 0.050980
0.125490 0.086275 0.050980
0.137255 0.086275 0.054902
0.145098 0.086275 0.058824
0.152941 0.086275 0.058824
0.164706 0.082353 0.062745
0.172549 0.082353 0.058824
0.188235 0.090196 0.070588
0.196078 0.090196 0.062745
0.203922 0.090196 0.066667
0.207843 0.090196 0.058824
0.219608 0.090196 0.062745
0.235294 0.090196 0.066667
0.243137 0.090196 0.062745
0.254902 0.098039 0.070588
0.266667 0.090196 0.062745
0.286275 0.094118 0.070588
0.301961 0.094118 0.070588
0.313725 0.090196 0.070588
0.321569 0.090196 0.074510
0.341176 0.094118 0.074510
0.356863 0.094118 0.070588
0.368627 0.090196 0.074510
0.384314 0.090196 0.078431
0.400000 0.090196 0.074510
0.415686 0.090196 0.074510
0.431373 0.086275 0.078431
0.443137 0.086275 0.082353
0.462745 0.090196 0.082353
0.482353 0.086275 0.086275
0.494118 0.082353 0.078431
0.513725 0.078431 0.074510
0.529412 0.082353 0.082353
0.549020 0.078431 0.082353
0.564706 0.078431 0.078431
0.584314 0.082353 0.086275
0.603922 0.078431 0.082353
0.619608 0.082353 0.082353
0.635294 0.082353 0.078431
0.658824 0.082353 0.082353
0.674510 0.086275 0.090196
0.694118 0.094118 0.082353
0.721569 0.098039 0.086275
0.737255 0.098039 0.086275
0.752941 0.101961 0.078431
0.776471 0.109804 0.082353
0.792157 0.113725 0.082353
0.803922 0.125490 0.070588
0.819608 0.133333 0.074510
0.843137 0.145098 0.074510
0.862745 0.152941 0.078431
0.882353 0.168627 0.082353
0.894118 0.176471 0.074510
0.917647 0.188235 0.070588
0.941176 0.200000 0.082353
0.054902 0.094118 0.050980
0.062745 0.094118 0.050980
0.062745 0.094118 0.050980
0.070588 0.094118 0.054902
0.070588 0.094118 0.054902
0.082353 0.094118 0.050980
0.086275 0.094118 0.050980
0.098039 0.098039 0.050980
0.105882 0.098039 0.050980
0.109804 0.094118 0.050980
0.125490 0.094118 0.054902
0.133333 0.094118 0.054902
0.145098 0.094118 0.058824
0.149020 0.094118 0.050980
0.164706 0.094118 0.054902
0.172549 0.094118 0.058824
0.188235 0.098039 0.066667
0.192157 0.098039 0.066667
0.207843 0.094118 0.062745
0.215686 0.098039 0.066667
0.223529 0.094118 0.066667
0.239216 0.094118 0.062745
0.254902 0.098039 0.070588
0.266667 0.098039 0.066667
0.270588 0.094118 0.066667
0.286275 0.101961 0.074510
0.298039 0.101961 0.074510
0.309804 0.094118 0.074510
0.321569 0.098039 0.070588
0.337255 0.098039 0.078431
0.352941 0.098039 0.074510
0.364706 0.094118 0.066667
0.388235 0.101961 0.078431
0.403922 0.101961 0.078431
0.411765 0.094118 0.078431
0.427451 0.094118 0.074510
0.447059 0.098039 0.090196
0.462745 0.090196 0.074510
0.482353 0.094118 0.082353
0.501961 0.094118 0.090196
0.521569 0.090196 0.086275
0.537255 0.090196 0.086275
0.552941 0.090196 0.082353
0.576471 0.090196 0.082353
0.592157 0.090196 0.086275
0.607843 0.094118 0.086275
0.627451 0.090196 0.082353
0.643137 0.090196 0.086275
0.658824 0.090196 0.078431
0.678431 0.094118 0.078431
0.698039 0.098039 0.078431
0.713725 0.101961 0.082353
0.737255 0.109804 0.086275
0.756863 0.113725 0.086275
0.780392 0.121569 0.082353
0.792157 0.129412 0.086275
0.807843 0.137255 0.078431
0.823529 0.149020 0.078431
0.850980 0.156863 0.086275
0.862745 0.164706 0.078431
0.882353 0.176471 0.078431
0.898039 0.188235 0.074510
0.913725 0.200000 0.074510
0.929412 0.207843 0.074510
0.058824 0.098039 0.062745
0.062745 0.101961 0.058824
0.070588 0.101961 0.058824
0.074510 0.098039 0.058824
0.078431 0.101961 0.062745
0.086275 0.098039 0.062745
0.094118 0.101961 0.058824
0.098039 0.105882 0.062745
0.113725 0.105882 0.054902
0.117647 0.101961 0.054902
0.125490 0.101961 0.047059
0.137255 0.098039 0.050980
0.149020 0.101961 0.054902
0.152941 0.098039 0.054902
0.172549 0.101961 0.062745
0.180392 0.101961 0.066667
0.180392 0.101961 0.066667
0.196078 0.105882 0.074510
0.207843 0.101961 0.066667
0.215686 0.101961 0.070588
0.223529 0.105882 0.066667
0.235294 0.101961 0.066667
0.250980 0.101961 0.062745
0.258824 0.101961 0.062745
0.274510 0.105882 0.074510
0.282353 0.109804 0.074510
0.298039 0.109804 0.070588
0.313725 0.105882 0.074510
0.329412 0.105882 0.070588
0.341176 0.105882 0.074510
0.356863 0.105882 0.070588
0.368627 0.105882 0.070588
0.384314 0.109804 0.082353
0.400000 0.105882 0.082353
0.419608 0.105882 0.078431
0.435294 0.101961 0.082353
0.450980 0.101961 0.086275
0.466667 0.101961 0.082353
0.482353 0.098039 0.086275
0.498039 0.101961 0.086275
0.521569 0.098039 0.086275
0.533333 0.105882 0.094118
0.549020 0.098039 0.086275
0.568627 0.101961 0.086275
0.584314 0.101961 0.082353
0.607843 0.101961 0.090196
0.623529 0.101961 0.082353
0.639216 0.105882 0.090196
0.666667 0.105882 0.082353
0.678431 0.105882 0.086275
0.705882 0.105882 0.082353
0.725490 0.113725 0.086275
0.737255 0.117647 0.082353
0.756863 0.121569 0.074510
0.776471 0.129412 0.082353
0.792157 0.137255 0.082353
0.807843 0.149020 0.074510
0.831373 0.156863 0.078431
0.843137 0.164706 0.070588
0.866667 0.172549 0.078431
0.890196 0.188235 0.078431
0.901961 0.200000 0.074510
0.921569 0.207843 0.082353
0.929412 0.219608 0.074510
0.062745 0.109804 0.062745
0.062745 0.109804 0.062745
0.066667 0.105882 0.062745
0.066667 0.109804 0.054902
0.078431 0.109804 0.058824
0.082353 0.105882 0.058824
0.094118 0.105882 0.062745
0.094118 0.109804 0.054902
0.101961 0.109804 0.054902
0.117647 0.109804 0.058824
0.125490 0.109804 0.062745
0.137255 0.113725 0.058824
0.149020 0.113725 0.054902
0.156863 0.109804 0.054902
0.164706 0.109804 0.058824
0.172549 0.109804 0.058824
0.180392 0.109804 0.062745
0.188235 0.109804 0.066667
0.203922 0.109804 0.062745
0.215686 0.109804 0.066667
0.223529 0.113725 0.070588
0.239216 0.113725 0.066667
0.254902 0.109804 0.070588
0.262745 0.113725 0.070588
0.278431 0.109804 0.074510
0.286275 0.113725 0.070588
0.301961 0.113725 0.074510
0.317647 0.113725 0.070588
0.329412 0.117647 0.078431
0.341176 0.113725 0.070588
0.360784 0.117647 0.074510
0.372549 0.113725 0.066667
0.384314 0.109804 0.078431
0.400000 0.117647 0.078431
0.419608 0.109804 0.082353
0.435294 0.109804 0.078431
0.450980 0.109804 0.082353
0.462745 0.109804 0.078431
0.490196 0.109804 0.082353
0.505882 0.113725 0.090196
0.521569 0.113725 0.086275
0.537255 0.109804 0.082353
0.556863 0.113725 0.082353
0.576471 0.109804 0.086275
0.592157 0.109804 0.082353
0.611765 0.113725 0.090196
0.631373 0.109804 0.090196
0.643137 0.117647 0.090196
0.662745 0.113725 0.086275
0.686275 0.121569 0.090196
0.705882 0.125490 0.086275
0.721569 0.125490 0.082353
0.737255 0.129412 0.082353
0.756863 0.141176 0.082353
0.776471 0.145098 0.082353
0.788235 0.149020 0.082353
0.811765 0.152941 0.078431
0.831373 0.164706 0.082353
0.854902 0.176471 0.082353
0.870588 0.184314 0.078431
0.882353 0.192157 0.070588
0.901961 0.203922 0.070588
0.917647 0.211765 0.074510
0.933333 0.223529 0.070588
0.058824 0.113725 0.062745
0.066667 0.113725 0.066667
0.070588 0.117647 0.070588
0.074510 0.117647 0.062745
0.074510 0.117647 0.062745
0.086275 0.117647 0.066667
0.090196 0.113725 0.066667
0.094118 0.117647 0.070588
0.109804 0.117647 0.062745
0.113725 0.117647 0.054902
0.125490 0.117647 0.058824
0.129412 0.117647 0.050980
0.145098 0.117647 0.054902
0.152941 0.117647 0.050980
0.164706 0.117647 0.054902
0.172549 0.121569 0.050980
0.184314 0.117647 0.050980
0.196078 0.121569 0.058824
0.207843 0.121569 0.062745
0.219608 0.117647 0.062745
0.231373 0.121569 0.070588
0.235294 0.121569 0.066667
0.250980 0.117647 0.070588
0.262745 0.121569 0.074510
0.282353 0.113725 0.078431
0.290196 0.117647 0.074510
0.309804 0.121569 0.074510
0.325490 0.121569 0.078431
0.333333 0.121569 0.074510
0.349020 0.121569 0.078431
0.364706 0.121569 0.078431
0.380392 0.121569 0.074510
0.388235 0.121569 0.078431
0.407843 0.125490 0.086275
0.423529 0.121569 0.082353
0.435294 0.121569 0.086275
0.450980 0.121569 0.082353
0.470588 0.117647 0.086275
0.486275 0.117647 0.086275
0.501961 0.117647 0.082353
0.521569 0.121569 0.082353
0.541176 0.125490 0.082353
0.560784 0.117647 0.086275
0.580392 0.121569 0.086275
0.596078 0.125490 0.094118
0.603922 0.117647 0.086275
0.631373 0.121569 0.090196
0.647059 0.121569 0.086275
0.666667 0.125490 0.086275
0.686275 0.129412 0.090196
0.701961 0.133333 0.082353
0.721569 0.137255 0.082353
0.737255 0.145098 0.082353
0.752941 0.149020 0.078431
0.772549 0.152941 0.078431
0.792157 0.160784 0.082353
0.811765 0.172549 0.082353
0.827451 0.176471 0.082353
0.847059 0.184314 0.078431
0.862745 0.196078 0.074510
0.882353 0.211765 0.074510
0.905882 0.215686 0.082353
0.925490 0.227451 0.078431
0.937255 0.235294 0.074510
0.070588 0.125490 0.066667
0.074510 0.121569 0.066667
0.070588 0.117647 0.062745
0.078431 0.121569 0.058824
0.078431 0.121569 0.058824
0.090196 0.121569 0.062745
0.094118 0.117647 0.062745
0.098039 0.125490 0.062745
0.109804 0.125490 0.058824
0.113725 0.125490 0.058824
0.121569 0.125490 0.062745
0.133333 0.129412 0.058824
0.141176 0.129412 0.062745
0.152941 0.125490 0.054902
0.160784 0.125490 0.058824
0.172549 0.129412 0.054902
0.188235 0.125490 0.066667
0.196078 0.129412 0.062745
0.203922 0.129412 0.066667
0.219608 0.129412 0.070588
0.231373 0.129412 0.070588
0.243137 0.129412 0.074510
0.254902 0.129412 0.078431
0.262745 0.129412 0.082353
0.282353 0.137255 0.074510
0.294118 0.133333 0.066667
0.309804 0.129412 0.070588
0.321569 0.137255 0.074510
0.333333 0.129412 0.074510
0.349020 0.129412 0.078431
0.364706 0.133333 0.078431
0.376471 0.133333 0.082353
0.396078 0.129412 0.078431
0.403922 0.133333 0.082353
0.427451 0.129412 0.078431
0.443137 0.133333 0.082353
0.458824 0.129412 0.086275
0.474510 0.129412 0.090196
0.494118 0.133333 0.090196
0.509804 0.133333 0.086275
0.529412 0.129412 0.082353
0.541176 0.137255 0.082353
0.560784 0.129412 0.086275
0.580392 0.133333 0.090196
0.596078 0.133333 0.094118
0.615686 0.137255 0.094118
0.631373 0.129412 0.086275
0.650980 0.133333 0.086275
0.666667 0.137255 0.082353
0.686275 0.141176 0.082353
0.705882 0.145098 0.082353
0.725490 0.149020 0.078431
0.745098 0.152941 0.078431
0.764706 0.160784 0.082353
0.780392 0.160784 0.074510
0.796078 0.168627 0.074510
0.815686 0.176471 0.070588
0.831373 0.184314 0.074510
0.847059 0.196078 0.070588
0.866667 0.207843 0.074510
0.886275 0.215686 0.074510
0.905882 0.227451 0.078431
0.921569 0.235294 0.074510
0.937255 0.243137 0.078431
0.066667 0.133333 0.070588
0.074510 0.129412 0.070588
0.074510 0.129412 0.070588
0.078431 0.129412 0.062745
0.082353 0.133333 0.066667
0.086275 0.129412 0.066667
0.094118 0.129412 0.062745
0.101961 0.129412 0.066667
0.109804 0.125490 0.058824
0.117647 0.129412 0.062745
0.125490 0.129412 0.058824
0.137255 0.133333 0.062745
0.145098 0.133333 0.066667
0.156863 0.129412 0.058824
0.164706 0.129412 0.062745
0.180392 0.137255 0.062745
0.184314 0.133333 0.058824
0.196078 0.137255 0.062745
0.200000 0.133333 0.062745
0.219608 0.137255 0.062745
0.227451 0.137255 0.066667
0.243137 0.137255 0.070588
0.258824 0.133333 0.074510
0.266667 0.137255 0.070588
0.282353 0.137255 0.066667
0.294118 0.141176 0.074510
0.309804 0.141176 0.074510
0.321569 0.141176 0.078431
0.333333 0.141176 0.082353
0.349020 0.141176 0.086275
0.368627 0.145098 0.086275
0.372549 0.141176 0.086275
0.400000 0.141176 0.078431
0.411765 0.141176 0.078431
0.431373 0.145098 0.078431
0.443137 0.141176 0.078431
0.458824 0.137255 0.082353
0.482353 0.141176 0.082353
0.498039 0.137255 0.078431
0.509804 0.145098 0.086275
0.529412 0.141176 0.082353
0.545098 0.149020 0.086275
0.560784 0.137255 0.086275
0.580392 0.141176 0.086275
0.600000 0.145098 0.086275
0.611765 0.145098 0.082353
0.635294 0.141176 0.082353
0.647059 0.149020 0.082353
0.670588 0.149020 0.082353
0.690196 0.152941 0.082353
0.705882 0.152941 0.078431
0.721569 0.156863 0.082353
