public/textures/grade/Other/Presetpro - Cinematic Fade.cube
#Copyright Tim Martin Presetpro.com
TITLE "Presetpro - Cinematic Fade"
#LUT size
LUT_3D_SIZE 8
#LUT data points
0.039216 0.039216 0.039216
0.105882 0.043137 0.043137
0.196078 0.054902 0.054902
0.301961 0.058824 0.062745
0.443137 0.047059 0.070588
0.600000 0.027451 0.086275
0.768627 0.058824 0.086275
0.933333 0.164706 0.078431
0.058824 0.098039 0.062745
0.117647 0.101961 0.054902
0.207843 0.101961 0.066667
0.313725 0.105882 0.074510
0.450980 0.101961 0.086275
0.607843 0.101961 0.090196
0.776471 0.129412 0.082353
0.929412 0.219608 0.074510
0.082353 0.168627 0.078431
0.117647 0.172549 0.074510
0.203922 0.176471 0.062745
0.325490 0.188235 0.070588
0.474510 0.203922 0.082353
0.627451 0.211765 0.086275
0.788235 0.247059 0.066667
0.945098 0.313725 0.062745
0.094118 0.262745 0.086275
0.117647 0.254902 0.086275
0.196078 0.266667 0.078431
0.317647 0.274510 0.054902
0.462745 0.290196 0.050980
0.647059 0.333333 0.062745
0.811765 0.380392 0.047059
0.960784 0.435294 0.047059
0.086275 0.360784 0.086275
0.121569 0.352941 0.094118
0.188235 0.349020 0.082353
0.298039 0.364706 0.047059
0.435294 0.384314 0.007843
0.603922 0.415686 0.000000
0.800000 0.490196 0.000000
0.972549 0.568627 0.015686
0.074510 0.474510 0.035294
0.121569 0.470588 0.047059
0.196078 0.458824 0.047059
0.298039 0.470588 0.000000
0.435294 0.490196 0.003922
0.592157 0.521569 0.003922
0.764706 0.568627 0.000000
0.956863 0.654902 0.000000
0.160784 0.650980 0.000000
0.196078 0.647059 0.000000
0.266667 0.639216 0.000000
0.372549 0.639216 0.000000
0.505882 0.658824 0.000000
0.654902 0.686275 0.000000
0.800000 0.713725 0.000000
0.952941 0.756863 0.007843
0.427451 0.901961 0.003922
0.450980 0.905882 0.000000
0.501961 0.898039 0.000000
0.580392 0.898039 0.000000
0.686275 0.913725 0.000000
0.811765 0.929412 0.003922
0.945098 0.949020 0.003922
1.000000 0.968627 0.000000
0.031373 0.070588 0.109804
0.105882 0.066667 0.109804
0.192157 0.074510 0.121569
0.309804 0.082353 0.129412
0.443137 0.074510 0.129412
0.603922 0.058824 0.133333
0.772549 0.074510 0.129412
0.937255 0.176471 0.141176
0.050980 0.109804 0.121569
0.117647 0.113725 0.133333
0.207843 0.121569 0.133333
0.321569 0.125490 0.129412
0.458824 0.121569 0.141176
0.611765 0.117647 0.133333
0.776471 0.145098 0.133333
0.941176 0.223529 0.137255
0.082353 0.196078 0.125490
0.133333 0.188235 0.129412
0.215686 0.196078 0.121569
0.341176 0.203922 0.129412
0.478431 0.211765 0.137255
0.631373 0.219608 0.137255
0.796078 0.250980 0.129412
0.937255 0.313725 0.117647
0.090196 0.286275 0.133333
0.133333 0.282353 0.137255
0.207843 0.278431 0.129412
0.333333 0.290196 0.109804
0.474510 0.305882 0.109804
0.662745 0.352941 0.129412
0.815686 0.384314 0.113725
0.956863 0.439216 0.113725
0.082353 0.380392 0.125490
0.121569 0.372549 0.125490
0.200000 0.364706 0.117647
0.309804 0.376471 0.094118
0.454902 0.400000 0.054902
0.615686 0.423529 0.019608
0.807843 0.498039 0.031373
0.976471 0.572549 0.121569
0.070588 0.494118 0.086275
0.117647 0.490196 0.082353
0.200000 0.474510 0.090196
0.309804 0.478431 0.058824
0.443137 0.501961 0.003922
0.596078 0.525490 0.007843
0.768627 0.572549 0.000000
0.952941 0.662745 0.000000
0.149020 0.666667 0.000000
0.196078 0.662745 0.003922
0.266667 0.650980 0.003922
0.368627 0.647059 0.003922
0.501961 0.666667 0.000000
0.650980 0.690196 0.000000
0.800000 0.713725 0.000000
0.956863 0.760784 0.003922
0.419608 0.901961 0.000000
0.439216 0.905882 0.003922
0.498039 0.901961 0.003922
0.572549 0.898039 0.000000
0.686275 0.913725 0.003922
0.807843 0.937255 0.007843
0.945098 0.949020 0.003922
1.000000 0.968627 0.000000
0.000000 0.105882 0.200000
0.054902 0.094118 0.200000
0.200000 0.109804 0.219608
0.313725 0.125490 0.219608
0.474510 0.094118 0.231373
0.619608 0.054902 0.215686
0.784314 0.090196 0.223529
0.945098 0.176471 0.239216
0.035294 0.149020 0.203922
0.098039 0.149020 0.219608
0.203922 0.152941 0.223529
0.329412 0.160784 0.227451
0.474510 0.129412 0.223529
0.623529 0.133333 0.219608
0.788235 0.149020 0.223529
0.945098 0.215686 0.227451
0.007843 0.219608 0.219608
0.101961 0.227451 0.223529
0.227451 0.223529 0.243137
0.352941 0.227451 0.231373
0.498039 0.231373 0.231373
0.647059 0.239216 0.235294
0.800000 0.258824 0.219608
0.949020 0.313725 0.235294
0.000000 0.341176 0.223529
0.105882 0.337255 0.219608
0.223529 0.317647 0.223529
0.349020 0.321569 0.207843
0.509804 0.341176 0.223529
0.674510 0.368627 0.227451
0.819608 0.392157 0.231373
0.956863 0.435294 0.227451
0.078431 0.431373 0.219608
0.129412 0.431373 0.211765
0.219608 0.407843 0.203922
0.329412 0.411765 0.192157
0.478431 0.427451 0.168627
0.643137 0.447059 0.168627
0.823529 0.517647 0.203922
0.972549 0.572549 0.243137
0.050980 0.549020 0.176471
0.125490 0.537255 0.172549
0.223529 0.521569 0.168627
0.313725 0.501961 0.156863
0.454902 0.521569 0.121569
0.611765 0.545098 0.039216
0.784314 0.592157 0.000000
0.968627 0.666667 0.117647
0.121569 0.694118 0.094118
0.160784 0.682353 0.082353
0.258824 0.674510 0.078431
0.356863 0.650980 0.050980
0.498039 0.670588 0.000000
0.647059 0.698039 0.000000
0.800000 0.721569 0.000000
0.968627 0.764706 0.000000
0.384314 0.913725 0.105882
0.411765 0.909804 0.105882
0.466667 0.905882 0.090196
0.556863 0.909804 0.082353
0.666667 0.917647 0.000000
0.796078 0.929412 0.000000
0.933333 0.949020 0.000000
1.000000 0.968627 0.000000
0.000000 0.164706 0.321569
0.000000 0.149020 0.325490
0.152941 0.152941 0.349020
0.345098 0.172549 0.364706
0.490196 0.180392 0.372549
0.658824 0.172549 0.376471
0.815686 0.129412 0.368627
0.968627 0.098039 0.352941
0.000000 0.207843 0.329412
0.011765 0.200000 0.341176
0.172549 0.192157 0.356863
0.364706 0.215686 0.376471
0.498039 0.223529 0.376471
0.666667 0.207843 0.380392
0.819608 0.160784 0.360784
0.945098 0.192157 0.352941
0.000000 0.270588 0.329412
0.003922 0.274510 0.333333
0.207843 0.274510 0.352941
0.384314 0.290196 0.384314
0.517647 0.298039 0.396078
0.674510 0.266667 0.372549
0.811765 0.258824 0.352941
0.945098 0.305882 0.349020
0.000000 0.388235 0.364706
0.000000 0.384314 0.372549
0.211765 0.388235 0.376471
0.396078 0.388235 0.392157
0.541176 0.384314 0.384314
0.682353 0.388235 0.368627
0.823529 0.400000 0.360784
0.960784 0.443137 0.364706
0.000000 0.513725 0.349020
0.000000 0.517647 0.360784
0.215686 0.509804 0.356863
0.380392 0.478431 0.352941
0.521569 0.486275 0.333333
0.694118 0.505882 0.349020
0.839216 0.549020 0.372549
0.976471 0.572549 0.380392
0.003922 0.631373 0.325490
0.054902 0.627451 0.341176
0.231373 0.607843 0.325490
0.349020 0.572549 0.301961
0.478431 0.564706 0.270588
0.643137 0.580392 0.235294
0.811765 0.615686 0.243137
0.972549 0.682353 0.333333
0.000000 0.741176 0.270588
0.074510 0.737255 0.262745
0.227451 0.729412 0.247059
0.352941 0.698039 0.215686
0.482353 0.678431 0.188235
0.643137 0.705882 0.117647
0.807843 0.729412 0.003922
0.980392 0.768627 0.000000
0.317647 0.929412 0.286275
0.349020 0.921569 0.282353
0.419608 0.925490 0.266667
0.517647 0.913725 0.254902
0.635294 0.917647 0.235294
0.768627 0.929412 0.168627
0.925490 0.956863 0.000000
0.996078 0.976471 0.000000
0.000000 0.243137 0.474510
0.000000 0.231373 0.474510
0.000000 0.203922 0.498039
0.337255 0.231373 0.533333
0.564706 0.266667 0.560784
0.682353 0.266667 0.549020
0.835294 0.352941 0.576471
0.960784 0.352941 0.576471
0.000000 0.282353 0.470588
0.000000 0.274510 0.478431
0.000000 0.250980 0.501961
0.345098 0.270588 0.537255
0.564706 0.305882 0.556863
0.686275 0.313725 0.549020
0.835294 0.380392 0.572549
0.964706 0.380392 0.576471
0.003922 0.341176 0.462745
0.000000 0.345098 0.470588
0.133333 0.341176 0.498039
0.349020 0.341176 0.537255
0.576471 0.384314 0.568627
0.698039 0.396078 0.560784
0.835294 0.419608 0.568627
0.960784 0.411765 0.564706
0.007843 0.435294 0.486275
0.000000 0.435294 0.490196
0.125490 0.435294 0.494118
0.380392 0.447059 0.525490
0.584314 0.486275 0.572549
0.709804 0.501961 0.580392
0.835294 0.470588 0.545098
0.968627 0.443137 0.517647
0.000000 0.572549 0.529412
0.007843 0.568627 0.529412
0.156863 0.568627 0.541176
0.396078 0.572549 0.545098
0.576471 0.580392 0.560784
0.721569 0.568627 0.549020
0.835294 0.560784 0.529412
0.964706 0.576471 0.525490
0.000000 0.705882 0.521569
0.003922 0.705882 0.521569
0.196078 0.701961 0.521569
0.388235 0.682353 0.513725
0.529412 0.639216 0.482353
0.682353 0.643137 0.450980
0.847059 0.662745 0.482353
0.984314 0.721569 0.556863
0.003922 0.807843 0.474510
0.000000 0.803922 0.462745
0.019608 0.800000 0.443137
0.364706 0.776471 0.447059
0.478431 0.729412 0.384314
0.635294 0.733333 0.337255
0.815686 0.749020 0.294118
0.988235 0.788235 0.360784
0.168627 0.949020 0.474510
0.227451 0.949020 0.470588
0.337255 0.949020 0.458824
0.462745 0.941176 0.443137
0.584314 0.937255 0.419608
0.733333 0.941176 0.376471
0.909804 0.956863 0.321569
1.000000 0.972549 0.172549
0.000000 0.349020 0.639216
0.000000 0.341176 0.643137
0.000000 0.321569 0.658824
0.247059 0.309804 0.682353
0.568627 0.360784 0.705882
0.752941 0.435294 0.737255
0.839216 0.435294 0.713725
0.945098 0.545098 0.733333
0.000000 0.384314 0.639216
0.000000 0.380392 0.635294
0.000000 0.352941 0.658824
0.262745 0.341176 0.690196
0.572549 0.396078 0.717647
0.741176 0.462745 0.729412
0.843137 0.466667 0.717647
0.945098 0.564706 0.741176
0.000000 0.450980 0.635294
0.000000 0.450980 0.635294
0.000000 0.439216 0.650980
0.278431 0.407843 0.678431
0.572549 0.458824 0.709804
0.749020 0.525490 0.733333
0.843137 0.533333 0.725490
0.949020 0.615686 0.749020
0.000000 0.517647 0.607843
0.003922 0.517647 0.627451
0.000000 0.517647 0.639216
0.356863 0.525490 0.682353
0.572549 0.537255 0.705882
0.752941 0.607843 0.737255
0.843137 0.611765 0.729412
0.952941 0.654902 0.756863
0.003922 0.615686 0.635294
0.000000 0.623529 0.647059
0.000000 0.619608 0.654902
0.298039 0.611765 0.647059
0.564706 0.631373 0.698039
0.756863 0.686275 0.741176
0.858824 0.694118 0.741176
0.960784 0.670588 0.721569
0.000000 0.745098 0.682353
0.003922 0.741176 0.686275
0.113725 0.737255 0.682353
0.388235 0.741176 0.694118
0.576471 0.745098 0.709804
0.741176 0.749020 0.729412
0.847059 0.729412 0.698039
0.972549 0.725490 0.690196
0.031373 0.866667 0.686275
0.152941 0.862745 0.686275
0.305882 0.858824 0.690196
0.435294 0.858824 0.694118
0.552941 0.831373 0.666667
0.658824 0.788235 0.619608
0.823529 0.784314 0.576471
0.988235 0.827451 0.647059
0.023529 0.972549 0.662745
0.137255 0.976471 0.662745
0.266667 0.964706 0.650980
0.388235 0.972549 0.643137
0.560784 0.960784 0.631373
0.698039 0.960784 0.596078
0.874510 0.964706 0.549020
1.000000 0.976471 0.478431
0.000000 0.498039 0.796078
0.003922 0.490196 0.796078
0.000000 0.466667 0.803922
0.184314 0.431373 0.827451
0.545098 0.490196 0.835294
0.749020 0.568627 0.850980
0.866667 0.627451 0.858824
0.949020 0.623529 0.850980
0.003922 0.525490 0.796078
0.007843 0.517647 0.800000
0.000000 0.498039 0.807843
0.235294 0.466667 0.827451
0.545098 0.509804 0.835294
0.752941 0.592157 0.850980
0.874510 0.643137 0.862745
0.949020 0.639216 0.854902
0.000000 0.580392 0.792157
0.000000 0.576471 0.788235
0.011765 0.560784 0.800000
0.317647 0.541176 0.819608
0.556863 0.556863 0.839216
0.749020 0.635294 0.854902
0.870588 0.686275 0.866667
0.941176 0.670588 0.850980
0.000000 0.631373 0.780392
0.000000 0.631373 0.784314
0.062745 0.627451 0.800000
0.392157 0.631373 0.811765
0.552941 0.619608 0.831373
0.752941 0.686275 0.850980
0.878431 0.733333 0.870588
0.949020 0.725490 0.854902
0.003922 0.701961 0.780392
0.003922 0.701961 0.780392
0.000000 0.698039 0.784314
0.282353 0.694118 0.800000
0.568627 0.698039 0.819608
0.749020 0.737255 0.858824
0.878431 0.784314 0.870588
0.945098 0.792157 0.874510
0.000000 0.792157 0.800000
0.003922 0.788235 0.807843
0.015686 0.784314 0.800000
0.274510 0.780392 0.792157
0.498039 0.772549 0.803922
0.733333 0.788235 0.839216
0.886275 0.839216 0.878431
0.964706 0.847059 0.886275
0.000000 0.894118 0.835294
0.000000 0.890196 0.815686
0.211765 0.886275 0.823529
0.407843 0.886275 0.835294
0.584314 0.882353 0.843137
0.733333 0.878431 0.847059
0.878431 0.886275 0.866667
0.976471 0.862745 0.839216
0.337255 0.992157 0.843137
0.360784 0.996078 0.843137
0.435294 0.996078 0.847059
0.521569 0.992157 0.843137
0.619608 0.988235 0.843137
0.713725 0.980392 0.827451
0.823529 0.972549 0.772549
1.000000 0.988235 0.733333
0.219608 0.694118 0.949020
0.262745 0.690196 0.945098
0.352941 0.678431 0.945098
0.462745 0.666667 0.952941
0.611765 0.666667 0.952941
0.768627 0.713725 0.956863
0.882353 0.764706 0.960784
0.956863 0.796078 0.960784
0.270588 0.705882 0.952941
0.305882 0.701961 0.945098
0.384314 0.694118 0.952941
0.486275 0.678431 0.941176
0.615686 0.682353 0.956863
0.768627 0.725490 0.960784
0.886275 0.772549 0.960784
0.960784 0.800000 0.964706
0.329412 0.745098 0.941176
0.360784 0.741176 0.941176
0.419608 0.733333 0.941176
0.513725 0.717647 0.952941
0.623529 0.705882 0.952941
0.772549 0.745098 0.956863
0.890196 0.788235 0.964706
0.960784 0.819608 0.960784
0.239216 0.776471 0.941176
0.313725 0.780392 0.945098
0.454902 0.780392 0.945098
0.549020 0.772549 0.949020
0.639216 0.756863 0.952941
0.768627 0.776471 0.964706
0.886275 0.819608 0.960784
0.968627 0.839216 0.960784
0.000000 0.827451 0.941176
0.000000 0.823529 0.945098
0.247059 0.819608 0.949020
0.490196 0.819608 0.952941
0.650980 0.815686 0.956863
0.756863 0.811765 0.964706
0.890196 0.847059 0.964706
0.968627 0.874510 0.968627
0.000000 0.894118 0.945098
0.015686 0.886275 0.960784
0.164706 0.886275 0.956863
0.356863 0.882353 0.956863
0.552941 0.866667 0.956863
0.760784 0.866667 0.972549
0.890196 0.882353 0.972549
0.968627 0.913725 0.980392
0.031373 0.960784 0.968627
0.149020 0.960784 0.960784
0.290196 0.956863 0.976471
0.423529 0.952941 0.968627
0.552941 0.945098 0.968627
0.686275 0.929412 0.972549
0.874510 0.929412 0.980392
0.992157 0.952941 0.988235
0.301961 1.000000 0.984314
0.329412 0.996078 0.976471
0.396078 1.000000 0.980392
0.501961 0.996078 0.980392
0.619608 0.996078 0.988235
0.741176 1.000000 0.992157
0.866667 1.000000 0.996078
0.996078 0.996078 0.996078
