public/textures/grade/Other/Presetpro - Cinematic Fade.cube
#Copyright Tim Martin Presetpro.com
TITLE "Presetpro - Cinematic Fade"
#LUT size
LUT_3D_SIZE 4
#LUT data points
0.039216 0.039216 0.039216
0.223529 0.058824 0.062745
0.541176 0.031373 0.078431
0.933333 0.164706 0.078431
0.086275 0.200000 0.082353
0.243137 0.211765 0.066667
0.588235 0.247059 0.086275
0.952941 0.352941 0.054902
0.078431 0.435294 0.070588
0.227451 0.419608 0.058824
0.533333 0.470588 0.000000
0.964706 0.631373 0.003922
0.427451 0.901961 0.003922
0.521569 0.898039 0.000000
0.772549 0.925490 0.000000
1.000000 0.968627 0.000000
0.000000 0.125490 0.235294
0.239216 0.133333 0.262745
0.588235 0.098039 0.262745
0.945098 0.160784 0.270588
0.000000 0.270588 0.266667
0.274510 0.278431 0.286275
0.611765 0.278431 0.270588
0.952941 0.356863 0.274510
0.035294 0.529412 0.239216
0.262745 0.494118 0.227451
0.572549 0.513725 0.156863
0.980392 0.647059 0.250980
0.364706 0.917647 0.164706
0.482353 0.913725 0.149020
0.745098 0.929412 0.003922
1.000000 0.972549 0.000000
0.000000 0.305882 0.580392
0.003922 0.250980 0.615686
0.690196 0.364706 0.678431
0.949020 0.509804 0.698039
0.000000 0.435294 0.560784
0.176471 0.419608 0.603922
0.694118 0.501961 0.678431
0.945098 0.564706 0.694118
0.003922 0.686275 0.627451
0.243137 0.686275 0.647059
0.694118 0.698039 0.678431
0.972549 0.670588 0.639216
0.003922 0.972549 0.592157
0.235294 0.972549 0.572549
0.658824 0.945098 0.533333
0.996078 0.980392 0.388235
0.219608 0.694118 0.949020
0.396078 0.670588 0.945098
0.721569 0.694118 0.956863
0.956863 0.796078 0.960784
0.349020 0.752941 0.945098
0.470588 0.745098 0.949020
0.721569 0.741176 0.960784
0.960784 0.827451 0.964706
0.003922 0.866667 0.945098
0.203922 0.862745 0.945098
0.721569 0.854902 0.960784
0.968627 0.901961 0.972549
0.301961 1.000000 0.984314
0.439216 0.996078 0.980392
0.701961 1.000000 0.992157
0.996078 0.996078 0.996078
