public/textures/grade/DJI/Gems-DLog.cube
TITLE "Generated by Resolve"
LUT_3D_SIZE 9
0 0.00122072 0.00787366
0.0298314 0.00167849 0
0.103609 0.00131228 0
0.314351 0.0289464 0
0.473671 0.226764 0.0115511
0.404593 0.404593 0.404593
0.486824 0.486824 0.486824
0.572854 0.572854 0.572854
0.833906 0.624308 0.394278
0 0.0217746 0.00668345
0.0110323 0.023331 0
0.0895399 0.0209049 0
0.301823 0.0422827 0
0.490654 0.226734 0
0.40647 0.40647 0.40647
0.490364 0.490364 0.490364
0.58027 0.58027 0.58027
0.873091 0.626963 0.359884
0 0.063798 0.00677501
0 0.0732433 0
0.0451667 0.0691539 0
0.264546 0.0792401 0
0.500816 0.22475 0
0.408255 0.408255 0.408255
0.497673 0.497673 0.497673
0.593088 0.593088 0.593088
0.915511 0.63328 0.327047
0 0.203403 0.0669566
0 0.211276 0.0595712
0 0.219059 0.0323949
0.158373 0.205463 0
0.514733 0.245457 0
0.419928 0.419928 0.419928
0.528801 0.528801 0.528801
0.811124 0.605661 0.369329
0.965133 0.66099 0.31136
0 0.463203 0.296788
0 0.469871 0.297749
0 0.475883 0.295445
0.0704509 0.480674 0.274434
0.416587 0.469566 0.227176
0.757046 0.51426 0.129625
0.888838 0.603174 0.238788
0.942611 0.687388 0.339559
0.945998 0.742885 0.426642
0.220157 0.729931 0.540902
0.231083 0.731441 0.5411
0.249241 0.733135 0.539803
0.305852 0.737194 0.530037
0.472129 0.742855 0.503548
0.728313 0.750835 0.481422
0.853941 0.788434 0.519112
0.90074 0.830137 0.592966
0.916777 0.857313 0.65127
0.5673 0.87866 0.670085
0.574243 0.879713 0.66862
0.585885 0.881834 0.666865
0.636347 0.879728 0.674968
0.738033 0.875257 0.698009
0.840818 0.887236 0.725734
0.907256 0.911635 0.771481
0.938903 0.932952 0.826474
0.953201 0.946624 0.861753
0.862226 0.940276 0.846479
0.865202 0.940566 0.847837
0.869932 0.941024 0.849928
0.881743 0.942458 0.85539
0.907103 0.947265 0.868971
0.940932 0.958099 0.89427
0.969619 0.973754 0.929549
0.986343 0.98677 0.963745
0.994354 0.994308 0.983154
0.953307 0.974838 0.936645
0.954284 0.975143 0.937423
0.955795 0.975631 0.938659
0.959731 0.976928 0.941863
0.969177 0.980713 0.950942
0.98439 0.988724 0.970108
0.998535 0.998932 0.995026
1 1 1
1 1 1
0 0 0.0577707
0.0129244 0.00247196 0.0577096
0.0807202 0.0180056 0.0322423
0.319188 0.0256962 0
0.465721 0.221576 0.0198825
0.409277 0.409277 0.409277
0.486702 0.486702 0.486702
0.572564 0.572564 0.572564
0.832212 0.624231 0.39585
0 0.0194247 0.0603799
0.0150301 0.0234379 0.0401617
0.0891737 0.0248264 0.0146792
0.303349 0.0514076 0
0.48336 0.223499 0
0.410803 0.410803 0.410803
0.490318 0.490318 0.490318
0.57998 0.57998 0.57998
0.871794 0.626841 0.360967
0 0.066743 0.0476997
0 0.0713817 0.0363928
0.0506447 0.0727703 0.0138857
0.268544 0.0855116 0
0.507362 0.224918 0
0.411856 0.411856 0.411856
0.497414 0.497414 0.497414
0.592767 0.592767 0.592767
0.914733 0.633112 0.327581
0 0.205005 0.0891585
0 0.212863 0.0822766
0 0.220279 0.0559091
0.163394 0.209125 0.00962844
0.522301 0.248692 0
0.420417 0.420417 0.420417
0.528527 0.528527 0.528527
0.80972 0.605631 0.370779
0.964996 0.660761 0.311223
0 0.462623 0.296345
0 0.469337 0.297337
0 0.47538 0.295064
0.0699474 0.480201 0.27396
0.416312 0.469123 0.226627
0.757 0.513878 0.128923
0.888731 0.602914 0.238514
0.942702 0.687221 0.3393
0.94609 0.742702 0.426322
0.219821 0.729778 0.54078
0.230747 0.731304 0.540978
0.24889 0.732998 0.539712
0.305516 0.737087 0.529992
0.471839 0.742779 0.503441
0.728267 0.750744 0.481331
0.853925 0.788327 0.518944
0.90074 0.830045 0.592798
0.916777 0.857252 0.651133
0.567086 0.878614 0.670069
0.574029 0.879667 0.668589
0.585672 0.881788 0.666835
0.636088 0.879728 0.674876
0.737896 0.875227 0.697932
0.840772 0.887205 0.725658
0.907225 0.91162 0.771435
0.938888 0.932937 0.826413
0.953185 0.946609 0.861692
0.862135 0.940261 0.846418
0.865125 0.940551 0.847791
0.869856 0.941009 0.849882
0.881682 0.942443 0.855344
0.907057 0.947234 0.868925
0.940902 0.958083 0.894224
0.969604 0.973739 0.929519
0.986343 0.98677 0.963729
0.994339 0.994293 0.983139
0.953277 0.974823 0.936629
0.954253 0.975128 0.937392
0.955764 0.975631 0.938628
0.959701 0.976928 0.941848
0.969146 0.980697 0.950912
0.984375 0.988724 0.970092
0.998535 0.998917 0.995026
1 1 1
1 1 1
0 0 0.157092
0.00817884 0 0.152377
0.0474708 0.0071107 0.167254
0.304143 0.0440681 0.0484169
0.525261 0.210559 0
0.423453 0.423453 0.423453
0.502129 0.502129 0.502129
0.574487 0.574487 0.574487
0.829404 0.624125 0.398474
0 0.00596628 0.149081
0.00495918 0.0159304 0.141497
0.0536812 0.0282292 0.144991
0.294667 0.0624247 0.0393072
0.553658 0.215946 0
0.425696 0.425696 0.425696
0.505302 0.505302 0.505302
0.581109 0.581109 0.581109
0.869703 0.626642 0.362737
0 0.060029 0.152682
0 0.0658579 0.148898
0.0585336 0.0740673 0.103746
0.26598 0.0939803 0.0309453
0.566812 0.221881 0
0.427573 0.427573 0.427573
0.512123 0.512123 0.512123
0.592401 0.592401 0.592401
0.913451 0.632822 0.32845
0 0.207675 0.160067
0 0.212696 0.155154
0 0.218433 0.13933
0.172152 0.215351 0.0894942
0.553903 0.25626 0
0.438651 0.438651 0.438651
0.540383 0.540383 0.540383
0.807523 0.60557 0.372976
0.964767 0.660365 0.311009
0 0.471595 0.320073
0 0.478141 0.32137
0.00047303 0.48426 0.319539
0.101884 0.489311 0.300572
0.428519 0.48072 0.250919
0.767056 0.521828 0.147021
0.888548 0.602457 0.238071
0.94284 0.686931 0.338888
0.946242 0.742443 0.425834
0.219272 0.729549 0.540581
0.230213 0.731075 0.540795
0.248325 0.732784 0.539559
0.305074 0.736919 0.529946
0.471305 0.742626 0.503243
0.728145 0.750576 0.481147
0.85391 0.788159 0.518654
0.90074 0.829923 0.592538
0.916762 0.857145 0.650889
0.56672 0.878538 0.670024
0.573693 0.879591 0.668559
0.585351 0.881712 0.666804
0.635645 0.879713 0.674708
0.737652 0.875181 0.69781
0.840681 0.88716 0.725551
0.907195 0.911574 0.771344
0.938857 0.932891 0.826322
0.95317 0.946578 0.861616
0.862013 0.940246 0.846342
0.865003 0.94052 0.8477
0.869734 0.940978 0.84979
0.881575 0.942428 0.855268
0.906981 0.947219 0.868864
0.940871 0.958068 0.894179
0.969589 0.973724 0.929473
0.986328 0.986755 0.963684
0.994339 0.994278 0.983108
0.953231 0.974807 0.936584
0.954208 0.975113 0.937346
0.955718 0.975616 0.938598
0.95967 0.976898 0.941787
0.969116 0.980682 0.950881
0.98436 0.988708 0.970047
0.998535 0.998917 0.99501
1 1 1
1 1 1
0 0 0.393179
0 0 0.39205
0.0346685 0 0.391928
0.184512 0.0510719 0.433936
0.673518 0.214115 0.184619
0.450858 0.450858 0.450858
0.536324 0.536324 0.536324
0.61297 0.61297 0.61297
0.944762 0.637613 0.359274
0 0 0.383337
0 0 0.382834
0.0365148 0.0145876 0.380804
0.190188 0.0796368 0.417792
0.664195 0.223651 0.177508
0.454734 0.454734 0.454734
0.539254 0.539254 0.539254
0.66009 0.613626 0.569085
0.962173 0.642039 0.348608
0 0.0215305 0.358129
0 0.0362707 0.35787
0.0262608 0.0565042 0.350591
0.185473 0.11249 0.375494
0.643442 0.232258 0.157275
0.459663 0.458396 0.457359
0.54551 0.54551 0.54551
0.744808 0.613489 0.490501
0.982086 0.650767 0.339788
0 0.181033 0.353445
0 0.196048 0.358541
0 0.206012 0.344732
0.184955 0.212985 0.26566
0.575555 0.263386 0.119478
0.57171 0.449546 0.341085
0.599252 0.568795 0.538674
0.929976 0.622126 0.339223
0.997894 0.681437 0.355154
0 0.472541 0.387686
0.0316014 0.480125 0.389883
0.079057 0.48716 0.389075
0.166995 0.494774 0.376654
0.443397 0.495064 0.324254
0.803601 0.541634 0.226413
0.932494 0.62948 0.295552
0.962188 0.71014 0.397299
0.95198 0.760891 0.480354
0.254215 0.748455 0.576486
0.265385 0.750256 0.576471
0.283696 0.752285 0.574823
0.339544 0.75668 0.564141
0.496391 0.763867 0.532891
0.74818 0.769635 0.515785
0.864805 0.803006 0.556909
0.903334 0.834501 0.605295
0.916732 0.856825 0.650187
0.565621 0.878294 0.669917
0.572671 0.879362 0.668467
0.58436 0.881468 0.666667
0.634302 0.879667 0.67422
0.73695 0.875044 0.697444
0.840421 0.886992 0.725185
0.907088 0.911467 0.771054
0.938766 0.932784 0.826032
0.953094 0.946471 0.861357
0.861601 0.940169 0.846098
0.864637 0.940444 0.847456
0.869368 0.940917 0.849561
0.881254 0.942336 0.855039
0.906767 0.947127 0.868666
0.940749 0.957992 0.894011
0.969528 0.973678 0.929351
0.986282 0.986709 0.963577
0.994293 0.994247 0.983017
0.953094 0.974762 0.936446
0.95407 0.975067 0.937209
0.955596 0.975555 0.93846
0.959548 0.976852 0.941665
0.969024 0.980636 0.950759
0.984298 0.988663 0.969955
0.99852 0.998917 0.994995
1 1 1
1 1 1
0 0 0.283238
0 0 0.310643
0 0 0.394553
0.112734 0.0290532 0.600855
0.458289 0.261387 0.816815
0.917891 0.485283 0.565377
1 0.520638 0.464652
1 0.579629 0.465171
1 0.641703 0.493767
0 0 0.294408
0 0 0.329885
0 0 0.419791
0.12639 0.045304 0.631373
0.464286 0.278599 0.809583
0.917205 0.486473 0.561181
1 0.520836 0.46099
1 0.584283 0.464576
1 0.649241 0.499184
0 0 0.36141
0 0.0138705 0.412512
0 0.0349889 0.504341
0.136873 0.088426 0.677653
0.461677 0.293858 0.787121
0.915007 0.484825 0.550393
1 0.522606 0.455314
1 0.592676 0.464744
1 0.660914 0.505623
0 0.0912337 0.46453
0 0.118227 0.525673
0 0.144823 0.592828
0.126741 0.185901 0.664225
0.440467 0.317891 0.712184
0.901671 0.470436 0.505638
1 0.537545 0.441352
1 0.625177 0.479393
1 0.695796 0.53257
0.161456 0.340536 0.390875
0.0997024 0.381186 0.463966
0.0263371 0.430381 0.55877
0.0596323 0.484443 0.661128
0.461494 0.496651 0.560098
0.822766 0.551797 0.469932
0.975158 0.6392 0.482643
0.993759 0.724132 0.558114
0.981552 0.779431 0.624643
0.247639 0.757992 0.700999
0.264958 0.759976 0.702113
0.296056 0.761501 0.701732
0.393439 0.76141 0.69366
0.537636 0.76965 0.660166
0.764248 0.78529 0.642924
0.889937 0.823682 0.680491
0.929564 0.863752 0.741314
0.941833 0.888884 0.782788
0.655879 0.892073 0.787854
0.663539 0.89305 0.787488
0.67483 0.894499 0.786725
0.705028 0.899092 0.785138
0.774166 0.906325 0.79028
0.873716 0.913268 0.820172
0.93164 0.934859 0.855665
0.957885 0.953277 0.895033
0.969146 0.964431 0.918669
0.86038 0.939956 0.84535
0.863508 0.940215 0.846708
0.868238 0.940688 0.848844
0.880354 0.942092 0.854337
0.906126 0.946899 0.868086
0.940429 0.957794 0.893507
0.969345 0.973526 0.928939
0.98616 0.986587 0.963256
0.994186 0.994141 0.982742
0.952682 0.974594 0.936034
0.953658 0.974899 0.936812
0.955215 0.975387 0.938048
0.959182 0.976699 0.941283
0.96875 0.980484 0.950393
0.984131 0.988556 0.96968
0.998505 0.998886 0.994934
1 1 1
1 1 1
0 0 0
0 0 0
0 0 0
0.0514687 0.0514687 0.0514687
0.253956 0.19646 0.434012
0.726421 0.499382 1
0.9131 0.684703 0.882689
0.981567 0.714961 0.842023
0.992065 0.739345 0.820859
0 0 0
0 0 0
0 0 0
0.0529183 0.0529183 0.0529183
0.254994 0.197131 0.435248
0.734081 0.512795 1
0.91339 0.686381 0.882048
0.977951 0.716106 0.837797
0.98996 0.741573 0.818204
0 0 0
0 0 0
0.0105898 0.0105898 0.0105898
0.0747234 0.0750591 0.08925
0.308095 0.226627 0.59176
0.739513 0.526299 1
0.911269 0.686717 0.878126
0.972839 0.718486 0.831479
0.98674 0.745388 0.814237
0.0476539 0.0476539 0.0476539
0.0679484 0.0679484 0.0679484
0.0889143 0.105852 0.163668
0.128664 0.169497 0.443687
0.375677 0.270787 0.858869
0.734447 0.542153 0.982071
0.897963 0.685817 0.856184
0.962493 0.727916 0.815274
0.979644 0.758831 0.806592
0.246464 0.246464 0.246464
0.273335 0.273335 0.273335
0.270039 0.312001 0.352743
0.163287 0.406455 0.745418
0.438499 0.478294 0.875654
0.7093 0.605753 0.883162
0.871565 0.722988 0.802502
0.953201 0.767498 0.796262
0.974136 0.803693 0.809842
0.263554 0.736996 0.87689
0.267552 0.745312 0.890105
0.279683 0.755291 0.905379
0.345312 0.769757 0.919921
0.547066 0.777401 0.886366
0.784741 0.798352 0.821973
0.905104 0.838178 0.824323
0.944259 0.877012 0.854536
0.95613 0.901884 0.878874
0.652262 0.90956 0.933059
0.662287 0.910201 0.932036
0.67744 0.911116 0.930297
0.715892 0.913497 0.925658
0.791974 0.918761 0.91632
0.891722 0.929046 0.90985
0.945708 0.948287 0.928206
0.970657 0.965911 0.950912
0.980819 0.976394 0.965225
0.917205 0.968246 0.961013
0.919738 0.968505 0.961059
0.923583 0.968856 0.961089
0.934432 0.970184 0.9617
0.951278 0.975174 0.96492
0.974334 0.984497 0.975311
0.994415 0.995468 0.992294
1 1 1
1 1 1
0.986831 0.994415 0.989975
0.987457 0.99469 0.990372
0.988464 0.995132 0.990997
0.991028 0.996307 0.992706
0.997208 0.999069 0.998505
1 1 1
1 1 1
1 1 1
1 1 1
0 0 0
0 0 0
0 0 0
0.0275273 0.0275273 0.0275273
0.240131 0.218555 0.33257
0.631907 0.426169 1
0.882277 0.645609 1
0.937835 0.733532 1
0.935851 0.771099 0.977584
0 0 0
0 0 0
0 0 0
0.0287175 0.0287175 0.0287175
0.24062 0.219104 0.332326
0.632624 0.426535 1
0.879271 0.648798 1
0.934829 0.735592 1
0.93315 0.773816 0.972854
0 0 0
0 0 0
0 0 0
0.0307317 0.0307317 0.0307317
0.241337 0.219867 0.332082
0.634012 0.427253 1
0.878096 0.654932 1
0.929519 0.739101 1
0.928985 0.778424 0.965484
0.00567636 0.00567636 0.00567636
0.00640879 0.00640879 0.00640879
0.0174105 0.0174105 0.0174105
0.096437 0.096437 0.096437
0.323705 0.269856 0.599069
0.684794 0.477867 1
0.878431 0.672602 1
0.915343 0.751812 0.979385
0.917678 0.792187 0.94493
0.181994 0.181994 0.181994
0.207019 0.207019 0.207019
0.254887 0.254887 0.254887
0.237659 0.344549 0.538048
0.416556 0.443137 0.98294
0.69221 0.566796 1
0.848585 0.720668 0.975509
0.893004 0.796338 0.926772
0.907942 0.835737 0.915694
0.57969 0.57969 0.57969
0.541085 0.606043 0.637217
0.456138 0.6533 0.758007
0.35285 0.727947 0.981796
0.547738 0.760769 1
0.784329 0.796857 0.911757
0.876539 0.850675 0.918196
0.918105 0.894316 0.918837
0.939162 0.915892 0.930144
0.697322 0.907515 0.984817
0.706676 0.908446 0.983352
0.720913 0.909804 0.980972
0.755947 0.913039 0.974609
0.824414 0.920623 0.962097
0.902678 0.935119 0.952438
0.953826 0.954757 0.957656
0.976532 0.971511 0.972045
0.986267 0.981338 0.982712
0.932143 0.973816 0.984298
0.934005 0.974243 0.984298
0.936919 0.974929 0.984298
0.944503 0.976745 0.98439
0.960739 0.981323 0.985534
0.982895 0.989883 0.990555
1 1 1
1 1 1
1 1 1
0.998337 0.999054 1
0.99884 0.999329 1
0.999603 0.999817 1
1 1 1
1 1 1
1 1 1
1 1 1
1 1 1
1 1 1
0 0 0
0 0 0
0 0 0
0 0 0
0.199145 0.199145 0.199145
0.567269 0.421485 0.89688
0.873701 0.615137 1
0.954284 0.717617 1
0.950118 0.751644 1
0 0 0
0 0 0
0 0 0
0 0 0
0.20119 0.20119 0.20119
0.568109 0.421805 0.898573
0.873823 0.615274 1
0.949355 0.717983 1
0.947158 0.754742 1
0 0 0
0 0 0
0 0 0
0 0 0
0.204379 0.204379 0.204379
0.569467 0.422324 0.901335
0.874022 0.615488 1
0.937652 0.7149 1
0.942718 0.760128 1
0 0 0
0 0 0
0 0 0
0.0031281 0.0031281 0.0031281
0.21387 0.21387 0.21387
0.574807 0.424384 0.912047
0.875746 0.6392 1
0.92932 0.731472 1
0.930083 0.776318 1
0.132021 0.132021 0.132021
0.132601 0.132601 0.132601
0.133516 0.133516 0.133516
0.234531 0.234531 0.234531
0.377905 0.370001 0.911177
0.678218 0.518578 1
0.854475 0.695964 1
0.898573 0.780179 0.990662
0.909285 0.823133 0.962524
0.4869 0.4869 0.4869
0.517876 0.517876 0.517876
0.551049 0.551049 0.551049
0.407996 0.671 0.864225
0.530877 0.741894 1
0.777722 0.785916 0.943099
0.873426 0.843107 0.949432
0.916686 0.890028 0.943862
0.935424 0.915175 0.948363
0.671901 0.90457 1
0.682582 0.905653 1
0.699702 0.907485 1
0.740887 0.911665 1
0.818067 0.920439 0.984939
0.904326 0.935897 0.967926
0.955505 0.956786 0.96611
0.976196 0.97464 0.97911
0.985962 0.984985 0.986801
0.937224 0.975113 0.990356
0.939208 0.975586 0.99025
0.942214 0.976318 0.990127
0.94995 0.978286 0.989899
0.966522 0.983322 0.990417
0.987305 0.992035 0.994202
1 1 1
1 1 1
1 1 1
1 1 1
1 1 1
1 1 1
1 1 1
1 1 1
1 1 1
1 1 1
1 1 1
1 1 1
0 0 0
0 0 0
0 0 0
0 0 0
0.150698 0.150698 0.150698
0.528618 0.415106 0.797711
0.869154 0.608286 1
0.950103 0.694072 1
0.973358 0.741436 1
0 0 0
0 0 0
0 0 0
0 0 0
0.152377 0.152377 0.152377
0.529732 0.415534 0.800153
0.869245 0.608392 1
0.950134 0.694102 1
0.964721 0.738781 1
0 0 0
0 0 0
0 0 0
0 0 0
0.155688 0.155688 0.155688
0.531121 0.416068 0.803204
0.869429 0.608576 1
0.9505 0.694621 1
0.956512 0.740459 1
0 0 0
0 0 0
0 0 0
0 0 0
0.165347 0.165347 0.165347
0.536355 0.418067 0.814633
0.870085 0.609201 1
0.94316 0.714702 1
0.944335 0.758068 1
0.0585184 0.0585184 0.0585184
0.059205 0.059205 0.059205
0.0602579 0.0602579 0.0602579
0.10071 0.10071 0.10071
0.312444 0.290455 0.646052
0.649683 0.476509 1
0.863615 0.671611 1
0.907988 0.762539 1
0.913283 0.807065 0.989792
0.394995 0.394995 0.394995
0.39527 0.39527 0.39527
0.451041 0.451041 0.451041
0.543145 0.568154 0.584802
0.490242 0.715999 1
0.766094 0.767758 0.956924
0.868269 0.831693 0.961944
0.913664 0.882567 0.951583
0.932738 0.909331 0.953445
0.631022 0.898756 1
0.64509 0.900267 1
0.666499 0.902708 1
0.716991 0.908095 1
0.805798 0.917723 0.99324
0.901961 0.934081 0.970932
0.954803 0.955993 0.967803
0.975937 0.974258 0.980514
0.986099 0.984802 0.987854
0.933791 0.974685 0.993072
0.936019 0.975204 0.99292
0.939391 0.976013 0.992691
0.947951 0.978134 0.992218
0.965881 0.983444 0.992187
0.987884 0.992554 0.995346
1 1 1
1 1 1
1 1 1
1 1 1
1 1 1
1 1 1
1 1 1
1 1 1
1 1 1
1 1 1
1 1 1
1 1 1
