public/textures/grade/DJI/Gems-DLog.cube
TITLE "Generated by Resolve"
LUT_3D_SIZE 5
0 0.00122072 0.00787366
0.103609 0.00131228 0
0.473671 0.226764 0.0115511
0.486824 0.486824 0.486824
0.833906 0.624308 0.394278
0 0.063798 0.00677501
0.0451667 0.0691539 0
0.500816 0.22475 0
0.497673 0.497673 0.497673
0.915511 0.63328 0.327047
0 0.463203 0.296788
0 0.475883 0.295445
0.416587 0.469566 0.227176
0.888838 0.603174 0.238788
0.945998 0.742885 0.426642
0.5673 0.87866 0.670085
0.585885 0.881834 0.666865
0.738033 0.875257 0.698009
0.907256 0.911635 0.771481
0.953201 0.946624 0.861753
0.953307 0.974838 0.936645
0.955795 0.975631 0.938659
0.969177 0.980713 0.950942
0.998535 0.998932 0.995026
1 1 1
0 0 0.157092
0.0474708 0.0071107 0.167254
0.525261 0.210559 0
0.502129 0.502129 0.502129
0.829404 0.624125 0.398474
0 0.060029 0.152682
0.0585336 0.0740673 0.103746
0.566812 0.221881 0
0.512123 0.512123 0.512123
0.913451 0.632822 0.32845
0 0.471595 0.320073
0.00047303 0.48426 0.319539
0.428519 0.48072 0.250919
0.888548 0.602457 0.238071
0.946242 0.742443 0.425834
0.56672 0.878538 0.670024
0.585351 0.881712 0.666804
0.737652 0.875181 0.69781
0.907195 0.911574 0.771344
0.95317 0.946578 0.861616
0.953231 0.974807 0.936584
0.955718 0.975616 0.938598
0.969116 0.980682 0.950881
0.998535 0.998917 0.99501
1 1 1
0 0 0.283238
0 0 0.394553
0.458289 0.261387 0.816815
1 0.520638 0.464652
1 0.641703 0.493767
0 0 0.36141
0 0.0349889 0.504341
0.461677 0.293858 0.787121
1 0.522606 0.455314
1 0.660914 0.505623
0.161456 0.340536 0.390875
0.0263371 0.430381 0.55877
0.461494 0.496651 0.560098
0.975158 0.6392 0.482643
0.981552 0.779431 0.624643
0.655879 0.892073 0.787854
0.67483 0.894499 0.786725
0.774166 0.906325 0.79028
0.93164 0.934859 0.855665
0.969146 0.964431 0.918669
0.952682 0.974594 0.936034
0.955215 0.975387 0.938048
0.96875 0.980484 0.950393
0.998505 0.998886 0.994934
1 1 1
0 0 0
0 0 0
0.240131 0.218555 0.33257
0.882277 0.645609 1
0.935851 0.771099 0.977584
0 0 0
0 0 0
0.241337 0.219867 0.332082
0.878096 0.654932 1
0.928985 0.778424 0.965484
0.181994 0.181994 0.181994
0.254887 0.254887 0.254887
0.416556 0.443137 0.98294
0.848585 0.720668 0.975509
0.907942 0.835737 0.915694
0.697322 0.907515 0.984817
0.720913 0.909804 0.980972
0.824414 0.920623 0.962097
0.953826 0.954757 0.957656
0.986267 0.981338 0.982712
0.998337 0.999054 1
0.999603 0.999817 1
1 1 1
1 1 1
1 1 1
0 0 0
0 0 0
0.150698 0.150698 0.150698
0.869154 0.608286 1
0.973358 0.741436 1
0 0 0
0 0 0
0.155688 0.155688 0.155688
0.869429 0.608576 1
0.956512 0.740459 1
0.0585184 0.0585184 0.0585184
0.0602579 0.0602579 0.0602579
0.312444 0.290455 0.646052
0.863615 0.671611 1
0.913283 0.807065 0.989792
0.631022 0.898756 1
0.666499 0.902708 1
0.805798 0.917723 0.99324
0.954803 0.955993 0.967803
0.986099 0.984802 0.987854
1 1 1
1 1 1
1 1 1
1 1 1
1 1 1
