public/textures/grade/DJI/Gems-DLog.cube
TITLE "Generated by Resolve"
LUT_3D_SIZE 33
0 0.00122072 0.00787366
0.00241093 0.0018616 0.00593576
0.00817884 0.0028687 0.00370794
0.0184024 0.00209049 0.000671397
0.0298314 0.00167849 0
0.0411994 0.00164797 0
0.0556954 0.00172427 0
0.0751202 0.00169375 0
0.103609 0.00131228 0
0.140551 0.00218204 0
0.187304 0.00563058 0
0.244617 0.013489 0
0.314351 0.0289464 0
0.39585 0.0557565 0
0.477653 0.0994583 0
0.52163 0.156985 0
0.473671 0.226764 0.0115511
0.34757 0.299153 0.251987
0.343191 0.343191 0.343191
0.373892 0.373892 0.373892
0.404593 0.404593 0.404593
0.429999 0.429999 0.429999
0.451514 0.451514 0.451514
0.470176 0.470176 0.470176
0.486824 0.486824 0.486824
0.505989 0.505989 0.505989
0.527413 0.527413 0.527413
0.549844 0.549844 0.549844
0.572854 0.572854 0.572854
0.595544 0.595544 0.595544
0.65069 0.611902 0.565866
0.748302 0.619303 0.471839
0.833906 0.624308 0.394278
0 0.00549325 0.00698863
0.000503548 0.00544747 0.0047303
0.00756847 0.00541695 0.00216678
0.0168307 0.00520333 0
0.0277562 0.00497444 0
0.0393988 0.00460822 0
0.0543984 0.00427253 0
0.0740826 0.0037995 0
0.10277 0.00369268 0
0.139528 0.00480659 0
0.185962 0.00842298 0
0.243214 0.0167544 0
0.312474 0.0323949 0
0.39324 0.0593271 0
0.47509 0.102464 0
0.521065 0.158679 0
0.477806 0.226917 0.00534066
0.353155 0.298436 0.244678
0.343175 0.343175 0.343175
0.374304 0.374304 0.374304
0.405158 0.405158 0.405158
0.430594 0.430594 0.430594
0.452155 0.452155 0.452155
0.470649 0.470649 0.470649
0.487785 0.487785 0.487785
0.506752 0.506752 0.506752
0.528496 0.528496 0.528496
0.551369 0.551369 0.551369
0.574746 0.574746 0.574746
0.597559 0.597559 0.597559
0.663218 0.612436 0.552331
0.760143 0.619379 0.459037
0.844907 0.624811 0.384207
0 0.00999466 0.00701915
0 0.0102541 0.00485237
0.00292973 0.010544 0.00234989
0.0126497 0.010193 0
0.0238041 0.00979629 0
0.0360571 0.00943008 0
0.0516365 0.00888075 0
0.0720836 0.00801099 0
0.101137 0.00724804 0
0.138048 0.00798047 0
0.183932 0.0118105 0
0.240421 0.0199741 0
0.309468 0.035996 0
0.389654 0.0626688 0
0.471824 0.105043 0
0.519738 0.159762 0
0.481956 0.227039 0
0.358618 0.29781 0.237491
0.343191 0.343191 0.343191
0.374838 0.374838 0.374838
0.405539 0.405539 0.405539
0.431113 0.431113 0.431113
0.452598 0.452598 0.452598
0.471229 0.471229 0.471229
0.488426 0.488426 0.488426
0.507988 0.507988 0.507988
0.530068 0.530068 0.530068
0.553079 0.553079 0.553079
0.576684 0.576684 0.576684
0.599634 0.599634 0.599634
0.675944 0.612924 0.538613
0.773541 0.619684 0.445304
0.854994 0.625437 0.375235
0 0.0153658 0.00686656
0 0.0161746 0.00476081
0 0.0175937 0.00120546
0.00680552 0.0165866 1.5259e-05
0.0179294 0.016434 0
0.030457 0.0158999 0
0.0463111 0.0153658 0
0.0673228 0.0146181 0
0.0960098 0.0138705 0
0.133593 0.0139467 0
0.180713 0.0160983 0
0.237263 0.0236057 0
0.305684 0.0391394 0
0.385809 0.0657511 0
0.468147 0.107179 0
0.518212 0.160906 0
0.486442 0.226841 0
0.364202 0.297078 0.229892
0.343084 0.343084 0.343084
0.375311 0.375311 0.375311
0.405936 0.405936 0.405936
0.431464 0.431464 0.431464
0.453132 0.453132 0.453132
0.471397 0.471397 0.471397
0.489509 0.489509 0.489509
0.509178 0.509178 0.509178
0.531579 0.531579 0.531579
0.554849 0.554849 0.554849
0.578653 0.578653 0.578653
0.601312 0.601312 0.601312
0.688396 0.613504 0.525582
0.786786 0.619989 0.431922
0.86424 0.6262 0.367453
0 0.0217746 0.00668345
0 0.0227817 0.00466926
0 0.0241245 0.00125124
0 0.024155 0
0.0110323 0.023331 0
0.0237278 0.0233463 0
0.0397498 0.0227817 0
0.0611124 0.021912 0
0.0895399 0.0209049 0
0.127672 0.0207828 0
0.174975 0.0227512 0
0.233112 0.0281529 0
0.301823 0.0422827 0
0.381415 0.0685283 0
0.464302 0.109178 0
0.516167 0.161654 0
0.490654 0.226734 0
0.370184 0.296132 0.221363
0.343023 0.343023 0.343023
0.375677 0.375677 0.375677
0.40647 0.40647 0.40647
0.431815 0.431815 0.431815
0.453483 0.453483 0.453483
0.471992 0.471992 0.471992
0.490364 0.490364 0.490364
0.510277 0.510277 0.510277
0.532906 0.532906 0.532906
0.556634 0.556634 0.556634
0.58027 0.58027 0.58027
0.603372 0.603372 0.603372
0.699992 0.613687 0.512612
0.799374 0.620417 0.419791
0.873091 0.626963 0.359884
0 0.028397 0.00634775
0 0.0297093 0.00450141
0 0.031342 0.00138857
0 0.0328832 0
0.00370794 0.0310826 0
0.0164034 0.0306096 0
0.0327611 0.0304265 0
0.0540475 0.0296941 0
0.0823529 0.0287785 0
0.120699 0.0283055 0
0.168231 0.029633 0
0.22707 0.0348516 0
0.297261 0.0461433 0
0.377081 0.0715343 0
0.460105 0.111131 0
0.513512 0.162203 0
0.49453 0.226749 0
0.376394 0.295186 0.21239
0.34287 0.34287 0.34287
0.376165 0.376165 0.376165
0.406836 0.406836 0.406836
0.432364 0.432364 0.432364
0.453788 0.453788 0.453788
0.472496 0.472496 0.472496
0.491447 0.491447 0.491447
0.511879 0.511879 0.511879
0.534554 0.534554 0.534554
0.558282 0.558282 0.558282
0.5823 0.5823 0.5823
0.613291 0.60441 0.593683
0.713649 0.614099 0.498024
0.81294 0.620768 0.406607
0.880476 0.627543 0.353201
0 0.0372931 0.00622568
0 0.0387274 0.00437934
0 0.0403449 0.00122072
0 0.0427253 0
0 0.0419471 0
0.00689708 0.0405585 0
0.0234379 0.040177 0
0.0449073 0.0398871 0
0.0726787 0.0387884 0
0.111543 0.0381781 0
0.160067 0.0392157 0
0.218799 0.0436103 0
0.289097 0.0542 0
0.371359 0.0754406 0
0.454536 0.113283 0
0.510384 0.163272 0
0.49987 0.226368 0
0.383734 0.294179 0.201755
0.342641 0.342641 0.342641
0.376562 0.376562 0.376562
0.407401 0.407401 0.407401
0.432792 0.432792 0.432792
0.454307 0.454307 0.454307
0.473396 0.473396 0.473396
0.49305 0.49305 0.49305
0.513954 0.513954 0.513954
0.536721 0.536721 0.536721
0.560784 0.560784 0.560784
0.585061 0.585061 0.585061
0.628794 0.605432 0.577325
0.731182 0.614664 0.479591
0.828794 0.621118 0.391257
0.890608 0.628763 0.345006
0 0.0487068 0.00607309
0 0.0505837 0.00453193
0 0.0524758 0.00166323
0 0.0546883 0
0 0.0569772 0
0 0.0546426 0
0.0108949 0.0530404 0
0.0326696 0.052842 0
0.0610513 0.052491 0
0.099321 0.0514839 0
0.148318 0.0518502 0
0.207965 0.0555276 0
0.278691 0.0649882 0
0.361196 0.0839094 0
0.446983 0.116228 0
0.505302 0.164172 0
0.501427 0.225849 0
0.394522 0.292348 0.185153
0.342382 0.342382 0.342382
0.376989 0.376989 0.376989
0.407843 0.407843 0.407843
0.433478 0.433478 0.433478
0.454871 0.454871 0.454871
0.47454 0.47454 0.47454
0.494881 0.494881 0.494881
0.51635 0.51635 0.51635
0.539452 0.539452 0.539452
0.564218 0.564218 0.564218
0.588235 0.588235 0.588235
0.649149 0.606226 0.554818
0.754711 0.615335 0.455055
0.847379 0.622034 0.374319
0.902129 0.630655 0.336599
0 0.063798 0.00677501
0 0.06598 0.00517281
0 0.0681621 0.00241093
0 0.0706645 0
0 0.0732433 0
0 0.074403 0
0 0.0713664 0
0.0169985 0.0692454 0
0.0451667 0.0691539 0
0.0826581 0.0687114 0
0.132403 0.0687877 0
0.193118 0.0711528 0
0.264546 0.0792401 0
0.34757 0.0961013 0
0.436591 0.121935 0
0.498299 0.16553 0
0.500816 0.22475 0
0.407263 0.29041 0.165148
0.341817 0.341817 0.341817
0.377615 0.377615 0.377615
0.408255 0.408255 0.408255
0.433997 0.433997 0.433997
0.455924 0.455924 0.455924
0.476585 0.476585 0.476585
0.497673 0.497673 0.497673
0.519875 0.519875 0.519875
0.543633 0.543633 0.543633
0.568322 0.568322 0.568322
0.593088 0.593088 0.593088
0.678172 0.607599 0.523735
0.783551 0.615976 0.425269
0.869368 0.623743 0.355276
0.915511 0.63328 0.327047
0 0.0872206 0.0103304
0 0.0897231 0.00889601
0 0.0920272 0.00605783
0 0.0944381 0.00260929
0 0.0966659 0
0 0.0993515 0
0 0.0997177 0
0 0.0959793 0
0.0258946 0.0933242 0
0.0619821 0.092668 0
0.11191 0.0918593 0
0.173022 0.0926375 0
0.246021 0.0974746 0
0.329671 0.110506 0
0.421866 0.132692 0
0.489052 0.167727 0
0.498497 0.223499 0
0.423941 0.287602 0.137255
0.341772 0.341772 0.341772
0.37789 0.37789 0.37789
0.408957 0.408957 0.408957
0.434653 0.434653 0.434653
0.457801 0.457801 0.457801
0.479744 0.479744 0.479744
0.501747 0.501747 0.501747
0.524712 0.524712 0.524712
0.549157 0.549157 0.549157
0.574411 0.574411 0.574411
0.611521 0.597314 0.580011
0.71696 0.608865 0.481819
0.822934 0.617151 0.386984
0.891768 0.626337 0.336934
0.928985 0.636866 0.318395
0 0.118257 0.0189364
0 0.120729 0.0175937
0 0.123079 0.015259
0 0.124956 0.0117494
0 0.127001 0.00816358
0 0.128862 0.00318914
0 0.131685 0
0 0.131716 0
0 0.127474 0
0.0386053 0.124041 0
0.0856184 0.122545 0
0.148211 0.121965 0
0.222507 0.123415 0
0.307012 0.130449 0
0.401465 0.1467 0
0.480858 0.17557 0
0.494484 0.222553 0
0.443427 0.284672 0.102663
0.346807 0.341573 0.335363
0.378363 0.378363 0.378363
0.409567 0.409567 0.409567
0.436851 0.436851 0.436851
0.461112 0.461112 0.461112
0.484245 0.484245 0.484245
0.507927 0.507927 0.507927
0.531609 0.531609 0.531609
0.556741 0.556741 0.556741
0.582376 0.582376 0.582376
0.659953 0.599985 0.527672
0.769223 0.610513 0.427192
0.863188 0.619532 0.350683
0.915389 0.630945 0.32015
0.943328 0.642496 0.311574
0 0.156619 0.0360266
0 0.159365 0.0351415
0 0.161501 0.0330663
0 0.163439 0.0302892
0 0.164965 0.0267185
0 0.166674 0.0227207
0 0.168627 0.0166323
0 0.171466 0.0077821
0 0.171511 0.00155642
0.00691234 0.166552 0.00260929
0.0565042 0.161654 0
0.118456 0.159823 0
0.192523 0.15938 0
0.278813 0.161944 0
0.375051 0.171221 0
0.467292 0.191562 0
0.505928 0.22826 0
0.460227 0.282795 0.066865
0.380972 0.339376 0.288212
0.380697 0.380697 0.380697
0.412818 0.412818 0.412818
0.441321 0.441321 0.441321
0.467018 0.467018 0.467018
0.491859 0.491859 0.491859
0.516182 0.516182 0.516182
0.541451 0.541451 0.541451
0.567132 0.567132 0.567132
0.621958 0.588983 0.548424
0.726726 0.602564 0.455451
0.833036 0.612772 0.365011
0.900374 0.624598 0.321386
0.936233 0.637797 0.308568
0.955764 0.650156 0.30837
0 0.203403 0.0669566
0 0.20589 0.066331
0 0.20795 0.064683
0 0.209705 0.0623941
0 0.211276 0.0595712
0 0.212589 0.0560616
0 0.214343 0.0510414
0 0.216312 0.043534
0 0.219059 0.0323949
0 0.219913 0.0218204
0.019028 0.21387 0.0236667
0.082063 0.207965 0.0178531
0.158373 0.205463 0
0.245045 0.205661 0
0.342504 0.209277 0
0.444755 0.220523 0
0.514733 0.245457 0
0.502998 0.288243 0.00354009
0.435019 0.340383 0.217288
0.387457 0.387457 0.387457
0.419928 0.419928 0.419928
0.449516 0.449516 0.449516
0.476661 0.476661 0.476661
0.502831 0.502831 0.502831
0.528801 0.528801 0.528801
0.554696 0.554696 0.554696
0.602106 0.57792 0.547616
0.704936 0.59292 0.457572
0.811124 0.605661 0.369329
0.890318 0.618723 0.317296
0.930785 0.633494 0.303471
0.953048 0.647974 0.304326
0.965133 0.66099 0.31136
0 0.258381 0.114244
0 0.260746 0.114214
0 0.262791 0.113603
0 0.264271 0.111925
0 0.265812 0.110323
0 0.266926 0.107652
0 0.268589 0.104585
0 0.270436 0.0992447
0 0.272389 0.0909133
0 0.274647 0.0771649
0 0.276753 0.0577249
0.0359655 0.2701 0.0615549
0.11989 0.263081 0.0576638
0.208057 0.260258 0.0254063
0.305089 0.2607 0
0.411383 0.265507 0
0.509728 0.279164 0
0.550164 0.307027 0
0.513542 0.349157 0.116503
0.460517 0.39411 0.302708
0.433997 0.433997 0.433997
0.464012 0.464012 0.464012
0.492302 0.492302 0.492302
0.519387 0.519387 0.519387
0.546334 0.546334 0.546334
0.614054 0.567452 0.508064
0.709957 0.584192 0.429679
0.814496 0.597894 0.345403
0.888914 0.613352 0.303685
0.929763 0.630747 0.294881
0.951461 0.647196 0.299748
0.963424 0.662486 0.310521
0.969436 0.675608 0.323247
0 0.321157 0.169451
0 0.3234 0.169802
0 0.325048 0.16936
0 0.326711 0.168948
0 0.328145 0.168078
0 0.329274 0.166751
0 0.330785 0.164904
0 0.332647 0.162402
0 0.334249 0.157443
0 0.33608 0.15024
0 0.338231 0.139269
0 0.34023 0.120851
0.0633249 0.334691 0.118639
0.169284 0.326329 0.1187
0.267765 0.323461 0.0842451
0.373068 0.32517 0.0197452
0.483085 0.33138 0
0.572396 0.345953 0
0.600061 0.37261 0.0091249
0.574105 0.408713 0.161791
0.547478 0.446342 0.30106
0.542443 0.479744 0.391974
0.561776 0.50927 0.437369
0.603494 0.53492 0.443198
0.66865 0.557137 0.412482
0.752682 0.575769 0.355718
0.841184 0.592065 0.299397
0.899245 0.610254 0.279957
0.931594 0.630198 0.284504
0.950378 0.649119 0.296727
0.960739 0.666575 0.312734
0.96556 0.681666 0.329732
0.967346 0.694194 0.346029
0 0.390478 0.230945
0 0.392477 0.231434
0 0.394049 0.231342
0 0.395697 0.23151
0 0.397101 0.231266
0 0.398062 0.23035
0 0.399649 0.229755
0 0.401373 0.228367
0 0.403006 0.225757
0 0.404822 0.221698
0 0.40647 0.21532
0.0059968 0.407797 0.205447
0.0344854 0.408896 0.190066
0.118685 0.405447 0.182284
0.233478 0.396384 0.185443
0.33843 0.394186 0.155581
0.445792 0.397391 0.101595
0.551705 0.404852 0.0380102
0.637751 0.418448 0.0055848
0.680125 0.440833 0.0471504
0.69189 0.469276 0.130343
0.701549 0.498177 0.204227
0.725994 0.525109 0.247501
0.771008 0.549325 0.257069
0.827543 0.570672 0.25005
0.877012 0.59144 0.250111
0.911086 0.613413 0.261692
0.932662 0.634852 0.279377
0.946807 0.655589 0.29987
0.954681 0.674266 0.320806
0.958373 0.690776 0.341939
0.95935 0.704875 0.362097
0.958938 0.716747 0.38056
0 0.463203 0.296788
0 0.465293 0.297414
0 0.467094 0.297749
0 0.468711 0.297978
0 0.469871 0.297749
0 0.471199 0.297688
0 0.472694 0.297398
0 0.474235 0.296773
0 0.475883 0.295445
0 0.477546 0.293202
0.0128939 0.479103 0.289494
0.039704 0.480064 0.28336
0.0704509 0.480674 0.274434
0.110246 0.482261 0.260014
0.196933 0.47953 0.25156
0.312123 0.470237 0.255161
0.416587 0.469566 0.227176
0.519005 0.474464 0.188678
0.614572 0.483299 0.155077
0.69752 0.496666 0.128527
0.757046 0.51426 0.129625
0.800015 0.535531 0.153002
0.833768 0.557794 0.182544
0.863569 0.580697 0.211841
0.888838 0.603174 0.238788
0.909514 0.625864 0.265309
0.924361 0.647303 0.290669
0.935836 0.668467 0.315724
0.942611 0.687388 0.339559
0.945922 0.704494 0.363561
0.947021 0.719631 0.386923
0.946761 0.732464 0.408316
0.945998 0.742885 0.426642
0 0.536782 0.363516
0 0.538582 0.364034
0 0.539803 0.363958
0 0.541238 0.364157
0 0.542565 0.364355
0 0.543832 0.364477
0.00047303 0.54519 0.364431
0.0114748 0.546395 0.363821
0.026627 0.548043 0.363394
0.0447547 0.549294 0.361822
0.0675669 0.550942 0.359991
0.0937209 0.551858 0.356313
0.120058 0.552224 0.350622
0.153567 0.553338 0.341588
0.196048 0.556374 0.323873
0.294362 0.551446 0.322896
0.40322 0.544259 0.324773
0.500099 0.547097 0.29897
0.590784 0.55346 0.272923
0.670542 0.563134 0.256977
0.73814 0.576455 0.248005
0.791318 0.592615 0.249668
0.831876 0.610407 0.261097
0.862547 0.629953 0.279957
0.885466 0.649348 0.301152
0.902312 0.669322 0.325154
0.914733 0.688762 0.348806
0.923049 0.706493 0.372091
0.928267 0.723384 0.39704
0.931014 0.73843 0.421363
0.932113 0.751293 0.443259
0.932647 0.762081 0.462409
0.932891 0.771099 0.478859
0.0420844 0.608331 0.427573
0.0490425 0.609674 0.428016
0.0559396 0.610849 0.428321
0.0627909 0.611917 0.42855
0.0695354 0.612863 0.428687
0.0757763 0.613504 0.42855
0.0845502 0.614466 0.42858
0.0952773 0.615579 0.428565
0.107729 0.616907 0.428443
0.121386 0.617884 0.427543
0.137621 0.61915 0.426398
0.15491 0.619821 0.423972
0.175723 0.620279 0.419989
0.205829 0.621592 0.413031
0.243809 0.624018 0.40029
0.295277 0.628016 0.382666
0.405768 0.618738 0.393011
0.499657 0.615854 0.390188
0.583047 0.621881 0.365866
0.657832 0.629648 0.351888
0.720928 0.639735 0.346349
0.773068 0.652308 0.345815
0.813825 0.666896 0.351919
0.845411 0.682765 0.363638
0.86807 0.698726 0.378912
0.885481 0.715068 0.396826
0.898497 0.73138 0.417609
0.907408 0.746685 0.439933
0.913069 0.760266 0.46157
0.917098 0.772656 0.482841
0.919905 0.783673 0.502846
0.92163 0.793088 0.520562
0.922896 0.800473 0.534874
0.142748 0.674037 0.487709
0.147326 0.6748 0.488014
0.151553 0.67538 0.488136
0.155352 0.675746 0.488014
0.159411 0.676326 0.488136
0.163424 0.676936 0.488289
0.168353 0.677623 0.488411
0.174563 0.678401 0.488411
0.181613 0.678843 0.487816
0.190677 0.67982 0.487541
0.201923 0.680644 0.486686
0.216907 0.681315 0.484428
0.237766 0.682124 0.480232
0.265858 0.683864 0.473823
0.299916 0.686442 0.46305
0.33846 0.691691 0.446036
0.428473 0.685908 0.451087
0.516701 0.680949 0.455772
0.59266 0.682765 0.44802
0.660365 0.69102 0.425361
0.718349 0.698787 0.422156
0.766003 0.708705 0.423224
0.804257 0.719997 0.427726
0.833417 0.732189 0.436667
0.856641 0.745693 0.45066
0.874235 0.759213 0.467338
0.887251 0.77232 0.486458
0.896864 0.785 0.507225
0.9037 0.796582 0.527733
0.908736 0.806668 0.546746
0.912306 0.815518 0.56405
0.915129 0.823087 0.579416
0.917327 0.829709 0.593179
0.220157 0.729931 0.540902
0.22295 0.730327 0.540978
0.225589 0.730724 0.5411
0.228321 0.73109 0.541131
0.231083 0.731441 0.5411
0.233967 0.731838 0.541085
0.23772 0.732219 0.540887
0.242344 0.732494 0.540337
0.249241 0.733135 0.539803
0.25832 0.734005 0.538933
0.269932 0.734661 0.537011
0.285985 0.735897 0.534356
0.305852 0.737194 0.530037
0.331594 0.739376 0.523507
0.36141 0.742382 0.513451
0.394491 0.747631 0.498283
0.472129 0.742855 0.503548
0.549981 0.737819 0.509621
0.61767 0.737621 0.507713
0.676509 0.742336 0.49778
0.728313 0.750835 0.481422
0.770397 0.758007 0.485542
0.804623 0.767102 0.493477
0.832059 0.77731 0.504662
0.853941 0.788434 0.519112
0.870985 0.799619 0.536309
0.883589 0.810361 0.554833
0.893324 0.820539 0.573922
0.90074 0.830137 0.592966
0.906493 0.838636 0.610636
0.91075 0.845899 0.626139
0.914153 0.852293 0.640085
0.916777 0.857313 0.65127
0.293751 0.777859 0.584421
0.296757 0.778225 0.584207
0.299855 0.778531 0.583871
0.302861 0.778881 0.583597
0.305608 0.779004 0.583032
0.308476 0.779202 0.582559
0.312535 0.779599 0.58204
0.317815 0.780148 0.581369
0.324804 0.780789 0.580285
0.333974 0.781598 0.578683
0.345159 0.782315 0.576165
0.360098 0.783688 0.572915
0.378256 0.785168 0.567956
0.400641 0.787625 0.56112
0.426017 0.790951 0.550927
0.462989 0.793866 0.542077
0.533196 0.787137 0.550149
0.597192 0.783093 0.555077
0.654154 0.782849 0.555581
0.704082 0.786328 0.552239
0.747631 0.792645 0.548028
0.785443 0.80087 0.546212
0.81561 0.808621 0.557656
0.840085 0.817166 0.570703
0.859709 0.826169 0.58613
0.875242 0.835523 0.6038
0.887388 0.844587 0.62211
0.896834 0.852964 0.639933
0.904204 0.860716 0.656931
0.910124 0.867765 0.672877
0.914778 0.873915 0.687068
0.918547 0.879316 0.699702
0.92137 0.883467 0.709499
0.378439 0.817945 0.613809
0.381231 0.818112 0.613184
0.38381 0.818173 0.612467
0.386633 0.818463 0.611963
0.389548 0.818723 0.611353
0.392554 0.818982 0.610742
0.396277 0.819348 0.610056
0.40116 0.819837 0.609064
0.40766 0.820432 0.60763
0.415915 0.821256 0.605722
0.425757 0.822065 0.602899
0.438712 0.823575 0.599557
0.454536 0.82562 0.594812
0.472694 0.828275 0.588174
0.497215 0.831388 0.581186
0.550332 0.826062 0.588861
0.60293 0.821668 0.595804
0.652842 0.819455 0.601205
0.699092 0.820325 0.605051
0.740276 0.823758 0.607446
0.776104 0.82916 0.61004
0.807599 0.836866 0.610636
0.833814 0.844251 0.620813
0.855055 0.851575 0.635843
0.872129 0.859144 0.651865
0.885908 0.866896 0.668925
0.897169 0.874586 0.686503
0.906065 0.881804 0.703365
0.913069 0.888258 0.71873
0.918669 0.89398 0.732525
0.923369 0.899275 0.745449
0.927001 0.903578 0.756008
0.929992 0.907347 0.765301
0.472099 0.850507 0.638743
0.474372 0.85066 0.638117
0.476936 0.850935 0.637659
0.479332 0.851225 0.637278
0.481804 0.851514 0.636774
0.484352 0.851804 0.636271
0.487511 0.852201 0.635782
0.491676 0.85272 0.634913
0.496986 0.853422 0.633921
0.503777 0.854383 0.632502
0.511696 0.85539 0.630243
0.522286 0.85713 0.62768
0.535088 0.85951 0.624277
0.560159 0.858717 0.625757
0.596399 0.855604 0.632639
0.634424 0.852445 0.639261
0.67335 0.850538 0.646113
0.710964 0.850019 0.652018
0.746593 0.851606 0.65771
0.779309 0.855177 0.663584
0.808072 0.86041 0.669139
0.833356 0.866743 0.675792
0.855802 0.874281 0.682216
0.873854 0.880751 0.697963
0.888884 0.887587 0.714534
0.900847 0.894148 0.730526
0.910689 0.900587 0.74641
0.918761 0.906783 0.761837
0.925322 0.912398 0.775906
0.930556 0.917311 0.788281
0.934859 0.92163 0.799252
0.93817 0.925124 0.808072
0.940963 0.928237 0.815976
0.5673 0.87866 0.670085
0.569238 0.87895 0.669779
0.570855 0.879179 0.669291
0.572381 0.879408 0.668925
0.574243 0.879713 0.66862
0.576196 0.880049 0.668315
0.578683 0.880476 0.667933
0.581765 0.881071 0.667521
0.585885 0.881834 0.666865
0.590997 0.882902 0.666072
0.601297 0.882841 0.667308
0.616953 0.8813 0.670558
0.636347 0.879728 0.674968
0.658701 0.878202 0.680217
0.683238 0.876585 0.685603
0.710445 0.875608 0.691966
0.738033 0.875257 0.698009
0.766171 0.876249 0.704753
0.792798 0.878538 0.710994
0.817838 0.882338 0.717815
0.840818 0.887236 0.725734
0.861112 0.892821 0.734844
0.879347 0.899458 0.742275
0.89453 0.905592 0.755718
0.907256 0.911635 0.771481
0.917693 0.91751 0.786664
0.926162 0.923018 0.800855
0.933104 0.928161 0.814145
0.938903 0.932952 0.826474
0.943862 0.937423 0.838026
0.947662 0.941054 0.847364
0.950866 0.944213 0.855558
0.953201 0.946624 0.861753
0.659571 0.900908 0.71162
0.662272 0.900679 0.712322
0.664927 0.900481 0.712993
0.667536 0.900267 0.713664
0.67013 0.900069 0.714336
0.672557 0.899931 0.715038
0.675898 0.899672 0.715908
0.680232 0.899351 0.717021
0.685328 0.89897 0.718334
0.691859 0.898375 0.719814
0.70042 0.897887 0.722179
0.711025 0.897337 0.725093
0.723888 0.896803 0.728649
0.738308 0.896223 0.732433
0.755718 0.896071 0.737453
0.774853 0.896406 0.743175
0.794232 0.897322 0.748699
0.814557 0.899168 0.754879
0.834409 0.901854 0.76141
0.853468 0.905409 0.768627
0.871412 0.90988 0.777295
0.887709 0.915007 0.78732
0.902663 0.921065 0.796979
0.915099 0.926696 0.807782
0.925444 0.931807 0.821515
0.934295 0.936996 0.835294
0.94168 0.941955 0.848356
0.947723 0.946456 0.860136
0.952804 0.950637 0.871077
0.956863 0.954162 0.880262
0.960235 0.95729 0.888395
0.963073 0.960037 0.895491
0.965377 0.962341 0.901457
0.750195 0.914076 0.764523
0.751919 0.914 0.765057
0.753628 0.913939 0.765591
0.755138 0.913939 0.766125
0.756664 0.913848 0.766522
0.758175 0.913741 0.766888
0.760113 0.913603 0.767361
0.762798 0.913527 0.7682
0.766293 0.913481 0.769329
0.770855 0.91339 0.770748
0.776425 0.913359 0.772564
0.783352 0.913375 0.774823
0.791791 0.913466 0.777584
0.801389 0.913558 0.780423
0.813046 0.914153 0.784436
0.826276 0.915175 0.789197
0.840269 0.916594 0.794247
0.855314 0.918807 0.800397
0.87039 0.92166 0.807172
0.884947 0.925032 0.814542
0.898772 0.929107 0.823117
0.911635 0.933684 0.832883
0.923461 0.938872 0.842405
0.933883 0.944213 0.852369
0.942397 0.94873 0.864683
0.94963 0.95314 0.876463
0.956008 0.957595 0.888304
0.961273 0.961639 0.898924
0.965606 0.96524 0.90837
0.969314 0.96849 0.916854
0.972122 0.971084 0.923583
0.974548 0.973373 0.929519
0.976333 0.975113 0.934035
0.81529 0.927657 0.809354
0.816403 0.927687 0.809781
0.817349 0.927703 0.810132
0.818341 0.927687 0.810422
0.819303 0.927687 0.810697
0.82031 0.927672 0.811002
0.821759 0.927703 0.811536
0.823636 0.927779 0.812253
0.825925 0.927901 0.813169
