public/textures/grade/DJI/Guardians-DLog.cube
TITLE "Generated by Resolve"
LUT_3D_SIZE 5
0.00358587 0.0119936 0.00865187
0.16553 0 0
0.568093 0 0
0.944259 0.219837 0
1 0.483314 0
0 0.133379 0
0.133837 0.127306 0
0.541466 0.120012 0
0.926329 0.284749 0
1 0.510338 0
0.00901808 0.482048 0
0.123278 0.482994 0
0.472496 0.478462 0
0.866117 0.53373 0
0.993637 0.644266 0.0186618
0.442023 0.876509 0.0373999
0.469368 0.875807 0.0400702
0.605386 0.872267 0.0529335
0.863142 0.87892 0.0930648
0.978851 0.903456 0.134997
0.725994 1 0.184253
0.734081 1 0.184939
0.781704 1 0.188785
0.920378 1 0.207599
1 1 0.228595
0 0.000259403 0.194522
0.1458 0 0.161608
0.565484 0 0.0770733
0.948272 0.226581 0.00798047
1 0.482216 0
0 0.12665 0.135409
0.110643 0.129717 0.130266
0.545312 0.121736 0.0637064
0.930648 0.291691 0.00343328
1 0.509392 0
0.0155947 0.486259 0
0.128908 0.488075 0
0.478813 0.484108 0
0.866163 0.532967 0
0.993729 0.643763 0.0185245
0.441459 0.876463 0.0373388
0.468849 0.875715 0.0399481
0.605097 0.872175 0.052842
0.863081 0.878813 0.0929885
0.978836 0.90338 0.134951
0.725841 1 0.184207
0.733944 1 0.184894
0.781582 1 0.188754
0.920363 1 0.207599
1 1 0.228595
0 0 0.738872
0.0902419 0 0.715373
0.527703 0 0.615213
0.940078 0.208042 0.513176
1 0.493996 0.488411
0 0.0710613 0.684443
0.0863813 0.0746014 0.668009
0.515114 0.081117 0.587686
0.924712 0.281254 0.504799
1 0.521889 0.486152
0.000350958 0.475425 0.504524
0.110765 0.482658 0.509483
0.450477 0.489815 0.503044
0.874632 0.544976 0.472587
0.998779 0.656809 0.473716
0.452537 0.886458 0.399069
0.480018 0.885603 0.399359
0.616175 0.882002 0.40029
0.871397 0.887007 0.398688
0.984253 0.910506 0.379477
0.724712 1 0.183871
0.732754 1 0.184588
0.780743 1 0.188586
0.92015 1 0.207553
1 1 0.228595
0 0 1
0 0 1
0.461814 0 1
0.954772 0 1
1 0.432471 0.958404
0 0 1
0 0 1
0.466011 0 1
0.93576 0.113878 1
1 0.468894 0.950439
0 0.387823 1
0.00564584 0.412268 1
0.437232 0.429129 0.975616
0.866529 0.504784 0.929
0.994644 0.632624 0.917891
0.4177 0.880598 0.901671
0.447776 0.880262 0.901091
0.590768 0.877073 0.896437
0.853513 0.88011 0.892424
0.976104 0.899077 0.894865
0.711421 1 0.90837
0.719585 1 0.907958
0.768643 1 0.905333
0.910613 1 0.899351
0.993194 1 0.898512
0 0 1
0 0 1
0.36463 0 1
0.950896 0 1
1 0.149233 1
0 0 1
0 0 1
0.370275 0 1
0.951308 0 1
1 0.252308 1
0 0.169955 1
0 0.1738 1
0.392203 0.208804 1
0.889128 0.360311 1
1 0.562799 1
0.33666 0.873991 1
0.379294 0.87396 1
0.562524 0.87068 1
0.854109 0.872663 1
0.974929 0.893721 1
0.693904 1 1
0.703136 1 1
0.757153 1 1
0.905913 1 1
0.992615 1 1
