public/textures/grade/DJI/Guardians-DLog.cube
TITLE "Generated by Resolve"
LUT_3D_SIZE 9
0.00358587 0.0119936 0.00865187
0.076112 0.00418097 0
0.16553 0 0
0.33225 0 0
0.568093 0 0
0.79913 0.0641337 0
0.944259 0.219837 0
1 0.382254 0
1 0.483314 0
0 0.0610208 0
0.0614176 0.0569314 0
0.156115 0.0496834 0
0.324483 0.040238 0
0.558114 0.0458228 0
0.788495 0.108354 0
0.93698 0.246113 0
1 0.39762 0
1 0.494118 0
0 0.133379 0
0.0407874 0.132174 0
0.133837 0.127306 0
0.306386 0.118379 0
0.541466 0.120012 0
0.773098 0.167422 0
0.926329 0.284749 0
0.996536 0.420966 0
1 0.510338 0
0 0.274266 0
0.0209201 0.275303 0
0.105516 0.273808 0
0.271107 0.268116 0
0.506416 0.265583 0
0.740414 0.293553 0
0.902007 0.375265 0
0.981231 0.479698 0
1 0.55317 0
0.00901808 0.482048 0
0.0587167 0.482673 0
0.123278 0.482994 0
0.259709 0.481178 0
0.472496 0.478462 0
0.699031 0.490318 0
0.866117 0.53373 0
0.955657 0.596399 0
0.993637 0.644266 0.0186618
0.195285 0.704417 0
0.220645 0.704585 0
0.257328 0.70428 0
0.344839 0.70309 0
0.502083 0.701274 0
0.692241 0.704616 0
0.846464 0.7234 0.0123445
0.936614 0.753323 0.0437476
0.977188 0.777539 0.0660716
0.442023 0.876509 0.0373999
0.452705 0.876112 0.0382696
0.469368 0.875807 0.0400702
0.513176 0.874525 0.0440833
0.605386 0.872267 0.0529335
0.738796 0.871763 0.068925
0.863142 0.87892 0.0930648
0.941634 0.892088 0.117922
0.978851 0.903456 0.134997
0.629816 0.975311 0.131807
0.634714 0.975158 0.132296
0.642817 0.974807 0.132982
0.664195 0.973831 0.134661
0.715511 0.971984 0.139376
0.802472 0.970535 0.149767
0.896193 0.972763 0.166247
0.961089 0.979126 0.184131
0.993362 0.985122 0.196811
0.725994 1 0.184253
0.729152 1 0.184512
0.734081 1 0.184939
0.747646 1 0.185824
0.781704 1 0.188785
0.845106 1 0.195865
0.920378 1 0.207599
0.976242 1 0.220478
1 1 0.228595
0.0011902 0.00805676 0.0827649
0.0646067 0.00297551 0.0688792
0.160403 0 0.0491951
0.330556 0 0.0187076
0.568246 0 0
0.800351 0.0651408 0
0.944549 0.218769 0
1 0.381643 0
1 0.482902 0
0 0.0577096 0.0600443
0.0467994 0.0578622 0.0560769
0.157733 0.0476081 0.0347906
0.32546 0.0394598 0.0114595
0.55938 0.0462043 0
0.7897 0.109499 0
0.937179 0.245258 0
1 0.397055 0
1 0.493721 0
0 0.132113 0.0220035
0.038056 0.13254 0.0204013
0.134447 0.127733 0.0131685
0.309346 0.118837 0
0.543709 0.121431 0
0.774594 0.16878 0
0.926543 0.283909 0
0.996658 0.420447 0
1 0.509972 0
0 0.274861 0
0.0221256 0.276265 0
0.106523 0.275166 0
0.273304 0.269734 0
0.508522 0.267018 0
0.740841 0.293233 0
0.902144 0.37467 0
0.981338 0.479286 0
1 0.552865 0
0.00807202 0.481788 0
0.0578622 0.482307 0
0.122621 0.482643 0
0.259327 0.480812 0
0.472374 0.478096 0
0.699031 0.489982 0
0.866148 0.533425 0
0.955688 0.596155 0
0.993667 0.644083 0.018616
0.194797 0.70428 0
0.220127 0.704479 0
0.25687 0.704158 0
0.344549 0.703014 0
0.501915 0.701152 0
0.69218 0.704494 0
0.846433 0.723293 0.0122835
0.936599 0.753231 0.0437018
0.977188 0.777447 0.0660258
0.44181 0.876493 0.0373693
0.452476 0.876081 0.0382239
0.469169 0.875776 0.0400244
0.513039 0.874495 0.0440375
0.605264 0.872236 0.052903
0.73875 0.871733 0.0688945
0.863111 0.878874 0.0930495
0.941619 0.892058 0.117891
0.978851 0.903426 0.134981
0.629694 0.975296 0.131777
0.634607 0.975143 0.13228
0.64271 0.974792 0.132952
0.664103 0.973831 0.13463
0.715434 0.971969 0.139361
0.802426 0.97052 0.149752
0.896162 0.972732 0.166217
0.961074 0.97911 0.184115
0.993362 0.985107 0.196811
0.725933 1 0.184237
0.729076 1 0.184482
0.734035 1 0.184909
0.747585 1 0.185824
0.781659 1 0.188769
0.84509 1 0.195865
0.920378 1 0.207599
0.976242 1 0.220478
1 1 0.228595
0 0.000259403 0.194522
0.0542458 0 0.182803
0.1458 0 0.161608
0.322683 0 0.123018
0.565484 0 0.0770733
0.801114 0.0665293 0.038407
0.948272 0.226581 0.00798047
1 0.382361 0
1 0.482216 0
0 0.0504311 0.172641
0.045304 0.0500954 0.165972
0.14049 0.0448463 0.147982
0.320439 0.0355077 0.113893
0.558816 0.0443732 0.0741894
0.791394 0.112108 0.036286
0.940917 0.253178 0.00602731
1 0.397177 0
1 0.49308 0
0 0.12665 0.135409
0.0295415 0.129793 0.135348
0.110643 0.129717 0.130266
0.311101 0.116762 0.0944991
0.545312 0.121736 0.0637064
0.77763 0.173281 0.0315709
0.930648 0.291691 0.00343328
0.996918 0.419669 0
1 0.509392 0
0 0.274311 0.0621195
0.0216983 0.277287 0.0649271
0.104784 0.277684 0.0641337
0.27628 0.27277 0.0539864
0.514595 0.271717 0.035584
0.746944 0.301381 0.0154879
0.90602 0.380972 0
0.981537 0.478721 0
1 0.552377 0
0.0155947 0.486259 0
0.0646067 0.487343 0
0.128908 0.488075 0
0.265568 0.486717 0
0.478813 0.484108 0
0.70309 0.494438 0
0.866163 0.532967 0
0.955749 0.595773 0
0.993729 0.643763 0.0185245
0.193973 0.704051 0
0.219272 0.704295 0
0.256107 0.70399 0
0.344076 0.702892 0
0.501656 0.700954 0
0.692073 0.704295 0
0.846387 0.723125 0.012192
0.936568 0.753094 0.0436103
0.977188 0.777325 0.06598
0.441459 0.876463 0.0373388
0.45211 0.87602 0.0381476
0.468849 0.875715 0.0399481
0.51281 0.874418 0.043946
0.605097 0.872175 0.052842
0.738659 0.871656 0.0688487
0.863081 0.878813 0.0929885
0.941588 0.892012 0.117845
0.978836 0.90338 0.134951
0.629511 0.97528 0.131746
0.634424 0.975128 0.132235
0.642542 0.974777 0.132921
0.663951 0.9738 0.1346
0.715328 0.971939 0.13933
0.802365 0.970489 0.149722
0.896147 0.972717 0.166201
0.961059 0.97908 0.1841
0.993347 0.985092 0.19678
0.725841 1 0.184207
0.728969 1 0.184466
0.733944 1 0.184894
0.747494 1 0.185794
0.781582 1 0.188754
0.845045 1 0.19585
0.920363 1 0.207599
0.976226 1 0.220478
1 1 0.228595
0 0 0.416495
0.0360266 0 0.406714
0.125948 0 0.389487
0.300206 0 0.346548
0.552651 0 0.289738
0.795636 0.0558785 0.243626
0.947326 0.227024 0.215869
1 0.396094 0.196536
1 0.49749 0.176364
0 0.0294804 0.395422
0.0314336 0.0291752 0.387701
0.120607 0.0262608 0.37322
0.297902 0.0196536 0.336812
0.547814 0.0301061 0.284367
0.786969 0.104189 0.240208
0.940703 0.254887 0.214343
1 0.411673 0.195544
1 0.507897 0.174899
0 0.110414 0.356771
0.0201419 0.113634 0.354391
0.107424 0.113466 0.345632
0.286595 0.10782 0.315785
0.537072 0.1122 0.271534
0.774853 0.168444 0.234668
0.931121 0.295064 0.211398
1 0.434974 0.19324
1 0.524315 0.172915
0 0.264408 0.283925
0.0112001 0.269612 0.28716
0.0891127 0.272816 0.287617
0.242863 0.274235 0.280522
0.516014 0.267552 0.238102
0.748043 0.301839 0.217838
0.909377 0.388128 0.203265
0.988891 0.494469 0.187335
1 0.56672 0.166018
0.0170748 0.487098 0.197467
0.0643931 0.489494 0.200916
0.127337 0.491279 0.203571
0.263951 0.492088 0.203967
0.485069 0.490013 0.194842
0.712261 0.503807 0.187625
0.876371 0.548592 0.182712
0.964126 0.610025 0.167025
1 0.655482 0.140505
0.20827 0.714794 0.106996
0.233555 0.715145 0.109148
0.269947 0.715114 0.111421
0.357244 0.714336 0.115419
0.514549 0.712596 0.119463
0.703441 0.715633 0.119905
0.854276 0.732616 0.110338
0.939025 0.756161 0.071519
0.977203 0.776898 0.0657816
0.44036 0.876356 0.0371862
0.45098 0.875868 0.0379187
0.467979 0.875502 0.0396735
0.512001 0.874235 0.0437324
0.604532 0.871992 0.0526589
0.738399 0.871473 0.0686961
0.862974 0.87863 0.0928664
0.941527 0.891859 0.117708
0.978821 0.903227 0.134844
0.628962 0.975219 0.131624
0.63389 0.975067 0.132113
0.642023 0.974731 0.132799
0.663508 0.973754 0.134493
0.715007 0.971878 0.139223
0.802197 0.970428 0.149645
0.896056 0.972641 0.166125
0.961013 0.979019 0.184024
0.993317 0.985016 0.196719
0.725582 1 0.184115
0.728649 1 0.18439
0.733684 1 0.184802
0.747219 1 0.185718
0.781353 1 0.188693
0.844923 1 0.195819
0.920302 1 0.207584
0.976211 1 0.220478
1 1 0.228595
0 0 0.738872
0 0 0.732082
0.0902419 0 0.715373
0.269917 0 0.678019
0.527703 0 0.615213
0.782681 0.0173342 0.553414
0.940078 0.208042 0.513176
1 0.387778 0.495491
1 0.493996 0.488411
0 0 0.729061
0 0 0.720974
0.0921492 0 0.704417
0.26952 0 0.666636
0.524681 0 0.605814
0.775143 0.072694 0.547219
0.933791 0.238087 0.50985
1 0.40415 0.49398
1 0.50518 0.487556
0 0.0710613 0.684443
0 0.0742504 0.679316
0.0863813 0.0746014 0.668009
0.261555 0.0723278 0.63856
0.515114 0.081117 0.587686
0.7635 0.144259 0.536568
0.924712 0.281254 0.504799
0.998322 0.42887 0.491768
1 0.521889 0.486152
0 0.238575 0.596109
0 0.245487 0.597299
0.0749218 0.249638 0.594232
0.239857 0.25127 0.579934
0.489891 0.253483 0.54551
0.738689 0.288121 0.510735
0.904189 0.379385 0.492622
0.984741 0.490242 0.485466
1 0.565499 0.482094
0.000350958 0.475425 0.504524
0.0478981 0.479393 0.507576
0.110765 0.482658 0.509483
0.243091 0.486275 0.509697
0.450477 0.489815 0.503044
0.712215 0.497459 0.472801
0.874632 0.544976 0.472587
0.961791 0.609171 0.47422
0.998779 0.656809 0.473716
0.200336 0.714031 0.454459
0.225422 0.714778 0.45594
0.261662 0.715206 0.457237
0.347921 0.715389 0.458885
0.50695 0.714031 0.457221
0.704173 0.716197 0.450919
0.856641 0.735027 0.453819
0.943694 0.764355 0.457267
0.982925 0.787884 0.45536
0.452537 0.886458 0.399069
0.463478 0.886259 0.399374
0.480018 0.885603 0.399359
0.524086 0.884596 0.40029
0.616175 0.882002 0.40029
0.749264 0.880858 0.399542
0.871397 0.887007 0.398688
0.948013 0.899733 0.391959
0.984253 0.910506 0.379477
0.627329 0.975067 0.131258
0.632517 0.974853 0.131685
0.640497 0.974563 0.132448
0.662303 0.973541 0.134112
0.714015 0.971695 0.138903
0.801663 0.970199 0.149386
0.895811 0.972427 0.165911
0.960891 0.978805 0.183841
0.99324 0.984817 0.196551
0.724712 1 0.183871
0.727687 1 0.184192
0.732754 1 0.184588
0.746365 1 0.185519
0.780743 1 0.188586
0.844572 1 0.195712
0.92015 1 0.207553
0.976135 1 0.220447
1 1 0.228595
0 0 1
0 0 1
0.0280308 0 1
0.226184 0 1
0.498543 0 0.947936
0.77174 0 0.87985
0.937682 0.151614 0.813886
1 0.36025 0.778439
1 0.476585 0.765774
0 0 1
0 0 1
0.0347143 0 1
0.229725 0 1
0.500008 0 0.94728
0.76585 0 0.867979
0.930739 0.188479 0.807202
1 0.378653 0.77528
1 0.488243 0.763943
0 0 1
0 0 1
0.041825 0 1
0.232853 0 0.987564
0.496895 0 0.921477
0.755505 0.0731212 0.850095
0.920699 0.239658 0.79736
0.994659 0.406195 0.770748
1 0.506279 0.761501
0 0.182818 0.922026
0 0.190021 0.920638
0.0380865 0.19707 0.914
0.219364 0.200793 0.892821
0.473472 0.207553 0.853147
0.727352 0.249699 0.807477
0.898589 0.352621 0.775219
0.980713 0.473289 0.759808
1 0.552804 0.75465
0 0.44918 0.793667
0.0116426 0.455528 0.795666
0.0833906 0.460716 0.795605
0.228183 0.466163 0.790356
0.450126 0.470024 0.774731
0.69398 0.484718 0.753124
0.867826 0.532631 0.742031
0.957504 0.599237 0.741375
0.994446 0.648508 0.742306
0.178714 0.706249 0.734752
0.205295 0.707408 0.735592
0.242969 0.708431 0.73611
0.33167 0.709728 0.736049
0.48867 0.710445 0.733364
0.679332 0.714931 0.730068
0.855192 0.728191 0.718196
0.940398 0.758114 0.725963
0.978637 0.781689 0.730785
0.43714 0.883101 0.726345
0.448157 0.882918 0.726375
0.464866 0.882643 0.726406
0.508721 0.881514 0.725963
0.601541 0.879072 0.724468
0.737545 0.87689 0.720867
0.865812 0.881132 0.717952
0.942611 0.893004 0.721538
0.978073 0.903548 0.725002
0.626841 0.977142 0.711711
0.631891 0.976913 0.711574
0.639536 0.976318 0.711086
0.661677 0.975296 0.71046
0.713527 0.972961 0.708766
0.801358 0.969665 0.705425
0.895277 0.970275 0.703136
0.958694 0.975555 0.703319
0.989715 0.980819 0.703075
0.724239 1 0.674952
0.727352 1 0.674815
0.73228 1 0.674601
0.745892 1 0.673747
0.780224 1 0.671916
0.844007 1 0.668956
0.918624 1 0.665751
0.973159 1 0.662135
0.999344 1 0.657496
0 0 1
0 0 1
0 0 1
0.153826 0 1
0.461814 0 1
0.755276 0 1
0.954772 0 1
1 0.285176 0.985992
1 0.432471 0.958404
0 0 1
0 0 1
0 0 1
0.157885 0 1
0.463416 0 1
0.755764 0 1
0.948119 0.025742 1
1 0.309865 0.980087
1 0.446921 0.955123
0 0 1
0 0 1
0 0 1
0.164752 0 1
0.466011 0 1
0.756558 0 1
0.93576 0.113878 1
1 0.345998 0.971832
1 0.468894 0.950439
0 0.0407263 1
0 0.0430915 1
0 0.0486 1
0.178515 0.053727 1
0.464637 0.0667887 1
0.732937 0.135988 1
0.906432 0.279866 0.985351
0.98584 0.430854 0.952193
1 0.524269 0.938857
0 0.387823 1
0 0.397833 1
0.00564584 0.412268 1
0.189242 0.422889 0.999695
0.437232 0.429129 0.975616
0.688945 0.449393 0.94789
0.866529 0.504784 0.929
0.95758 0.578759 0.920439
0.994644 0.632624 0.917891
0.125811 0.692439 0.915312
0.15845 0.694301 0.915679
0.204181 0.696315 0.915633
0.306661 0.698909 0.913603
0.478706 0.700343 0.906386
0.680934 0.704631 0.896651
0.846006 0.72192 0.892439
0.937255 0.751217 0.895445
0.976867 0.775357 0.899321
0.4177 0.880598 0.901671
0.429618 0.880476 0.901457
0.447776 0.880262 0.901091
0.494652 0.879316 0.899718
0.590768 0.877073 0.896437
0.72726 0.875532 0.89247
0.853513 0.88011 0.892424
0.941634 0.888685 0.890471
0.976104 0.899077 0.894865
0.614252 0.975219 0.90692
0.61941 0.975006 0.906737
0.627604 0.97464 0.906432
0.65005 0.973404 0.905333
0.702602 0.970886 0.90309
0.791165 0.967666 0.899901
0.887419 0.966949 0.897749
0.954376 0.970733 0.897124
0.985412 0.975448 0.898772
0.711421 1 0.90837
0.714443 1 0.908248
0.719585 1 0.907958
0.733562 1 0.907118
0.768643 1 0.905333
0.833356 1 0.902251
0.910613 1 0.899351
0.966735 1 0.898222
0.993194 1 0.898512
0 0 1
0 0 1
0 0 1
0.0136721 0 1
0.413672 0 1
0.737408 0 1
0.956054 0 1
1 0.0638437 1
1 0.329473 1
0 0 1
0 0 1
0 0 1
0.0204623 0 1
0.415503 0 1
0.737926 0 1
0.956207 0 1
1 0.118914 1
1 0.352117 1
0 0 1
0 0 1
0 0 1
0.0309758 0 1
0.418479 0 1
0.73875 0 1
0.956451 0 1
1 0.18996 1
1 0.384924 1
0 0 1
0 0 1
0 0 1
0.0603952 0 1
0.427314 0 1
0.740993 0 1
0.937652 0.0742962 1
1 0.333104 1
1 0.463401 1
0 0.300755 1
0 0.301625 1
0 0.303044 1
0.103334 0.331472 1
0.415274 0.341756 1
0.69189 0.370886 1
0.87541 0.444694 1
0.965698 0.537331 1
1 0.601633 1
0 0.659052 1
0.0451972 0.666804 1
0.115312 0.673228 1
0.253071 0.679942 1
0.457038 0.682826 1
0.676524 0.687831 0.986877
0.845014 0.707744 0.980728
0.937896 0.739818 0.98201
0.977951 0.765393 0.98436
0.381888 0.878111 0.987686
0.395804 0.877836 0.987091
0.417182 0.877623 0.986404
0.470909 0.87686 0.984375
0.577981 0.874418 0.979355
0.723522 0.872343 0.972915
0.85478 0.876524 0.970336
0.937789 0.88687 0.972915
0.975006 0.896651 0.976364
0.600259 0.975708 0.990982
0.606088 0.975402 0.990662
0.614755 0.974838 0.990036
0.639033 0.973693 0.988754
0.694957 0.970871 0.98555
0.787045 0.967193 0.980972
0.88394 0.966537 0.978546
0.95053 0.970016 0.979568
0.98471 0.973861 0.980713
0.702541 1 0.995026
0.705745 1 0.994858
0.711177 1 0.994507
0.726101 1 0.993622
0.762448 1 0.991302
0.829023 1 0.987396
0.906966 1 0.984649
0.964263 1 0.984527
0.992416 1 0.985061
0 0 1
0 0 1
0 0 1
0 0 1
0.36463 0 1
0.722866 0 1
0.950896 0 1
1 0 1
1 0.149233 1
0 0 1
0 0 1
0 0 1
0 0 1
0.366781 0 1
0.72343 0 1
0.951049 0 1
1 0 1
1 0.193011 1
0 0 1
0 0 1
0 0 1
0 0 1
0.370275 0 1
0.724346 0 1
0.951308 0 1
1 0 1
1 0.252308 1
0 0 1
0 0 1
0 0 1
0 0 1
0.38027 0 1
0.726696 0 1
0.952056 0 1
1 0.168292 1
1 0.376425 1
0 0.169955 1
0 0.17142 1
0 0.1738 1
0 0.191348 1
0.392203 0.208804 1
0.699763 0.253269 1
0.889128 0.360311 1
0.976883 0.482856 1
1 0.562799 1
0 0.615778 1
0 0.616007 1
0 0.634668 1
0.181186 0.655802 1
0.429557 0.661601 1
0.670008 0.667857 1
0.844938 0.690333 1
0.939635 0.725383 1
0.979782 0.753109 1
0.33666 0.873991 1
0.353704 0.874006 1
0.379294 0.87396 1
0.442374 0.873182 1
0.562524 0.87068 1
0.718212 0.868421 1
0.854109 0.872663 1
0.93727 0.88368 1
0.974929 0.893721 1
0.584405 0.975875 1
0.590631 0.975601 1
0.600351 0.975143 1
0.626856 0.973678 1
0.686687 0.970581 1
0.783642 0.966583 1
0.883314 0.965713 1
0.950866 0.969116 1
0.983932 0.973236 1
0.693904 1 1
0.697353 1 1
0.703136 1 1
0.718761 1 1
0.757153 1 1
0.826078 1 1
0.905913 1 1
0.963775 1 1
0.992615 1 1
