public/textures/grade/DJI/Guardians-DLog.cube
TITLE "Generated by Resolve"
LUT_3D_SIZE 33
0.00358587 0.0119936 0.00865187
0.025803 0.00923171 0.00428779
0.0420844 0.00766003 0.00231937
0.0588846 0.00598154 0.000137331
0.076112 0.00418097 0
0.0925307 0.00233463 0
0.112657 0 0
0.136706 0 0
0.16553 0 0
0.1991 0 0
0.238071 0 0
0.282826 0 0
0.33225 0 0
0.386297 0 0
0.44445 0 0
0.505653 0 0
0.568093 0 0
0.630488 0 0
0.690562 0.0144808 0
0.747524 0.0365148 0
0.79913 0.0641337 0
0.844785 0.0972152 0
0.884077 0.134997 0
0.91722 0.176623 0
0.944259 0.219837 0
0.96611 0.263706 0
0.983185 0.30634 0
0.996445 0.346273 0
1 0.382254 0
1 0.414313 0
1 0.441642 0
1 0.46453 0
1 0.483314 0
0.00270085 0.0229801 0.00384527
0.0205539 0.021088 0.00173953
0.0383764 0.0191196 0
0.0564736 0.0171664 0
0.074342 0.0154421 0
0.0912947 0.0137484 0
0.111498 0.0117647 0
0.135775 0.00935378 0
0.164614 0.00653086 0
0.19852 0.00347906 0
0.237644 0.000366217 0
0.281956 0 0
0.331441 0 0
0.385245 0 0
0.443 0 0
0.50396 0 0
0.56611 0.00289921 0
0.627924 0.0133822 0
0.687984 0.028687 0
0.744884 0.049424 0
0.796323 0.075761 0
0.8421 0.107485 0
0.881636 0.14435 0
0.914961 0.18436 0
0.942504 0.226841 0
0.964172 0.26949 0
0.981704 0.311177 0
0.995224 0.350378 0
1 0.386313 0
1 0.417868 0
1 0.444816 0
1 0.467369 0
1 0.486015 0
0 0.034699 0
0.0161746 0.033341 0
0.0334936 0.0319982 0
0.0523537 0.0301823 0
0.0708324 0.0283207 0
0.0883955 0.0267338 0
0.108904 0.0248417 0
0.133593 0.0227207 0
0.162844 0.0203403 0
0.196826 0.0176547 0
0.235889 0.0149538 0
0.280125 0.0124666 0
0.329503 0.0104524 0
0.383322 0.00936904 0
0.440955 0.00973526 0
0.50164 0.0122683 0
0.563638 0.0180209 0
0.625284 0.0277562 0
0.685222 0.0422522 0
0.742061 0.0619211 0
0.793606 0.0869612 0
0.839719 0.117708 0
0.879194 0.153017 0
0.913024 0.192203 0
0.940383 0.233371 0
0.962737 0.275395 0
0.980255 0.316381 0
0.993957 0.354894 0
1 0.390204 0
1 0.421378 0
1 0.44802 0
1 0.470314 0
1 0.488731 0
0 0.047837 0
0.0121767 0.0468299 0
0.0285649 0.0457771 0
0.0471962 0.0444038 0
0.0661173 0.0426947 0
0.0841077 0.0412299 0
0.10515 0.0395361 0
0.13019 0.0374762 0
0.159503 0.0352331 0
0.194049 0.0328222 0
0.233417 0.0303655 0
0.277546 0.0277714 0
0.327245 0.0258335 0
0.38085 0.0245975 0
0.438422 0.0248264 0
0.499077 0.0270848 0
0.560891 0.0322728 0
0.622568 0.0413825 0
0.68249 0.054963 0
0.739223 0.0737926 0
0.79086 0.0977798 0
0.837186 0.127321 0
0.877089 0.161761 0
0.910964 0.199481 0
0.93875 0.240009 0
0.961089 0.28127 0
0.978821 0.321508 0
0.992721 0.359365 0
1 0.393881 0
1 0.424491 0
1 0.451102 0
1 0.473136 0
1 0.491432 0
0 0.0610208 0
0.00805676 0.0603647 0
0.0246128 0.0595712 0
0.0429847 0.0584878 0
0.0614176 0.0569314 0
0.079057 0.0554818 0
0.100832 0.0537423 0
0.12639 0.0517739 0
0.156115 0.0496834 0
0.190768 0.0472419 0
0.230411 0.0446937 0
0.274907 0.0424353 0
0.324483 0.040238 0
0.378241 0.0388647 0
0.435706 0.0389868 0
0.496239 0.0409094 0
0.558114 0.0458228 0
0.619883 0.0543374 0
0.679698 0.0671244 0
0.736721 0.0849165 0
0.788495 0.108354 0
0.834684 0.136614 0
0.8748 0.169955 0
0.908888 0.207019 0
0.93698 0.246113 0
0.959548 0.286519 0
0.977447 0.32604 0
0.99176 0.363653 0
1 0.39762 0
1 0.42797 0
1 0.453941 0
1 0.47602 0
1 0.494118 0
0 0.0743572 0
0.00367742 0.0738231 0
0.0206607 0.0730144 0
0.0389258 0.0720989 0
0.0568856 0.0708629 0
0.074876 0.0696727 0
0.0961166 0.0680705 0
0.121935 0.0660258 0
0.1523 0.0636912 0
0.187243 0.0613565 0
0.227146 0.0590219 0
0.271962 0.0565957 0
0.321462 0.0544594 0
0.375494 0.0532845 0
0.433005 0.0530098 0
0.493599 0.0548257 0
0.5552 0.0592355 0
0.616892 0.0670481 0
0.676799 0.0794232 0
0.733883 0.0962081 0
0.785977 0.118563 0
0.832319 0.146273 0
0.872587 0.17847 0
0.906798 0.214282 0
0.935103 0.252842 0
0.957916 0.292378 0
0.976013 0.331182 0
0.990356 0.367895 0
1 0.401541 0
1 0.431434 0
1 0.457069 0
1 0.478996 0
1 0.496605 0
0 0.0902724 0
0 0.0902419 0
0.0161593 0.0894331 0
0.0344701 0.0887312 0
0.0521248 0.087602 0
0.0697642 0.0864729 0
0.0907607 0.0850385 0
0.116564 0.0832074 0
0.147219 0.0810864 0
0.182605 0.0786755 0
0.222721 0.0761883 0
0.267948 0.0738842 0
0.318105 0.0718395 0
0.371908 0.0702373 0
0.429526 0.0700236 0
0.48983 0.0713664 0
0.55169 0.0754559 0
0.613291 0.0827344 0
0.673487 0.0942855 0
0.730343 0.110307 0
0.782574 0.131411 0
0.829252 0.157824 0
0.869795 0.188998 0
0.904387 0.22385 0
0.932998 0.261204 0
0.956039 0.299458 0
0.974487 0.337575 0
0.988708 0.373495 0
1 0.406546 0
1 0.435966 0
1 0.461189 0
1 0.482628 0
1 0.499931 0
0 0.109743 0
0 0.110002 0
0.0109102 0.109346 0
0.0292668 0.108629 0
0.0466773 0.108019 0
0.0639353 0.107027 0
0.084947 0.105882 0
0.11046 0.104158 0
0.141115 0.102052 0
0.176776 0.099794 0
0.217334 0.0974746 0
0.26273 0.0950637 0
0.312932 0.0928664 0
0.367376 0.0913405 0
0.424781 0.0907759 0
0.485374 0.0922255 0
0.547295 0.0955825 0
0.608911 0.102174 0
0.668788 0.112581 0
0.726207 0.127718 0
0.778317 0.147707 0
0.825193 0.172564 0
0.866148 0.202182 0
0.901091 0.235615 0
0.930022 0.271565 0
0.953552 0.308644 0
0.972045 0.34548 0
0.986954 0.380758 0
0.99852 0.412695 0
1 0.441382 0
1 0.466514 0
1 0.48719 0
1 0.504509 0
0 0.133379 0
0 0.133913 0
0.00485237 0.133455 0
0.0235904 0.132815 0
0.0407874 0.132174 0
0.057969 0.131502 0
0.0783093 0.130556 0
0.103532 0.129152 0
0.133837 0.127306 0
0.169543 0.125078 0
0.210437 0.122881 0
0.256306 0.120424 0
0.306386 0.118379 0
0.361257 0.116701 0
0.419211 0.116014 0
0.479469 0.116716 0
0.541466 0.120012 0
0.603342 0.12578 0
0.663249 0.135164 0
0.720485 0.148959 0
0.773098 0.167422 0
0.820462 0.190997 0
0.861463 0.218845 0
0.896941 0.250446 0
0.926329 0.284749 0
0.95021 0.320241 0
0.969314 0.356008 0
0.984466 0.389654 0
0.996536 0.420966 0
1 0.448875 0
1 0.472892 0
1 0.493507 0
1 0.510338 0
0 0.161349 0
0 0.162097 0
0 0.162112 0
0.0176242 0.161517 0
0.0346227 0.160967 0
0.0513161 0.160342 0
0.0716106 0.159564 0
0.0961624 0.15845 0
0.126375 0.157153 0
0.161593 0.155276 0
0.202472 0.152972 0
0.248432 0.150652 0
0.298833 0.14844 0
0.353704 0.146761 0
0.411978 0.145922 0
0.472724 0.146349 0
0.534539 0.148623 0
0.596384 0.153948 0
0.656428 0.162234 0
0.713985 0.174777 0
0.766949 0.191745 0
0.814389 0.21323 0
0.856092 0.23946 0
0.891951 0.26891 0
0.921721 0.301244 0
0.946136 0.33489 0
0.965667 0.368917 0
0.981369 0.401144 0
0.993729 0.431113 0
1 0.457984 0
1 0.48159 0
1 0.501122 0
1 0.51754 0
0 0.19408 0
0 0.194766 0
0 0.195148 0
0.011841 0.194659 0
0.0289006 0.1944 0
0.0449378 0.193927 0
0.0649424 0.193393 0
0.088838 0.192508 0
0.11812 0.191363 0
0.153216 0.189899 0
0.193515 0.187991 0
0.239475 0.185687 0
0.290181 0.183612 0
0.344747 0.181827 0
0.403525 0.180682 0
0.464103 0.180804 0
0.526345 0.182849 0
0.588052 0.187015 0
0.648371 0.194491 0
0.705959 0.205402 0
0.759228 0.220829 0
0.807202 0.240452 0
0.849241 0.264118 0
0.885893 0.291417 0
0.916274 0.321569 0
0.941115 0.353094 0
0.961456 0.385016 0
0.977615 0.415839 0
0.990478 0.444389 0
1 0.470008 0
1 0.492241 0
1 0.511299 0
1 0.527077 0
0 0.231693 0
0 0.23267 0
0 0.232975 0
0.00712596 0.232792 0
0.0235752 0.232456 0
0.0396582 0.232334 0
0.0587625 0.231815 0
0.0824598 0.231312 0
0.111131 0.230213 0
0.144945 0.228946 0
0.184863 0.227344 0
0.230045 0.225406 0
0.280324 0.223377 0
0.335271 0.221653 0
0.394018 0.220539 0
0.454597 0.220295 0
0.516808 0.221698 0
0.578714 0.225162 0
0.639261 0.231662 0
0.696818 0.241382 0
0.750408 0.254749 0
0.798749 0.272206 0
0.841474 0.293492 0
0.878553 0.318547 0
0.909651 0.345953 0
0.935271 0.37525 0
0.956115 0.404959 0
0.972839 0.433707 0
0.986267 0.460472 0
0.996536 0.484581 0
1 0.505501 0
1 0.523705 0
1 0.538689 0
0 0.274266 0
0 0.27512 0
0 0.275608 0
0.00445563 0.27538 0
0.0209201 0.275303 0
0.0363622 0.274998 0
0.0550393 0.274922 0
0.0776226 0.274418 0
0.105516 0.273808 0
0.138384 0.272862 0
0.176852 0.271611 0
0.221439 0.269932 0
0.271107 0.268116 0
0.325551 0.266392 0
0.383566 0.265309 0
0.444556 0.264546 0
0.506416 0.265583 0
0.568521 0.268513 0
0.628977 0.273716 0
0.686595 0.281895 0
0.740414 0.293553 0
0.789151 0.308904 0
0.832532 0.327962 0
0.870115 0.350301 0
0.902007 0.375265 0
0.92845 0.401709 0
0.949798 0.428565 0
0.967269 0.454963 0
0.981231 0.479698 0
0.992279 0.502434 0
1 0.522057 0
1 0.539117 0
1 0.55317 0
0 0.321202 0
0 0.322042 0
0 0.322545 0
0.00585946 0.322271 0
0.0216678 0.322225 0
0.0360571 0.322087 0
0.054139 0.322087 0
0.0758068 0.321798 0
0.102449 0.321462 0
0.134173 0.320638 0
0.171267 0.319707 0
0.21471 0.318624 0
0.26334 0.317082 0
0.316381 0.315312 0
0.373846 0.313985 0
0.433982 0.313588 0
0.496147 0.314015 0
0.557504 0.316091 0
0.618112 0.320546 0
0.675731 0.327276 0
0.729839 0.337545 0
0.779095 0.350683 0
0.82269 0.367285 0
0.861143 0.38677 0
0.893568 0.408865 0
0.920836 0.432532 0
0.943084 0.456855 0
0.961044 0.480797 0
0.975647 0.503227 0
0.986877 0.523903 0
0.996048 0.542092 0
1 0.557778 0
1 0.570794 0.0021973
0 0.372259 0
0 0.372976 0
0 0.373053 0
0.0128481 0.37293 0
0.0272374 0.373037 0
0.0408331 0.3729 0
0.0575875 0.373068 0
0.0785229 0.373068 0
0.103456 0.372702 0
0.133486 0.372122 0
0.169451 0.371633 0
0.210834 0.370611 0
0.257588 0.369436 0
0.309453 0.368078 0
0.365743 0.366812 0
0.425086 0.366232 0
0.485603 0.366308 0
0.547219 0.367773 0
0.607294 0.37142 0
0.664805 0.376913 0
0.718883 0.385428 0
0.768307 0.396582 0
0.81236 0.410651 0
0.851087 0.427512 0
0.884215 0.446662 0
0.912459 0.467704 0
0.935271 0.489219 0
0.954162 0.510338 0
0.969131 0.530495 0
0.981323 0.549264 0
0.99089 0.565835 0
0.998245 0.580102 0.00198367
1 0.592065 0.00648508
0 0.426505 0
0 0.426871 0
0.0124971 0.426581 0
0.0263066 0.426764 0
0.0392767 0.426947 0
0.0516976 0.426841 0
0.0673228 0.427008 0
0.0864881 0.427085 0
0.109957 0.426841 0
0.13817 0.426429 0
0.172091 0.426154 0
0.211368 0.425361 0
0.25597 0.424445 0
0.305776 0.423331 0
0.360418 0.422126 0
0.41799 0.4215 0
0.477821 0.421576 0
0.537942 0.422782 0
0.597574 0.425071 0
0.654597 0.429862 0
0.708263 0.436667 0
0.757809 0.446021 0
0.802121 0.457847 0
0.841474 0.472435 0
0.875135 0.488762 0
0.903548 0.506615 0
0.927275 0.525567 0
0.946838 0.543984 0
0.962707 0.562036 0
0.975067 0.578241 0
0.985061 0.593057 0.00177005
0.992859 0.605859 0.00704967
0.999023 0.616434 0.0117189
0.00901808 0.482048 0
0.0228428 0.482246 0
0.0353857 0.482567 0
0.0474861 0.482795 0
0.0587167 0.482673 0
0.0702068 0.482856 0
0.0843824 0.483024 0
0.10164 0.482872 0
0.123278 0.482994 0
0.149462 0.482643 0
0.180835 0.482567 0
0.217441 0.481971 0
0.259709 0.481178 0
0.307103 0.480308 0
0.359258 0.479316 0
0.415045 0.478782 0
0.472496 0.478462 0
0.531472 0.479194 0
0.589853 0.481178 0
0.646326 0.484901 0
0.699031 0.490318 0
0.748226 0.498161 0
0.792645 0.50782 0
0.832197 0.520027 0
0.866117 0.53373 0
0.895247 0.549157 0
0.919402 0.564981 0
0.939513 0.581155 0
0.955657 0.596399 0
0.968872 0.610864 0.00251774
0.979324 0.623743 0.00843824
0.98735 0.634882 0.0139467
0.993637 0.644266 0.0186618
0.0445716 0.539132 0
0.0560616 0.539376 0
0.0664988 0.53933 0
0.076936 0.539544 0
0.0870527 0.539712 0
0.097261 0.539849 0
0.109575 0.539834 0
0.125246 0.539834 0
0.144869 0.53994 0
0.168307 0.539696 0
0.197101 0.539666 0
0.231006 0.539117 0
0.270253 0.53846 0
0.31487 0.537972 0
0.36376 0.537179 0
0.416571 0.536492 0
0.472129 0.536233 0
0.528832 0.536706 0
0.585031 0.537865 0
0.640131 0.540673 0
0.692454 0.545205 0
0.740932 0.551553 0
0.784756 0.559472 0
0.823987 0.569558 0
0.858045 0.580911 0
0.887388 0.59382 0
0.912077 0.607401 0
0.932448 0.620813 0
0.949264 0.634058 0.00411994
0.962844 0.646372 0.0108492
0.973663 0.657435 0.0173648
0.981903 0.667079 0.0229191
0.988602 0.675059 0.0277256
0.0875563 0.595895 0
0.0972 0.596094 0
0.106401 0.596277 0
0.115282 0.59646 0
0.124132 0.596521 0
0.132509 0.596323 0
0.143511 0.596429 0
0.157351 0.596551 0
0.174411 0.596597 0
0.195438 0.596399 0
0.221302 0.596384 0
0.251926 0.595895 0
0.2878 0.595376 0
0.329015 0.594873 0
0.37438 0.594156 0
0.423819 0.59353 0
0.47628 0.593164 0
0.530449 0.593347 0
0.584604 0.59443 0
0.637888 0.596551 0
0.688533 0.599939 0
0.735821 0.604822 0
0.779385 0.61146 0
0.817853 0.619776 0
0.851759 0.629007 0
0.881163 0.639719 0
0.905989 0.651011 0
0.926802 0.662394 0.00735485
0.943709 0.673259 0.0146792
0.957397 0.683635 0.0216983
0.968399 0.69308 0.0282444
0.977188 0.701305 0.0340734
0.983902 0.708186 0.0386511
0.138659 0.65156 0
0.146624 0.651682 0
0.153826 0.651514 0
0.161517 0.65156 0
0.168765 0.651667 0
0.176226 0.651728 0
0.185855 0.651728 0
0.197803 0.651774 0
0.212116 0.651576 0
0.230991 0.651514 0
0.253788 0.651469 0
0.280934 0.650965 0
0.312825 0.650523 0
0.350042 0.650126 0
0.39176 0.649409 0
0.437339 0.648814 0
0.486168 0.648371 0
0.537041 0.648356 0
0.588647 0.649012 0
0.639353 0.65066 0
0.688472 0.653269 0
0.734417 0.657267 0
0.77641 0.662745 0
0.814359 0.669108 0
0.8477 0.676875 0
0.876921 0.685679 0.00471504
0.901656 0.695033 0.0126192
0.922393 0.704387 0.0206302
0.939498 0.713542 0.0282902
0.953262 0.722225 0.0352178
0.964385 0.729976 0.0415351
0.972946 0.736767 0.0467536
0.980148 0.742702 0.051667
0.195285 0.704417 0
0.201968 0.704448 0
0.208255 0.704524 0
0.214649 0.704524 0
0.220645 0.704585 0
0.22707 0.70457 0
0.234516 0.704326 0
0.244556 0.704295 0
0.257328 0.70428 0
0.273365 0.704219 0
0.292668 0.703838 0
0.316503 0.703655 0
0.344839 0.70309 0
0.377813 0.702754 0
0.415229 0.702083 0
0.456901 0.701427 0
0.502083 0.701274 0
0.549233 0.701091 0
0.597528 0.701442 0
0.64564 0.702556 0
0.692241 0.704616 0
0.735943 0.707332 0
0.776715 0.711635 0
0.813642 0.717113 0.00459297
0.846464 0.7234 0.0123445
0.8748 0.73051 0.0202945
0.899275 0.738109 0.0284733
0.919692 0.745846 0.0363622
0.936614 0.753323 0.0437476
0.950317 0.760388 0.0503395
0.961349 0.766827 0.0563363
0.97023 0.772656 0.061738
0.977188 0.777539 0.0660716
0.256504 0.754131 0
0.261982 0.754101 0
0.267063 0.754147 0
0.272068 0.753964 0
0.276738 0.753857 0
0.282017 0.753811 0
0.288457 0.753811 0
0.297063 0.753719 0
0.307744 0.753658 0
0.321172 0.753582 0
0.337316 0.75317 0
0.357961 0.752926 0
0.382406 0.752453 0
0.411276 0.752026 0
0.444358 0.751339 0
0.482048 0.750973 0
0.52285 0.750378 0
0.565957 0.750057 0
0.61059 0.750149 0
0.655543 0.750912 0
0.699519 0.752468 0.00274662
0.741344 0.754833 0.0087892
0.780255 0.758144 0.0154726
0.81593 0.762402 0.0229953
0.847486 0.767529 0.0306859
0.874983 0.773251 0.0384527
0.898878 0.779309 0.0463569
0.918822 0.785702 0.0539101
0.935531 0.791867 0.0610819
0.94905 0.79765 0.0673075
0.959808 0.802899 0.0727855
0.968795 0.807752 0.0780957
0.975616 0.811673 0.0820172
0.319524 0.799527 0
0.323522 0.799329 0
0.327718 0.799313 0
0.331975 0.799252 0
0.335912 0.799283 0
0.34023 0.799222 0
0.345693 0.799146 0
0.352514 0.7991 0
0.361303 0.799008 0
0.372488 0.798886 0
0.386099 0.798398 0
0.403586 0.798123 0
0.424567 0.797848 0
0.449271 0.797192 0
0.478233 0.796765 0
0.511376 0.796155 0.00154116
0.547524 0.795621 0.00488289
0.586725 0.795132 0.00857557
0.627771 0.795316 0.0132296
0.669245 0.795712 0.0181125
0.710353 0.796735 0.0237736
0.749737 0.798505 0.0298619
0.786587 0.801022 0.0363622
0.820356 0.804379 0.0433967
0.850782 0.808484 0.0507973
0.877577 0.813046 0.0584421
0.900374 0.818021 0.0657359
0.919722 0.823148 0.0727703
0.93611 0.828183 0.0795453
0.949279 0.833021 0.0855116
0.960143 0.837613 0.0910964
0.96878 0.841306 0.0955825
0.975631 0.84477 0.0995804
0.381857 0.840314 0.0096437
0.385153 0.840314 0.010071
0.388647 0.840253 0.0104372
0.392081 0.840192 0.0107881
0.395438 0.840131 0.0111543
0.398733 0.840116 0.0115663
0.403174 0.840024 0.0119936
0.408743 0.839963 0.0126192
0.416129 0.839796 0.0133669
0.425315 0.839658 0.0143435
0.436561 0.839155 0.0151064
0.451102 0.83888 0.0165713
0.468772 0.838575 0.0184176
0.489708 0.837903 0.0201419
0.514931 0.837476 0.0227054
0.543664 0.836744 0.0252384
0.576074 0.836393 0.028748
0.611032 0.835874 0.0322576
0.647761 0.835599 0.0362554
0.685634 0.835691 0.0407416
0.723598 0.836316 0.0458991
0.760327 0.837644 0.0516823
0.795163 0.83975 0.0581369
0.827085 0.842329 0.064683
0.856077 0.845533 0.0717632
0.881788 0.849363 0.0789349
0.903777 0.853498 0.0859236
0.922408 0.857664 0.0924392
0.938231 0.861677 0.0986191
0.951034 0.865644 0.104158
0.961608 0.86952 0.109453
0.970001 0.872633 0.113558
0.976776 0.875502 0.117464
0.442023 0.876509 0.0373999
0.444678 0.87631 0.0374609
0.447181 0.876265 0.0377203
0.449958 0.876188 0.037995
0.452705 0.876112 0.0382696
0.455543 0.876051 0.0385595
0.458885 0.87602 0.0389715
0.463584 0.875898 0.0394293
0.469368 0.875807 0.0400702
0.47715 0.875593 0.0408026
0.486717 0.875395 0.0417945
0.498527 0.874952 0.0427405
0.513176 0.874525 0.0440833
0.531273 0.874113 0.0458839
0.552377 0.873396 0.0476387
0.577462 0.872923 0.0502327
0.605386 0.872267 0.0529335
0.636622 0.871962 0.0565042
0.669825 0.87158 0.0601663
0.704021 0.871504 0.0643168
0.738796 0.871763 0.068925
0.772763 0.872679 0.0742351
0.805203 0.874189 0.0800793
0.835554 0.876371 0.0865797
0.863142 0.87892 0.0930648
0.887343 0.881926 0.0995499
0.908568 0.885267 0.10602
0.926543 0.888747 0.112169
0.941634 0.892088 0.117922
0.954299 0.895506 0.123323
0.964248 0.898436 0.127718
0.972519 0.901228 0.131838
0.978851 0.903456 0.134997
0.497536 0.907759 0.0641794
0.49984 0.907683 0.0643931
0.502129 0.907622 0.064622
0.504234 0.907591 0.0648661
0.50634 0.907546 0.0651102
0.508659 0.907485 0.0653239
0.511604 0.907393 0.0656138
0.515114 0.907271 0.065919
0.519768 0.906935 0.0660563
0.526085 0.906752 0.0666667
0.534005 0.906554 0.0674601
0.543984 0.906294 0.0684825
0.556466 0.905974 0.0697337
0.571252 0.905425 0.0709544
0.589639 0.904875 0.0726482
0.611139 0.904387 0.074876
0.635294 0.9037 0.0771344
0.662654 0.903029 0.0798352
0.692561 0.902831 0.0835279
0.72343 0.902663 0.0873426
0.755138 0.902724 0.0915236
0.786328 0.903258 0.0962539
0.816678 0.904418 0.101701
0.845136 0.906188 0.107652
0.870939 0.908232 0.113619
0.894133 0.910552 0.119585
0.91429 0.913191 0.125383
0.931517 0.916045 0.13106
0.946151 0.919173 0.136767
0.95819 0.921859 0.141451
0.968017 0.924361 0.14583
0.975845 0.926589 0.149416
0.982147 0.928603 0.152575
0.547784 0.934462 0.0892042
0.54963 0.934401 0.0893721
0.551156 0.93431 0.0894636
0.552895 0.934173 0.0894942
0.55462 0.93402 0.0895094
0.556497 0.933944 0.089662
0.558907 0.933867 0.0898756
0.561807 0.933822 0.0902419
0.565896 0.933684 0.0906233
0.570916 0.933577 0.0911574
0.577661 0.933349 0.091783
0.585946 0.933135 0.0926375
0.596338 0.932799 0.0936141
0.609033 0.932219 0.0945602
0.624521 0.931853 0.0961776
0.643107 0.93138 0.098085
0.664134 0.930663 0.0999619
0.688396 0.930144 0.102586
0.71458 0.92961 0.105455
0.742611 0.929274 0.108843
0.771603 0.929229 0.112749
0.80058 0.929824 0.11751
0.828611 0.930495 0.122164
0.854917 0.931685 0.127275
0.879362 0.933303 0.132708
0.901228 0.935332 0.138262
0.920623 0.937774 0.14406
0.937041 0.940063 0.149157
0.951019 0.942321 0.153994
0.962737 0.944732 0.158602
0.972091 0.946883 0.162509
0.979767 0.948898 0.166033
0.985702 0.950454 0.168719
0.59202 0.956802 0.111925
0.593469 0.956756 0.112078
0.594842 0.956741 0.112261
0.596307 0.956634 0.112306
0.597726 0.956512 0.112322
0.599207 0.95639 0.112337
0.601114 0.956237 0.112383
0.60354 0.956176 0.112657
0.606882 0.956054 0.112963
