public/textures/grade/DJI/Licorice-DLog.cube
TITLE "Generated by Resolve"
LUT_3D_SIZE 5
0 0 0.0480812
0.112535 0 0.0395972
0.704646 0 0
1 0.114977 0
1 0.396796 0
0 0.125078 0.108278
0.0356909 0.12549 0.0820172
0.674525 0.0544137 0
1 0.191012 0
1 0.426459 0.0031281
0.0451057 0.528222 0.351141
0.0927596 0.539208 0.322454
0.500511 0.498451 0.118975
1 0.47567 0.0137484
1 0.577234 0.0719921
0.283589 0.984604 0.52224
0.314961 0.977493 0.51577
0.557 0.927886 0.487465
1 0.876402 0.308446
1 0.874769 0.301411
0.707866 1 0.573556
0.722622 1 0.569314
0.810483 1 0.536355
1 1 0.410071
1 0.99353 0.394293
0 0 0.227466
0.112749 0 0.197391
0.709728 0 0.075761
1 0.134173 0.0323033
1 0.39559 0
0 0.116762 0.185489
0.090959 0.1205 0.15111
0.693584 0.0724804 0.0728008
1 0.205417 0.0240482
1 0.425513 0.00297551
0.0823529 0.527703 0.367834
0.126604 0.538979 0.343267
0.509194 0.50486 0.15523
1 0.474769 0.0133059
1 0.576669 0.0716259
0.283497 0.984558 0.522499
0.314199 0.977539 0.51577
0.556481 0.927871 0.487495
1 0.87631 0.30837
1 0.874678 0.301335
0.707561 1 0.573617
0.722408 1 0.569345
0.810285 1 0.536431
1 1 0.410071
1 0.99353 0.394293
0 0 0.754482
0.0654154 0 0.731746
0.641169 0 0.630854
1 0.164248 0.481804
1 0.448768 0.375677
0 0 0.72224
0.0669108 0.0235142 0.707286
0.631998 0.048249 0.6168
1 0.245396 0.455207
1 0.474678 0.368582
0.058854 0.532753 0.561349
0.159899 0.531716 0.55079
0.510475 0.516487 0.487846
1 0.512551 0.364981
1 0.609125 0.350408
0.410285 0.951888 0.64921
0.413916 0.952285 0.633356
0.554604 0.934859 0.56495
1 0.881056 0.410895
1 0.880751 0.382788
0.705287 1 0.574075
0.720363 1 0.569787
0.808759 1 0.53698
1 1 0.410101
1 0.99353 0.394293
0 0 1
0 0 1
0.566522 0 1
1 0 1
1 0.394629 0.989929
0 0 1
0 0 1
0.571435 0 1
1 0.0553597 1
1 0.435279 0.974762
0 0.401633 1
0 0.427375 1
0.493629 0.440879 1
1 0.491417 0.949203
1 0.618891 0.897368
0.357336 0.950179 0.936782
0.391516 0.944747 0.928893
0.576898 0.920104 0.889281
0.929397 0.901411 0.826688
1 0.903487 0.791424
0.740993 1 0.907912
0.752712 1 0.904799
0.783627 1 0.863233
0.987549 1 0.784253
1 0.99678 0.762631
0 0 1
0 0 1
0.446494 0 1
1 0 1
1 0.0809491 1
0 0 1
0 0 1
0.453468 0 1
1 0 1
1 0.192294 1
0 0.0380255 1
0 0.0456245 1
0.473411 0.20148 1
1 0.327123 1
1 0.536156 1
0.373526 0.955688 1
0.40032 0.948363 1
0.578531 0.918227 1
0.922469 0.900664 0.936751
1 0.911269 0.92369
0.681254 1 1
0.693645 1 0.997253
0.767575 1 0.979889
0.951492 1 0.937606
1 1 0.925582
