public/textures/grade/DJI/Licorice-DLog.cube
TITLE "Generated by Resolve"
LUT_3D_SIZE 9
0 0 0.0480812
0.00843824 0 0.0370031
0.112535 0 0.0395972
0.376822 0 0.0223239
0.704646 0 0
1 0 0
1 0.114977 0
1 0.289662 0
1 0.396796 0
0 0.0426032 0.043946
0 0.043061 0.0373693
0.0872358 0.0387884 0.0344549
0.356588 0.00454719 0.0239109
0.69662 0 0
1 0.0142519 0
1 0.146517 0
1 0.306752 0
1 0.408362 0
0 0.125078 0.108278
0 0.128069 0.100435
0.0356909 0.12549 0.0820172
0.311971 0.0914626 0.0271916
0.674525 0.0544137 0
1 0.0742504 0
1 0.191012 0
1 0.332708 0
1 0.426459 0.0031281
0 0.287892 0.207813
0 0.291539 0.206302
0.0292363 0.291585 0.196551
0.214649 0.279576 0.0968948
0.61059 0.230518 0
0.961242 0.224475 0
1 0.293568 0
1 0.398184 0
1 0.474464 0.0194705
0.0451057 0.528222 0.351141
0.0675517 0.533303 0.341207
0.0927596 0.539208 0.322454
0.155352 0.539559 0.259495
0.500511 0.498451 0.118975
0.886244 0.458473 0.0280766
1 0.47567 0.0137484
1 0.530236 0.0406958
1 0.577234 0.0719921
0.191058 0.797879 0.46569
0.194827 0.798321 0.457588
0.199344 0.798352 0.443915
0.216678 0.793408 0.40502
0.469673 0.747173 0.37116
0.801114 0.716869 0.21706
1 0.697963 0.170779
1 0.711391 0.169619
1 0.730999 0.183642
0.283589 0.984604 0.52224
0.291157 0.982498 0.518212
0.314961 0.977493 0.51577
0.385962 0.962661 0.508995
0.557 0.927886 0.487465
0.797787 0.897734 0.380392
1 0.876402 0.308446
1 0.87042 0.298634
1 0.874769 0.301411
0.54403 1 0.566445
0.553857 1 0.56527
0.5691 1 0.563073
0.611643 1 0.556649
0.709575 1 0.533288
0.865125 0.986831 0.45362
1 0.971206 0.38201
1 0.960616 0.371435
1 0.959533 0.368994
0.707866 1 0.573556
0.713619 1 0.571893
0.722622 1 0.569314
0.748211 1 0.56144
0.810483 1 0.536355
0.921508 1 0.465888
1 1 0.410071
1 0.997147 0.398535
1 0.99353 0.394293
0 0 0.118334
0.00906386 0 0.102663
0.119417 0 0.0864271
0.380026 0 0.0478065
0.708827 0 0.0240482
1 0 0
1 0.11368 0
1 0.288991 0
1 0.396338 0
0 0.0370184 0.101015
0.00370794 0.0388647 0.0861982
0.105669 0.0348974 0.0740368
0.365347 0.00531014 0.0546273
0.702602 0 0.0244297
1 0.0204471 0
1 0.145388 0
1 0.306127 0
1 0.407919 0
0 0.123873 0.117647
0 0.124987 0.106691
0.0645304 0.12343 0.0937819
0.31873 0.0972915 0.0598917
0.68191 0.0615702 0.0221866
1 0.0795453 0
1 0.190127 0
1 0.332128 0
1 0.426078 0.0030518
0 0.288441 0.214633
0 0.292363 0.213779
0.0322576 0.293339 0.205783
0.217792 0.282338 0.114946
0.614679 0.232914 0.0121462
0.961852 0.224491 0
1 0.293019 0
1 0.397726 0
1 0.474128 0.0193484
0.04448 0.527687 0.351095
0.0670481 0.532799 0.341161
0.0924239 0.538735 0.322438
0.155001 0.539162 0.259281
0.500389 0.498054 0.118761
0.886275 0.458061 0.0278477
1 0.475319 0.0135805
1 0.530007 0.0405432
1 0.577035 0.0718547
0.190921 0.797726 0.465766
0.194766 0.79823 0.457694
0.199252 0.798215 0.443976
0.216495 0.793332 0.404974
0.469459 0.747066 0.371115
0.801099 0.716731 0.216968
1 0.697826 0.170687
1 0.711299 0.169558
1 0.730907 0.183566
0.283558 0.984588 0.522332
0.290867 0.982513 0.518227
0.314687 0.977508 0.51577
0.385672 0.962676 0.50898
0.556802 0.927871 0.48748
0.797711 0.897688 0.380392
1 0.876371 0.308415
1 0.87039 0.298604
1 0.874739 0.301381
0.543832 1 0.566445
0.553719 1 0.565286
0.568917 1 0.563088
0.611475 1 0.556664
0.709453 1 0.533318
0.86508 0.986831 0.453635
1 0.971191 0.381994
1 0.960601 0.37142
1 0.959533 0.368994
0.707744 1 0.573571
0.713512 1 0.571923
0.722545 1 0.569329
0.748135 1 0.561471
0.810422 1 0.53637
0.921431 1 0.465919
1 1 0.410056
1 0.997147 0.398535
1 0.99353 0.394293
0 0 0.227466
0.00210575 0 0.215839
0.112749 0 0.197391
0.368811 0 0.130159
0.709728 0 0.075761
1 0 0.0545357
1 0.134173 0.0323033
1 0.29044 0
1 0.39559 0
0 0.0197604 0.213306
0 0.0267491 0.202533
0.106676 0.0274357 0.182452
0.361624 0.00410468 0.126818
0.708766 0 0.0746777
1 0.0371862 0.0555734
1 0.163394 0.0289921
1 0.306676 0
1 0.407202 0
0 0.116762 0.185489
0 0.120256 0.170596
0.090959 0.1205 0.15111
0.325795 0.104402 0.119921
0.693584 0.0724804 0.0728008
1 0.0990005 0.0561685
1 0.205417 0.0240482
1 0.331289 0
1 0.425513 0.00297551
0 0.287419 0.240055
0 0.291554 0.241108
0.0415198 0.292882 0.235401
0.221073 0.288609 0.171588
0.629068 0.24152 0.0896773
0.971893 0.239521 0.0501564
1 0.302785 0.0113527
1 0.396994 0
1 0.473579 0.0191348
0.0823529 0.527703 0.367834
0.104433 0.532815 0.359091
0.126604 0.538979 0.343267
0.154162 0.546349 0.279606
0.509194 0.50486 0.15523
0.892042 0.463188 0.058732
1 0.474769 0.0133059
1 0.529564 0.0402991
1 0.576669 0.0716259
0.190707 0.797467 0.465873
0.194629 0.798062 0.457862
0.1991 0.798001 0.444099
0.215946 0.79321 0.404913
0.469078 0.746899 0.371038
0.801053 0.716503 0.216831
1 0.697627 0.170535
1 0.711131 0.169451
1 0.730739 0.183444
0.283497 0.984558 0.522499
0.29041 0.982544 0.518227
0.314199 0.977539 0.51577
0.385245 0.962692 0.50898
0.556481 0.927871 0.487495
0.797635 0.897642 0.380377
1 0.87631 0.30837
1 0.870329 0.298558
1 0.874678 0.301335
0.543481 1 0.566476
0.553475 1 0.565286
0.568597 1 0.563119
0.6112 1 0.556695
0.70927 1 0.533349
0.864973 0.986816 0.453681
1 0.971176 0.381979
1 0.960586 0.371405
1 0.959503 0.368978
0.707561 1 0.573617
0.713344 1 0.571954
0.722408 1 0.569345
0.747967 1 0.561517
0.810285 1 0.536431
0.92137 1 0.465965
1 1 0.410071
1 0.997147 0.398535
1 0.99353 0.394293
0 0 0.448829
0 0 0.439841
0.0943008 0 0.420203
0.328298 0 0.376913
0.686229 0 0.281147
1 0.00161746 0.213626
1 0.161456 0.167971
1 0.320912 0.146258
1 0.420676 0.146258
0 0 0.436301
0 0 0.428763
0.0938125 0.00401312 0.409781
0.32639 0 0.370031
0.68806 0 0.270909
1 0.0555276 0.205127
1 0.189242 0.162722
1 0.337118 0.146807
1 0.431556 0.147692
0 0.0743572 0.404807
0 0.0855116 0.399527
0.0822461 0.094728 0.384543
0.306905 0.0934615 0.348699
0.682826 0.0781415 0.247578
1 0.127092 0.1906
1 0.229084 0.158968
1 0.361501 0.148104
1 0.448554 0.150576
0 0.283162 0.341436
0 0.287495 0.335485
0.0914626 0.287816 0.321309
0.263188 0.284535 0.28629
0.640772 0.251377 0.21088
0.976944 0.255116 0.171923
1 0.324605 0.156466
1 0.423758 0.154376
1 0.493614 0.156909
0.0505074 0.52549 0.421683
0.110399 0.525567 0.41973
0.17023 0.524636 0.415747
0.249851 0.524819 0.392447
0.517281 0.512947 0.263157
0.90396 0.477424 0.198657
1 0.496544 0.178622
1 0.547677 0.175036
1 0.589914 0.16553
0.249882 0.790311 0.509636
0.252735 0.791104 0.502571
0.256275 0.79234 0.491005
0.261555 0.793042 0.455467
0.478279 0.75903 0.411856
0.814908 0.726726 0.275624
1 0.706493 0.222644
1 0.714351 0.184787
1 0.730251 0.183062
0.28333 0.984482 0.522972
0.288991 0.98262 0.518257
0.312764 0.977615 0.515785
0.383841 0.962753 0.50898
0.55552 0.927855 0.487541
0.797345 0.897459 0.380331
1 0.876127 0.308232
1 0.870146 0.29839
1 0.874525 0.301198
0.542458 1 0.566537
0.552621 1 0.565332
0.567636 1 0.56318
0.610391 1 0.556786
0.708721 1 0.533455
0.864729 0.98677 0.453773
1 0.97113 0.381949
1 0.96051 0.371344
1 0.959442 0.368917
0.706966 1 0.573739
0.712779 1 0.572091
0.721965 1 0.569436
0.747448 1 0.561654
0.809903 1 0.536568
0.921157 1 0.466072
1 1 0.410071
1 0.997147 0.398535
1 0.99353 0.394293
0 0 0.754482
0 0 0.74995
0.0654154 0 0.731746
0.294667 0 0.691249
0.641169 0 0.630854
0.9935 0 0.555077
1 0.164248 0.481804
1 0.357321 0.409766
1 0.448768 0.375677
0 0 0.751202
0 0 0.745968
0.0727092 0 0.728862
0.301137 0 0.690288
0.644602 0 0.63093
0.989517 0.0227207 0.546975
1 0.197711 0.471519
1 0.37174 0.403922
1 0.458885 0.372686
0 0 0.72224
0 0.0081178 0.719753
0.0669108 0.0235142 0.707286
0.290013 0.0529488 0.671519
0.631998 0.048249 0.6168
0.978592 0.103227 0.529549
1 0.245396 0.455207
1 0.393011 0.395926
1 0.474678 0.368582
0 0.231632 0.6542
0 0.24094 0.653788
0.0529183 0.245502 0.646204
0.253544 0.252262 0.617929
0.584009 0.248981 0.568719
0.945785 0.266224 0.475105
1 0.355276 0.412924
1 0.448875 0.375525
1 0.51725 0.35964
0.058854 0.532753 0.561349
0.110201 0.533135 0.557443
0.159899 0.531716 0.55079
0.255177 0.524681 0.531502
0.510475 0.516487 0.487846
0.893828 0.488853 0.394705
1 0.512551 0.364981
1 0.56553 0.354955
1 0.609125 0.350408
0.273259 0.767514 0.63714
0.28838 0.765164 0.633616
0.309468 0.761761 0.628397
0.37528 0.752895 0.613642
0.462165 0.763912 0.528252
0.813504 0.72961 0.42414
1 0.714809 0.381216
1 0.729717 0.368093
1 0.748806 0.365896
0.410285 0.951888 0.64921
0.411688 0.951995 0.643259
0.413916 0.952285 0.633356
0.420752 0.95433 0.601633
0.554604 0.934859 0.56495
0.805829 0.902403 0.472007
1 0.881056 0.410895
1 0.876143 0.391623
1 0.880751 0.382788
0.539422 1 0.566735
0.549661 1 0.565515
0.565011 1 0.563439
0.608103 1 0.557
0.706996 1 0.533806
0.864149 0.986648 0.453986
1 0.971008 0.381872
1 0.960327 0.371206
1 0.959258 0.368795
0.705287 1 0.574075
0.711147 1 0.572488
0.720363 1 0.569787
0.745953 1 0.562036
0.808759 1 0.53698
0.920516 1 0.466438
1 1 0.410101
1 0.997162 0.398535
1 0.99353 0.394293
0 0 1
0 0 1
0.00883497 0 1
0.249943 0 0.991241
0.604746 0 0.933608
0.969024 0 0.886183
1 0.0986191 0.84242
1 0.323171 0.777264
1 0.448829 0.731044
0 0 1
0 0 1
0.0169833 0 1
0.254139 0 0.989944
0.606653 0 0.933013
0.973739 0 0.889082
1 0.13933 0.834028
1 0.343557 0.769924
1 0.462257 0.725292
0 0 1
0 0 1
0.0306706 0 1
0.265415 0 0.98912
0.618128 0 0.936278
0.964843 0.0241093 0.880385
1 0.196414 0.820035
1 0.373983 0.75819
1 0.482429 0.715709
0 0.120577 0.965774
0 0.137331 0.9691
0.0139162 0.153384 0.964935
0.23769 0.173953 0.938445
0.575631 0.196124 0.890608
0.920027 0.22356 0.839872
1 0.323003 0.780896
1 0.449317 0.726802
1 0.534463 0.690425
0 0.491417 0.874022
0 0.495201 0.872663
0.0921645 0.495689 0.867185
0.234424 0.490333 0.849058
0.50312 0.492317 0.801984
0.83032 0.491524 0.757916
1 0.525521 0.697734
1 0.590082 0.656519
1 0.636454 0.633967
0.210071 0.784512 0.791745
0.224308 0.782177 0.787762
0.243595 0.778607 0.781811
0.31017 0.7691 0.765682
0.497551 0.75256 0.732067
0.757351 0.743679 0.687953
1 0.729351 0.616678
1 0.743679 0.590723
1 0.76321 0.586755
0.424491 0.931868 0.815503
0.436728 0.929931 0.81265
0.456031 0.926574 0.807858
0.509651 0.918303 0.795331
0.618418 0.90605 0.760311
0.784772 0.900618 0.668345
1 0.882521 0.606363
1 0.878584 0.590082
1 0.883894 0.587472
0.618692 1 0.786404
0.620508 1 0.782437
0.623285 1 0.775814
0.630198 1 0.755261
0.691691 1 0.723415
0.85182 0.984039 0.666148
1 0.968063 0.604868
1 0.957671 0.59144
1 0.957015 0.585489
0.688106 1 0.723384
0.693401 1 0.722255
0.702449 1 0.720195
0.727687 1 0.714336
0.791058 1 0.694804
0.907347 1 0.637797
1 1 0.586587
1 0.99144 0.571221
1 0.987991 0.561685
0 0 1
0 0 1
0 0 1
0.173159 0 1
0.566522 0 1
0.937987 0 1
1 0 1
1 0.235019 1
1 0.394629 0.989929
0 0 1
0 0 1
0 0 1
0.177981 0 1
0.568399 0 1
0.938567 0 1
1 0 1
1 0.262699 1
1 0.410788 0.983841
0 0 1
0 0 1
0 0 1
0.186252 0 1
0.571435 0 1
0.939345 0 1
1 0.0553597 1
1 0.3028 1
1 0.435279 0.974762
0 0 1
0 0 1
0 0 1
0.206439 0 1
0.582177 0.0365301 1
0.940444 0.0953536 1
1 0.238941 1
1 0.397253 0.982437
1 0.496895 0.949874
0 0.401633 1
0 0.414328 1
0 0.427375 1
0.187839 0.42855 1
0.493629 0.440879 1
0.834699 0.448646 0.983734
1 0.491417 0.949203
1 0.562829 0.918273
1 0.618891 0.897368
0.202625 0.770092 0.994354
0.224811 0.767987 0.989792
0.252872 0.764446 0.982986
0.320592 0.754162 0.96553
0.501396 0.738293 0.933043
0.749279 0.735241 0.886519
0.972778 0.736873 0.860807
1 0.758312 0.830014
1 0.781338 0.813611
0.357336 0.950179 0.936782
0.370443 0.948119 0.933776
0.391516 0.944747 0.928893
0.448585 0.936278 0.916152
0.576898 0.920104 0.889281
0.769757 0.901442 0.855009
0.929397 0.901411 0.826688
1 0.899702 0.804059
1 0.903487 0.791424
0.60557 1 0.920501
0.612665 1 0.918837
0.624063 1 0.916136
0.655634 0.998688 0.908446
0.731685 0.987732 0.890288
0.820539 0.989059 0.838254
0.958007 0.980346 0.803265
1 0.9729 0.791745
1 0.971359 0.780392
0.740993 1 0.907912
0.745541 1 0.906706
0.752712 1 0.904799
0.766873 1 0.896101
0.783627 1 0.863233
0.873701 1 0.831327
0.987549 1 0.784253
1 1 0.77351
1 0.99678 0.762631
0 0 1
0 0 1
0 0 1
0.0180209 0 1
0.508873 0 1
0.921096 0 1
1 0 1
1 0 1
1 0.277974 1
0 0 1
0 0 1
0 0 1
0.0260777 0 1
0.511284 0 1
0.921736 0 1
1 0 1
1 0.0517433 1
1 0.302922 1
0 0 1
0 0 1
0 0 1
0.038468 0 1
0.51519 0 1
0.922652 0 1
1 0 1
1 0.129152 1
1 0.339208 1
0 0 1
0 0 1
0 0 1
0.0751354 0 1
0.526085 0 1
0.925536 0 1
1 0.0115358 1
1 0.286503 1
1 0.426047 1
0 0.272206 1
0 0.273472 1
0 0.275547 1
0.104082 0.310155 1
0.481636 0.342763 1
0.8589 0.359213 1
1 0.422065 1
1 0.514 1
1 0.581048 1
0.0191196 0.741039 1
0.0948653 0.743755 1
0.166125 0.743267 1
0.26186 0.733166 1
0.470451 0.714977 1
0.747219 0.715282 0.998337
0.977218 0.718563 0.972061
1 0.743648 0.953155
1 0.768841 0.940414
0.409583 0.953109 1
0.419944 0.950759 1
0.437064 0.947127 1
0.486213 0.937743 0.989532
0.600732 0.921004 0.959731
0.769985 0.906264 0.92636
0.923506 0.904692 0.90367
1 0.906096 0.896819
1 0.911421 0.892012
0.566934 1 0.985626
0.574304 1 0.983764
0.586053 1 0.981064
0.618738 1 0.973754
0.695079 1 0.956756
0.823224 0.985443 0.931319
0.937789 0.982879 0.907118
1 0.982132 0.897688
1 0.982086 0.893141
0.700801 1 0.973342
0.705226 1 0.97229
0.712795 1 0.970428
0.733455 1 0.965301
0.785153 1 0.952819
0.866117 1 0.925795
0.958587 1 0.905364
1 1 0.895521
1 1 0.891096
0 0 1
0 0 1
0 0 1
0 0 1
0.446494 0 1
0.905608 0 1
1 0 1
1 0 1
1 0.0809491 1
0 0 1
0 0 1
0 0 1
0 0 1
0.449088 0 1
0.906157 0 1
1 0 1
1 0 1
1 0.128328 1
0 0 1
0 0 1
0 0 1
0 0 1
0.453468 0 1
0.907042 0 1
1 0 1
1 0 1
1 0.192294 1
0 0 1
0 0 1
0 0 1
0 0 1
0.466636 0 1
0.91043 0 1
1 0 1
1 0.104997 1
1 0.328801 1
0 0.0380255 1
0 0.0407568 1
0 0.0456245 1
0 0.0914778 1
0.473411 0.20148 1
0.891554 0.22768 1
1 0.327123 1
1 0.452354 1
1 0.536156 1
0 0.692546 1
0 0.692775 1
0 0.710124 1
0.205371 0.711101 1
0.438651 0.691005 1
0.744137 0.694041 1
0.985153 0.698283 1
1 0.726802 0.995834
1 0.754559 0.98349
0.373526 0.955688 1
0.383246 0.952575 1
0.40032 0.948363 1
0.452369 0.937209 1
0.578531 0.918227 1
0.760967 0.901686 0.965362
0.922469 0.900664 0.936751
1 0.903929 0.927993
1 0.911269 0.92369
0.54461 1 1
0.55288 1 1
0.565255 1 1
0.599954 1 0.99971
0.679408 1 0.982361
0.808972 0.990631 0.95697
0.931685 0.985138 0.934218
1 0.983276 0.923629
1 0.983673 0.921584
0.681254 1 1
0.685985 1 0.999069
0.693645 1 0.997253
0.7149 1 0.992096
0.767575 1 0.979889
0.863371 1 0.960281
0.951492 1 0.937606
1 1 0.92723
1 1 0.925582
