public/textures/grade/DJI/Licorice-DLog.cube
TITLE "Generated by Resolve"
LUT_3D_SIZE 33
0 0 0.0480812
0 0 0.0452583
0 0 0.0416266
0 0 0.037705
0.00843824 0 0.0370031
0.0257725 0 0.0368811
0.0476234 0 0.0373388
0.0758831 0 0.0383154
0.112535 0 0.0395972
0.160952 0 0.040177
0.22359 0 0.0370794
0.297856 0 0.0296483
0.376822 0 0.0223239
0.455055 0 0.0141909
0.53608 0 0.00543221
0.619745 0 0
0.704646 0 0
0.788235 0 0
0.870375 0 0
0.94934 0 0
1 0 0
1 0 0
1 0.0284276 0
1 0.0658274 0
1 0.114977 0
1 0.162753 0
1 0.208606 0
1 0.251133 0
1 0.289662 0
1 0.323598 0
1 0.352575 0
1 0.376608 0
1 0.396796 0
0 0.000534066 0.0442817
0 0.000564584 0.0419165
0 0.000457771 0.039704
0 0.00015259 0.0368658
0.00601205 0.000671397 0.0340887
0.0229496 0 0.0343175
0.0444953 0 0.0350347
0.0723125 0 0.0366674
0.10901 0 0.0387427
0.156924 0 0.0401007
0.219135 0 0.0379034
0.294087 0 0.0307622
0.3738 0 0.0231937
0.452918 0 0.0150759
0.533898 0 0.0059205
0.616709 0 0
0.702083 0 0
0.786862 0 0
0.869749 0 0
0.947662 0 0
1 0 0
1 0.00816358 0
1 0.0369116 0
1 0.0754711 0
1 0.122988 0
1 0.169802 0
1 0.214588 0
1 0.256245 0
1 0.294179 0
1 0.327352 0
1 0.356176 0
1 0.379919 0
1 0.399863 0
0 0.0139162 0.04065
0 0.0141299 0.0382696
0 0.0140536 0.0362097
0 0.0137942 0.0347295
0.00311284 0.0135042 0.0328527
0.0186313 0.0134585 0.0316625
0.039704 0.0116884 0.0325628
0.0669871 0.00865187 0.0345312
0.103212 0.00407416 0.0373083
0.151019 0 0.0397803
0.212924 0 0.0387427
0.288502 0 0.0318914
0.369635 0 0.0243534
0.4495 0 0.0157473
0.530556 0 0.00523384
0.614801 0 0
0.700877 0 0
0.786191 0 0
0.868605 0 0
0.946105 0 0
1 0 0
1 0.0174105 0
1 0.0456092 0
1 0.0851911 0
1 0.131243 0
1 0.176547 0
1 0.22031 0
1 0.261173 0
1 0.298405 0
1 0.331014 0
1 0.359548 0
1 0.3832 0
1 0.402808 0
0 0.0288701 0.0381781
0 0.0293278 0.0361944
0 0.0295567 0.0343328
0 0.0294804 0.0326696
0 0.0289769 0.0311437
0.0145113 0.0285801 0.0302892
0.0328832 0.0283513 0.0307317
0.0595102 0.0261845 0.0321202
0.0955062 0.0221408 0.0355077
0.142794 0.0159609 0.0385443
0.204318 0.00735485 0.0382696
0.280903 0 0.0317388
0.363409 0 0.0239261
0.445686 0 0.0155337
0.527855 0 0.00628672
0.61326 0 0
0.699168 0 0
0.784222 0 0
0.866545 0 0
0.944244 0 0
1 0.00459297 0
1 0.0265965 0
1 0.0544594 0
1 0.0948959 0
1 0.139147 0
1 0.182895 0
1 0.22565 0
1 0.266163 0
1 0.30248 0
1 0.33492 0
1 0.362692 0
1 0.386435 0
1 0.405432 0
0 0.0426032 0.043946
0 0.0431067 0.0421302
0 0.0432746 0.0403143
0 0.0432898 0.0387121
0 0.043061 0.0373693
0.00646983 0.0428473 0.0364691
0.0264897 0.0424048 0.0357214
0.0503243 0.0425422 0.0328832
0.0872358 0.0387884 0.0344549
0.133654 0.0338598 0.0373083
0.195758 0.0254673 0.0379797
0.272465 0.0147707 0.0314336
0.356588 0.00454719 0.0239109
0.440467 0 0.0158541
0.524239 0 0.00733959
0.610376 0 0
0.69662 0 0
0.781826 0 0
0.864454 0 0
0.942245 0 0
1 0.0142519 0
1 0.0352331 0
1 0.0638743 0
1 0.103624 0
1 0.146517 0
1 0.189456 0
1 0.231128 0
1 0.270665 0
1 0.306752 0
1 0.338766 0
1 0.366155 0
1 0.389471 0
1 0.408362 0
0 0.0563058 0.0522316
0 0.0568704 0.0504158
0 0.0571908 0.0485389
0 0.0573587 0.0468299
0 0.0568856 0.0450294
0 0.056611 0.0438392
0.0191653 0.0562905 0.0428321
0.0401923 0.0577859 0.0387427
0.078172 0.0550851 0.0359808
0.125673 0.0494392 0.0378882
0.186221 0.0417792 0.0377966
0.264469 0.0311589 0.0318303
0.349142 0.0200656 0.0244907
0.435462 0.0104677 0.016846
0.52015 0.00314336 0.00820935
0.606714 0 0
0.693843 0 0
0.779217 0 0
0.861845 0 0
0.94023 0.00956741 0
1 0.0243992 0
1 0.0441749 0
1 0.0736095 0
1 0.11284 0
1 0.154269 0
1 0.196109 0
1 0.236927 0
1 0.275532 0
1 0.311192 0
1 0.342733 0
1 0.369741 0
1 0.392386 0
1 0.411444 0
0 0.0731823 0.0644999
0 0.0739605 0.0626383
0 0.0742962 0.0604105
0 0.0745861 0.0584573
0 0.0743572 0.0564889
0 0.0740978 0.0548867
0.00833143 0.0739605 0.0534066
0.0316472 0.0738537 0.0500649
0.0640269 0.0747997 0.0406195
0.113817 0.0695811 0.0403906
0.176181 0.0611582 0.0395514
0.254047 0.0498817 0.0329442
0.339818 0.0381933 0.0252842
0.428122 0.0280919 0.0176089
0.514153 0.0199588 0.00877394
0.601801 0.0139467 0.000244144
0.689158 0.0103456 0
0.77583 0.0102388 0
0.858549 0.0139315 0
0.936965 0.0227665 0
1 0.0365454 0
1 0.0564889 0
1 0.0872358 0
1 0.123857 0
1 0.163516 0
1 0.204028 0
1 0.243977 0
1 0.28191 0
1 0.316487 0
1 0.347219 0
1 0.374166 0
1 0.396582 0
1 0.415366 0.000167849
0 0.0965286 0.0836805
0 0.0974746 0.0817884
0 0.0982223 0.0793622
0 0.0985428 0.0769818
0 0.0982376 0.074403
0 0.0981155 0.072282
0 0.0979171 0.0699474
0.0187381 0.0975052 0.0668193
0.0437781 0.100465 0.0529335
0.0970474 0.0956436 0.0451972
0.161807 0.0864271 0.0425727
0.24097 0.0737316 0.0345617
0.327779 0.0612497 0.026154
0.416983 0.0502785 0.0179904
0.505302 0.0414893 0.00900282
0.594232 0.0344549 0.000183108
0.68307 0.0301823 0
0.769955 0.0290227 0
0.854215 0.0319677 0
0.932494 0.039292 0
1 0.0520027 0
1 0.0732433 0
1 0.103578 0
1 0.138277 0
1 0.175906 0
1 0.214786 0
1 0.253071 0
1 0.289586 0
1 0.323507 0
1 0.353719 0
1 0.37969 0
1 0.401877 0
1 0.420279 0.00172427
0 0.125078 0.108278
0 0.126467 0.106996
0 0.127337 0.105013
0 0.127871 0.10277
0 0.128069 0.100435
0 0.127779 0.097734
0 0.127718 0.094789
0.000839246 0.12723 0.090425
0.0356909 0.12549 0.0820172
0.076936 0.125078 0.0617533
0.142061 0.118639 0.0483101
0.224018 0.105501 0.0373541
0.311971 0.0914626 0.0271916
0.403006 0.0779126 0.0182193
0.493462 0.0676585 0.00875868
0.584329 0.0599527 0
0.674525 0.0544137 0
0.762753 0.0520638 0
0.847227 0.053727 0
0.927092 0.0608225 0
1 0.0742504 0
1 0.0957656 0
1 0.123735 0
1 0.155688 0
1 0.191012 0
1 0.227878 0
1 0.264439 0
1 0.300038 0
1 0.332708 0
1 0.361913 0
1 0.387152 0
1 0.408789 0
1 0.426459 0.0031281
0 0.158907 0.134569
0 0.160357 0.133852
0 0.161761 0.13286
0 0.162417 0.131029
0 0.162921 0.129091
0 0.163012 0.126726
0 0.163104 0.123644
0 0.162692 0.118944
0.0180972 0.160906 0.110979
0.0485847 0.163363 0.0829938
0.120592 0.15436 0.0641337
0.201846 0.144488 0.0434119
0.292439 0.129702 0.030045
0.385183 0.115694 0.0190585
0.478035 0.103593 0.0087129
0.571099 0.0940566 0
0.662989 0.0872206 0
0.752819 0.0836042 0
0.838819 0.0848402 0
0.919463 0.0915084 0
0.993851 0.104402 0
1 0.123033 0
1 0.147585 0
1 0.17731 0
1 0.209903 0
1 0.244327 0
1 0.279332 0
1 0.312779 0
1 0.344015 0
1 0.372076 0
1 0.396597 0
1 0.417426 0
1 0.434714 0.00575265
0 0.197101 0.157534
0 0.198871 0.158053
0 0.200259 0.157992
0 0.201175 0.157198
0 0.201923 0.156039
0 0.202304 0.154376
0 0.202686 0.151904
0 0.202533 0.147601
0.00683604 0.201053 0.140154
0.0449989 0.200626 0.119005
0.0989853 0.196735 0.0885634
0.176242 0.189319 0.052079
0.26891 0.17528 0.0372931
0.363668 0.160479 0.0225223
0.459098 0.147356 0.0101472
0.554116 0.136355 0
0.6486 0.128511 0
0.740368 0.12401 0
0.827756 0.12369 0
0.909682 0.12871 0
0.985367 0.139116 0
1 0.154955 0
1 0.176806 0
1 0.202991 0
1 0.233036 0
1 0.264805 0
1 0.297459 0
1 0.32874 0
1 0.358358 0
1 0.385061 0
1 0.408743 0
1 0.428687 0.00251774
1 0.444907 0.00886549
0 0.239872 0.180423
0 0.241505 0.180636
0 0.242618 0.180362
0 0.243336 0.179675
0 0.244068 0.178897
0 0.244694 0.17792
0 0.244907 0.175845
0 0.244953 0.172519
0.0134279 0.243915 0.166705
0.0442664 0.244953 0.148775
0.0720378 0.247044 0.112016
0.154803 0.23473 0.0934462
0.238819 0.227771 0.0497902
0.338323 0.21265 0.0319677
0.43679 0.198154 0.0153811
0.534249 0.185565 0.00170901
0.631083 0.176028 0
0.724788 0.169833 0
0.814176 0.16788 0
0.89778 0.170932 0
0.974197 0.17882 0
1 0.192081 0
1 0.210788 0
1 0.234073 0
1 0.260624 0
1 0.289754 0
1 0.319585 0
1 0.348714 0
1 0.376303 0
1 0.401648 0
1 0.423621 0
1 0.442466 0.00686656
1 0.458213 0.0135042
0 0.287892 0.207813
0 0.289372 0.20795
0 0.290272 0.207614
0 0.291127 0.207172
0 0.291539 0.206302
0 0.292042 0.205356
0 0.29247 0.203876
0 0.292409 0.201144
0.0292363 0.291585 0.196551
0.0467842 0.295232 0.178851
0.0589761 0.299626 0.145083
0.132799 0.290135 0.127123
0.214649 0.279576 0.0968948
0.3075 0.271153 0.0496071
0.410498 0.25565 0.0282444
0.511254 0.241901 0.00994888
0.61059 0.230518 0
0.706355 0.222187 0
0.797696 0.218601 0
0.882765 0.21915 0
0.961242 0.224475 0
1 0.235019 0
1 0.250477 0
1 0.270436 0
1 0.293568 0
1 0.319326 0
1 0.346197 0
1 0.37293 0
1 0.398184 0
1 0.421485 0
1 0.441962 0.00497444
1 0.459678 0.0125887
1 0.474464 0.0194705
0 0.341192 0.239826
0 0.342504 0.239994
0 0.343191 0.239582
0 0.343908 0.239155
0 0.344228 0.238361
0 0.344701 0.237613
0 0.345068 0.236347
0.0208438 0.344961 0.234073
0.0402686 0.347189 0.226108
0.0526741 0.350668 0.210269
0.0641947 0.354345 0.1841
0.112993 0.350774 0.159472
0.193149 0.337972 0.143755
0.279576 0.329549 0.0981765
0.379553 0.319219 0.0523079
0.485634 0.30428 0.0283818
0.587442 0.291447 0.00856031
0.685374 0.281071 0
0.778881 0.274891 0
0.865354 0.273091 0
0.944991 0.275746 0
1 0.283314 0
1 0.295323 0
1 0.312078 0
1 0.33164 0
1 0.354025 0
1 0.377752 0
1 0.401862 0
1 0.424598 0
1 0.445579 0.00433356
1 0.464469 0.0127565
1 0.480751 0.0205844
1 0.494377 0.0275425
0 0.399191 0.276219
0 0.400122 0.276158
0 0.400687 0.275731
0 0.401328 0.27538
0 0.401495 0.274586
0.0153811 0.401862 0.273899
0.0321202 0.402792 0.271778
0.0412451 0.404929 0.265476
0.052018 0.407889 0.256703
0.0631113 0.410834 0.243229
0.0737621 0.41387 0.222156
0.0950637 0.415076 0.193393
0.174746 0.40296 0.183001
0.259129 0.390478 0.16144
0.34992 0.384237 0.0975662
0.454582 0.371405 0.0597696
0.561288 0.357183 0.0334936
0.662242 0.345464 0.0123598
0.757076 0.336721 0
0.845869 0.332525 0
0.926802 0.332448 0
1 0.337194 0
1 0.345983 0
1 0.358816 0
1 0.375158 0
1 0.394003 0
1 0.414496 0
1 0.435416 0
1 0.455299 0.0061799
1 0.47425 0.0151369
1 0.490867 0.0233005
1 0.505501 0.0311437
1 0.517754 0.038056
0 0.460853 0.316014
0.0109255 0.461311 0.315618
0.0268101 0.462058 0.315007
0.033402 0.463676 0.312413
0.0390936 0.464851 0.309529
0.0450294 0.466331 0.306615
0.0520485 0.468086 0.302663
0.0598917 0.469871 0.297017
0.069337 0.472328 0.289067
0.0790417 0.474693 0.277348
0.0890059 0.477333 0.26009
0.0967269 0.4795 0.233631
0.160952 0.470817 0.221042
0.241566 0.457267 0.208164
0.32961 0.44596 0.178134
0.423865 0.440955 0.102785
0.531441 0.427161 0.073991
0.636103 0.413779 0.045716
0.734035 0.403311 0.0235294
0.824598 0.396658 0.0078584
0.907256 0.393683 0
0.981628 0.39559 0
1 0.401022 0
1 0.410529 0
1 0.423606 0
1 0.438743 0
1 0.455634 0.00384527
1 0.473518 0.012192
1 0.490623 0.0207065
1 0.507042 0.0296941
1 0.521798 0.0382086
1 0.534661 0.0460517
1 0.545724 0.0528725
0.0451057 0.528222 0.351141
0.0515297 0.529717 0.348791
0.0571756 0.530983 0.346334
0.0624094 0.532128 0.343816
0.0675517 0.533303 0.341207
0.0724956 0.534493 0.338445
0.0783856 0.535882 0.334752
0.0851606 0.53724 0.329488
0.0927596 0.539208 0.322454
0.100298 0.540948 0.312078
0.107958 0.543069 0.297612
0.114366 0.544427 0.275975
0.155352 0.539559 0.259495
0.227893 0.52697 0.250095
0.313954 0.513024 0.233387
0.404181 0.503563 0.192721
0.500511 0.498451 0.118975
0.607523 0.484581 0.0949569
0.708507 0.472831 0.0664988
0.801923 0.463432 0.0436103
0.886244 0.458473 0.0280766
0.962234 0.457374 0.0184329
1 0.459815 0.0129702
1 0.466407 0.0119936
1 0.47567 0.0137484
1 0.487663 0.018265
1 0.501244 0.024506
1 0.515663 0.0320897
1 0.530236 0.0406958
1 0.544045 0.0493324
1 0.556802 0.0576333
1 0.567895 0.0653239
1 0.577234 0.0719921
0.0851301 0.598978 0.382574
0.0895857 0.599741 0.380102
0.0939498 0.600793 0.377798
0.0979629 0.601785 0.375463
0.10161 0.602686 0.373007
0.105028 0.603479 0.370352
0.108766 0.604242 0.366766
0.113542 0.605463 0.362066
0.118837 0.606851 0.355612
0.124163 0.608042 0.346502
0.129778 0.609354 0.333913
0.134936 0.610193 0.315908
0.158556 0.607309 0.297704
0.222385 0.596216 0.290089
0.302937 0.582254 0.279164
0.391226 0.569207 0.256382
0.482185 0.561822 0.203418
0.579049 0.555383 0.142367
0.681697 0.542687 0.119799
0.777142 0.532403 0.0952621
0.864561 0.524941 0.0734569
0.941482 0.520974 0.057969
1 0.521019 0.0491798
1 0.524559 0.0451209
1 0.530541 0.0445411
1 0.539467 0.047715
1 0.549706 0.0525521
1 0.561318 0.0595102
1 0.573251 0.0674907
1 0.584604 0.0755016
1 0.595178 0.08336
1 0.604456 0.0902876
1 0.612436 0.0962997
0.124315 0.668437 0.412757
0.127214 0.669184 0.410529
0.1299 0.669902 0.408331
0.132296 0.670451 0.406073
0.134356 0.670771 0.403525
0.136599 0.671366 0.401083
0.139315 0.672038 0.397894
0.142428 0.672877 0.393622
0.145708 0.673411 0.387549
0.149706 0.674327 0.379553
0.153521 0.674754 0.368261
0.157595 0.675166 0.353094
0.170489 0.673075 0.335241
0.226261 0.66334 0.328908
0.299367 0.650324 0.320592
0.383932 0.635966 0.30602
0.471641 0.624949 0.275135
0.561273 0.620066 0.21033
0.656229 0.611948 0.167636
0.752758 0.600107 0.146807
0.841428 0.591257 0.126421
0.92105 0.585306 0.109285
0.990463 0.582895 0.0970626
1 0.5832 0.0891127
1 0.586847 0.0859236
1 0.592782 0.0864576
1 0.60029 0.0894026
1 0.609049 0.0943618
1 0.618433 0.100221
1 0.627482 0.106386
1 0.635996 0.112535
1 0.643854 0.118303
1 0.650568 0.123415
0.159609 0.735393 0.440818
0.16112 0.735546 0.438575
0.162737 0.735988 0.4365
0.164294 0.73637 0.434394
0.165759 0.736675 0.432181
0.167208 0.737011 0.429938
0.168872 0.737392 0.426947
0.170626 0.737438 0.422766
0.173007 0.737865 0.417365
0.175723 0.738231 0.410193
0.178317 0.738064 0.400244
0.181155 0.737774 0.386816
0.19089 0.735378 0.371191
0.239246 0.726818 0.365866
0.304585 0.714672 0.358862
0.382788 0.700603 0.348363
0.467201 0.68748 0.328191
0.552743 0.679011 0.287633
0.639124 0.676081 0.212985
0.730648 0.665949 0.192645
0.819974 0.655924 0.174762
0.90016 0.6486 0.158099
0.971115 0.643549 0.144259
1 0.641993 0.134966
1 0.643015 0.12958
1 0.646479 0.127489
1 0.651576 0.128038
1 0.657679 0.130373
1 0.664866 0.134447
1 0.67187 0.13904
1 0.678859 0.143984
1 0.684962 0.148547
1 0.690379 0.152605
0.191058 0.797879 0.46569
0.192096 0.798001 0.463615
0.193118 0.798184 0.461707
0.194095 0.798352 0.459785
0.194827 0.798321 0.457588
0.195514 0.798215 0.455375
0.196551 0.79826 0.452491
0.197894 0.798321 0.448844
0.199344 0.798352 0.443915
0.200977 0.798077 0.4374
0.20267 0.797498 0.428336
0.204593 0.796689 0.416617
0.216678 0.793408 0.40502
0.260761 0.785168 0.400214
0.319615 0.773922 0.394156
0.390921 0.760616 0.385733
0.469673 0.747173 0.37116
0.550958 0.736492 0.343496
0.632975 0.730526 0.293095
0.714504 0.727031 0.232532
0.801114 0.716869 0.21706
0.881529 0.708385 0.201846
0.95317 0.702281 0.188159
1 0.698772 0.177676
1 0.697963 0.170779
1 0.699046 0.166949
1 0.702083 0.165957
1 0.706127 0.166873
1 0.711391 0.169619
1 0.716686 0.173037
1 0.721843 0.176593
1 0.726589 0.180102
1 0.730999 0.183642
0.219242 0.854902 0.486625
0.21973 0.854719 0.484764
0.220157 0.85452 0.482719
0.220691 0.85452 0.480934
0.22118 0.854414 0.478965
0.221683 0.854292 0.476921
0.222324 0.854185 0.474449
0.223133 0.853986 0.471122
0.223987 0.853697 0.466621
0.224796 0.852842 0.460472
0.22591 0.851972 0.452491
0.227176 0.850706 0.442222
0.248783 0.84567 0.435889
0.289342 0.838041 0.431785
0.343069 0.827451 0.426337
0.407858 0.814984 0.419089
0.480934 0.802075 0.407568
0.557031 0.7906 0.386954
0.633875 0.782712 0.350713
0.710643 0.779095 0.291905
0.787991 0.773587 0.252476
0.867002 0.764202 0.240467
0.937545 0.757214 0.228061
0.999619 0.752346 0.217502
1 0.749599 0.209781
1 0.749081 0.205097
1 0.750515 0.20322
1 0.752895 0.203128
1 0.756405 0.2047
1 0.760113 0.207004
1 0.763928 0.209705
1 0.767819 0.212757
1 0.770871 0.215228
0.243641 0.90515 0.503105
0.243931 0.904952 0.501305
0.244221 0.904738 0.499489
0.244511 0.904601 0.497871
0.244785 0.904356 0.496086
0.24506 0.904112 0.494194
0.245426 0.903853 0.491966
0.245884 0.90338 0.488807
0.246174 0.902602 0.484581
0.246662 0.901701 0.479149
0.247333 0.900526 0.47216
0.259571 0.897566 0.466789
0.287602 0.891737 0.46363
0.325856 0.884337 0.460014
0.374517 0.87454 0.455131
0.433295 0.86331 0.448783
0.49926 0.850904 0.438712
0.569482 0.839323 0.421958
0.641215 0.830365 0.393774
0.713024 0.824979 0.349248
0.783673 0.82266 0.288273
0.855909 0.81471 0.273671
0.92546 0.806699 0.263371
0.986557 0.800855 0.253712
1 0.797116 0.246204
1 0.795407 0.241291
1 0.795163 0.238605
1 0.796551 0.238087
1 0.79855 0.238697
1 0.800946 0.240085
1 0.803616 0.241993
1 0.8065 0.244358
1 0.808911 0.246342
0.264775 0.948699 0.515129
0.264897 0.948394 0.513481
0.265034 0.948089 0.511833
0.265187 0.94786 0.510399
0.265309 0.94754 0.508751
0.265446 0.947188 0.507057
0.265644 0.946853 0.505104
0.265858 0.946242 0.502251
0.266194 0.945434 0.498421
0.270436 0.943893 0.494499
0.285664 0.94081 0.492882
0.306264 0.936675 0.490791
0.333211 0.931044 0.488045
0.368673 0.923919 0.484733
0.41239 0.915312 0.480583
0.465095 0.90457 0.474418
0.52459 0.892958 0.465217
0.589105 0.881987 0.450797
0.655177 0.872724 0.427466
0.721965 0.866316 0.391562
0.788144 0.862959 0.340047
0.852064 0.8589 0.303319
0.917952 0.850736 0.294408
0.97702 0.844282 0.286336
1 0.839658 0.279408
1 0.836789 0.274418
1 0.835538 0.271427
1 0.835813 0.270405
1 0.836835 0.270436
1 0.838315 0.271244
1 0.84007 0.272496
1 0.841886 0.273915
1 0.843778 0.275517
0.283589 0.984604 0.52224
0.283818 0.984268 0.520562
0.284291 0.983917 0.518944
0.28751 0.983291 0.518624
0.291157 0.982498 0.518212
0.294987 0.981674 0.5178
0.299977 0.980606 0.517266
0.306188 0.979355 0.516686
0.314961 0.977493 0.51577
0.326192 0.975204 0.514687
0.340795 0.971893 0.51313
0.360433 0.96788 0.511315
0.385962 0.962661 0.508995
0.417655 0.955993 0.505928
0.457053 0.94789 0.501854
0.50428 0.938369 0.496147
0.557 0.927886 0.487465
0.614557 0.917433 0.474052
0.675502 0.908507 0.453452
0.736721 0.901808 0.422934
0.797787 0.897734 0.380392
0.857191 0.895216 0.331655
0.916121 0.88838 0.320729
0.972473 0.881468 0.314321
1 0.876402 0.308446
1 0.872892 0.303761
1 0.871061 0.300877
1 0.870268 0.299184
1 0.87042 0.298634
1 0.871199 0.298863
1 0.872404 0.299641
1 0.873457 0.300374
1 0.874769 0.301411
0.341207 1 0.535943
0.344839 1 0.535592
0.348455 1 0.535241
0.352056 1 0.53489
0.355444 1 0.534508
0.358724 1 0.534157
0.363516 1 0.533654
0.369894 1 0.533043
0.377798 1 0.532357
0.388815 0.998154 0.53138
0.402594 0.99527 0.530114
0.420569 0.991501 0.528496
0.443168 0.986481 0.526177
0.471412 0.980606 0.523323
0.506706 0.973266 0.519326
0.547494 0.964706 0.513466
0.594263 0.955673 0.505165
0.64506 0.94641 0.492454
0.699535 0.938064 0.473579
0.755764 0.931395 0.44622
0.812131 0.92694 0.408988
0.866972 0.924666 0.361883
0.91928 0.919829 0.343435
0.972198 0.912734 0.338048
1 0.907271 0.332876
1 0.9037 0.328862
1 0.901213 0.32575
1 0.899733 0.323674
1 0.899214 0.322591
1 0.89958 0.322469
1 0.900069 0.322545
1 0.901045 0.323171
1 0.901747 0.323568
0.411292 1 0.548913
0.414633 1 0.548608
0.417945 1 0.548302
0.420844 1 0.548074
0.42417 1 0.547784
0.427665 1 0.547463
0.43212 1 0.547066
0.437522 1 0.546563
0.444968 1 0.545861
0.454749 1 0.54493
0.467002 1 0.54374
0.482719 1 0.542168
0.502403 1 0.539849
0.527428 0.998535 0.536858
0.557366 0.99234 0.53283
0.592844 0.984894 0.526802
0.633799 0.977081 0.518349
0.679011 0.968933 0.50576
0.727535 0.9617 0.487953
0.777752 0.955535 0.462959
0.828748 0.951125 0.429816
0.879133 0.948562 0.388418
0.927413 0.945037 0.364248
0.976272 0.938766 0.357717
1 0.93312 0.353155
1 0.928923 0.34905
1 0.926162 0.345953
1 0.92459 0.343908
1 0.923812 0.342641
1 0.923537 0.341909
1 0.923766 0.341711
1 0.924056 0.341665
1 0.92459 0.341894
0.480613 1 0.559136
0.483574 1 0.558831
0.486168 1 0.558602
0.48896 1 0.558343
0.491905 1 0.558053
0.494942 1 0.557748
0.498802 1 0.557336
0.503807 1 0.556786
0.510002 1 0.556146
