public/textures/grade/DJI/Parasitic-DLog.cube
TITLE "Generated by Resolve"
LUT_3D_SIZE 33
0 0 0
0 0 0
0 0 0
0.0294041 0 0
0.0589609 0 0
0.0861219 0 0
0.117266 0 0
0.15433 0 0
0.196872 0 0
0.244556 0 0
0.297688 0 0
0.355825 0 0
0.41738 0 0
0.480888 0 0
0.544213 0 0
0.605066 0 0
0.662882 0 0
0.715679 0 0
0.762295 0 0
0.805127 0 0
0.845258 0.0196841 0
0.88307 0.0554818 0
0.9281 0.0931868 0
0.976638 0.133028 0
1 0.175051 0
1 0.218479 0
1 0.261097 0
1 0.301564 0
1 0.338704 0
1 0.371786 0
1 0.400305 0
1 0.424491 0
1 0.44419 0
0 0.00714122 0
0 0.00631724 0
0 0.00450141 0
0.0177005 0 0
0.0474556 0 0
0.0756695 0 0
0.107485 0 0
0.144884 0 0
0.187549 0 0
0.23624 0 0
0.289876 0 0
0.348302 0 0
0.410147 0 0
0.473777 0 0
0.536858 0 0
0.598093 0 0
0.656336 0 0
0.70988 0 0
0.758251 0 0
0.802899 0.00183108 0
0.844007 0.0311131 0
0.882475 0.065507 0
0.927031 0.102495 0
0.975631 0.140826 0
1 0.1823 0
1 0.224384 0
1 0.266255 0
1 0.306065 0
1 0.342901 0
1 0.375677 0
1 0.403845 0
1 0.427588 0
1 0.447242 0
0 0.0208591 0
0 0.0197147 0
0 0.0185092 0
0.00621042 0.0144198 0
0.0348363 0.00985733 0
0.0633402 0.00526436 0
0.0960708 0 0
0.134447 0 0
0.178134 0 0
0.227054 0 0
0.281071 0 0
0.339681 0 0
0.401526 0 0
0.46569 0 0
0.529091 0 0
0.591134 0 0
0.650019 0 0
0.704784 0 0
0.754726 0 0
0.800351 0.0144808 0
0.842542 0.042298 0
0.882109 0.0755627 0
0.925795 0.111208 0
0.974655 0.148852 0
1 0.188907 0
1 0.23061 0
1 0.271748 0
1 0.310872 0
1 0.347189 0
1 0.379538 0
1 0.407355 0
1 0.430701 0
1 0.450263 0
0 0.0354162 0
0 0.0343786 0
0 0.0333562 0
0 0.0309911 0
0.0213626 0.0267491 0
0.0486458 0.0228428 0
0.0817884 0.0178531 0
0.120699 0.0119478 0
0.165301 0.00540169 0
0.215671 0 0
0.271107 0 0
0.330617 0 0
0.393057 0 0
0.457679 0 0
0.522271 0 0
0.584588 0 0
0.64448 0 0
0.699977 0 0
0.751156 0.00497444 0
0.797955 0.0264744 0
0.841062 0.0531167 0
0.881407 0.0850538 0
0.924849 0.120043 0
0.973602 0.156268 0
1 0.195789 0
1 0.236591 0
1 0.277012 0
1 0.315496 0
1 0.351156 0
1 0.382956 0
1 0.410727 0
1 0.433906 0
1 0.453239 0
0 0.0499733 0
0 0.0491035 0
0 0.0483558 0
0 0.0467231 0
0.00947585 0.0430304 0
0.0355535 0.0394293 0
0.0676127 0.0350042 0
0.106218 0.0295109 0
0.152178 0.0228733 0
0.203296 0.0157626 0
0.259709 0.00839246 0
0.320638 0.00137331 0
0.384253 0 0
0.449546 0 0
0.514824 0 0
0.578103 0 0
0.638788 0 0
0.695201 0.00299077 0
0.747265 0.0177005 0
0.795483 0.0379034 0
0.839918 0.0637064 0
0.880766 0.0942397 0
0.923552 0.128374 0
0.972824 0.163851 0
1 0.202121 0
1 0.242206 0
1 0.281926 0
1 0.320165 0
1 0.355047 0
1 0.386572 0
1 0.413718 0
1 0.437064 0
1 0.456092 0
0 0.0644236 0
0 0.0637369 0
0 0.0631418 0
0 0.0618753 0
0 0.0589151 0
0.0243687 0.0556344 0
0.0552987 0.0515602 0
0.0932479 0.0462959 0
0.138766 0.0398566 0
0.190585 0.0328069 0
0.248188 0.025391 0
0.309712 0.0181277 0
0.374304 0.0114748 0
0.440818 0.00646983 0
0.506935 0.00340276 0
0.571069 0.00386053 0
0.63267 0.00782788 0
0.690166 0.0164645 0
0.74374 0.0304112 0
0.792844 0.049485 0
0.838437 0.0740368 0
0.880385 0.103777 0
0.922621 0.13698 0
0.971389 0.171389 0
1 0.209033 0
1 0.248203 0
1 0.287221 0
1 0.324727 0
1 0.35935 0
1 0.390448 0
1 0.417258 0
1 0.44033 0
1 0.458839 0
0 0.0817731 0
0 0.0813764 0
0 0.0810407 0
0 0.0802167 0
0 0.0782635 0
0.0106661 0.0749676 0
0.0410468 0.0711681 0
0.0780804 0.0664378 0
0.123095 0.0604868 0
0.175097 0.0535134 0
0.233463 0.0458228 0
0.296376 0.0383764 0
0.362127 0.031693 0
0.429221 0.0260624 0
0.496422 0.0227665 0
0.561852 0.0222324 0
0.624933 0.0255589 0
0.683787 0.0332952 0
0.739071 0.0460822 0
0.790005 0.0638285 0
0.836454 0.0870069 0
0.879408 0.115312 0
0.921355 0.147646 0
0.970275 0.181186 0
1 0.217746 0
1 0.255756 0
1 0.294087 0
1 0.330587 0
1 0.364782 0
1 0.395361 0
1 0.421744 0
1 0.444221 0
1 0.462623 0
0 0.102831 0
0 0.10277 0
0 0.102602 0
0 0.101976 0
0 0.100786 0
0 0.0979934 0
0.0259251 0.0946975 0
0.0614328 0.090486 0
0.10457 0.0851453 0
0.15642 0.0785534 0
0.21532 0.0710918 0
0.278676 0.0635233 0
0.34612 0.0562448 0
0.414939 0.0503853 0
0.483467 0.0462654 0
0.550652 0.0454414 0
0.615167 0.0476844 0
0.676326 0.0541238 0
0.733211 0.0652781 0
0.786267 0.0818036 0
0.834302 0.10341 0
0.878019 0.130068 0
0.919402 0.161074 0
0.968444 0.193271 0
1 0.228519 0
1 0.265415 0
1 0.302403 0
1 0.33846 0
1 0.371313 0
1 0.401221 0
1 0.427451 0
1 0.449363 0
1 0.467689 0
0 0.127886 0
0 0.128313 0
0 0.128252 0
0 0.127962 0
0 0.127077 0
0 0.125612 0
0.00929274 0.122286 0
0.0436255 0.118685 0
0.0856184 0.113878 0
0.135515 0.107942 0
0.193637 0.101061 0
0.257649 0.0935378 0
0.326528 0.0860151 0
0.396796 0.0797284 0
0.467521 0.0750896 0
0.536614 0.0728923 0
0.603479 0.0744793 0
0.666911 0.0795758 0
0.726406 0.0890516 0
0.781338 0.103716 0
0.831159 0.123522 0
0.876417 0.148669 0
0.91696 0.178042 0
0.965896 0.208637 0
1 0.242267 0
1 0.277623 0
1 0.313558 0
1 0.348028 0
1 0.380392 0
1 0.4094 0
1 0.434592 0
1 0.456199 0
1 0.474098 0
0 0.157595 0
0 0.158267 0
0 0.158465 0
0 0.158434 0
0 0.157855 0
0 0.156802 0
0 0.154223 0
0.0264134 0.150866 0
0.0665599 0.147158 0
0.114748 0.141985 0
0.170871 0.135683 0
0.234501 0.128588 0
0.303487 0.121126 0
0.375616 0.114397 0
0.448386 0.109209 0
0.520165 0.106249 0
0.589471 0.106111 0
0.655772 0.110063 0
0.718059 0.117708 0
0.77528 0.130724 0
0.827237 0.148577 0
0.873518 0.171389 0
0.914107 0.199222 0
0.962722 0.227817 0
1 0.259464 0
1 0.293141 0
1 0.327367 0
1 0.360403 0
1 0.391424 0
1 0.419409 0
1 0.444099 0
1 0.464759 0
1 0.482139 0
0 0.192004 0
0 0.19266 0
0 0.193286 0
0 0.193271 0
0 0.193149 0
0 0.192355 0
0 0.190967 0
0.0100557 0.18764 0
0.048661 0.184253 0
0.0943923 0.180255 0
0.148348 0.174945 0
0.210239 0.168536 0
0.278492 0.1617 0
0.351904 0.154635 0
0.426505 0.148959 0
0.501106 0.14493 0
0.573846 0.143877 0
0.642878 0.145922 0
0.708003 0.152209 0
0.767865 0.16289 0
0.822019 0.178729 0
0.869749 0.19939 0
0.910552 0.224659 0
0.958663 0.251392 0
1 0.281041 0
1 0.312383 0
1 0.344732 0
1 0.376303 0
1 0.405829 0
1 0.432563 0
1 0.455787 0
1 0.476005 0
1 0.492714 0
0 0.230884 0
0 0.231891 0
0 0.23238 0
0 0.232761 0
0 0.232624 0
0 0.232441 0
0 0.231418 0
0 0.228962 0
0.0322881 0.226154 0
0.0755322 0.222782 0
0.126589 0.218601 0
0.185977 0.21323 0
0.253498 0.20676 0
0.326131 0.200397 0
0.402686 0.194461 0
0.479683 0.189593 0
0.555016 0.187366 0
0.62742 0.187961 0
0.69572 0.192523 0
0.758572 0.201236 0
0.814542 0.214557 0
0.863249 0.232868 0
0.905531 0.255436 0
0.953201 0.280049 0
0.996551 0.306966 0
1 0.336141 0
1 0.36614 0
1 0.39559 0
1 0.423301 0
1 0.448631 0
1 0.470573 0
1 0.489799 0
1 0.505684 0
0 0.274907 0
0 0.27599 0
0 0.276753 0
0 0.277134 0
0 0.27744 0
0 0.277241 0
0 0.27689 0
0 0.274998 0
0.0187076 0.272786 0
0.0595407 0.270207 0
0.107866 0.26688 0
0.164614 0.262577 0
0.229023 0.257313 0
0.300664 0.251362 0
0.377462 0.245441 0
0.456153 0.240055 0
0.534524 0.236652 0
0.609873 0.236194 0
0.680903 0.238758 0
0.746014 0.245289 0
0.804059 0.256382 0
0.854917 0.271931 0
0.898756 0.291981 0
0.946578 0.313817 0
0.990585 0.338277 0
1 0.364675 0
1 0.391821 0
1 0.419013 0
1 0.444633 0
1 0.46836 0
1 0.488991 0
1 0.506966 0
1 0.521798 0
0 0.324102 0
0 0.325322 0
0 0.326284 0
0 0.326772 0
0 0.327306 0
0 0.327306 0
0 0.327413 0
0 0.326528 0
0.00688182 0.324453 0
0.0454566 0.322377 0
0.0912032 0.319829 0
0.145006 0.316747 0
0.206897 0.312444 0
0.276295 0.306966 0
0.351675 0.301396 0
0.43151 0.296086 0
0.511498 0.292027 0
0.589151 0.28986 0
0.662776 0.291112 0
0.730373 0.29546 0
0.791196 0.304463 0
0.843931 0.317357 0
0.88957 0.33434 0
0.938369 0.353262 0
0.982681 0.374792 0
1 0.398398 0
1 0.422873 0
1 0.447333 0
1 0.47068 0
1 0.492134 0
1 0.511345 0
1 0.527916 0
1 0.54168 0
0 0.379217 0
0 0.380468 0
0 0.381323 0
0 0.382025 0
0 0.382696 0
0 0.382864 0
0 0.383154 0
0 0.383062 0
0 0.38117 0
0.033463 0.379614 0
0.0767987 0.377981 0
0.127626 0.375326 0
0.186648 0.371817 0
0.253681 0.367285 0
0.327764 0.362066 0
0.406256 0.35697 0
0.486717 0.352056 0
0.566155 0.349096 0
0.642344 0.348669 0
0.711955 0.351263 0
0.775113 0.357763 0
0.830259 0.367956 0
0.877958 0.381811 0
0.928161 0.397803 0
0.973373 0.416175 0
1 0.437125 0
1 0.458595 0
1 0.480308 0
1 0.501076 0
1 0.520638 0
1 0.538018 0
1 0.553048 0
1 0.565637 0
0 0.440116 0
0 0.44123 0
0 0.441978 0
0 0.442802 0
0 0.443397 0
0 0.443626 0
0 0.444022 0
0 0.444007 0
0 0.442634 0
0.0248569 0.441215 0
0.0661173 0.439826 0
0.114504 0.437522 0
0.170489 0.434562 0
0.234562 0.43064 0
0.30602 0.425879 0
0.383139 0.420783 0
0.462776 0.416175 0
0.542824 0.412451 0
0.619425 0.410559 0
0.692027 0.411444 0
0.756725 0.415671 0
0.814252 0.423331 0
0.865049 0.434134 0
0.917174 0.447532 0
0.962707 0.463035 0
1 0.480476 0
1 0.499214 0
1 0.518074 0
1 0.536553 0
1 0.553414 0
1 0.568872 0
1 0.582269 0
1 0.593408 0
0 0.505074 0
0 0.50605 0
0 0.506783 0
0 0.507408 0
0 0.507576 0
0 0.507897 0
0 0.508217 0
0 0.507881 0
0 0.506737 0
0.0230564 0.505394 0
0.0619211 0.504158 0
0.107332 0.502159 0
0.160128 0.499565 0
0.220905 0.496162 0
0.289143 0.49189 0
0.363653 0.487251 0
0.441337 0.482246 0
0.520882 0.477989 0
0.598016 0.47541 0
0.670878 0.475059 0
0.737758 0.47689 0
0.796902 0.482429 0
0.851759 0.490333 0
0.904738 0.50103 0
0.950866 0.513619 0
0.990784 0.528389 0
1 0.543908 0
1 0.560174 0
1 0.575616 0
1 0.590524 0
1 0.60383 0
1 0.615457 0
1 0.625345 0
0 0.572274 0
0 0.5729 0
0 0.573022 0
0 0.573419 0
0 0.573739 0
0 0.573953 0
0 0.573816 0
0 0.573541 0
0 0.572442 0
0.0289158 0.571145 0
0.0648508 0.570031 0
0.106828 0.568215 0
0.156558 0.565759 0
0.214008 0.562921 0
0.278508 0.558953 0
0.349401 0.55436 0
0.424857 0.549569 0
0.501884 0.545251 0
0.578637 0.541253 0
0.651438 0.539666 0
0.718791 0.540383 0
0.779919 0.543542 0
0.838163 0.549294 0
0.891646 0.557473 0
0.938293 0.567407 0
0.978744 0.579309 0
1 0.592294 0
1 0.605524 0
1 0.618784 0
1 0.631296 0
1 0.642649 0
1 0.652598 0
1 0.661067 0
0 0.639521 0
0 0.639826 0
0 0.640055 0
0 0.640208 0
0 0.640299 0
0 0.639994 0
0 0.639826 0
0 0.638972 0
0.0172427 0.638025 0
0.0438849 0.636942 0
0.076463 0.635874 0
0.115053 0.634058 0
0.160845 0.63183 0
0.214496 0.628992 0
0.274891 0.625238 0
0.341833 0.620813 0
0.413764 0.616037 0
0.488457 0.611337 0
0.562936 0.607401 0
0.635447 0.604608 0
0.702434 0.603754 0
0.766033 0.605341 0
0.82533 0.60943 0
0.878767 0.615457 0
0.925536 0.62298 0
0.966415 0.632364 0
1 0.642847 0
1 0.653666 0
1 0.664256 0
1 0.674586 0
1 0.684245 0
1 0.692653 0
1 0.699794 0
0 0.705425 0
0 0.705409 0
0 0.704997 0
0 0.704906 0
0 0.704707 0
0 0.704234 0
0.0100862 0.703609 0
0.0257267 0.703044 0
0.0447089 0.702022 0
0.0681773 0.701274 0
0.0973983 0.700175 0
0.13228 0.698314 0
0.17409 0.696025 0
0.223362 0.693278 0
0.279576 0.68954 0
0.341985 0.685237 0
0.409705 0.680461 0
0.480766 0.675593 0
0.552758 0.671168 0
0.623056 0.667704 0
0.690578 0.666423 0
0.754131 0.66714 0
0.813367 0.669474 0
0.866407 0.67332 0
0.913252 0.678996 0
0.954284 0.686122 0
0.989075 0.69427 0
1 0.702892 0
1 0.711528 0
1 0.720012 0
1 0.727672 0
1 0.734524 0
1 0.740505 0
0 0.767193 0
0.00825513 0.766659 0
0.0173953 0.766186 0
0.0256046 0.765911 0
0.0338445 0.765576 0
0.0417792 0.765347 0
0.0514687 0.764706 0
0.0647746 0.764096 0
0.0810254 0.763516 0
0.101823 0.762631 0
0.127031 0.761181 0
0.15848 0.759579 0
0.196139 0.757183 0
0.240681 0.754498 0
0.292073 0.75079 0
0.350042 0.746441 0
0.413382 0.742046 0
0.480125 0.737026 0
0.548318 0.732647 0
0.616114 0.729671 0
0.682139 0.727703 0
0.744518 0.726696 0
0.802701 0.727642 0
0.855116 0.730282 0
0.902144 0.734081 0
0.942992 0.739193 0
0.977905 0.745312 0
1 0.752056 0
1 0.75874 0
1 0.765377 0
1 0.771481 0
1 0.777249 0
1 0.782086 0
0.0563821 0.824933 0
0.0636149 0.824567 0
0.0708476 0.824155 0
0.0773938 0.823667 0
0.0841382 0.823087 0
0.0908064 0.822797 0
0.0997177 0.822293 0
0.110796 0.821729 0
0.125124 0.820935 0
0.143313 0.819883 0
0.165148 0.81828 0
0.193225 0.816495 0
0.226581 0.814145 0
0.266133 0.81146 0
0.312062 0.808026 0
0.364508 0.804517 0
0.422248 0.800214 0
0.483772 0.79588 0
0.547951 0.791714 0
0.612894 0.788144 0
0.676768 0.785428 0
0.737392 0.783856 0
0.794598 0.783383 0
0.846479 0.784527 0
0.892668 0.786954 0
0.933135 0.790356 0
0.967742 0.794736 0
0.996811 0.799802 0
1 0.804959 0
1 0.810071 0
1 0.814755 0
1 0.819409 0
1 0.823148 0
0.110719 0.880354 0
0.116609 0.879713 0
0.122225 0.879423 0
0.128145 0.879011 0
0.133944 0.878614 0
0.139498 0.878325 0
0.147036 0.877806 0
0.156344 0.877256 0
0.16875 0.876387 0
0.184375 0.875319 0
0.203342 0.873655 0
0.22771 0.8719 0
0.257313 0.869749 0
0.29247 0.866758 0
0.333883 0.863584 0
0.381704 0.859678 0
0.434318 0.855451 0
0.491875 0.850843 0
0.552453 0.846647 0
0.614191 0.842512 0
0.675273 0.83917 0
0.734112 0.836744 0
0.789273 0.83537 0
0.839841 0.835279 0
0.88539 0.836378 0
0.925078 0.83856 0
0.959228 0.841474 0
0.988067 0.845014 0
1 0.84889 0
1 0.852811 0
1 0.856794 0
1 0.860044 0
1 0.863188 0
0.168109 0.929503 0
0.173205 0.929107 0
0.177783 0.928817 0
0.182742 0.92842 0
0.18761 0.928038 0
0.192187 0.927749 0
0.19855 0.92723 0
0.206622 0.926604 0
0.216999 0.925795 0
0.230213 0.924773 0
0.246738 0.923064 0
0.267796 0.921324 0
0.2934 0.919249 0
0.324331 0.916289 0
0.361456 0.913176 0
0.404318 0.909194 0
0.452705 0.905226 0
0.505135 0.900694 0
0.561288 0.895964 0
0.618921 0.891539 0
0.676753 0.887694 0
0.733028 0.884672 0
0.786358 0.88275 0
0.835538 0.881575 0
0.880003 0.881575 0
0.918914 0.882795 0
0.952499 0.884688 0
0.980941 0.887007 0
1 0.889693 0
1 0.892622 0
1 0.895735 0
1 0.898177 0
1 0.900694 0
0.226444 0.972717 0
0.230533 0.972183 0
0.234241 0.971847 0
0.238361 0.971466 0
0.242466 0.971099 0
0.246677 0.970703 0
0.251606 0.970336 0
0.258579 0.969696 0
0.26714 0.968963 0
0.278721 0.96788 0
0.293019 0.966598 0
0.310948 0.964736 0
0.33286 0.962631 0
0.360433 0.960006 0
0.392782 0.956649 0
0.431113 0.953094 0
0.474235 0.948882 0
0.522499 0.94461 0
0.574182 0.939925 0
0.62768 0.935332 0
0.681895 0.931105 0
0.735576 0.927504 0
0.786496 0.924849 0
0.834043 0.923232 0
0.876783 0.922499 0
0.914824 0.922591 0
0.947509 0.923629 0
0.975341 0.92517 0
0.998901 0.926879 0
1 0.929152 0
1 0.931167 0
1 0.933257 0
1 0.934997 0
0.283467 1 0
0.286992 1 0
0.290501 1 0
0.29398 1 0
0.296971 1 0
0.300526 1 0
0.305074 1 0
0.310704 1 0
0.317861 1 0
0.327306 1 0
0.339803 1 0
0.355261 1 0
0.37467 0.999893 0
0.397894 0.997345 0
0.426627 0.994324 0
0.460151 0.990997 0
0.498924 0.986786 0
0.542168 0.982345 0
0.589654 0.977996 0
0.63946 0.973327 0
0.689967 0.968978 0
0.740429 0.964981 0
0.78883 0.962005 0
0.834211 0.959945 0
0.875914 0.958404 0
0.912474 0.957809 0
0.944472 0.957916 0
0.971664 0.958709 0
0.994583 0.96022 0
1 0.961547 0
1 0.963043 0
1 0.964492 0
1 0.965911 0
0.337758 1 0
0.340734 1 0
0.34313 1 0
0.345968 1 0
0.348775 1 0
0.351766 1 0
0.355612 1 0
0.360174 1 0
0.36669 1 0
0.374624 1 0
0.385382 1 0
0.398581 1 0
0.415213 1 0
0.435752 1 0
0.460655 1 0
0.49044 1 0
0.524987 1 0
0.564385 1 0
0.607263 1 0
0.653117 1 0
0.700099 1 0
0.747738 0.997406 0
0.793317 0.993942 0
0.836637 0.991165 0
0.876173 0.989349 0
0.911849 0.988266 0
0.943191 0.988083 0
0.96968 0.988205 0
0.991867 0.988739 0
1 0.989731 0
1 0.990799 0
1 0.991974 0
1 0.992889 0
0.387579 1 0
0.389822 1 0
0.392325 1 0
0.394751 1 0
0.397147 1 0
0.399634 1 0
0.402823 1 0
0.406653 1 0
0.412207 1 0
