public/textures/grade/DJI/Parasitic-DLog.cube
TITLE "Generated by Resolve"
LUT_3D_SIZE 5
0 0 0
0.196872 0 0
0.662882 0 0
1 0.175051 0
1 0.44419 0
0 0.127886 0
0.0856184 0.113878 0
0.603479 0.0744793 0
1 0.242267 0
1 0.474098 0
0 0.505074 0
0 0.506737 0
0.441337 0.482246 0
0.950866 0.513619 0
1 0.625345 0
0.226444 0.972717 0
0.26714 0.968963 0
0.474235 0.948882 0
0.876783 0.922499 0
1 0.934997 0
0.551019 1 0
0.565026 1 0
0.649912 1 0
0.895186 1 0
1 1 0
0 0 0.213275
0.148119 0 0.192203
0.676387 0 0.0331731
1 0.179782 0
1 0.443015 0
0 0.110063 0.106966
0.064271 0.108492 0.0958267
0.62565 0.0674754 0
1 0.247349 0
1 0.47303 0
0 0.509422 0
0 0.512123 0
0.447303 0.488167 0
0.951003 0.512734 0
1 0.624826 0
0.225635 0.972717 0
0.266392 0.968917 0
0.473869 0.948791 0
0.876738 0.922393 0
1 0.934905 0
0.550729 1 0
0.564752 1 0
0.649729 1 0
0.895155 1 0
1 1 0
0 0 0.884993
0.0531472 0 0.86598
0.590127 0 0.733791
1 0.130678 0.538109
1 0.422187 0.41442
0 0.0439155 0.797192
0.0302281 0.0426642 0.76939
0.553079 0.0233921 0.669154
1 0.201862 0.520409
1 0.452995 0.395666
0 0.482155 0.506966
0 0.488746 0.511208
0.403265 0.480919 0.486686
1 0.490608 0.362905
1 0.610803 0.285222
0.19321 0.983749 0.130358
0.233936 0.980087 0.121965
0.445777 0.959854 0.0770123
0.87512 0.921889 0.0109407
1 0.930373 0
0.548592 1 0
0.562737 1 0
0.648356 1 0
0.894865 1 0
1 1 0
0 0 1
0 0 1
0.483726 0 1
1 0 1
1 0.337896 1
0 0 1
0 0 1
0.488746 0 1
1 0.044358 1
1 0.373663 1
0 0.378286 1
0 0.403738 1
0.38584 0.40174 1
1 0.428962 1
1 0.545037 1
0.119554 0.954742 0.988113
0.164553 0.950637 0.983795
0.389639 0.92636 0.9579
0.827344 0.884352 0.904814
1 0.87364 0.866316
0.453681 1 0.876127
0.468513 1 0.873549
0.558526 1 0.857145
0.818509 1 0.794888
0.985473 1 0.733074
0 0 1
0 0 1
0.364935 0 1
1 0 1
1 0.0621347 1
0 0 1
0 0 1
0.371618 0 1
1 0 1
1 0.162356 1
0 0.140276 1
0 0.144259 1
0.360052 0.168231 1
1 0.283192 1
1 0.470359 1
0 0.950698 1
0.0587472 0.945846 1
0.339605 0.917189 1
0.822324 0.867918 1
1 0.859876 1
0.413565 1 1
0.430762 1 1
0.532357 1 1
0.81503 1 1
0.977172 1 1
