public/textures/grade/DJI/Parasitic-DLog.cube
TITLE "Generated by Resolve"
LUT_3D_SIZE 9
0 0 0
0.0589609 0 0
0.196872 0 0
0.41738 0 0
0.662882 0 0
0.845258 0.0196841 0
1 0.175051 0
1 0.338704 0
1 0.44419 0
0 0.0499733 0
0.00947585 0.0430304 0
0.152178 0.0228733 0
0.384253 0 0
0.638788 0 0
0.839918 0.0637064 0
1 0.202121 0
1 0.355047 0
1 0.456092 0
0 0.127886 0
0 0.127077 0
0.0856184 0.113878 0
0.326528 0.0860151 0
0.603479 0.0744793 0
0.831159 0.123522 0
1 0.242267 0
1 0.380392 0
1 0.474098 0
0 0.274907 0
0 0.27744 0
0.0187076 0.272786 0
0.229023 0.257313 0
0.534524 0.236652 0
0.804059 0.256382 0
0.990585 0.338277 0
1 0.444633 0
1 0.521798 0
0 0.505074 0
0 0.507576 0
0 0.506737 0
0.160128 0.499565 0
0.441337 0.482246 0
0.737758 0.47689 0
0.950866 0.513619 0
1 0.575616 0
1 0.625345 0
0 0.767193 0
0.0338445 0.765576 0
0.0810254 0.763516 0
0.196139 0.757183 0
0.413382 0.742046 0
0.682139 0.727703 0
0.902144 0.734081 0
1 0.75874 0
1 0.782086 0
0.226444 0.972717 0
0.242466 0.971099 0
0.26714 0.968963 0
0.33286 0.962631 0
0.474235 0.948882 0
0.681895 0.931105 0
0.876783 0.922499 0
0.998901 0.926879 0
1 0.934997 0
0.432013 1 0
0.440162 1 0
0.453269 1 0
0.489647 1 0
0.57615 1 0
0.723079 1 0
0.881453 1 0
0.989899 1 0
1 1 0
0.551019 1 0
0.556588 1 0
0.565026 1 0
0.589502 1 0
0.649912 1 0
0.761944 1 0
0.895186 1 0
0.992935 1 0
1 1 0
0 0 0.0722057
0.0376898 0 0.064332
0.185809 0 0.0346227
0.41796 0 0
0.67068 0 0
0.85507 0.0179294 0
1 0.173953 0
1 0.338048 0
1 0.443732 0
0 0.0402075 0.0324559
0.00517281 0.0374456 0.0245212
0.156847 0.0157473 0
0.389944 0 0
0.647242 0 0
0.848905 0.0624094 0
1 0.201205 0
1 0.354482 0
1 0.455695 0
0 0.121126 0
0 0.121904 0
0.0832532 0.111955 0
0.333577 0.0828565 0
0.612436 0.0728618 0
0.838956 0.122957 0
1 0.241398 0
1 0.379828 0
1 0.473701 0
0 0.273594 0
0 0.276707 0
0.0197299 0.27306 0
0.230838 0.25835 0
0.539422 0.237064 0
0.805524 0.255741 0
0.990692 0.337636 0
1 0.44419 0
1 0.521492 0
0 0.504707 0
0 0.507149 0
0 0.506416 0
0.159731 0.499184 0
0.441306 0.481819 0
0.737819 0.476493 0
0.950912 0.513283 0
1 0.575341 0
1 0.625147 0
0 0.767086 0
0.0332494 0.765454 0
0.0806134 0.763363 0
0.195804 0.757107 0
0.413199 0.741909 0
0.682078 0.727565 0
0.902144 0.733944 0
1 0.758633 0
1 0.781979 0
0.226139 0.972717 0
0.242145 0.971069 0
0.26685 0.968948 0
0.332631 0.9626 0
0.474098 0.948852 0
0.681834 0.931075 0
0.876768 0.922469 0
0.998901 0.926833 0
1 0.934966 0
0.431846 1 0
0.439994 1 0
0.453117 1 0
0.489525 1 0
0.576059 1 0
0.723018 1 0
0.881437 1 0
0.989883 1 0
1 1 0
0.550912 1 0
0.556481 1 0
0.56492 1 0
0.58941 1 0
0.649836 1 0
0.761913 1 0
0.895171 1 0
0.992935 1 0
1 1 0
0 0 0.213275
0.0217899 0 0.207263
0.148119 0 0.192203
0.403342 0 0.127123
0.676387 0 0.0331731
0.87454 0.0126955 0
1 0.179782 0
1 0.338323 0
1 0.443015 0
0 0.0316472 0.169284
0 0.0282902 0.163439
0.118364 0.0140993 0.15198
0.383185 0 0.0924392
0.655528 0 0.0152895
0.870069 0.0582895 0
1 0.20705 0
1 0.354406 0
1 0.455039 0
0 0.110063 0.106966
0 0.11104 0.104509
0.064271 0.108492 0.0958267
0.342626 0.0747997 0.0337987
0.62565 0.0674754 0
0.862562 0.120623 0
1 0.247349 0
1 0.378973 0
1 0.47303 0
0 0.267659 0.00183108
0 0.271916 0.002533
0.0221256 0.271672 0
0.231876 0.259678 0
0.556466 0.237201 0
0.832044 0.25771 0
0.996292 0.342596 0
1 0.443549 0
1 0.520989 0
0 0.509422 0
0 0.512276 0
0 0.512123 0
0.161212 0.50605 0
0.447303 0.488167 0
0.746777 0.480064 0
0.951003 0.512734 0
1 0.574914 0
1 0.624826 0
0 0.766888 0
0.0322728 0.765255 0
0.079942 0.763119 0
0.19527 0.75697 0
0.412894 0.741695 0
0.681971 0.727352 0
0.902159 0.73373 0
1 0.75845 0
1 0.781826 0
0.225635 0.972717 0
0.241642 0.971038 0
0.266392 0.968917 0
0.33228 0.962539 0
0.473869 0.948791 0
0.681727 0.930999 0
0.876738 0.922393 0
0.998901 0.926772 0
1 0.934905 0
0.431571 1 0
0.439719 1 0
0.452857 1 0
0.489296 1 0
0.575891 1 0
0.722942 1 0
0.881407 1 0
0.989868 1 0
1 1 0
0.550729 1 0
0.556313 1 0
0.564752 1 0
0.589258 1 0
0.649729 1 0
0.761852 1 0
0.895155 1 0
0.99292 1 0
1 1 0
0 0 0.492576
0 0 0.488975
0.107149 0 0.478248
0.341909 0 0.43328
0.659083 0 0.321889
0.892271 0 0.215
1 0.167193 0.151049
1 0.345449 0.0834821
1 0.452659 0.0167849
0 0.00605783 0.456718
0 0.00239567 0.449928
0.0866255 0 0.438117
0.320882 0 0.400397
0.641428 0 0.298436
0.891508 0.0396735 0.2056
1 0.195163 0.141054
1 0.362051 0.0754253
1 0.464149 0.00978103
0 0.0906539 0.381079
0 0.0918593 0.376516
0.0550851 0.0882429 0.367742
0.282689 0.0672923 0.345205
0.622568 0.0492103 0.265812
0.89012 0.103807 0.186404
1 0.236225 0.124834
1 0.38706 0.0630198
1 0.48217 0
0 0.249714 0.258427
0 0.254505 0.261067
0.0249332 0.257023 0.260212
0.194644 0.255161 0.248768
0.580026 0.22089 0.170108
0.869245 0.244968 0.121675
1 0.335744 0.0776989
1 0.452201 0.0297856
1 0.529885 0
0 0.504005 0.119646
0 0.507668 0.119463
0 0.509483 0.113954
0.152193 0.508324 0.0894331
0.449134 0.492485 0.0227207
0.780896 0.481956 0
0.9897 0.518608 0
1 0.583642 0
1 0.632456 0
0 0.781613 0
0.0259556 0.780621 0
0.072755 0.778958 0
0.18732 0.773434 0
0.409461 0.758129 0
0.691051 0.738582 0
0.90898 0.740368 0
1 0.760372 0
1 0.781323 0
0.224094 0.972671 0
0.240131 0.970916 0
0.265263 0.968704 0
0.331395 0.962341 0
0.473136 0.948608 0
0.681468 0.930785 0
0.876661 0.922179 0
0.998901 0.926574 0
1 0.934722 0
0.430732 1 0
0.438911 1 0
0.452232 1 0
0.488624 1 0
0.575418 1 0
0.722713 1 0
0.881315 1 0
0.989837 1 0
1 1 0
0.550195 1 0
0.555779 1 0
0.564248 1 0
0.588785 1 0
0.649378 1 0
0.761654 1 0
0.895079 1 0
0.992889 1 0
1 1 0
0 0 0.884993
0 0 0.880858
0.0531472 0 0.86598
0.2701 0 0.827131
0.590127 0 0.733791
0.865232 0 0.597589
1 0.130678 0.538109
1 0.309957 0.471824
1 0.422187 0.41442
0 0 0.874479
0 0 0.864851
0.0507668 0 0.847684
0.262211 0 0.802823
0.573892 0 0.704494
0.868437 0.00309758 0.595117
1 0.159609 0.531716
1 0.326909 0.464012
1 0.434379 0.407431
0 0.0439155 0.797192
0 0.0447395 0.78613
0.0302281 0.0426642 0.76939
0.235462 0.0318761 0.732464
0.553079 0.0233921 0.669154
0.873503 0.0711376 0.588617
1 0.201862 0.520409
1 0.353017 0.451087
1 0.452995 0.395666
0 0.219486 0.629664
0 0.226383 0.630091
0.00354009 0.22977 0.629053
0.185748 0.226505 0.623484
0.512688 0.205707 0.613184
0.870985 0.214801 0.550607
1 0.302754 0.479164
1 0.419699 0.413291
1 0.502388 0.363409
0 0.482155 0.506966
0 0.486076 0.510002
0 0.488746 0.511208
0.143084 0.488624 0.506706
0.403265 0.480919 0.486686
0.81471 0.453071 0.407599
1 0.490608 0.362905
1 0.55758 0.32079
1 0.610803 0.285222
0 0.771634 0.372824
0.00688182 0.771359 0.370611
0.0514382 0.770382 0.366766
0.161578 0.766186 0.353689
0.375692 0.754665 0.31133
0.681468 0.734661 0.231342
0.934005 0.730297 0.194827
1 0.751675 0.174945
1 0.774731 0.155779
0.19321 0.983749 0.130358
0.209247 0.982467 0.127245
0.233936 0.980087 0.121965
0.300328 0.974319 0.10837
0.445777 0.959854 0.0770123
0.66833 0.937392 0.0355993
0.87512 0.921889 0.0109407
0.996826 0.92256 0
1 0.930373 0
0.428199 1 0
0.436576 1 0
0.450172 1 0
0.486564 1 0
0.573953 1 0
0.722148 1 0
0.881025 1 0
0.989731 1 0
1 1 0
0.548592 1 0
0.554208 1 0
0.562737 1 0
0.587427 1 0
0.648356 1 0
0.76109 1 0
0.894865 1 0
0.992798 1 0
1 1 0
0 0 1
0 0 1
0 0 1
0.205707 0 1
0.530068 0 1
0.825513 0 0.975128
1 0.0773022 0.912169
1 0.269871 0.894224
1 0.383322 0.864164
0 0 1
0 0 1
0 0 1
0.20972 0 1
0.531716 0 1
0.802884 0 0.939681
1 0.110674 0.915373
1 0.2878 0.890715
1 0.395346 0.859205
0 0 1
0 0 1
0 0 1
0.204257 0 1
0.501335 0 1
0.810651 0.0108644 0.943954
1 0.158114 0.916365
1 0.314885 0.884932
1 0.413993 0.851759
0 0.157839 1
0 0.16376 1
0 0.171283 1
0.16495 0.170108 0.989837
0.469566 0.161715 0.973541
0.812268 0.180133 0.944518
1 0.267689 0.904845
1 0.383169 0.863279
1 0.463279 0.828077
0 0.448798 0.874998
0 0.455634 0.881376
0 0.460365 0.885481
0.119341 0.461357 0.886076
0.396277 0.451301 0.87892
0.754818 0.434195 0.876417
1 0.458106 0.840101
1 0.519631 0.795605
1 0.570535 0.761318
0 0.752865 0.787625
0 0.752911 0.787396
0.0274205 0.751797 0.785824
0.142916 0.747021 0.77966
0.360632 0.733379 0.761837
0.641978 0.71606 0.733349
0.954635 0.695583 0.677455
1 0.714626 0.646204
1 0.736584 0.625101
0.157137 0.964279 0.686687
0.173358 0.962829 0.684825
0.198535 0.96051 0.681819
0.264424 0.95404 0.673259
0.407492 0.939483 0.651484
0.624231 0.918898 0.602945
0.850187 0.90222 0.52961
0.997314 0.897688 0.495827
1 0.901946 0.481926
0.357641 1 0.545861
0.366262 1 0.543908
0.379232 1 0.540688
0.416312 1 0.531991
0.504494 1 0.509224
0.66006 1 0.462013
0.837354 1 0.407584
0.961501 1 0.375769
1 1 0.360723
0.483421 1 0.394369
0.488716 1 0.392905
0.497871 1 0.39028
0.522866 1 0.382864
0.586389 1 0.364019
0.707317 1 0.328466
0.854505 1 0.288808
0.962737 1 0.26186
1 1 0.24593
0 0 1
0 0 1
0 0 1
0.117708 0 1
0.483726 0 1
0.828275 0 1
1 0 1
1 0.201862 1
1 0.337896 1
0 0 1
0 0 1
0 0 1
0.122728 0 1
0.485634 0 1
0.82884 0 1
1 0 1
1 0.224384 1
1 0.35198 1
0 0 1
0 0 1
0 0 1
0.13048 0 1
0.488746 0 1
0.829786 0 1
1 0.044358 1
1 0.257984 1
1 0.373663 1
0 0.00318914 1
0 0.00576791 1
0 0.0100862 1
0.128634 0.0142214 1
0.449638 0.0224765 1
0.775158 0.0769513 1
1 0.201053 1
1 0.339956 1
1 0.429694 1
0 0.378286 1
0 0.388022 1
0 0.403738 1
0.0820325 0.410422 1
0.38584 0.40174 1
0.733852 0.395682 1
1 0.428962 1
1 0.493385 1
1 0.545037 1
0 0.734051 1
0 0.734798 1
0 0.734722 1
0.103914 0.730861 1
0.339574 0.716579 1
0.637293 0.695827 1
0.911803 0.682185 1
1 0.692988 1
1 0.711849 0.997131
0.119554 0.954742 0.988113
0.137346 0.953124 0.986419
0.164553 0.950637 0.983795
0.236713 0.943221 0.975982
0.389639 0.92636 0.9579
0.615305 0.901762 0.929992
0.827344 0.884352 0.904814
0.997589 0.871427 0.880705
1 0.87364 0.866316
0.332448 1 0.922988
0.341497 1 0.921691
0.355612 1 0.919646
0.394842 1 0.913619
0.48719 1 0.899504
0.644617 1 0.87454
0.813825 0.993881 0.840772
0.93785 0.985458 0.795377
1 0.982147 0.774273
0.453681 1 0.876127
0.459571 1 0.875074
0.468513 1 0.873549
0.494606 1 0.868772
0.558526 1 0.857145
0.677592 1 0.833143
0.818509 1 0.794888
0.928145 1 0.753017
0.985473 1 0.733074
0 0 1
0 0 1
0 0 1
0 0 1
0.424735 0 1
0.80473 0 1
1 0 1
1 0 1
1 0.241352 1
0 0 1
0 0 1
0 0 1
0 0 1
0.426688 0 1
0.805341 0 1
1 0 1
1 0.038407 1
1 0.264454 1
0 0 1
0 0 1
0 0 1
0 0 1
0.43003 0 1
0.806317 0 1
1 0 1
1 0.10692 1
1 0.295064 1
0 0 1
0 0 1
0 0 1
0.00759899 0 1
0.440574 0 1
0.809262 0 1
1 0.00401312 1
1 0.249149 1
1 0.369558 1
0 0.280674 1
0 0.281621 1
0 0.283055 1
0.00805676 0.310475 1
0.373373 0.306874 1
0.737026 0.312337 1
0.999512 0.36701 1
1 0.449897 1
1 0.511406 1
0 0.695521 1
0 0.703548 1
0 0.708751 1
0.0405432 0.708858 1
0.312825 0.694499 1
0.633951 0.672236 1
0.904631 0.663401 1
1 0.678187 1
1 0.698009 1
0.061326 0.952377 1
0.0819104 0.950378 1
0.113527 0.94754 1
0.195132 0.93959 1
0.36437 0.920958 1
0.60383 0.89427 1
0.823667 0.874662 1
0.973663 0.865446 1
1 0.864546 1
0.301564 1 1
0.311681 1 1
0.326955 1 1
0.369451 1 1
0.469001 1 1
0.635706 1 1
0.812024 0.984329 1
0.931609 0.973892 0.992981
0.995941 0.96936 0.989532
0.4327 1 1
0.438956 1 1
0.448997 1 1
0.476753 1 1
0.545037 1 1
0.670832 1 1
0.818219 1 0.98703
0.924376 1 0.970321
0.975998 1 0.956786
0 0 1
0 0 1
0 0 1
0 0 1
0.364935 0 1
0.786969 0 1
1 0 1
1 0 1
1 0.0621347 1
0 0 1
0 0 1
0 0 1
0 0 1
0.367483 0 1
0.787442 0 1
1 0 1
1 0 1
1 0.104173 1
0 0 1
0 0 1
0 0 1
0 0 1
0.371618 0 1
0.788464 0 1
1 0 1
1 0 1
1 0.162356 1
0 0 1
0 0 1
0 0 1
0 0 1
0.383444 0 1
0.791577 0 1
1 0 1
1 0.0845197 1
1 0.287831 1
0 0.140276 1
0 0.141833 1
0 0.144259 1
0 0.161639 1
0.360052 0.168231 1
0.740291 0.194171 1
1 0.283192 1
1 0.394369 1
1 0.470359 1
0 0.645258 1
0 0.645533 1
0 0.665339 1
0 0.683055 1
0.284031 0.670451 1
0.6318 0.647761 1
0.90837 0.641825 1
1 0.66067 1
1 0.682933 1
0 0.950698 1
0.0216068 0.948852 1
0.0587472 0.945846 1
0.15201 0.937285 1
0.339605 0.917189 1
0.594614 0.888716 1
0.822324 0.867918 1
0.971115 0.859754 1
1 0.859876 1
0.271382 1 1
0.282094 1 1
0.298924 1 1
0.345342 1 1
0.451865 1 1
0.626795 1 1
0.807996 0.981491 1
0.929061 0.970459 1
0.990082 0.966415 1
0.413565 1 1
0.419928 1 1
0.430762 1 1
0.460105 1 1
0.532357 1 1
0.663569 1 1
0.81503 1 1
0.923842 1 1
0.977172 1 1
