public/textures/grade/Fuji/Arrakis-FLog.cube
TITLE "Generated by Resolve"
LUT_3D_SIZE 9
0.0162966 0.0336461 0.0305333
0.0433051 0.0361028 0.0318608
0.116365 0.0377966 0.0394751
0.241306 0.0607309 0.0381781
0.412543 0.108431 0.0500038
0.604135 0.187213 0.0855268
0.784375 0.305074 0.153292
0.937804 0.455299 0.254353
1 0.619791 0.381262
0.0438239 0.0619059 0.0458991
0.0739605 0.066041 0.0438544
0.126665 0.074342 0.052781
0.242161 0.0911421 0.0515602
0.408713 0.130983 0.0619211
0.600061 0.20412 0.095964
0.782055 0.315724 0.160266
0.936522 0.460868 0.258335
1 0.622553 0.383154
0.102708 0.117906 0.0778058
0.117952 0.123598 0.0731518
0.146746 0.134554 0.0812695
0.249119 0.144945 0.0834058
0.407065 0.173053 0.0875105
0.594949 0.234089 0.114824
0.778164 0.335073 0.173297
0.934798 0.471473 0.266056
1 0.627146 0.387091
0.189334 0.214389 0.133272
0.196735 0.219577 0.128923
0.224292 0.223514 0.131472
0.273854 0.240345 0.140536
0.411872 0.255512 0.144045
0.590417 0.295705 0.157275
0.772168 0.375036 0.201343
0.930571 0.493721 0.282475
1 0.63801 0.396002
0.307881 0.348241 0.216541
0.317723 0.349248 0.215778
0.337438 0.351034 0.215702
0.36817 0.359854 0.221256
0.438987 0.379034 0.227054
0.591913 0.399329 0.234379
0.765316 0.449073 0.257389
0.923827 0.538186 0.317601
1 0.660304 0.414862
0.464363 0.500832 0.331167
0.470451 0.501259 0.331044
0.480446 0.502113 0.330388
0.501915 0.505913 0.328756
0.535912 0.517952 0.333532
0.616678 0.537377 0.338842
0.763272 0.560769 0.350912
0.915297 0.614267 0.383429
1 0.702892 0.453788
0.631968 0.65832 0.468147
0.634592 0.658656 0.467979
0.639078 0.659373 0.467674
0.649149 0.661158 0.466667
0.669871 0.665736 0.463447
0.704829 0.678599 0.464607
0.783444 0.696635 0.470603
0.910811 0.720958 0.486809
1 0.772824 0.524392
0.789197 0.806897 0.616587
0.790173 0.806958 0.616434
0.791867 0.807294 0.616327
0.796094 0.808042 0.615839
0.805142 0.809979 0.614542
0.823301 0.814878 0.610605
0.856184 0.82681 0.607431
0.925261 0.842893 0.612711
1 0.865858 0.629816
0.925078 0.93843 0.766323
0.92546 0.938506 0.766293
0.926146 0.938628 0.766232
0.927733 0.938903 0.766094
0.93109 0.93962 0.765759
0.938476 0.94139 0.764599
0.95378 0.945556 0.761028
0.981933 0.955871 0.753658
1 0.969238 0.755459
0.0269932 0.0601968 0.058793
0.0509651 0.0638743 0.0565652
0.111604 0.0627146 0.0694438
0.24416 0.0725109 0.0779431
0.41384 0.116304 0.0800946
0.601297 0.195285 0.109209
0.783078 0.309712 0.169512
0.936767 0.45745 0.264256
1 0.620966 0.38706
0.0475929 0.083238 0.0726177
0.0758526 0.0869001 0.070634
0.133684 0.0885023 0.0759899
0.247929 0.101213 0.082536
0.406607 0.141726 0.0904402
0.597543 0.211261 0.117327
0.780591 0.320089 0.17583
0.935851 0.463188 0.268406
1 0.623667 0.389181
0.104891 0.13167 0.0981613
0.126482 0.133761 0.0965896
0.159106 0.142489 0.101396
0.252995 0.153735 0.10811
0.407324 0.180896 0.110521
0.593576 0.239994 0.133654
0.777325 0.338781 0.187335
0.933761 0.473365 0.275303
1 0.628229 0.392691
0.19884 0.218448 0.150851
0.210391 0.222065 0.147555
0.231373 0.229328 0.143191
0.276799 0.245411 0.157504
0.413046 0.259968 0.160357
0.589929 0.299397 0.171511
0.771511 0.378012 0.213428
0.929961 0.495644 0.291234
1 0.638941 0.401205
0.317082 0.348486 0.229541
0.321767 0.352132 0.226642
0.339055 0.354437 0.225162
0.372244 0.36231 0.229999
0.439933 0.38175 0.23856
0.592142 0.40177 0.245045
0.764797 0.450858 0.266438
0.923369 0.53959 0.32488
1 0.661158 0.419867
0.464866 0.503151 0.337575
0.470909 0.503182 0.337346
0.481559 0.504036 0.337224
0.503105 0.507347 0.335622
0.537697 0.519112 0.340154
0.616983 0.53875 0.346242
0.763287 0.561959 0.357671
0.915175 0.615244 0.388861
1 0.703517 0.457984
0.632425 0.659342 0.472251
0.635111 0.659617 0.472129
0.639643 0.660288 0.471885
0.649546 0.661753 0.470756
0.670573 0.666438 0.467796
0.705547 0.679133 0.469001
0.783566 0.697307 0.474784
0.910826 0.721523 0.490288
1 0.773236 0.527184
0.789441 0.807202 0.618463
0.790478 0.80734 0.618387
0.792172 0.807706 0.618265
0.796414 0.808423 0.617792
0.805432 0.81033 0.616785
0.823545 0.815167 0.613016
0.856458 0.827039 0.609537
0.925292 0.843168 0.614862
1 0.866072 0.631571
0.9252 0.938582 0.767239
0.925566 0.938659 0.767193
0.926253 0.938781 0.767117
0.927825 0.939055 0.766949
0.931182 0.939788 0.766522
0.938582 0.941512 0.765606
0.953872 0.945647 0.762051
0.98204 0.955947 0.754696
1 0.969299 0.756359
0.0501411 0.109468 0.107836
0.0735332 0.11133 0.105013
0.116823 0.111223 0.114336
0.232212 0.109789 0.134981
0.414466 0.133288 0.138857
0.602228 0.206073 0.149523
0.780148 0.319127 0.198764
0.935607 0.46215 0.282826
1 0.623117 0.397711
0.0662089 0.124269 0.116915
0.0900282 0.126345 0.114748
0.133394 0.130129 0.116503
0.241947 0.129015 0.137819
0.417365 0.151461 0.138674
0.593744 0.226673 0.157336
0.778042 0.328801 0.203647
0.934493 0.467842 0.286397
1 0.625498 0.399405
0.114351 0.159609 0.137362
0.133272 0.16144 0.135439
0.17052 0.166278 0.13257
0.259968 0.171542 0.1514
0.406775 0.197986 0.152758
0.591516 0.252476 0.168688
0.775113 0.346532 0.213016
0.932525 0.477699 0.292592
1 0.630289 0.402991
0.200305 0.235386 0.18085
0.215946 0.236271 0.179049
0.246952 0.239063 0.175219
0.285374 0.256626 0.18793
0.416999 0.270039 0.190967
0.59057 0.308049 0.199268
0.770214 0.383948 0.235477
0.928801 0.499046 0.306889
1 0.64062 0.411063
0.330205 0.352087 0.252827
0.337148 0.354574 0.250629
0.347585 0.360494 0.246052
0.381582 0.367758 0.243275
0.442451 0.387778 0.260258
0.593027 0.406683 0.26453
0.764797 0.454856 0.283772
0.922637 0.542168 0.337957
1 0.662593 0.428656
0.469322 0.505821 0.350759
0.471901 0.507897 0.348898
0.48333 0.508324 0.349279
0.505287 0.510719 0.348486
0.541482 0.521599 0.352178
0.617838 0.541543 0.359716
0.763531 0.564385 0.369818
0.914702 0.616815 0.398642
1 0.704738 0.465263
0.633295 0.661372 0.479301
0.636011 0.661601 0.479225
0.64065 0.662181 0.479103
0.65066 0.663386 0.478172
0.671672 0.667628 0.475502
0.706996 0.680217 0.4766
0.783749 0.698466 0.482429
0.910842 0.72256 0.497139
1 0.773983 0.53254
0.789929 0.80795 0.622446
0.790875 0.808133 0.622385
0.792645 0.808454 0.622248
0.796902 0.809155 0.62182
0.805982 0.811002 0.620691
0.824186 0.815702 0.617258
0.856962 0.827466 0.613733
0.925383 0.843687 0.618509
1 0.866453 0.63476
0.925399 0.938872 0.769009
0.925765 0.938933 0.768963
0.926452 0.939055 0.768902
0.928008 0.93933 0.768719
0.931365 0.940047 0.768322
0.938735 0.941711 0.767132
0.95404 0.945815 0.763928
0.982208 0.9561 0.756588
1 0.969406 0.757977
0.0986343 0.186435 0.18674
0.116701 0.186908 0.183581
0.149828 0.189471 0.181064
0.224247 0.184558 0.20972
0.393957 0.185779 0.235218
0.600504 0.232151 0.236271
0.779614 0.335241 0.256168
0.932479 0.47335 0.321675
1 0.627848 0.420645
0.110552 0.1953 0.191394
0.127184 0.195926 0.188937
0.160098 0.19942 0.185672
0.234134 0.198306 0.208606
0.394736 0.203052 0.233005
0.601328 0.244511 0.235615
0.774212 0.348592 0.260655
0.931548 0.47863 0.324392
1 0.630426 0.422187
0.138293 0.217914 0.205905
0.154406 0.219135 0.203937
0.185367 0.222782 0.201099
0.256306 0.226459 0.211109
0.402014 0.233478 0.235538
0.604746 0.267124 0.235859
0.770459 0.365713 0.267201
0.929946 0.48777 0.329152
1 0.635096 0.425254
0.21735 0.272923 0.236988
0.230747 0.273808 0.235447
0.255329 0.276738 0.233371
0.309804 0.285023 0.229618
0.430228 0.292821 0.251835
0.590417 0.329778 0.257145
0.768261 0.399191 0.282582
0.927047 0.50808 0.340826
1 0.645029 0.432288
0.334783 0.373068 0.297795
0.344594 0.37351 0.296452
0.36376 0.374914 0.294652
0.400397 0.38175 0.287785
0.451026 0.401984 0.305287
0.597314 0.419409 0.306813
0.765118 0.464881 0.320562
0.921782 0.549035 0.367117
1 0.66627 0.448127
0.488441 0.508812 0.384085
0.492058 0.510307 0.382681
0.497749 0.513405 0.380362
0.50985 0.520455 0.374594
0.551553 0.527825 0.375341
0.620737 0.548226 0.388815
0.764584 0.570031 0.395666
0.914702 0.621286 0.420676
1 0.707591 0.4813
0.634577 0.666285 0.494377
0.637278 0.666453 0.49453
0.642496 0.666697 0.494636
0.653407 0.667689 0.494606
0.674586 0.671122 0.492821
0.710307 0.682612 0.492851
0.784451 0.701305 0.498833
0.911025 0.724727 0.511452
1 0.775509 0.544213
0.790875 0.809903 0.630808
0.791821 0.810056 0.630793
0.793744 0.810315 0.630686
0.798077 0.81091 0.630381
0.806851 0.81239 0.629282
0.825498 0.816938 0.626581
0.858198 0.828519 0.622705
0.925353 0.844617 0.626963
1 0.867384 0.642145
0.925795 0.939544 0.772946
0.926177 0.939605 0.772915
0.926879 0.939712 0.772854
0.928466 0.939971 0.772702
0.931823 0.940658 0.772351
0.939055 0.942123 0.771099
0.95433 0.946136 0.767758
0.982605 0.956466 0.760571
1 0.969741 0.761456
0.168109 0.289052 0.294652
0.181353 0.289082 0.292012
0.2065 0.290608 0.288228
0.261814 0.292424 0.295048
0.371283 0.288624 0.337026
0.569635 0.301839 0.363333
0.775769 0.368368 0.366613
0.930449 0.493385 0.39295
1 0.6392 0.465843
0.176608 0.295171 0.298039
0.18941 0.295247 0.295384
0.214374 0.297353 0.292363
0.268727 0.301335 0.294621
0.376043 0.297581 0.33669
0.569772 0.312886 0.361151
0.77644 0.375784 0.366094
0.927886 0.500175 0.395026
1 0.64155 0.467094
0.194766 0.309316 0.306477
0.207614 0.309972 0.30454
0.231052 0.31194 0.301701
0.28394 0.319387 0.297749
0.386648 0.315129 0.338125
0.571984 0.332555 0.359991
0.777584 0.389059 0.365225
0.923659 0.511315 0.398703
1 0.645624 0.46952
0.243717 0.345464 0.329549
0.255009 0.346395 0.328176
0.275761 0.348226 0.325689
0.322042 0.354314 0.321965
0.416068 0.357549 0.341039
0.582193 0.372457 0.363561
0.780102 0.419043 0.366278
0.922423 0.528603 0.405615
1 0.655039 0.474815
0.360067 0.417243 0.368872
0.368063 0.417899 0.367803
0.382696 0.419577 0.366323
0.414664 0.42359 0.363653
0.479454 0.434592 0.359838
0.60737 0.447395 0.38233
0.764889 0.488823 0.390936
0.919493 0.564813 0.423163
1 0.674907 0.487068
0.496635 0.530785 0.44181
0.502159 0.531151 0.441199
0.512062 0.531929 0.440192
0.536492 0.532967 0.436912
0.568917 0.544564 0.427665
0.628611 0.564034 0.444175
0.768627 0.583764 0.446082
0.914794 0.631586 0.464317
1 0.714031 0.514168
0.653895 0.669825 0.5337
0.655344 0.670619 0.533028
0.657923 0.672114 0.531716
0.663569 0.6757 0.528725
0.680415 0.680507 0.525689
0.71928 0.689067 0.523522
0.78706 0.708125 0.532601
0.911864 0.73051 0.541024
1 0.779675 0.568276
0.792416 0.814557 0.647501
0.793545 0.814618 0.647517
0.795605 0.814771 0.647547
0.8 0.815198 0.647593
0.809735 0.816358 0.647501
0.828275 0.82002 0.645579
0.860975 0.830793 0.641154
0.926146 0.847349 0.644892
1 0.869444 0.657176
0.926741 0.941161 0.781155
0.927123 0.941207 0.781125
0.927825 0.941299 0.781079
0.929427 0.941527 0.780972
0.932754 0.942092 0.780682
0.94023 0.943404 0.779828
0.955261 0.947265 0.776791
0.983459 0.957351 0.769589
1 0.970687 0.769589
0.262287 0.414038 0.427008
0.272328 0.414343 0.425269
0.290715 0.415473 0.422873
0.330571 0.419562 0.41825
0.406439 0.419944 0.437171
0.541253 0.422141 0.482673
0.739513 0.447303 0.514504
0.925246 0.528237 0.516381
1 0.660227 0.543786
0.268879 0.418738 0.429694
0.278706 0.419135 0.428046
0.296315 0.420066 0.425223
0.335454 0.424063 0.421363
0.410803 0.42594 0.436728
0.543343 0.427802 0.482216
0.73959 0.4533 0.512718
0.925475 0.532052 0.515938
1 0.663096 0.544717
0.281971 0.427817 0.435172
0.291417 0.428305 0.433829
0.308263 0.429328 0.431296
0.345556 0.433341 0.427237
0.419333 0.437629 0.437034
0.547982 0.438544 0.482521
0.740551 0.46421 0.510292
0.925856 0.538613 0.515145
1 0.668116 0.546166
0.313603 0.450095 0.449058
0.321981 0.45034 0.447562
0.33753 0.451713 0.445731
0.371664 0.455207 0.442557
0.440238 0.463935 0.440574
0.560647 0.462577 0.484672
0.744015 0.487846 0.508156
0.92723 0.553536 0.514229
1 0.677272 0.549523
0.385534 0.497368 0.478431
0.392493 0.497765 0.477455
0.404532 0.498741 0.476158
0.431662 0.501457 0.473136
0.487633 0.509407 0.468513
0.591302 0.511742 0.493767
0.755093 0.532692 0.511086
0.926253 0.587564 0.516335
1 0.694041 0.556405
0.527245 0.576837 0.520256
0.531502 0.577218 0.519829
0.539117 0.577981 0.519173
0.55552 0.579705 0.51722
0.589441 0.584756 0.514687
0.654826 0.597086 0.511193
0.774533 0.613214 0.529763
0.913893 0.654414 0.540017
1 0.728481 0.574044
0.665125 0.690089 0.597803
0.667506 0.690303 0.597604
0.672084 0.690623 0.597192
0.683192 0.691203 0.595926
0.704799 0.693736 0.59173
0.732387 0.706737 0.581155
0.794171 0.723278 0.592584
0.91487 0.743313 0.594995
1 0.788937 0.614145
0.807599 0.819242 0.68661
0.808179 0.819577 0.68629
0.809232 0.820203 0.68571
0.81149 0.821668 0.684504
0.815961 0.825315 0.681437
0.833951 0.828168 0.680262
0.867964 0.836744 0.675258
0.928191 0.853452 0.679194
1 0.874479 0.687465
0.928389 0.944915 0.797238
0.928786 0.944945 0.797238
0.929519 0.945006 0.797238
0.931029 0.94519 0.797299
0.934737 0.945556 0.797253
0.942306 0.946532 0.796796
0.957717 0.949935 0.79501
0.985504 0.959457 0.787976
1 0.972808 0.786587
0.385855 0.555581 0.574487
0.392493 0.555886 0.573495
0.404074 0.556481 0.57174
0.429236 0.558618 0.568933
0.480522 0.564584 0.563973
0.568948 0.563638 0.593118
0.709209 0.572061 0.636683
0.887709 0.606256 0.669749
1 0.690929 0.668544
0.390539 0.558633 0.576288
0.396536 0.55877 0.575158
0.408011 0.559457 0.573541
0.43328 0.561517 0.570764
0.483619 0.567529 0.566033
0.57142 0.567376 0.593027
0.710124 0.575128 0.6365
0.887816 0.609293 0.669093
1 0.692592 0.668299
0.398947 0.564019 0.57966
0.405219 0.56434 0.57882
0.416129 0.565179 0.577447
0.440162 0.567071 0.574365
0.489494 0.573007 0.569909
0.575875 0.574029 0.592889
0.712352 0.581033 0.636835
0.888014 0.614359 0.668009
1 0.695644 0.667872
0.418585 0.576867 0.587594
0.424216 0.576974 0.586572
0.434424 0.577661 0.585184
0.456977 0.579736 0.58291
0.502831 0.584863 0.578241
0.586267 0.588739 0.593622
0.717449 0.593927 0.637339
0.88893 0.625986 0.665522
1 0.702159 0.666926
0.462181 0.604227 0.604593
0.466957 0.604562 0.603983
0.475547 0.604944 0.602609
0.494804 0.606775 0.600534
0.534798 0.611246 0.596994
0.609461 0.61944 0.597589
0.729809 0.620829 0.640238
0.892683 0.650004 0.662028
1 0.71664 0.665522
0.548913 0.655573 0.635431
0.552422 0.655833 0.635004
0.558816 0.656352 0.634241
0.572305 0.657389 0.632578
0.60145 0.660502 0.62945
0.658808 0.668849 0.624598
0.758648 0.672175 0.649119
0.903807 0.69456 0.663142
1 0.750164 0.667872
0.696269 0.732555 0.67512
0.6981 0.732754 0.674907
0.701457 0.733104 0.674525
0.708736 0.734035 0.673777
0.724285 0.736049 0.672114
0.756298 0.741131 0.669749
0.814374 0.753323 0.66685
0.919173 0.769482 0.67834
1 0.808484 0.689189
0.819989 0.835889 0.749828
0.820981 0.835966 0.749722
0.822782 0.836103 0.749508
0.827314 0.836347 0.748974
0.838071 0.836408 0.74757
0.854398 0.840406 0.74342
0.87895 0.851499 0.734752
0.933684 0.866575 0.737316
1 0.884993 0.739132
0.939742 0.949264 0.832074
0.939941 0.949386 0.831968
0.940307 0.94963 0.831724
0.941146 0.950179 0.831235
0.942657 0.95137 0.83003
0.946212 0.954559 0.826856
0.962219 0.956451 0.826978
0.989807 0.963943 0.822385
1 0.977493 0.818051
0.532967 0.702663 0.724895
0.536477 0.702846 0.724422
0.542672 0.703288 0.723659
0.556497 0.704158 0.721843
0.585626 0.706752 0.718837
0.640803 0.713649 0.714
0.729931 0.711894 0.746914
0.858808 0.723644 0.785306
1 0.761822 0.816144
0.535592 0.70428 0.725719
0.539071 0.704463 0.725338
0.545174 0.70489 0.724636
0.558663 0.705608 0.722698
0.587457 0.70811 0.719676
0.642573 0.715145 0.714916
0.730953 0.713619 0.747036
0.859251 0.725124 0.785306
1 0.763058 0.815854
0.540551 0.707195 0.727504
0.543679 0.707301 0.727062
0.549722 0.707469 0.726085
0.562936 0.708522 0.724773
0.590875 0.710948 0.721553
0.645136 0.717571 0.716594
0.732769 0.716731 0.746746
0.86009 0.72784 0.785367
1 0.765255 0.815518
0.550896 0.713603 0.731411
0.554086 0.713802 0.730999
0.559991 0.714153 0.730236
0.57229 0.714885 0.728496
0.599496 0.717083 0.725551
0.651728 0.723659 0.721309
0.73756 0.72401 0.746853
0.861875 0.733684 0.785534
1 0.770123 0.81416
0.574609 0.727504 0.740047
0.577523 0.727672 0.739681
0.582605 0.728069 0.739086
0.594141 0.728923 0.737682
0.61857 0.730999 0.734813
0.666285 0.736446 0.730282
0.747936 0.739513 0.747585
0.866636 0.746731 0.786297
1 0.780896 0.812406
0.623713 0.755764 0.757137
0.626001 0.755871 0.756817
0.629831 0.755962 0.7561
0.639277 0.756664 0.754986
0.658991 0.758602 0.752895
0.698878 0.762814 0.748959
0.77026 0.770153 0.751003
0.87776 0.773159 0.789258
1 0.802823 0.808972
0.712795 0.804105 0.785138
0.714275 0.804211 0.78497
0.716777 0.804471 0.784756
0.722896 0.804974 0.784161
0.735866 0.806119 0.782513
0.763378 0.809155 0.779721
0.815427 0.816922 0.774777
0.902358 0.820447 0.797223
1 0.842054 0.806851
0.848341 0.872663 0.819837
0.849027 0.872755 0.81976
0.850309 0.872908 0.819623
0.853223 0.873259 0.819318
0.859419 0.873991 0.818555
0.873106 0.875975 0.817349
0.900053 0.880659 0.815412
0.947616 0.891569 0.813687
1 0.90634 0.817365
0.951858 0.96173 0.888869
0.952285 0.96173 0.888808
0.953079 0.961746 0.888685
0.954757 0.961822 0.888472
0.958862 0.961929 0.887892
0.966217 0.96289 0.886366
0.9785 0.966369 0.882628
0.998459 0.975677 0.875807
1 0.987243 0.869749
0.688685 0.845289 0.868391
0.690028 0.845304 0.868132
0.692668 0.845335 0.867643
0.69897 0.845731 0.86688
0.712963 0.846662 0.865339
0.741207 0.849012 0.862226
0.793103 0.854765 0.85893
0.872953 0.853254 0.887572
0.982895 0.86569 0.921019
0.689632 0.845792 0.86862
0.690974 0.845869 0.868421
0.693843 0.846006 0.868055
0.700114 0.846403 0.867292
0.714031 0.847333 0.86566
0.742031 0.849683 0.86276
0.793851 0.855528 0.859098
0.873442 0.853956 0.887617
0.982971 0.866194 0.920958
0.691646 0.847044 0.869368
0.693187 0.84712 0.869154
0.69604 0.847257 0.868803
0.702205 0.847654 0.868055
0.715862 0.848478 0.866331
0.743679 0.850843 0.863691
0.795193 0.856916 0.859342
0.874342 0.855299 0.887678
0.983139 0.86714 0.920836
0.696712 0.849867 0.871046
0.698222 0.849943 0.870848
0.700771 0.850126 0.870558
0.706981 0.850446 0.869764
0.720073 0.851118 0.868193
0.747295 0.853391 0.86511
0.797726 0.859403 0.860609
0.876143 0.858427 0.887663
0.983871 0.869596 0.920958
0.707713 0.85594 0.874617
0.709072 0.856031 0.874464
0.711681 0.856168 0.874128
0.717372 0.856535 0.873457
0.729641 0.857191 0.871946
0.755596 0.859266 0.869215
0.803998 0.865064 0.864698
0.880095 0.86508 0.887678
0.985519 0.875059 0.921279
0.73167 0.86891 0.882368
0.732921 0.868971 0.8822
0.734981 0.869139 0.881971
0.740124 0.869429 0.881331
0.751003 0.869993 0.879881
0.774105 0.871916 0.877638
0.817563 0.876844 0.873091
0.889128 0.878935 0.888243
0.989242 0.886244 0.921935
0.778805 0.893751 0.897063
0.779751 0.893812 0.896941
0.781491 0.893904 0.896727
0.785412 0.894148 0.896239
0.79382 0.894804 0.895247
0.811673 0.896178 0.892958
0.847318 0.899947 0.889403
0.908629 0.905821 0.891386
0.998306 0.909041 0.924086
0.859159 0.935058 0.920409
0.859739 0.935088 0.920348
0.860792 0.935164 0.920211
0.863066 0.935378 0.919966
0.868421 0.935821 0.919341
0.879576 0.936767 0.917998
0.903044 0.939239 0.915587
0.946303 0.945678 0.911116
1 0.948928 0.930587
0.975021 0.992538 0.949828
0.975265 0.992569 0.949813
0.975723 0.992615 0.949752
0.976715 0.992676 0.949615
0.978851 0.992889 0.949355
0.983932 0.993637 0.948898
0.994705 0.995224 0.947829
1 0.999069 0.946334
1 1 0.943465
