public/textures/grade/Fuji/Arrakis-FLog.cube
TITLE "Generated by Resolve"
LUT_3D_SIZE 33
0.0162966 0.0336461 0.0305333
0.0220035 0.0345312 0.0300145
0.028397 0.0355535 0.0297704
0.035111 0.0365301 0.0291752
0.0433051 0.0361028 0.0318608
0.0552377 0.035874 0.0337224
0.0728313 0.034638 0.0374762
0.0912337 0.0366674 0.0398566
0.116365 0.0377966 0.0394751
0.145815 0.0390478 0.0374151
0.176974 0.042359 0.0356451
0.207568 0.0506752 0.0363775
0.241306 0.0607309 0.0381781
0.279286 0.0718242 0.0405432
0.321523 0.0824445 0.0427405
0.366155 0.0943008 0.0455634
0.412543 0.108431 0.0500038
0.459861 0.124453 0.0557107
0.508446 0.143038 0.0639658
0.556344 0.163912 0.0734722
0.604135 0.187213 0.0855268
0.651377 0.213031 0.0995193
0.697169 0.241489 0.115145
0.74139 0.271977 0.133043
0.784375 0.305074 0.153292
0.826017 0.340169 0.175967
0.865095 0.376989 0.199893
0.90219 0.415351 0.226001
0.937804 0.455299 0.254353
0.970932 0.495979 0.284077
1 0.537331 0.315465
1 0.579065 0.348333
1 0.619791 0.381262
0.021622 0.0396429 0.0346075
0.0278019 0.0405737 0.0340581
0.0345312 0.0416114 0.0337377
0.0412909 0.0426642 0.0330663
0.0502632 0.0432136 0.0336156
0.0628214 0.0428168 0.0354467
0.0778821 0.043061 0.0406348
0.0975509 0.0440833 0.0420081
0.121996 0.0450599 0.0405127
0.14757 0.0481422 0.0393988
0.174243 0.0546273 0.0398566
0.204044 0.0623331 0.0409705
0.239811 0.0695659 0.0415808
0.278874 0.0780346 0.0429084
0.320668 0.0881514 0.0450446
0.365133 0.100023 0.048249
0.4112 0.113725 0.0527352
0.458747 0.129595 0.0586099
0.506737 0.147707 0.0662699
0.554955 0.168231 0.0761273
0.602884 0.19147 0.0880751
0.650095 0.216648 0.101625
0.696132 0.244587 0.11722
0.740826 0.274998 0.135241
0.78407 0.307698 0.155245
0.825208 0.342275 0.177264
0.864637 0.379049 0.201236
0.902052 0.416999 0.22742
0.937499 0.456779 0.255406
0.970871 0.497139 0.284947
1 0.538354 0.31603
1 0.579889 0.348928
1 0.620462 0.38172
0.0285344 0.0459754 0.0381323
0.0350652 0.047013 0.0376135
0.041825 0.0481575 0.0372168
0.0488899 0.0492103 0.0365759
0.0576944 0.0505989 0.0358892
0.0704814 0.050309 0.0379644
0.0833143 0.0513771 0.0448615
0.102586 0.0523995 0.0441444
0.122026 0.0558022 0.0439307
0.145663 0.0597848 0.0438087
0.173999 0.0641794 0.0436866
0.205325 0.0693828 0.0436561
0.240421 0.0762646 0.0443885
0.278935 0.084535 0.0457008
0.320516 0.0943923 0.0480812
0.364202 0.105684 0.0509499
0.410101 0.119356 0.055436
0.457694 0.134844 0.0614786
0.505638 0.152621 0.0692454
0.553735 0.172824 0.0788281
0.601907 0.195315 0.0902724
0.649027 0.220447 0.103899
0.695247 0.248051 0.119417
0.740063 0.278111 0.137209
0.78349 0.310414 0.157
0.824628 0.344625 0.178607
0.864195 0.381079 0.202609
0.901686 0.418753 0.228626
0.93698 0.457984 0.256184
0.970672 0.498344 0.285832
1 0.539345 0.316716
1 0.580713 0.349401
1 0.621149 0.382132
0.0373541 0.0525978 0.0409094
0.0443427 0.0536355 0.0404517
0.0517281 0.0547494 0.0400244
0.0590524 0.0559854 0.039353
0.0665293 0.0576028 0.0391852
0.0694285 0.0599222 0.0516976
0.0855879 0.060914 0.0497902
0.10338 0.0624399 0.0486915
0.124224 0.0646525 0.0478676
0.148318 0.0677348 0.0472572
0.17586 0.0716869 0.0469215
0.206592 0.0767224 0.0469062
0.241306 0.0833753 0.0476844
0.279118 0.0910964 0.0488594
0.320272 0.100587 0.0509651
0.363607 0.111788 0.0541085
0.4094 0.12488 0.0584421
0.456489 0.140002 0.064332
0.504219 0.157351 0.0718395
0.553002 0.177356 0.0815442
0.60087 0.199573 0.0928817
0.64828 0.224247 0.106294
0.694438 0.251499 0.121614
0.739422 0.281163 0.139147
0.782666 0.312917 0.158556
0.824109 0.34699 0.180087
0.863996 0.383017 0.204227
0.901335 0.420508 0.229572
0.936675 0.459342 0.25713
0.970474 0.49955 0.286702
1 0.540322 0.317494
1 0.581537 0.34995
1 0.62182 0.382574
0.0438239 0.0619059 0.0458991
0.0504158 0.0630198 0.0455329
0.0571603 0.0639658 0.0449683
0.0645914 0.065095 0.0445869
0.0739605 0.066041 0.0438544
0.0785992 0.0688945 0.048661
0.087068 0.0712444 0.0560159
0.105699 0.0725414 0.0541848
0.126665 0.074342 0.052781
0.150423 0.076936 0.0516213
0.177493 0.0805066 0.0510567
0.208148 0.0851606 0.0509957
0.242161 0.0911421 0.0515602
0.279438 0.098497 0.0525216
0.320089 0.107485 0.0545357
0.363134 0.118273 0.0574807
0.408713 0.130983 0.0619211
0.455772 0.145876 0.0679332
0.503365 0.162783 0.0750439
0.551751 0.182086 0.0842908
0.600061 0.20412 0.095964
0.647318 0.228443 0.108888
0.693782 0.255207 0.123995
0.738872 0.28423 0.141085
0.782055 0.315724 0.160266
0.823758 0.349477 0.181994
0.863432 0.385122 0.205631
0.900938 0.422385 0.230854
0.936522 0.460868 0.258335
0.970138 0.500801 0.287602
1 0.541329 0.318502
1 0.582422 0.350637
1 0.622553 0.383154
0.0513771 0.0729686 0.0522011
0.0589456 0.0737926 0.0518044
0.0667887 0.0747234 0.0513771
0.0760662 0.0751812 0.0504463
0.0824903 0.0770123 0.0490578
0.0887922 0.0796368 0.0498512
0.0927596 0.0833143 0.0582742
0.107942 0.084596 0.0608225
0.128954 0.0861982 0.0594492
0.152758 0.0883803 0.0580148
0.179706 0.0915236 0.0572366
0.20972 0.0955215 0.0563516
0.243244 0.100984 0.0565805
0.280079 0.10782 0.0574655
0.320241 0.116121 0.059205
0.362936 0.126589 0.0622873
0.40795 0.138491 0.0661936
0.454719 0.15288 0.0719768
0.502724 0.169421 0.0792554
0.550759 0.18822 0.0882887
0.598657 0.209522 0.0990463
0.646113 0.233188 0.112001
0.69247 0.25948 0.126635
0.737835 0.288182 0.143587
0.781369 0.319295 0.162737
0.823133 0.352605 0.1841
0.862638 0.38761 0.207263
0.900481 0.424689 0.232456
0.936278 0.46276 0.259831
0.969573 0.502174 0.288548
1 0.542672 0.319509
1 0.58352 0.351492
1 0.623438 0.383886
0.0645304 0.0860304 0.0599374
0.0730297 0.0863966 0.0591287
0.0818341 0.0869764 0.0582284
0.0876631 0.0884413 0.0570993
0.0923781 0.0901961 0.0555886
0.0991836 0.0923629 0.0546731
0.103532 0.0953231 0.0621347
0.113191 0.0987564 0.0662852
0.13164 0.100328 0.0673228
0.155093 0.10219 0.0660105
0.181689 0.104768 0.0644694
0.211673 0.108263 0.0635843
0.244923 0.113161 0.0635691
0.281209 0.119188 0.0640726
0.32079 0.127077 0.0656901
0.362829 0.136736 0.0681468
0.407645 0.148074 0.0720073
0.453696 0.161532 0.0770275
0.501503 0.177401 0.0840162
0.54934 0.195468 0.0926528
0.59762 0.216358 0.103655
0.644907 0.23949 0.11577
0.691752 0.264942 0.130388
0.736904 0.293111 0.146899
0.780468 0.323674 0.165667
0.822095 0.356191 0.186419
0.861997 0.390921 0.209277
0.900191 0.42739 0.234638
0.935821 0.465156 0.26125
0.969192 0.504158 0.290013
1 0.544137 0.320562
1 0.584817 0.352651
1 0.624537 0.384771
0.0843214 0.0999161 0.0681163
0.0905318 0.101045 0.0668803
0.0959182 0.102312 0.0660258
0.100374 0.103746 0.0649577
0.103944 0.105684 0.0634318
0.110521 0.107607 0.0625925
0.116762 0.110018 0.0675822
0.123278 0.113924 0.0717021
0.137194 0.116472 0.0749981
0.158465 0.118196 0.0754253
0.184588 0.120653 0.0742809
0.214023 0.123705 0.0731975
0.246616 0.127626 0.0722515
0.282399 0.13312 0.072343
0.321279 0.140032 0.0732586
0.362997 0.148714 0.0755779
0.407279 0.159564 0.0789502
0.452934 0.17203 0.0835737
0.500298 0.187182 0.0902266
0.548241 0.204669 0.0984817
0.596201 0.224384 0.108675
0.643748 0.246647 0.120562
0.690349 0.271672 0.134524
0.735576 0.298817 0.150484
0.779355 0.328618 0.168917
0.821347 0.360693 0.189456
0.861463 0.394827 0.212268
0.899321 0.430457 0.236698
0.935256 0.468055 0.26334
0.968963 0.506477 0.292027
1 0.545998 0.32195
1 0.586221 0.353841
1 0.625757 0.385733
0.102708 0.117906 0.0778058
0.107561 0.119005 0.0766308
0.111559 0.120302 0.0755627
0.114794 0.121538 0.0742046
0.117952 0.123598 0.0731518
0.124163 0.125185 0.0725109
0.131319 0.12668 0.0747082
0.137621 0.130098 0.0796674
0.146746 0.134554 0.0812695
0.164309 0.13698 0.0853132
0.188495 0.138949 0.0856031
0.216907 0.141512 0.0843824
0.249119 0.144945 0.0834058
0.284184 0.149523 0.0825971
0.322606 0.155703 0.0832074
0.363424 0.163424 0.0846723
0.407065 0.173053 0.0875105
0.452567 0.184756 0.0918441
0.499413 0.198901 0.0979477
0.547143 0.215396 0.105745
0.594949 0.234089 0.114824
0.642573 0.255741 0.126619
0.688991 0.279667 0.139757
0.734478 0.30605 0.155581
0.778164 0.335073 0.173297
0.820356 0.366323 0.193301
0.860456 0.399451 0.215412
0.898543 0.434638 0.239429
0.934798 0.471473 0.266056
0.968429 0.509438 0.293935
0.999893 0.54844 0.323812
1 0.588098 0.355276
1 0.627146 0.387091
0.121981 0.138354 0.0887617
0.125154 0.139193 0.087602
0.128542 0.140429 0.0867323
0.131426 0.141985 0.0857404
0.133989 0.144076 0.0843671
0.139925 0.145205 0.0836805
0.147936 0.14641 0.0844282
0.154498 0.149096 0.0890516
0.162112 0.152895 0.0922408
0.173388 0.157656 0.0927749
0.194675 0.159625 0.09691
0.221256 0.161959 0.0971237
0.252186 0.164965 0.0963455
0.286748 0.168841 0.0954757
0.324102 0.173968 0.09514
0.364614 0.181003 0.0961929
0.407324 0.189487 0.0983291
0.452445 0.200107 0.101946
0.498589 0.213016 0.107042
0.546212 0.228336 0.114061
0.593652 0.246006 0.122744
0.640986 0.266361 0.133639
0.687434 0.289158 0.146288
0.73283 0.314519 0.16112
0.776944 0.342397 0.178195
0.819211 0.372686 0.197635
0.859525 0.405142 0.219364
0.897826 0.439567 0.243229
0.9337 0.47541 0.268879
0.967742 0.513024 0.29662
0.999557 0.551339 0.326131
1 0.590539 0.357198
1 0.629129 0.388739
0.142443 0.161105 0.101732
0.145357 0.162188 0.100877
0.147646 0.163317 0.0996262
0.15021 0.164721 0.0986038
0.152468 0.166674 0.0971695
0.158328 0.167666 0.0968338
0.166537 0.168612 0.0967117
0.173068 0.170504 0.0998245
0.180423 0.173892 0.10399
0.189715 0.178347 0.105882
0.20412 0.182742 0.107088
0.227756 0.184909 0.110597
0.256916 0.187457 0.111086
0.289967 0.190951 0.110399
0.326436 0.195148 0.109758
0.365866 0.201114 0.109926
0.407996 0.208545 0.11107
0.452689 0.218067 0.114244
0.498283 0.229755 0.11841
0.54519 0.243732 0.124285
0.592218 0.259968 0.132128
0.639384 0.279088 0.142061
0.685786 0.300572 0.153979
0.731701 0.324956 0.168353
0.775692 0.351614 0.184833
0.818067 0.380743 0.203616
0.858274 0.412222 0.224369
0.896406 0.445319 0.247303
0.932769 0.480583 0.272389
0.966857 0.516945 0.299779
0.998901 0.55494 0.328786
1 0.593515 0.359258
1 0.631556 0.390677
0.164797 0.186511 0.11664
0.167285 0.18764 0.115755
0.169696 0.188891 0.11487
0.171664 0.190158 0.113634
0.173327 0.191928 0.1122
0.17937 0.192523 0.112016
0.186892 0.193271 0.111986
0.194415 0.194736 0.1131
0.201099 0.19733 0.116655
0.209644 0.201221 0.120165
0.220706 0.206149 0.121004
0.237644 0.210391 0.122759
0.263416 0.212558 0.125994
0.294652 0.215305 0.126513
0.329717 0.219135 0.126024
0.368383 0.224155 0.126024
0.409751 0.23064 0.12668
0.453101 0.238727 0.128359
0.497993 0.248981 0.131823
0.544305 0.261463 0.136675
0.591196 0.276509 0.143633
0.638193 0.294087 0.152605
0.684413 0.314046 0.163409
0.730114 0.337026 0.176806
0.773983 0.362325 0.192264
0.816266 0.390173 0.21001
0.856794 0.42031 0.230106
0.895384 0.452552 0.252613
0.931701 0.486503 0.277028
0.965927 0.522179 0.303456
0.997848 0.55906 0.33196
1 0.597025 0.362325
1 0.634531 0.392844
0.189334 0.214389 0.133272
0.191501 0.215518 0.132342
0.193545 0.216739 0.131579
0.195209 0.218082 0.130434
0.196735 0.219577 0.128923
0.202686 0.219883 0.129076
0.209659 0.220478 0.129107
0.217624 0.221622 0.128817
0.224292 0.223514 0.131472
0.232242 0.226627 0.135317
0.241566 0.230762 0.137591
0.254337 0.236439 0.137972
0.273854 0.240345 0.140536
0.301976 0.242664 0.143832
0.33492 0.245823 0.144259
0.371878 0.249943 0.14403
0.411872 0.255512 0.144045
0.454231 0.262303 0.144961
0.498436 0.271336 0.147509
0.544121 0.282414 0.151278
0.590417 0.295705 0.157275
0.636942 0.31165 0.16492
0.682857 0.330007 0.174655
0.728298 0.351354 0.186862
0.772168 0.375036 0.201343
0.814694 0.401236 0.218128
0.855161 0.429984 0.23711
0.893889 0.460868 0.258686
0.930571 0.493721 0.282475
0.965057 0.528359 0.308476
0.997055 0.564157 0.335943
1 0.601068 0.365515
1 0.63801 0.396002
0.216266 0.244602 0.151965
0.218006 0.245747 0.150988
0.219593 0.246952 0.149935
0.220798 0.248035 0.148577
0.223178 0.249195 0.147723
0.228565 0.249439 0.147921
0.234882 0.249943 0.147982
0.242435 0.250797 0.147738
0.250004 0.252064 0.148409
0.257191 0.254688 0.15198
0.265568 0.258335 0.154925
0.276463 0.262913 0.156695
0.29015 0.268803 0.15581
0.312428 0.272129 0.159762
0.342397 0.274983 0.162768
0.376898 0.278309 0.163333
0.415061 0.282719 0.163378
0.456352 0.288655 0.164004
0.499519 0.296284 0.165667
0.544274 0.30576 0.168246
0.589929 0.317464 0.172854
0.635706 0.331701 0.179217
0.681544 0.348516 0.188022
0.726711 0.368002 0.199161
0.77052 0.389883 0.212421
0.813001 0.414359 0.227665
0.853742 0.441627 0.245808
0.892378 0.470741 0.266178
0.929137 0.502144 0.289021
0.963607 0.535515 0.31368
0.996033 0.570382 0.341024
1 0.60621 0.369665
1 0.642023 0.399283
0.24477 0.276936 0.171847
0.246204 0.278035 0.170932
0.247547 0.279225 0.169894
0.248768 0.280476 0.168826
0.252308 0.280827 0.168795
0.257237 0.28101 0.168963
0.262913 0.281422 0.1691
0.269749 0.282109 0.168948
0.277165 0.28304 0.168231
0.284352 0.2851 0.17055
0.292088 0.288182 0.173678
0.301427 0.29192 0.176364
0.313191 0.296895 0.177111
0.328847 0.303349 0.176043
0.353155 0.30634 0.180636
0.384573 0.309087 0.183749
0.420249 0.312886 0.184726
0.459632 0.317723 0.185122
0.501015 0.323919 0.185306
0.544945 0.332128 0.187442
0.589685 0.342092 0.190814
0.63476 0.354528 0.195911
0.680064 0.369406 0.203372
0.724865 0.386984 0.212833
0.768826 0.407187 0.224872
0.811032 0.42974 0.239185
0.851942 0.455055 0.256077
0.890822 0.48278 0.275517
0.927718 0.512444 0.297154
0.962081 0.54403 0.320623
0.99469 0.577508 0.346548
1 0.612375 0.374731
1 0.647135 0.403555
0.275593 0.311666 0.193561
0.276768 0.312718 0.192615
0.277867 0.313832 0.191623
0.280629 0.314183 0.191409
0.284062 0.314336 0.191546
0.288365 0.314412 0.191516
0.29308 0.314595 0.191333
0.299123 0.315175 0.19118
0.305974 0.316182 0.19086
0.313664 0.317723 0.190906
0.320745 0.319951 0.193896
0.329244 0.32314 0.196841
0.339269 0.327474 0.198611
0.352499 0.332937 0.1991
0.368963 0.339422 0.197345
0.395438 0.341894 0.203128
0.427909 0.3449 0.205905
0.464637 0.348913 0.207279
0.504387 0.354238 0.207904
0.546715 0.361044 0.209293
0.590311 0.369436 0.211505
0.634485 0.380041 0.215366
0.679408 0.393332 0.221393
0.723568 0.408667 0.229618
0.766827 0.426642 0.239918
0.809232 0.447456 0.252796
0.849744 0.470573 0.267994
0.888808 0.496498 0.286076
0.925902 0.524376 0.306508
0.960678 0.554467 0.329015
0.993194 0.586023 0.353506
1 0.619516 0.380667
1 0.65301 0.408545
0.307881 0.348241 0.216541
0.308736 0.34902 0.215595
0.311559 0.349096 0.215717
0.314534 0.349157 0.215763
0.317723 0.349248 0.215778
0.321309 0.349493 0.215854
0.325841 0.349783 0.215808
0.330983 0.350332 0.215793
0.337438 0.351034 0.215702
0.344244 0.351949 0.214984
0.351537 0.353841 0.216037
0.359319 0.356527 0.218814
0.36817 0.359854 0.221256
0.37937 0.364614 0.222919
0.39321 0.370214 0.22266
0.410117 0.376944 0.220951
0.438987 0.379034 0.227054
0.472404 0.382559 0.230518
0.509483 0.386679 0.231601
0.54963 0.392126 0.232547
0.591913 0.399329 0.234379
0.634836 0.408225 0.237232
0.678981 0.419562 0.241962
0.722408 0.433021 0.248676
0.765316 0.449073 0.257389
0.807248 0.46743 0.268574
0.847883 0.488533 0.282521
0.88661 0.512001 0.298482
0.923827 0.538186 0.317601
0.958877 0.566293 0.338827
0.991684 0.596338 0.36228
1 0.627924 0.387747
1 0.660304 0.414862
0.343435 0.385534 0.242359
0.34609 0.385565 0.242435
0.348684 0.385626 0.242481
0.351049 0.385733 0.242557
0.353689 0.385885 0.242588
0.35697 0.386069 0.242573
0.360616 0.386267 0.242435
0.364981 0.386526 0.24213
0.370306 0.387228 0.241917
0.376761 0.38819 0.241474
0.384161 0.389639 0.240772
0.391135 0.391485 0.242847
0.399237 0.394385 0.245228
0.408881 0.398322 0.24741
0.4206 0.40296 0.248356
0.435035 0.408911 0.247288
0.45362 0.415442 0.246815
0.483177 0.417853 0.252827
0.517235 0.421103 0.256245
0.554498 0.425681 0.257939
0.594369 0.43125 0.259083
0.636072 0.438895 0.261051
0.678767 0.448249 0.264561
0.721477 0.459861 0.269886
0.763958 0.473625 0.277302
0.8056 0.489998 0.286793
0.846174 0.508858 0.298955
0.884825 0.530053 0.313497
0.921736 0.55375 0.330388
0.956893 0.580041 0.350088
0.989837 0.608194 0.372335
1 0.637888 0.396323
1 0.66865 0.422171
0.382559 0.422965 0.270405
0.384802 0.423026 0.270451
0.386954 0.423102 0.270451
0.389105 0.423194 0.270466
0.391333 0.423346 0.270466
0.393942 0.423575 0.270497
0.397269 0.42385 0.270405
0.401221 0.424247 0.270298
0.405798 0.424857 0.2701
0.411231 0.425574 0.269657
0.417563 0.42652 0.268849
0.424811 0.428183 0.268696
0.432013 0.430579 0.271061
0.440436 0.433371 0.272999
0.450645 0.437522 0.274723
0.462852 0.442405 0.275166
0.478264 0.448768 0.273869
0.497993 0.454749 0.274174
0.527916 0.45713 0.280079
0.56199 0.460639 0.283375
0.599313 0.465324 0.285542
0.638804 0.471473 0.287297
0.679789 0.479088 0.289525
0.721462 0.488945 0.293767
0.762982 0.500694 0.299428
0.803967 0.514809 0.30724
0.844114 0.53138 0.317678
0.882811 0.550454 0.330617
0.919448 0.571862 0.345708
0.954696 0.595453 0.363485
0.988022 0.621714 0.384024
1 0.649805 0.406851
1 0.678477 0.430915
0.423026 0.461769 0.30016
0.424872 0.46183 0.300145
0.426566 0.461814 0.300023
0.428229 0.461799 0.299886
0.430091 0.461845 0.299779
0.432349 0.462058 0.299748
0.43505 0.462333 0.299779
0.438483 0.462654 0.299718
0.442573 0.463111 0.299657
0.447288 0.463813 0.299397
0.452873 0.46479 0.298939
0.459541 0.465995 0.298131
0.466285 0.467643 0.298436
0.473716 0.470253 0.300313
0.48249 0.473335 0.302113
0.493141 0.477501 0.303426
0.505669 0.482597 0.303166
0.521767 0.489097 0.301747
0.542489 0.49456 0.302861
0.57261 0.497047 0.308858
0.606302 0.500771 0.312139
0.643427 0.505592 0.314626
0.682124 0.512062 0.316884
0.722118 0.51986 0.3196
0.762844 0.529885 0.324224
0.802884 0.541878 0.330541
0.842222 0.556191 0.338903
0.880659 0.5729 0.34995
0.917494 0.592035 0.363485
0.952407 0.613458 0.379156
0.985718 0.636973 0.397772
1 0.662806 0.418723
1 0.689876 0.441291
0.464363 0.500832 0.331167
0.465873 0.500923 0.331151
0.467384 0.501015 0.331136
0.468864 0.501137 0.331106
0.470451 0.501259 0.331044
0.472419 0.501427 0.330999
0.474571 0.501701 0.330953
0.47715 0.501808 0.330663
0.480446 0.502113 0.330388
0.484337 0.502739 0.330205
0.489219 0.503502 0.3299
0.494987 0.504524 0.329641
0.501915 0.505913 0.328756
0.50837 0.507652 0.329473
0.515938 0.510414 0.331136
0.525063 0.513924 0.332738
0.535912 0.517952 0.333532
0.549218 0.523323 0.333013
0.56524 0.529717 0.331044
0.586603 0.534783 0.333043
0.616678 0.537377 0.338842
0.650248 0.541161 0.342351
0.686534 0.546166 0.345159
0.724453 0.552773 0.347738
0.763272 0.560769 0.350912
0.802487 0.570977 0.356054
0.841016 0.583124 0.362783
0.87863 0.597528 0.371817
0.915297 0.614267 0.383429
0.950072 0.633127 0.397223
0.983429 0.654673 0.413657
1 0.678019 0.433005
1 0.702892 0.453788
0.506218 0.540261 0.363775
0.507454 0.540368 0.363729
0.508675 0.540459 0.363699
0.509896 0.540566 0.363668
0.511223 0.540688 0.363622
0.51281 0.540841 0.363546
0.514763 0.541054 0.363455
0.516884 0.54139 0.363394
0.519738 0.541756 0.363226
0.523033 0.542107 0.362829
0.526726 0.542611 0.362356
0.531655 0.543465 0.361837
0.537285 0.544656 0.361212
0.544427 0.546075 0.360601
0.550896 0.548089 0.361563
0.558495 0.550805 0.363119
0.567788 0.554421 0.364401
0.578958 0.558526 0.364767
0.592538 0.564065 0.363973
0.608454 0.570459 0.361654
0.630396 0.575051 0.36437
0.660258 0.577707 0.370123
0.693004 0.581659 0.373922
0.72845 0.586755 0.376974
0.765194 0.593484 0.379919
0.802762 0.601587 0.383444
0.840421 0.611902 0.389075
0.877485 0.624079 0.396094
0.913359 0.638468 0.405737
0.948165 0.655177 0.417899
0.981079 0.673899 0.431907
1 0.695308 0.449119
1 0.717815 0.468116
0.548333 0.579828 0.39762
0.54934 0.579919 0.397589
0.550317 0.580026 0.397528
0.551308 0.580118 0.397482
0.552377 0.58024 0.397436
0.553704 0.580377 0.397375
0.555306 0.58056 0.397284
0.557031 0.58085 0.397223
0.559365 0.581155 0.39707
0.562188 0.581582 0.396841
0.565621 0.582101 0.396536
0.569223 0.582589 0.395911
0.57409 0.583474 0.395285
0.57969 0.584756 0.394522
0.586587 0.586343 0.393698
0.593332 0.588449 0.394995
0.600946 0.59115 0.396185
0.610391 0.594827 0.397116
0.621698 0.598978 0.397131
0.635294 0.604517 0.396002
0.651209 0.610941 0.393454
0.673411 0.615137 0.396918
0.702586 0.617899 0.402625
0.734752 0.621851 0.406577
0.76907 0.627039 0.409888
0.804562 0.633799 0.412802
0.840513 0.642054 0.417105
0.876539 0.65214 0.422873
0.911925 0.664561 0.430564
0.946029 0.67892 0.440284
0.978821 0.695216 0.452598
1 0.714015 0.467628
1 0.734279 0.484596
0.590326 0.619272 0.432563
0.591134 0.619348 0.432517
0.591959 0.61944 0.432486
0.592767 0.619516 0.432456
0.593622 0.619623 0.432395
0.594675 0.619745 0.432319
0.595972 0.619913 0.432242
0.597375 0.620157 0.432181
0.599237 0.620447 0.432044
0.601556 0.620783 0.431846
0.604395 0.621225 0.431586
0.607538 0.621866 0.431312
0.611368 0.622385 0.430594
0.616007 0.623331 0.429892
0.621744 0.624628 0.429023
0.62855 0.626276 0.428183
0.635264 0.628397 0.429297
0.642985 0.631174 0.430228
0.652476 0.634882 0.430854
0.663752 0.639063 0.430564
0.676997 0.64448 0.429038
0.692882 0.651026 0.426429
0.715236 0.65478 0.43064
0.743862 0.657572 0.436149
0.774853 0.661616 0.440253
0.80798 0.666865 0.443641
0.841856 0.673396 0.446769
0.876677 0.68188 0.451591
0.910765 0.69192 0.457359
0.944244 0.704067 0.465507
0.976638 0.718303 0.475593
1 0.734737 0.488518
1 0.752773 0.503334
0.631968 0.65832 0.468147
0.632609 0.658412 0.468116
0.633249 0.658488 0.468071
0.63389 0.658564 0.468025
0.634592 0.658656 0.467979
0.635447 0.658763 0.467918
0.636454 0.6589 0.467857
0.637537 0.659144 0.467811
0.639078 0.659373 0.467674
0.640986 0.659648 0.467506
0.643275 0.660014 0.467277
0.645945 0.660517 0.467018
0.649149 0.661158 0.466667
0.652857 0.661646 0.465827
0.657435 0.66273 0.465187
0.663203 0.664027 0.464271
0.669871 0.665736 0.463447
0.676173 0.667796 0.464057
0.684077 0.670756 0.464897
0.693568 0.674388 0.465232
0.704829 0.678599 0.464607
0.71809 0.683742 0.463035
0.733608 0.690288 0.460243
0.755856 0.693797 0.464881
0.783444 0.696635 0.470603
0.813565 0.700648 0.474647
0.845396 0.705913 0.478111
0.877607 0.71252 0.481727
0.910811 0.720958 0.486809
0.943236 0.730938 0.492866
0.975036 0.742992 0.501137
1 0.756954 0.511833
1 0.772824 0.524392
0.672892 0.696788 0.504738
0.673396 0.696849 0.504723
0.67393 0.696925 0.504677
0.674434 0.696986 0.504646
0.674952 0.697063 0.504601
0.675486 0.6972 0.504585
0.676265 0.697337 0.504524
0.677287 0.69749 0.504448
0.678538 0.697673 0.504326
0.680079 0.697917 0.504189
0.68191 0.698222 0.50399
0.684092 0.698619 0.503777
0.686641 0.699153 0.503487
0.689738 0.69958 0.502876
0.693355 0.700359 0.502266
0.698039 0.701411 0.501518
0.703639 0.702739 0.500786
0.710246 0.704494 0.499458
0.716564 0.706554 0.499901
0.724407 0.709499 0.500465
0.73373 0.712779 0.50042
0.74493 0.71725 0.499641
0.757763 0.722377 0.497765
0.772732 0.728588 0.494591
0.794766 0.731899 0.499977
0.821637 0.734844 0.505425
0.850477 0.738857 0.509667
0.880552 0.743847 0.51313
0.911894 0.750607 0.517403
0.943114 0.75903 0.522179
0.973953 0.768963 0.528801
1 0.78085 0.537331
1 0.794308 0.547539
0.712779 0.734539 0.541665
0.7131 0.734615 0.541634
0.713512 0.734676 0.541604
0.713909 0.734722 0.541558
0.714351 0.734798 0.541527
0.7149 0.734874 0.541482
0.715557 0.734966 0.541421
0.716381 0.735088 0.541344
0.717388 0.735241 0.541253
0.718593 0.735454 0.541131
0.720058 0.735698 0.540963
0.721675 0.736065 0.540825
0.723796 0.736446 0.54052
0.726238 0.736721 0.539971
0.729351 0.737346 0.539483
0.733074 0.738201 0.538994
0.737804 0.739208 0.538354
0.743038 0.740627 0.537377
0.749065 0.742245 0.536065
0.75581 0.744427 0.536095
0.763561 0.747341 0.53637
0.772717 0.750576 0.536141
0.783459 0.755016 0.535332
0.796185 0.75996 0.533196
0.810864 0.766003 0.529946
0.831937 0.768948 0.535531
0.857664 0.771832 0.540719
0.885344 0.775769 0.545129
0.914229 0.781064 0.548592
0.944106 0.787778 0.553017
0.973693 0.795819 0.558236
1 0.805646 0.564706
1 0.817105 0.57319
0.751614 0.771344 0.578912
0.751934 0.771389 0.578882
0.752255 0.77145 0.578851
0.752575 0.771496 0.57882
0.752926 0.771542 0.57879
0.753353 0.771603 0.578744
0.753902 0.771679 0.578698
0.754543 0.771786 0.578637
