public/textures/grade/Fuji/Arrakis-FLog.cube
TITLE "Generated by Resolve"
LUT_3D_SIZE 5
0.0162966 0.0336461 0.0305333
0.116365 0.0377966 0.0394751
0.412543 0.108431 0.0500038
0.784375 0.305074 0.153292
1 0.619791 0.381262
0.102708 0.117906 0.0778058
0.146746 0.134554 0.0812695
0.407065 0.173053 0.0875105
0.778164 0.335073 0.173297
1 0.627146 0.387091
0.307881 0.348241 0.216541
0.337438 0.351034 0.215702
0.438987 0.379034 0.227054
0.765316 0.449073 0.257389
1 0.660304 0.414862
0.631968 0.65832 0.468147
0.639078 0.659373 0.467674
0.669871 0.665736 0.463447
0.783444 0.696635 0.470603
1 0.772824 0.524392
0.925078 0.93843 0.766323
0.926146 0.938628 0.766232
0.93109 0.93962 0.765759
0.95378 0.945556 0.761028
1 0.969238 0.755459
0.0501411 0.109468 0.107836
0.116823 0.111223 0.114336
0.414466 0.133288 0.138857
0.780148 0.319127 0.198764
1 0.623117 0.397711
0.114351 0.159609 0.137362
0.17052 0.166278 0.13257
0.406775 0.197986 0.152758
0.775113 0.346532 0.213016
1 0.630289 0.402991
0.330205 0.352087 0.252827
0.347585 0.360494 0.246052
0.442451 0.387778 0.260258
0.764797 0.454856 0.283772
1 0.662593 0.428656
0.633295 0.661372 0.479301
0.64065 0.662181 0.479103
0.671672 0.667628 0.475502
0.783749 0.698466 0.482429
1 0.773983 0.53254
0.925399 0.938872 0.769009
0.926452 0.939055 0.768902
0.931365 0.940047 0.768322
0.95404 0.945815 0.763928
1 0.969406 0.757977
0.168109 0.289052 0.294652
0.2065 0.290608 0.288228
0.371283 0.288624 0.337026
0.775769 0.368368 0.366613
1 0.6392 0.465843
0.194766 0.309316 0.306477
0.231052 0.31194 0.301701
0.386648 0.315129 0.338125
0.777584 0.389059 0.365225
1 0.645624 0.46952
0.360067 0.417243 0.368872
0.382696 0.419577 0.366323
0.479454 0.434592 0.359838
0.764889 0.488823 0.390936
1 0.674907 0.487068
0.653895 0.669825 0.5337
0.657923 0.672114 0.531716
0.680415 0.680507 0.525689
0.78706 0.708125 0.532601
1 0.779675 0.568276
0.926741 0.941161 0.781155
0.927825 0.941299 0.781079
0.932754 0.942092 0.780682
0.955261 0.947265 0.776791
1 0.970687 0.769589
0.385855 0.555581 0.574487
0.404074 0.556481 0.57174
0.480522 0.564584 0.563973
0.709209 0.572061 0.636683
1 0.690929 0.668544
0.398947 0.564019 0.57966
0.416129 0.565179 0.577447
0.489494 0.573007 0.569909
0.712352 0.581033 0.636835
1 0.695644 0.667872
0.462181 0.604227 0.604593
0.475547 0.604944 0.602609
0.534798 0.611246 0.596994
0.729809 0.620829 0.640238
1 0.71664 0.665522
0.696269 0.732555 0.67512
0.701457 0.733104 0.674525
0.724285 0.736049 0.672114
0.814374 0.753323 0.66685
1 0.808484 0.689189
0.939742 0.949264 0.832074
0.940307 0.94963 0.831724
0.942657 0.95137 0.83003
0.962219 0.956451 0.826978
1 0.977493 0.818051
0.688685 0.845289 0.868391
0.692668 0.845335 0.867643
0.712963 0.846662 0.865339
0.793103 0.854765 0.85893
0.982895 0.86569 0.921019
0.691646 0.847044 0.869368
0.69604 0.847257 0.868803
0.715862 0.848478 0.866331
0.795193 0.856916 0.859342
0.983139 0.86714 0.920836
0.707713 0.85594 0.874617
0.711681 0.856168 0.874128
0.729641 0.857191 0.871946
0.803998 0.865064 0.864698
0.985519 0.875059 0.921279
0.778805 0.893751 0.897063
0.781491 0.893904 0.896727
0.79382 0.894804 0.895247
0.847318 0.899947 0.889403
0.998306 0.909041 0.924086
0.975021 0.992538 0.949828
0.975723 0.992615 0.949752
0.978851 0.992889 0.949355
0.994705 0.995224 0.947829
1 1 0.943465
