public/textures/grade/Fuji/Bat-FLog.cube
TITLE "Generated by Resolve"
LUT_3D_SIZE 9
0.0322118 0.0354314 0.0256199
0.041062 0.0376135 0.0260166
0.0743725 0.0402991 0.0193332
0.15288 0.0486305 0.00236515
0.279561 0.0817426 0
0.433463 0.155428 0
0.578241 0.242939 0
0.707347 0.343359 0
0.855207 0.477348 0.145464
0.0415503 0.0478981 0.0304265
0.0567636 0.0499275 0.0250706
0.0972915 0.0502785 0.0111086
0.165881 0.0581064 0
0.281102 0.0907149 0
0.43006 0.158801 0
0.574334 0.245411 0
0.706767 0.346349 0
0.856123 0.479805 0.149218
0.0740063 0.0758984 0.0328222
0.0903792 0.0779889 0.0257115
0.126635 0.0793164 0.00981155
0.188495 0.0802319 0
0.28719 0.106722 0
0.425635 0.166308 0
0.569207 0.25124 0
0.706188 0.351949 0
0.857786 0.484077 0.155428
0.147463 0.139803 0.0485084
0.158801 0.141451 0.0426947
0.178225 0.143542 0.0317388
0.222049 0.145937 0.00694286
0.310582 0.152728 0
0.428122 0.194614 0
0.56556 0.269047 0
0.707362 0.365774 0
0.861952 0.494179 0.170657
0.251591 0.241398 0.123537
0.256382 0.242115 0.12105
0.26627 0.243885 0.116442
0.290364 0.247578 0.103273
0.347173 0.25478 0.0746471
0.452522 0.270069 0.0128939
0.576242 0.317723 0.0021973
0.716274 0.399008 0.0512245
0.871641 0.515984 0.201068
0.383337 0.367498 0.234379
0.386496 0.368063 0.233295
0.392859 0.369436 0.23154
0.407065 0.37232 0.227192
0.438865 0.378866 0.218555
0.503487 0.390616 0.203769
0.615152 0.41384 0.160128
0.74435 0.467933 0.174151
0.893889 0.561303 0.261067
0.547387 0.516991 0.364218
0.549355 0.517494 0.363943
0.55285 0.518456 0.363561
0.560845 0.520577 0.362661
0.577996 0.524895 0.360769
0.613428 0.533822 0.358236
0.682277 0.550607 0.35555
0.798108 0.580743 0.335256
0.935622 0.642023 0.362936
0.731838 0.689204 0.522545
0.732815 0.689464 0.522484
0.734493 0.689982 0.522499
0.738582 0.691096 0.522271
0.747234 0.693401 0.521828
0.766445 0.698772 0.521569
0.804486 0.709102 0.522774
0.87686 0.728222 0.524605
0.99646 0.763149 0.516182
0.92784 0.874235 0.698543
0.928298 0.874342 0.698528
0.929137 0.874556 0.698497
0.931044 0.875044 0.698436
0.935271 0.876173 0.698421
0.944778 0.878645 0.69839
0.964569 0.883696 0.69865
1 0.893874 0.702037
1 0.91313 0.706371
0.0341344 0.0422675 0.0416419
0.0419318 0.0445869 0.0426947
0.0653544 0.0504463 0.0482338
0.148669 0.0571298 0.0320745
0.267216 0.0997787 0.0180972
0.424063 0.168093 0
0.572168 0.249866 0
0.704311 0.346899 0
0.853346 0.480064 0.165393
0.0345006 0.0563058 0.0571603
0.0505989 0.0585184 0.0528267
0.0818036 0.0628519 0.049546
0.150774 0.0739757 0.037995
0.272312 0.106279 0.0103609
0.421378 0.171115 0
0.568383 0.252003 0
0.703639 0.349722 0.000183108
0.854292 0.482399 0.168246
0.0610208 0.0849165 0.0656748
0.0782788 0.0866102 0.0625772
0.109209 0.0912337 0.0529335
0.178073 0.0951247 0.0288853
0.280873 0.120607 0.0019379
0.418051 0.177874 0
0.563882 0.257435 0
0.70338 0.355444 0.00788891
0.85597 0.486732 0.17435
0.139452 0.146731 0.0832227
0.150072 0.148699 0.0782483
0.168521 0.151492 0.0705882
0.21062 0.156054 0.0539559
0.303014 0.164446 0.00779736
0.422354 0.203723 0
0.561593 0.274693 0
0.704799 0.36939 0.027512
0.860273 0.496742 0.187854
0.247425 0.245304 0.146151
0.252445 0.246265 0.144427
0.262058 0.247944 0.140658
0.286183 0.252064 0.130922
0.342016 0.259846 0.110002
0.448859 0.27538 0.0459449
0.573602 0.321553 0.0289921
0.713939 0.402182 0.0797742
0.870054 0.518364 0.216022
0.381903 0.369451 0.243824
0.385275 0.370245 0.243076
0.391608 0.371649 0.24152
0.405692 0.374624 0.237797
0.437293 0.381308 0.230274
0.501274 0.393378 0.218357
0.613245 0.4168 0.178546
0.74255 0.470649 0.191775
0.892515 0.563317 0.272465
0.546288 0.518608 0.371221
0.548226 0.519112 0.370993
0.55169 0.520088 0.370687
0.559442 0.521996 0.369665
0.576837 0.526558 0.368002
0.612116 0.535515 0.365896
0.680537 0.552224 0.36376
0.796735 0.582467 0.343938
0.934524 0.643458 0.370245
0.730999 0.69015 0.526665
0.731975 0.69041 0.526589
0.733684 0.690929 0.526558
0.737804 0.692042 0.526253
0.746365 0.69427 0.525734
0.765621 0.699702 0.525582
0.803662 0.710048 0.526787
0.875929 0.729152 0.528786
0.995682 0.764004 0.520134
0.927321 0.874708 0.700633
0.927779 0.874815 0.700618
0.928618 0.875029 0.700603
0.930526 0.875517 0.700542
0.934768 0.876631 0.700465
0.944335 0.879103 0.700328
0.964034 0.884169 0.70074
1 0.894331 0.704097
1 0.913558 0.708446
0.0386053 0.0571145 0.0749981
0.047837 0.0599527 0.0752575
0.0647288 0.0652934 0.0870527
0.123323 0.0823377 0.0940261
0.265507 0.109392 0.0628061
0.407401 0.18613 0.0541238
0.561425 0.259953 0.0211643
0.698238 0.353536 0.0490425
0.849973 0.484916 0.196933
0.0424811 0.0696269 0.0873732
0.0546426 0.0731212 0.0871443
0.0758068 0.0793927 0.0917067
0.136492 0.0939803 0.0944686
0.261357 0.123934 0.0700999
0.405447 0.188434 0.0505074
0.55848 0.262135 0.0224155
0.697902 0.356512 0.0532692
0.850782 0.487068 0.199512
0.0451209 0.101747 0.118532
0.0632334 0.104082 0.1149
0.0950179 0.107362 0.106004
0.1552 0.117021 0.0984207
0.261021 0.143648 0.0776837
0.404562 0.194156 0.0456855
0.555306 0.267201 0.0241703
0.697963 0.362249 0.0611276
0.852659 0.491524 0.204837
0.122225 0.158343 0.133425
0.134279 0.160266 0.13109
0.155535 0.162676 0.126116
0.195499 0.16936 0.1149
0.289937 0.180377 0.076173
0.412741 0.217411 0.0462501
0.554788 0.283436 0.0340276
0.699718 0.375769 0.0803082
0.857114 0.50135 0.216342
0.241672 0.251362 0.178103
0.246662 0.252613 0.174838
0.256199 0.254505 0.172625
0.279744 0.258717 0.165545
0.334096 0.267491 0.153429
0.442878 0.283604 0.0987106
0.568795 0.329015 0.0810101
0.70985 0.408286 0.129488
0.867155 0.522637 0.241001
0.379187 0.373495 0.261784
0.382528 0.374304 0.261234
0.38851 0.375509 0.2598
0.402731 0.378882 0.257191
0.433768 0.385489 0.251072
0.497047 0.398337 0.243397
0.609155 0.42182 0.208545
0.739315 0.475441 0.220142
0.889769 0.566629 0.291402
0.544198 0.521508 0.383719
0.54612 0.522026 0.38352
0.549584 0.523018 0.383261
0.55726 0.524834 0.382177
0.574563 0.529519 0.381003
0.609781 0.538552 0.379156
0.677516 0.5552 0.378088
0.794278 0.585565 0.358984
0.932433 0.646097 0.383383
0.729656 0.691859 0.53373
0.730617 0.692119 0.533684
0.732296 0.692638 0.5337
0.73637 0.693751 0.533501
0.744915 0.695979 0.532998
0.763821 0.701106 0.53257
0.802121 0.711757 0.534112
0.874174 0.730846 0.536431
0.994186 0.765591 0.527459
0.926467 0.875563 0.704295
0.926925 0.875669 0.70428
0.927764 0.875883 0.70425
0.929671 0.876371 0.704189
0.933883 0.877501 0.704173
0.943313 0.879942 0.704112
0.963149 0.885008 0.704356
1 0.895155 0.707652
1 0.914351 0.712093
0.05243 0.0974594 0.150988
0.0630503 0.10074 0.151095
0.0830549 0.107332 0.152743
0.121614 0.122881 0.179217
0.226658 0.159869 0.184466
0.402258 0.196643 0.14049
0.53959 0.279164 0.144259
0.684092 0.369116 0.161181
0.841978 0.49514 0.254414
0.0571908 0.108751 0.157351
0.0686656 0.112108 0.157244
0.0894636 0.118227 0.157763
0.129046 0.132326 0.17821
0.231479 0.165438 0.181827
0.396872 0.202564 0.144121
0.535012 0.283482 0.150652
0.684108 0.371878 0.163546
0.843153 0.497536 0.256825
0.0688792 0.130465 0.170672
0.0817273 0.132967 0.169329
0.102739 0.137606 0.168307
0.14313 0.149111 0.177462
0.241367 0.17467 0.17882
0.38909 0.215061 0.152911
0.534157 0.288273 0.149905
0.684794 0.377279 0.167895
0.84509 0.501518 0.260212
0.0892653 0.185626 0.21236
0.104631 0.186862 0.210239
0.129 0.188647 0.206332
0.177493 0.193286 0.195193
0.261143 0.208667 0.186984
0.387762 0.243809 0.168933
0.537102 0.30312 0.153521
0.687999 0.390478 0.179736
0.849714 0.510994 0.269139
0.222766 0.265904 0.237675
0.228779 0.26685 0.236851
0.237873 0.269276 0.234363
0.266224 0.27306 0.228305
0.318685 0.283589 0.221118
0.427558 0.301503 0.190967
0.55584 0.345342 0.180423
0.699901 0.42121 0.208255
0.860624 0.531838 0.288853
0.372 0.382254 0.301289
0.375525 0.383444 0.299413
0.381369 0.384802 0.298863
0.395239 0.388205 0.297414
0.425513 0.395163 0.293812
0.486442 0.408865 0.292195
0.600336 0.433173 0.26479
0.731579 0.485359 0.272999
0.884077 0.574395 0.330388
0.539376 0.527504 0.409247
0.541283 0.528023 0.40914
0.544701 0.529015 0.409033
0.552529 0.531197 0.408606
0.569421 0.535668 0.407401
0.604471 0.544976 0.406546
0.67126 0.561959 0.407797
0.788663 0.591867 0.389395
0.927886 0.651789 0.410483
0.726528 0.695613 0.549279
0.727398 0.695918 0.54934
0.729168 0.696406 0.549279
0.732876 0.6972 0.548775
0.741772 0.699748 0.548562
0.760632 0.704875 0.548165
0.798733 0.715419 0.549661
0.870329 0.7346 0.552865
0.990829 0.769085 0.543404
0.924468 0.877501 0.712596
0.924926 0.877607 0.712581
0.925765 0.877821 0.712551
0.927672 0.878309 0.712489
0.931884 0.879438 0.712474
0.94107 0.881605 0.712001
0.961089 0.8869 0.712612
0.99939 0.897017 0.715785
1 0.915938 0.720104
0.089662 0.174701 0.257542
0.100343 0.176699 0.257267
0.118517 0.180301 0.257176
0.152941 0.190143 0.262257
0.21648 0.21326 0.300343
0.344961 0.259342 0.298634
0.531731 0.297704 0.255634
0.659113 0.396643 0.288487
0.825116 0.51603 0.346197
0.0941787 0.179446 0.258091
0.104768 0.181353 0.257725
0.122484 0.184741 0.25745
0.157733 0.194034 0.259815
0.218616 0.216342 0.296605
0.345006 0.261494 0.295872
0.528328 0.302251 0.258442
0.657435 0.400595 0.293004
0.826383 0.518181 0.34757
0.104662 0.190051 0.261738
0.115267 0.191943 0.261418
0.131289 0.194949 0.260822
0.165743 0.203479 0.261753
0.224689 0.224399 0.292165
0.347723 0.267094 0.292897
0.523491 0.311254 0.264454
0.654765 0.408072 0.301411
0.828595 0.521904 0.349981
0.132769 0.22327 0.282261
0.141939 0.224155 0.280369
0.158068 0.226474 0.278141
0.190234 0.23331 0.276555
0.24596 0.250507 0.290944
0.361944 0.284962 0.294011
0.516411 0.333089 0.280079
0.660975 0.419776 0.306279
0.833997 0.530724 0.355993
0.185916 0.300893 0.336095
0.193591 0.301411 0.334905
0.207843 0.302968 0.33344
0.238178 0.306432 0.329473
0.298634 0.314687 0.318593
0.392798 0.336522 0.315373
0.524407 0.378241 0.30959
0.677897 0.447242 0.320348
0.846265 0.550057 0.369223
0.349752 0.402472 0.377279
0.353994 0.403098 0.377035
0.361181 0.40444 0.376745
0.374762 0.408133 0.374914
0.40943 0.41529 0.369497
0.467643 0.429908 0.370077
0.58117 0.454932 0.353857
0.715282 0.505302 0.35935
0.871839 0.589822 0.398825
0.530449 0.540261 0.458274
0.532143 0.54078 0.457237
0.535546 0.541756 0.45716
0.543023 0.543969 0.457359
0.559472 0.54847 0.457023
0.594018 0.558038 0.457053
0.65864 0.575174 0.461357
0.777462 0.605234 0.445792
0.91783 0.663188 0.461646
0.71986 0.703227 0.579995
0.720806 0.703487 0.579965
0.722576 0.703975 0.579934
0.726452 0.705135 0.579919
0.735134 0.707454 0.579568
0.754086 0.712749 0.579492
0.791501 0.723125 0.580972
0.862089 0.742138 0.585229
0.983383 0.776181 0.575448
0.920287 0.881712 0.730114
0.920745 0.881819 0.730098
0.921569 0.882033 0.730068
0.923461 0.882521 0.730007
0.927626 0.883619 0.729976
0.936675 0.885817 0.729717
0.956436 0.890745 0.729732
0.994797 0.901015 0.733013
1 0.919768 0.737636
0.155261 0.263218 0.37557
0.161379 0.264103 0.374975
0.172793 0.26598 0.374166
0.198535 0.271214 0.373526
0.246113 0.285634 0.38468
0.329 0.315267 0.428809
0.464057 0.371435 0.42295
0.655802 0.42652 0.401877
0.801877 0.548821 0.461372
0.158007 0.265705 0.374685
0.164279 0.266621 0.374075
0.175982 0.268696 0.373434
0.201724 0.273976 0.372732
0.249271 0.288136 0.381949
0.330587 0.317952 0.426352
0.464775 0.374182 0.422477
0.655421 0.429969 0.40412
0.802213 0.551385 0.463767
0.164767 0.272023 0.375158
0.17116 0.272984 0.374548
0.182925 0.27512 0.373861
0.20827 0.280446 0.373175
0.256657 0.294514 0.379187
0.33434 0.323873 0.423117
0.466896 0.37969 0.42237
0.655085 0.436591 0.408515
0.802426 0.555947 0.467872
0.184604 0.291127 0.382162
0.191196 0.292363 0.381826
0.202701 0.294575 0.381277
0.227237 0.299962 0.380529
0.274815 0.312978 0.381888
0.34638 0.340536 0.420554
0.474144 0.39321 0.424689
0.654994 0.451331 0.418616
0.803311 0.566171 0.477226
0.235462 0.343282 0.414313
0.241611 0.343801 0.412787
0.252918 0.345418 0.41091
0.275319 0.349447 0.408103
0.31632 0.359991 0.407568
0.380606 0.383001 0.42742
0.499306 0.424872 0.436484
0.658366 0.483055 0.441108
0.81706 0.583169 0.48539
0.324025 0.442237 0.480964
0.328267 0.442924 0.480797
0.335714 0.44387 0.48014
0.35259 0.446708 0.479194
0.386633 0.452735 0.476967
0.450614 0.465385 0.470268
0.547143 0.493187 0.474647
0.682628 0.541238 0.480293
0.84744 0.618494 0.503288
0.507317 0.564813 0.54345
0.509621 0.565194 0.54342
0.513695 0.565942 0.543404
0.522271 0.567407 0.542962
0.53904 0.572473 0.542092
0.576959 0.581918 0.537179
0.638498 0.599756 0.543267
0.756558 0.629129 0.533333
0.898817 0.684932 0.5458
0.708812 0.718273 0.634424
0.709773 0.718608 0.634134
0.711376 0.719112 0.634272
0.715206 0.720195 0.634455
0.723507 0.72256 0.634653
0.74197 0.727779 0.634867
0.778897 0.738125 0.636118
0.846906 0.757092 0.642939
0.969711 0.790692 0.633478
0.911757 0.890105 0.764263
0.9122 0.890211 0.764248
0.913024 0.890425 0.764233
0.914778 0.890929 0.764279
0.919036 0.891997 0.764187
0.928252 0.894423 0.764187
0.947799 0.899275 0.763973
0.98587 0.90927 0.766629
1 0.927855 0.772122
0.23595 0.359304 0.491157
0.240604 0.360113 0.490745
0.248951 0.361471 0.489891
0.267231 0.365133 0.488807
0.304601 0.374609 0.488975
0.362036 0.395361 0.508736
0.458381 0.435889 0.554833
0.598596 0.507179 0.564508
0.806821 0.586816 0.573434
0.239231 0.361868 0.491157
0.243961 0.362707 0.490776
0.252247 0.364141 0.490028
0.270573 0.367941 0.489174
0.307439 0.37731 0.489235
0.364904 0.398062 0.508019
0.459937 0.438437 0.554925
0.599817 0.509911 0.56553
0.807462 0.588952 0.574914
0.24593 0.367132 0.491905
0.250629 0.368017 0.491585
0.258976 0.369696 0.491081
0.276768 0.373373 0.490181
0.312993 0.382803 0.490471
0.37055 0.403555 0.507317
0.463462 0.443519 0.555398
0.602243 0.514382 0.566903
0.808591 0.592798 0.577478
0.262715 0.381003 0.49633
0.267216 0.381979 0.496178
0.275181 0.383551 0.495674
0.292409 0.387472 0.495171
0.327031 0.39678 0.495674
0.384314 0.417121 0.508339
0.472236 0.455589 0.557748
0.608469 0.524437 0.570443
0.811093 0.601312 0.583169
0.302983 0.415534 0.513024
0.307073 0.416419 0.512856
0.314061 0.41799 0.512627
0.329656 0.422034 0.512795
0.360464 0.430625 0.513573
0.415976 0.449393 0.518761
0.493797 0.483833 0.565698
0.624018 0.546609 0.580514
0.816968 0.61976 0.595728
0.380056 0.489326 0.563043
0.383444 0.489784 0.562371
0.389654 0.490913 0.561547
0.402899 0.493599 0.560082
0.428473 0.499657 0.558419
0.473396 0.51397 0.561013
0.541054 0.541726 0.586801
0.661784 0.59028 0.604059
0.829328 0.657359 0.622049
0.491203 0.60737 0.64799
0.493217 0.607797 0.64799
0.49688 0.608576 0.648005
0.50515 0.61033 0.647974
0.522683 0.613931 0.647684
0.558282 0.622019 0.647456
0.623941 0.637766 0.644221
0.722805 0.6692 0.652888
0.864027 0.722148 0.664897
0.684108 0.74519 0.726497
0.68513 0.745403 0.726528
0.68716 0.745769 0.726528
0.691814 0.746578 0.726436
0.701579 0.748608 0.726406
0.719692 0.753902 0.725429
0.760616 0.764813 0.72079
0.824598 0.783658 0.728923
0.946014 0.815763 0.722301
0.897887 0.906264 0.82295
0.898299 0.906355 0.82295
0.899077 0.906554 0.822965
0.900877 0.906996 0.82298
0.90483 0.908034 0.823072
0.913832 0.910353 0.823102
0.932815 0.91519 0.823056
0.970657 0.924956 0.824582
1 0.943038 0.831708
0.352193 0.473198 0.608148
0.354833 0.473732 0.60798
0.360143 0.475151 0.608072
0.371695 0.478264 0.608286
0.395697 0.485313 0.6094
0.441413 0.501137 0.614328
0.506279 0.531014 0.647227
0.613153 0.585626 0.701106
0.764065 0.672023 0.733104
0.355047 0.47567 0.609262
0.358038 0.476417 0.609277
0.363302 0.477852 0.609384
0.374624 0.480842 0.609522
0.39855 0.487999 0.610803
0.443671 0.503548 0.615595
0.508278 0.533181 0.647654
0.614649 0.587564 0.702022
0.764965 0.673609 0.733944
0.360662 0.4804 0.611475
0.363485 0.481178 0.611566
0.368673 0.482612 0.611719
0.379828 0.485618 0.611933
0.403357 0.492714 0.613291
0.447974 0.508186 0.618158
0.512367 0.537545 0.648997
0.617426 0.591226 0.7037
0.766354 0.676295 0.735225
0.373342 0.491463 0.617212
0.37615 0.492226 0.617288
0.381155 0.493645 0.617487
0.391913 0.496666 0.617853
0.414466 0.503487 0.619226
0.457557 0.518502 0.624048
0.521492 0.547311 0.652186
0.623499 0.599207 0.707408
0.770031 0.68275 0.738506
0.401801 0.516503 0.631632
0.404257 0.51725 0.631815
0.40856 0.518334 0.63183
0.418585 0.52137 0.632486
0.439399 0.52784 0.634012
0.479042 0.541665 0.638498
0.541543 0.568689 0.660304
0.636637 0.61648 0.715877
0.7794 0.695964 0.745144
0.458351 0.567727 0.664836
0.46041 0.568353 0.664958
0.464302 0.569451 0.66511
0.472572 0.572015 0.665705
0.489845 0.577417 0.666972
0.523491 0.588907 0.670497
0.583307 0.612619 0.681117
0.665293 0.652674 0.734951
0.800671 0.723217 0.759762
0.550103 0.65948 0.735225
0.551659 0.659693 0.734936
0.554421 0.660151 0.734478
0.561288 0.661585 0.733761
0.575631 0.664973 0.732708
0.60296 0.672282 0.731899
0.649973 0.688899 0.736904
0.720897 0.720043 0.767468
0.845075 0.772732 0.788693
0.672908 0.790204 0.833616
0.673808 0.790356 0.833555
0.67538 0.790555 0.833371
0.679088 0.791333 0.833326
0.687785 0.793301 0.833356
0.706081 0.797314 0.833173
0.743084 0.806226 0.833478
0.810437 0.823392 0.831525
0.910689 0.85684 0.842298
0.871046 0.933623 0.918364
0.87155 0.933669 0.918303
0.872511 0.933791 0.918257
0.87454 0.934142 0.918242
0.879469 0.934859 0.917998
0.889754 0.936675 0.917617
0.90837 0.941726 0.915862
0.949386 0.951308 0.910231
1 0.968582 0.918029
0.506477 0.619181 0.750103
0.507942 0.619715 0.750347
0.510826 0.620676 0.750698
0.516884 0.622675 0.751324
0.530388 0.627466 0.75314
0.557687 0.637705 0.757427
0.608194 0.658534 0.767773
0.67834 0.695399 0.813016
0.794339 0.76054 0.8719
0.508385 0.621012 0.751431
0.509911 0.62153 0.751614
0.512703 0.622461 0.751919
0.518624 0.624369 0.752468
0.532128 0.629221 0.754345
0.559014 0.639139 0.758404
0.609537 0.66009 0.768872
0.679591 0.696803 0.813703
0.795178 0.761624 0.872572
0.511513 0.624048 0.753414
0.513039 0.624552 0.753582
0.515755 0.625498 0.753948
0.521874 0.627665 0.754772
0.535012 0.632197 0.75642
0.561959 0.642252 0.760586
0.612024 0.662959 0.770901
0.681559 0.699062 0.814618
0.796628 0.763577 0.873747
0.519387 0.631525 0.758602
0.520607 0.631876 0.758663
0.523232 0.6327 0.758892
0.529244 0.634806 0.759701
0.542077 0.639231 0.761303
0.568383 0.649012 0.765332
0.61738 0.669184 0.775311
0.686641 0.70486 0.817319
0.799603 0.767651 0.875944
0.53611 0.647593 0.769894
0.537377 0.647913 0.769909
0.539803 0.64863 0.770077
0.54548 0.650614 0.77084
0.557733 0.654978 0.772503
0.582544 0.664027 0.776074
0.629419 0.682979 0.785199
0.697475 0.717037 0.822843
0.806958 0.777203 0.881453
0.570779 0.680888 0.793744
0.572015 0.6813 0.793896
0.574289 0.682063 0.794156
0.578958 0.683497 0.794507
0.589944 0.687404 0.796033
0.612619 0.695521 0.799207
0.655314 0.712261 0.806775
0.72079 0.742977 0.835203
0.822675 0.797543 0.893126
0.635538 0.743236 0.839933
0.636561 0.743526 0.839963
0.638376 0.744091 0.84007
0.642481 0.745373 0.840314
0.651102 0.747982 0.840757
0.669825 0.754376 0.842802
0.705608 0.767468 0.847776
0.767147 0.793118 0.861585
0.853895 0.837385 0.916075
0.733257 0.844724 0.922011
0.73402 0.844816 0.921843
0.735378 0.844968 0.921492
0.738445 0.845502 0.921004
0.745785 0.846998 0.920104
0.761242 0.850462 0.918593
0.790295 0.857832 0.916854
0.838926 0.874952 0.921721
0.91043 0.906798 0.954437
0.864195 0.976257 1
0.864607 0.976333 1
0.865354 0.976471 1
0.867094 0.976791 1
0.870878 0.977554 1
0.879515 0.979248 1
0.89752 0.982788 1
0.933104 0.990143 1
0.995193 1 1
