public/textures/grade/Fuji/Bat-FLog.cube
TITLE "Generated by Resolve"
LUT_3D_SIZE 33
0.0322118 0.0354314 0.0256199
0.0338445 0.0358434 0.0254978
0.0358892 0.0363775 0.0254063
0.0380102 0.0369421 0.0264134
0.041062 0.0376135 0.0260166
0.048127 0.0375525 0.0243534
0.0551308 0.0380865 0.0228275
0.0637217 0.038941 0.021088
0.0743725 0.0402991 0.0193332
0.0877546 0.0420539 0.0172274
0.104997 0.043595 0.0136416
0.127443 0.0454566 0.00843824
0.15288 0.0486305 0.00236515
0.181155 0.0533455 0
0.211566 0.0604715 0
0.244282 0.0700084 0
0.279561 0.0817426 0
0.317296 0.0960403 0
0.356115 0.114305 0
0.394629 0.134264 0
0.433463 0.155428 0
0.471748 0.176913 0
0.508705 0.198581 0
0.544228 0.220432 0
0.578241 0.242939 0
0.611032 0.266407 0
0.643 0.290776 0
0.674723 0.31632 0
0.707347 0.343359 0
0.741421 0.372671 0
0.777111 0.404868 0.0330358
0.815061 0.439811 0.0853742
0.855207 0.477348 0.145464
0.0316472 0.0383459 0.0286717
0.0341497 0.0387579 0.0282292
0.0372473 0.0390936 0.0274662
0.0400092 0.0394598 0.027039
0.0443885 0.0397955 0.0260624
0.0497749 0.0402838 0.0248722
0.0570535 0.0409552 0.0233463
0.0666667 0.0417029 0.0212406
0.0784924 0.0425879 0.0184482
0.0929885 0.0436255 0.0150301
0.110628 0.044831 0.0106813
0.132006 0.047013 0.00573739
0.156619 0.0504158 0
0.183444 0.0554513 0
0.212589 0.062974 0
0.244999 0.0723888 0
0.280049 0.0840009 0
0.317128 0.0980087 0
0.35584 0.115602 0
0.394018 0.135348 0
0.432593 0.156237 0
0.470558 0.177493 0
0.507485 0.199084 0
0.543053 0.220874 0
0.57731 0.243595 0
0.61001 0.266819 0
0.64242 0.291432 0
0.674388 0.317052 0
0.707134 0.34406 0
0.741405 0.373404 0
0.777188 0.40557 0.0342718
0.815244 0.440482 0.0865644
0.855436 0.477943 0.146365
0.0333104 0.0412909 0.0293278
0.0361639 0.0416266 0.0287633
0.0396277 0.041825 0.0280156
0.0431067 0.0423285 0.027039
0.0481727 0.0425727 0.0256809
0.0551461 0.0428321 0.0235904
0.0632029 0.043183 0.0213016
0.0730907 0.0437324 0.0186923
0.0847181 0.044419 0.0157168
0.0989242 0.0453498 0.0120851
0.116304 0.0467842 0.00807202
0.136873 0.0490578 0.00325017
0.160082 0.0523079 0
0.185168 0.0580301 0
0.213931 0.0654002 0
0.245823 0.0747387 0
0.280247 0.0862287 0
0.317082 0.100023 0
0.355535 0.116808 0
0.393561 0.136614 0
0.431647 0.156924 0
0.469413 0.178012 0
0.506249 0.199481 0
0.541939 0.221439 0
0.576333 0.244144 0
0.609323 0.267552 0
0.641672 0.291905 0
0.674144 0.3178 0
0.706996 0.344793 0
0.741375 0.374136 0
0.777279 0.406287 0.0355077
0.815427 0.441138 0.0878309
0.85565 0.478538 0.14728
0.0369573 0.0441901 0.0297856
0.0402838 0.0444343 0.0290379
0.0436561 0.0449226 0.0283055
0.0471962 0.045594 0.0267948
0.0519112 0.0460212 0.0255894
0.059556 0.046128 0.0229191
0.068513 0.0461433 0.0198062
0.0787518 0.0463417 0.0165866
0.0908827 0.0469978 0.0134585
0.105241 0.0478828 0.00973526
0.122011 0.049134 0.00552377
0.141329 0.0510262 0.000274662
0.162341 0.0550393 0
0.18735 0.0606699 0
0.215259 0.0678721 0
0.246601 0.0770581 0
0.280613 0.0883803 0
0.317037 0.102037 0
0.355261 0.11812 0
0.393011 0.137621 0
0.430823 0.157763 0
0.468482 0.178714 0
0.505257 0.200153 0
0.541009 0.222141 0
0.575402 0.244694 0
0.60853 0.268208 0
0.641138 0.292622 0
0.673762 0.318456 0
0.70692 0.345556 0
0.741405 0.374884 0
0.777371 0.406989 0.0367437
0.81561 0.44181 0.0890974
0.855879 0.479149 0.148211
0.0415503 0.0478981 0.0304265
0.044892 0.048188 0.0300298
0.0481575 0.0489204 0.0281682
0.051957 0.0495003 0.0267643
0.0567636 0.0499275 0.0250706
0.0631113 0.0502174 0.0231785
0.0735332 0.0500954 0.019028
0.0846723 0.0500649 0.0151064
0.0972915 0.0502785 0.0111086
0.111788 0.0508278 0.0071107
0.127703 0.0516365 0.00231937
0.145357 0.0540627 0
0.165881 0.0581064 0
0.1897 0.0635233 0
0.216953 0.0705882 0
0.247684 0.0796216 0
0.281102 0.0907149 0
0.317021 0.104173 0
0.354986 0.119738 0
0.39237 0.13872 0
0.43006 0.158801 0
0.467399 0.179385 0
0.503975 0.200565 0
0.539849 0.22266 0
0.574334 0.245411 0
0.607752 0.268986 0
0.640635 0.293462 0
0.673274 0.319081 0
0.706767 0.346349 0
0.741512 0.375753 0
0.777523 0.407797 0.0382086
0.815808 0.442542 0.0905013
0.856123 0.479805 0.149218
0.0471809 0.0523384 0.0315862
0.0504005 0.0530861 0.0301366
0.0539864 0.0539559 0.0282139
0.057908 0.0544442 0.0266423
0.0627146 0.0550393 0.0249027
0.0691691 0.055436 0.0225071
0.0787518 0.0554818 0.0190585
0.0907759 0.0550851 0.0140688
0.104372 0.0548867 0.00917067
0.119051 0.0550393 0.00457771
0.134234 0.0557259 0
0.150622 0.0581826 0
0.16968 0.0619364 0
0.192615 0.0671397 0
0.21912 0.0739605 0
0.249058 0.0827649 0
0.281987 0.0936446 0
0.31722 0.106752 0
0.354711 0.121859 0
0.391623 0.140307 0
0.429099 0.159915 0
0.466072 0.180285 0
0.50277 0.201587 0
0.53872 0.223697 0
0.573205 0.246342 0
0.606851 0.269871 0
0.639948 0.294469 0
0.673014 0.320165 0
0.706432 0.347127 0
0.741543 0.376761 0.000961318
0.777737 0.408804 0.0401007
0.816159 0.443488 0.0925307
0.856474 0.480644 0.150607
0.0542153 0.0586557 0.0323339
0.0577707 0.059617 0.0301061
0.0614939 0.0602579 0.0286259
0.0653544 0.0607309 0.0269322
0.0701762 0.0612497 0.0248875
0.0767224 0.0617075 0.0222324
0.0852064 0.0619211 0.0187991
0.0972457 0.0617227 0.0139773
0.111894 0.0611734 0.00805676
0.126528 0.0609293 0.00265507
0.141253 0.0611276 0
0.156298 0.0632486 0
0.174517 0.0666667 0
0.196628 0.0715801 0
0.22208 0.0781415 0
0.250843 0.0865492 0
0.282979 0.0971542 0
0.317815 0.110155 0
0.354513 0.124407 0
0.390967 0.142199 0
0.42768 0.161227 0
0.464775 0.181704 0
0.501381 0.202792 0
0.537133 0.224765 0
0.571847 0.247501 0
0.605982 0.271199 0
0.639216 0.295628 0
0.672557 0.321431 0
0.706401 0.348455 0
0.74139 0.377752 0.00234989
0.777813 0.409827 0.0417792
0.816419 0.444495 0.0944381
0.856687 0.481392 0.151705
0.0631113 0.0664073 0.0320745
0.0667277 0.0671702 0.030396
0.0703899 0.0678264 0.0290532
0.0744335 0.0682841 0.0272068
0.0793164 0.068864 0.0251774
0.0856947 0.0694438 0.0225071
0.093904 0.0697948 0.0189364
0.104753 0.0699779 0.0147402
0.119097 0.0693523 0.00856031
0.134051 0.068513 0.00158694
0.148836 0.0683909 0
0.163806 0.0698405 0
0.181109 0.0728008 0
0.201404 0.0771191 0
0.225818 0.083238 0
0.253697 0.0913252 0
0.284489 0.101366 0
0.318486 0.113954 0
0.354788 0.127474 0
0.390311 0.14464 0
0.426474 0.163287 0
0.463203 0.18352 0
0.499733 0.204425 0
0.535332 0.226246 0
0.57052 0.248981 0
0.604776 0.272663 0
0.638422 0.297261 0
0.672145 0.322972 0
0.706249 0.350027 0
0.741604 0.379355 0.00497444
0.778042 0.411185 0.0438849
0.816663 0.44567 0.096849
0.857191 0.482567 0.153216
0.0740063 0.0758984 0.0328222
0.0775921 0.0764477 0.031342
0.0814832 0.076936 0.0295567
0.0856794 0.0774548 0.0276951
0.0903792 0.0779889 0.0257115
0.0963912 0.0784161 0.022858
0.104433 0.0789197 0.0193179
0.114733 0.0792401 0.0149081
0.126635 0.0793164 0.00981155
0.141405 0.0784619 0.002533
0.156344 0.0777905 0
0.172168 0.0779583 0
0.188495 0.0802319 0
0.207889 0.0841077 0
0.230716 0.0896315 0
0.257053 0.0970321 0
0.28719 0.106722 0
0.319677 0.118257 0
0.355093 0.131044 0
0.389868 0.147845 0
0.425635 0.166308 0
0.461891 0.186114 0
0.498146 0.20679 0
0.534127 0.228717 0
0.569207 0.25124 0
0.603723 0.274861 0
0.637629 0.299184 0
0.671672 0.324895 0
0.706188 0.351949 0
0.741772 0.381292 0.00796521
0.778576 0.413046 0.0471504
0.817182 0.447349 0.0999924
0.857786 0.484077 0.155428
0.0869612 0.0866102 0.0338598
0.090837 0.0872053 0.0322881
0.094789 0.0878157 0.0306859
0.0987564 0.0882887 0.0289006
0.103395 0.0887922 0.0267948
0.109743 0.0893416 0.0241703
0.117113 0.0898299 0.0206607
0.125978 0.0902266 0.0162661
0.136538 0.0904707 0.0110628
0.148516 0.0903639 0.00512703
0.163699 0.0892653 0
0.180331 0.0888533 0
0.19733 0.0897078 0
0.21561 0.0927138 0
0.237339 0.0975509 0
0.261982 0.104311 0
0.290532 0.113451 0
0.322148 0.123995 0
0.356008 0.136767 0
0.390021 0.152712 0
0.425147 0.170642 0
0.460853 0.189731 0
0.496773 0.210086 0
0.532677 0.231739 0
0.567834 0.254032 0
0.602579 0.277424 0
0.636957 0.301915 0
0.671351 0.327352 0
0.706172 0.354284 0
0.742046 0.38352 0.0111086
0.779065 0.415305 0.0511177
0.817945 0.44947 0.104234
0.858518 0.485924 0.158175
0.103975 0.100801 0.0361028
0.107744 0.101381 0.0345617
0.11191 0.10193 0.0329137
0.115862 0.102434 0.03122
0.120211 0.102953 0.0292515
0.1252 0.103395 0.0267185
0.131502 0.104097 0.0237125
0.13933 0.104707 0.0196689
0.148226 0.105135 0.014847
0.158892 0.105455 0.00918593
0.171237 0.105318 0.00270085
0.188052 0.104173 0
0.205982 0.103899 0
0.226062 0.104875 0
0.246113 0.108888 0
0.26949 0.11458 0
0.296605 0.122255 0
0.326726 0.131701 0
0.357839 0.144274 0
0.390631 0.159319 0
0.425025 0.176165 0
0.460243 0.194675 0
0.495827 0.214603 0
0.531395 0.235676 0
0.566659 0.257755 0
0.601541 0.280873 0
0.636194 0.305119 0
0.671092 0.330556 0
0.706325 0.357305 0
0.742473 0.386435 0.0157473
0.779644 0.417868 0.0557107
0.818769 0.452003 0.108919
0.859541 0.488243 0.161837
0.125154 0.11931 0.0407874
0.128359 0.119615 0.0390784
0.13164 0.120134 0.0376135
0.134874 0.120623 0.0361181
0.138552 0.121065 0.0342565
0.142809 0.121416 0.0317693
0.148119 0.122026 0.0290074
0.154437 0.122728 0.0256962
0.162066 0.123232 0.0212863
0.170855 0.123888 0.016556
0.181796 0.124239 0.0105135
0.195621 0.124605 0.00349432
0.214008 0.123751 0
0.233875 0.123659 0
0.25507 0.125231 0
0.278264 0.128908 0
0.303471 0.134951 0
0.331212 0.143664 0
0.360937 0.154849 0
0.392584 0.168383 0
0.425956 0.184222 0
0.460472 0.201678 0
0.495491 0.220783 0
0.530663 0.241016 0
0.565866 0.262776 0
0.600839 0.285389 0
0.635798 0.30927 0
0.670832 0.334386 0
0.706737 0.361151 0
0.743053 0.389929 0.0213474
0.78056 0.421302 0.0619211
0.819776 0.454856 0.113756
0.86041 0.49073 0.165423
0.147463 0.139803 0.0485084
0.15021 0.140169 0.0470283
0.153124 0.140566 0.0455024
0.155871 0.140993 0.0441444
0.158801 0.141451 0.0426947
0.16231 0.141894 0.0407721
0.16669 0.14229 0.038117
0.171923 0.142931 0.0352636
0.178225 0.143542 0.0317388
0.185519 0.144091 0.0273594
0.19501 0.144915 0.0220798
0.206882 0.145556 0.0152438
0.222049 0.145937 0.00694286
0.242283 0.145724 0
0.263478 0.146212 0
0.286213 0.148333 0
0.310582 0.152728 0
0.336904 0.159258 0
0.365499 0.168612 0
0.396155 0.180636 0
0.428122 0.194614 0
0.461295 0.210712 0
0.495842 0.228748 0
0.530694 0.24831 0
0.56556 0.269047 0
0.600687 0.291341 0
0.635737 0.314641 0
0.671183 0.339269 0
0.707362 0.365774 0
0.744198 0.394507 0.0285649
0.78172 0.425269 0.0688487
0.821134 0.458686 0.120531
0.861952 0.494179 0.170657
0.171542 0.162387 0.0597086
0.173846 0.162783 0.0586404
0.176165 0.163134 0.0574655
0.178408 0.1635 0.0563516
0.180941 0.163851 0.0549325
0.183734 0.164096 0.0530556
0.18732 0.164645 0.0511482
0.191653 0.165255 0.0487221
0.196887 0.165911 0.0456397
0.203021 0.16643 0.0416724
0.211032 0.167376 0.0371862
0.221241 0.168154 0.0310063
0.23418 0.169284 0.0243076
0.250446 0.170031 0.0154726
0.271931 0.170108 0.00062562
0.294591 0.17116 0
0.318685 0.173816 0
0.344396 0.178759 0
0.371679 0.186221 0
0.400763 0.195789 0
0.431785 0.208286 0
0.463981 0.222736 0
0.497215 0.239124 0
0.531395 0.257527 0
0.565988 0.277409 0
0.601114 0.298878 0
0.636332 0.321538 0
0.672099 0.345541 0
0.7084 0.371603 0.00756847
0.745464 0.399893 0.0374456
0.783398 0.430488 0.0787366
0.82266 0.463111 0.128283
0.863569 0.498054 0.175845
0.197177 0.18706 0.0758373
0.199084 0.18735 0.0747997
0.200885 0.187701 0.0739452
0.20267 0.187915 0.0728161
0.204486 0.188128 0.0716564
0.206928 0.18851 0.0702983
0.209857 0.188968 0.0686809
0.21326 0.189517 0.0668345
0.21738 0.189944 0.0642252
0.222904 0.190723 0.0611429
0.229938 0.191684 0.0570687
0.238666 0.192569 0.0515755
0.249805 0.193851 0.0454414
0.263432 0.195041 0.037995
0.280873 0.196078 0.0286107
0.303563 0.196963 0.0127565
0.327642 0.198657 0
0.35285 0.201846 0
0.379355 0.207187 0
0.407141 0.215091 0
0.436942 0.225376 0
0.467933 0.237842 0
0.500435 0.252613 0
0.533791 0.269581 0
0.567834 0.287999 0
0.602457 0.308248 0
0.637903 0.330159 0
0.673808 0.353521 0
0.710155 0.378912 0.0183566
0.747204 0.406531 0.0486
0.785412 0.4365 0.0898146
0.824628 0.468498 0.137148
0.865827 0.50309 0.183215
0.223804 0.213336 0.0977035
0.225315 0.213581 0.096849
0.226764 0.213855 0.0961166
0.228244 0.214084 0.0950484
0.229786 0.214389 0.094316
0.231632 0.214694 0.0933089
0.233997 0.215137 0.0920882
0.236789 0.215427 0.0901198
0.240604 0.216068 0.0879988
0.245426 0.216861 0.0853285
0.251423 0.217685 0.08159
0.259129 0.218662 0.0769513
0.268711 0.22005 0.0717021
0.280385 0.221378 0.0650339
0.294728 0.222889 0.0576181
0.313161 0.224613 0.0484779
0.336858 0.225788 0.0307774
0.36202 0.228 0.0144045
0.388067 0.231876 0.00134279
0.415351 0.237842 0
0.443763 0.245914 0
0.47396 0.25655 0
0.505058 0.269276 0
0.537835 0.284428 0
0.571298 0.301457 0
0.605524 0.320165 0
0.640543 0.340703 0
0.676448 0.363378 0.0111849
0.71284 0.388006 0.0326696
0.749722 0.414801 0.0633555
0.788022 0.443931 0.104402
0.827482 0.47541 0.148486
0.868376 0.508934 0.191531
0.251591 0.241398 0.123537
0.252766 0.241642 0.12311
0.253986 0.24184 0.122484
0.25507 0.241856 0.121614
0.256382 0.242115 0.12105
0.258122 0.24239 0.120211
0.260227 0.242802 0.11931
0.262867 0.24332 0.118166
0.26627 0.243885 0.116442
0.27042 0.244511 0.114137
0.275669 0.245304 0.111192
0.282216 0.246479 0.108049
0.290364 0.247578 0.103273
0.300679 0.249165 0.0980697
0.313024 0.250782 0.0911574
0.328298 0.252888 0.0842603
0.347173 0.25478 0.0746471
0.371878 0.256443 0.0550698
0.397803 0.259251 0.0377203
0.424659 0.263645 0.023621
0.452522 0.270069 0.0128939
0.481559 0.278691 0.00572213
0.511986 0.289387 0.0011902
0.543404 0.302342 4.57771e-05
0.576242 0.317723 0.0021973
0.610193 0.334859 0.0065156
0.64477 0.353918 0.0146181
0.680095 0.375311 0.0289006
0.716274 0.399008 0.0512245
0.753368 0.424887 0.082002
0.791516 0.452964 0.120577
0.830884 0.483452 0.160754
0.871641 0.515984 0.201068
0.280919 0.270802 0.150454
0.282063 0.270985 0.149996
0.283192 0.271183 0.149508
0.284291 0.271443 0.149157
0.285557 0.271656 0.148623
0.287144 0.271931 0.147951
0.288884 0.272175 0.147066
0.291203 0.272541 0.146014
0.294194 0.273106 0.144793
0.297902 0.273823 0.143328
0.302571 0.274678 0.14139
0.308156 0.275486 0.138582
0.315373 0.276783 0.135531
0.324224 0.278386 0.131899
0.334936 0.279988 0.12697
0.348089 0.28188 0.121477
0.363638 0.284337 0.11635
0.383276 0.286595 0.107164
0.408545 0.288792 0.0866102
0.435157 0.292134 0.0678416
0.462623 0.297032 0.0527504
0.490898 0.303883 0.0416114
0.520592 0.312871 0.0340734
0.551369 0.323705 0.0291142
0.58323 0.336889 0.0280613
0.616373 0.352422 0.0308232
0.650355 0.370108 0.0391394
0.685115 0.389883 0.0532692
0.721004 0.412222 0.0745556
0.757824 0.436728 0.105074
0.796063 0.46389 0.139284
0.835142 0.493156 0.175357
0.875807 0.524712 0.212924
0.312566 0.30161 0.178058
0.313542 0.301839 0.177829
0.314565 0.302037 0.177478
0.315602 0.30222 0.177096
0.316762 0.302434 0.176699
0.31812 0.302739 0.176303
0.31989 0.303059 0.175662
0.322011 0.303517 0.174975
0.324605 0.303914 0.173846
0.327749 0.304448 0.172564
0.331853 0.305272 0.171069
0.33695 0.306264 0.169253
0.343267 0.307469 0.166964
0.350759 0.30869 0.163882
0.360174 0.310491 0.160678
0.37145 0.312322 0.156451
0.385351 0.314702 0.152209
0.401099 0.317296 0.148165
0.421393 0.319905 0.140002
0.447135 0.322591 0.122194
0.474144 0.326452 0.104479
0.502159 0.331792 0.0882277
0.530877 0.339025 0.0761273
0.561181 0.348241 0.0674144
0.592081 0.359442 0.0633249
0.624338 0.372976 0.06421
0.65774 0.389151 0.0714275
0.692058 0.407507 0.0850233
0.727275 0.428 0.105409
0.763867 0.451225 0.131243
0.801282 0.4766 0.160098
0.840208 0.504479 0.19202
0.880537 0.534829 0.226688
0.346639 0.333837 0.206104
0.347539 0.333989 0.205783
0.34844 0.334188 0.205554
0.349355 0.334386 0.20531
0.350378 0.3346 0.20499
0.351675 0.334844 0.204578
0.353216 0.33518 0.20412
0.355154 0.335592 0.203555
0.357565 0.336065 0.202747
0.360479 0.33669 0.201892
0.36379 0.337209 0.200565
0.368215 0.33814 0.199222
0.373739 0.339269 0.197452
0.380529 0.340627 0.195285
0.388479 0.342 0.192477
0.398398 0.344015 0.189654
0.410178 0.346044 0.186007
0.424475 0.34873 0.182574
0.440574 0.351629 0.179583
0.46157 0.354559 0.171695
0.487694 0.357671 0.155581
0.51487 0.362051 0.14049
0.543221 0.367864 0.12723
0.572473 0.37554 0.116976
0.603021 0.385306 0.110826
0.63415 0.397024 0.10956
0.666484 0.411063 0.113588
0.700298 0.427558 0.123507
0.734951 0.44651 0.138872
0.770886 0.467994 0.159396
0.808286 0.491981 0.183764
0.846754 0.518212 0.211582
0.886564 0.54699 0.242496
0.383337 0.367498 0.234379
0.38407 0.367575 0.234028
0.384802 0.367651 0.233692
0.385657 0.367819 0.233448
0.386496 0.368063 0.233295
0.38764 0.368307 0.232975
0.389059 0.368597 0.232563
0.390799 0.368963 0.232044
0.392859 0.369436 0.23154
0.395514 0.369985 0.230747
0.398672 0.370703 0.229892
0.402304 0.371344 0.228626
0.407065 0.37232 0.227192
0.413016 0.373571 0.225437
0.420157 0.375097 0.223514
0.428534 0.376654 0.220966
0.438865 0.378866 0.218555
0.451057 0.381094 0.215549
0.465629 0.384085 0.213001
0.48191 0.38732 0.21117
0.503487 0.390616 0.203769
0.529671 0.394293 0.190112
0.557015 0.399237 0.177676
0.585595 0.405631 0.16733
0.615152 0.41384 0.160128
0.645747 0.423957 0.156558
0.67744 0.436347 0.157778
0.710231 0.450904 0.1635
0.74435 0.467933 0.174151
0.779629 0.487465 0.189639
0.816449 0.50959 0.209644
0.854322 0.533989 0.233402
0.893889 0.561303 0.261067
0.422141 0.402472 0.263249
0.422782 0.402548 0.262974
0.423438 0.402625 0.262715
0.424109 0.402716 0.262455
0.424918 0.402899 0.262257
0.425895 0.403143 0.262058
0.427085 0.403449 0.26183
0.428611 0.403784 0.261448
0.430488 0.404211 0.26099
0.4327 0.404746 0.260533
0.435538 0.405371 0.259815
0.438941 0.406165 0.259022
0.442786 0.406882 0.257816
0.447807 0.408042 0.256703
0.454032 0.40943 0.255299
0.461479 0.411139 0.253758
0.470176 0.412879 0.251682
0.480812 0.415305 0.249912
0.493217 0.417838 0.247715
0.507912 0.421149 0.246342
0.524422 0.424735 0.245594
0.546593 0.428367 0.238819
0.572824 0.432593 0.2271
0.60032 0.438071 0.216892
0.629129 0.444984 0.20885
0.659098 0.453712 0.2038
0.689784 0.46421 0.201953
0.722225 0.47718 0.204593
0.75555 0.492226 0.211383
0.790127 0.509758 0.22269
0.826139 0.529854 0.238437
0.863523 0.552575 0.25835
0.90222 0.577661 0.281987
0.462425 0.439017 0.294636
0.462989 0.439094 0.294423
0.463569 0.43917 0.294194
0.46421 0.439307 0.294041
0.464927 0.439475 0.293889
0.465797 0.439689 0.293706
0.466865 0.439948 0.293492
0.468116 0.440299 0.293324
0.469734 0.440681 0.292988
0.471733 0.441154 0.292592
0.474083 0.441764 0.29221
0.477073 0.442451 0.291615
0.480629 0.443351 0.29102
0.484642 0.444144 0.289982
0.489921 0.445441 0.289113
0.496345 0.446998 0.288045
0.504097 0.448859 0.286839
0.51313 0.450767 0.2851
0.524056 0.453391 0.283955
0.536553 0.456214 0.282658
0.551186 0.459648 0.282002
0.568048 0.463722 0.28246
0.590738 0.46772 0.276158
0.61706 0.472435 0.266163
0.644953 0.47834 0.257527
0.673961 0.485786 0.251057
0.704112 0.495018 0.247761
0.73547 0.505928 0.247272
0.768078 0.519158 0.250645
0.802045 0.534874 0.258625
0.837293 0.55288 0.270191
0.874098 0.573495 0.286168
0.911879 0.59646 0.305592
0.504158 0.477119 0.328237
0.504707 0.477272 0.328176
0.505257 0.477409 0.328084
0.505821 0.477546 0.327993
0.506432 0.477699 0.327901
0.507179 0.477882 0.327779
0.508095 0.478126 0.327626
0.509194 0.478416 0.327504
0.510536 0.478782 0.327352
0.51223 0.47921 0.327077
0.514336 0.479728 0.326741
0.516793 0.4804 0.326452
0.519921 0.481163 0.325963
0.523384 0.48191 0.325246
0.527825 0.483024 0.32462
0.533364 0.484443 0.323857
0.540002 0.486122 0.323064
0.547768 0.487846 0.32195
0.557214 0.490196 0.32105
0.568276 0.493019 0.320378
0.581048 0.496086 0.319646
0.595728 0.499672 0.319677
0.612848 0.504158 0.321294
0.635813 0.508553 0.315404
0.662577 0.513634 0.306371
0.690639 0.519997 0.299138
0.71986 0.527886 0.294041
0.750362 0.537163 0.291157
0.7823 0.548852 0.292241
0.815503 0.562341 0.296147
0.850034 0.578363 0.304234
0.88571 0.596765 0.316289
0.923079 0.617914 0.332631
0.547387 0.516991 0.364218
0.547875 0.517113 0.364141
0.548348 0.517235 0.36408
0.548837 0.517357 0.364004
0.549355 0.517494 0.363943
0.550011 0.517662 0.363836
0.550805 0.517861 0.363729
0.551766 0.518105 0.363577
0.55285 0.518456 0.363561
0.554314 0.518837 0.363378
0.5561 0.519295 0.363149
0.558282 0.51986 0.362875
0.560845 0.520577 0.362661
0.563867 0.521172 0.362036
0.567651 0.522133 0.361624
0.572335 0.523384 0.361242
0.577996 0.524895 0.360769
0.584833 0.526696 0.360235
0.592721 0.528542 0.359289
0.60235 0.531121 0.358846
0.613428 0.533822 0.358236
0.626596 0.537362 0.358495
0.641535 0.541146 0.359075
0.658366 0.545617 0.361044
0.682277 0.550607 0.35555
0.709133 0.556069 0.34786
0.737453 0.562829 0.341573
0.767025 0.570703 0.336858
0.798108 0.580743 0.335256
0.830732 0.592737 0.336645
0.864302 0.606683 0.341405
0.899306 0.623026 0.349859
0.935622 0.642023 0.362936
0.591959 0.558267 0.401953
0.592355 0.558358 0.401923
0.592767 0.55848 0.401877
0.593164 0.558587 0.401831
0.593606 0.558709 0.401785
0.594141 0.558846 0.40174
0.594812 0.55903 0.401679
0.595636 0.559243 0.401587
0.596597 0.559518 0.401526
0.597757 0.559869 0.40148
0.599268 0.560281 0.401328
0.601129 0.560769 0.401144
0.603204 0.561288 0.400916
0.605737 0.561822 0.400443
0.609033 0.562737 0.400168
0.613123 0.563806 0.399771
0.617945 0.565148 0.399496
0.623758 0.566751 0.399191
0.630442 0.568353 0.39852
0.638804 0.570611 0.39823
0.648569 0.573343 0.398169
0.659922 0.576165 0.397787
0.673198 0.579736 0.398413
0.68835 0.583856 0.399634
0.705211 0.588602 0.402167
0.729595 0.593439 0.396216
0.75668 0.599237 0.389242
0.785367 0.606302 0.383612
0.815534 0.614878 0.380133
0.847257 0.625208 0.379126
0.879896 0.637278 0.381003
0.914031 0.651942 0.387121
0.949172 0.668849 0.396918
0.637659 0.600885 0.441077
0.637995 0.600992 0.441047
0.638346 0.601083 0.441016
0.638682 0.601175 0.441001
0.639048 0.601267 0.44097
0.639506 0.601389 0.440925
0.64007 0.601541 0.440879
0.640757 0.60174 0.440818
0.641581 0.601968 0.440787
0.642527 0.602274 0.440772
0.643656 0.602472 0.440528
0.64506 0.602731 0.440238
0.646967 0.60325 0.440085
0.649195 0.603922 0.440024
0.652049 0.604685 0.439811
0.655406 0.605646 0.439673
0.659586 0.606775 0.439399
0.664576 0.608164 0.439139
0.670253 0.609522 0.43856
0.677409 0.611505 0.438376
0.685924 0.61387 0.438361
0.695613 0.616342 0.438209
0.707347 0.619654 0.438575
0.720546 0.623194 0.439246
0.735912 0.627573 0.441047
0.753292 0.632547 0.444007
0.778027 0.637644 0.438148
0.805432 0.643702 0.431647
0.834562 0.651026 0.426734
0.865049 0.659907 0.423896
0.896513 0.670314 0.423682
0.929656 0.683131 0.427008
0.963607 0.697932 0.43386
0.684138 0.644419 0.481086
0.684398 0.644465 0.481025
0.684672 0.644541 0.48101
0.684962 0.644617 0.480995
0.685267 0.644709 0.480964
0.685649 0.644816 0.480934
0.686122 0.644938 0.480903
0.686702 0.645106 0.480858
0.687327 0.645319 0.480903
