public/textures/grade/Fuji/Bat-FLog.cube
TITLE "Generated by Resolve"
LUT_3D_SIZE 5
0.0322118 0.0354314 0.0256199
0.0743725 0.0402991 0.0193332
0.279561 0.0817426 0
0.578241 0.242939 0
0.855207 0.477348 0.145464
0.0740063 0.0758984 0.0328222
0.126635 0.0793164 0.00981155
0.28719 0.106722 0
0.569207 0.25124 0
0.857786 0.484077 0.155428
0.251591 0.241398 0.123537
0.26627 0.243885 0.116442
0.347173 0.25478 0.0746471
0.576242 0.317723 0.0021973
0.871641 0.515984 0.201068
0.547387 0.516991 0.364218
0.55285 0.518456 0.363561
0.577996 0.524895 0.360769
0.682277 0.550607 0.35555
0.935622 0.642023 0.362936
0.92784 0.874235 0.698543
0.929137 0.874556 0.698497
0.935271 0.876173 0.698421
0.964569 0.883696 0.69865
1 0.91313 0.706371
0.0386053 0.0571145 0.0749981
0.0647288 0.0652934 0.0870527
0.265507 0.109392 0.0628061
0.561425 0.259953 0.0211643
0.849973 0.484916 0.196933
0.0451209 0.101747 0.118532
0.0950179 0.107362 0.106004
0.261021 0.143648 0.0776837
0.555306 0.267201 0.0241703
0.852659 0.491524 0.204837
0.241672 0.251362 0.178103
0.256199 0.254505 0.172625
0.334096 0.267491 0.153429
0.568795 0.329015 0.0810101
0.867155 0.522637 0.241001
0.544198 0.521508 0.383719
0.549584 0.523018 0.383261
0.574563 0.529519 0.381003
0.677516 0.5552 0.378088
0.932433 0.646097 0.383383
0.926467 0.875563 0.704295
0.927764 0.875883 0.70425
0.933883 0.877501 0.704173
0.963149 0.885008 0.704356
1 0.914351 0.712093
0.089662 0.174701 0.257542
0.118517 0.180301 0.257176
0.21648 0.21326 0.300343
0.531731 0.297704 0.255634
0.825116 0.51603 0.346197
0.104662 0.190051 0.261738
0.131289 0.194949 0.260822
0.224689 0.224399 0.292165
0.523491 0.311254 0.264454
0.828595 0.521904 0.349981
0.185916 0.300893 0.336095
0.207843 0.302968 0.33344
0.298634 0.314687 0.318593
0.524407 0.378241 0.30959
0.846265 0.550057 0.369223
0.530449 0.540261 0.458274
0.535546 0.541756 0.45716
0.559472 0.54847 0.457023
0.65864 0.575174 0.461357
0.91783 0.663188 0.461646
0.920287 0.881712 0.730114
0.921569 0.882033 0.730068
0.927626 0.883619 0.729976
0.956436 0.890745 0.729732
1 0.919768 0.737636
0.23595 0.359304 0.491157
0.248951 0.361471 0.489891
0.304601 0.374609 0.488975
0.458381 0.435889 0.554833
0.806821 0.586816 0.573434
0.24593 0.367132 0.491905
0.258976 0.369696 0.491081
0.312993 0.382803 0.490471
0.463462 0.443519 0.555398
0.808591 0.592798 0.577478
0.302983 0.415534 0.513024
0.314061 0.41799 0.512627
0.360464 0.430625 0.513573
0.493797 0.483833 0.565698
0.816968 0.61976 0.595728
0.491203 0.60737 0.64799
0.49688 0.608576 0.648005
0.522683 0.613931 0.647684
0.623941 0.637766 0.644221
0.864027 0.722148 0.664897
0.897887 0.906264 0.82295
0.899077 0.906554 0.822965
0.90483 0.908034 0.823072
0.932815 0.91519 0.823056
1 0.943038 0.831708
0.506477 0.619181 0.750103
0.510826 0.620676 0.750698
0.530388 0.627466 0.75314
0.608194 0.658534 0.767773
0.794339 0.76054 0.8719
0.511513 0.624048 0.753414
0.515755 0.625498 0.753948
0.535012 0.632197 0.75642
0.612024 0.662959 0.770901
0.796628 0.763577 0.873747
0.53611 0.647593 0.769894
0.539803 0.64863 0.770077
0.557733 0.654978 0.772503
0.629419 0.682979 0.785199
0.806958 0.777203 0.881453
0.635538 0.743236 0.839933
0.638376 0.744091 0.84007
0.651102 0.747982 0.840757
0.705608 0.767468 0.847776
0.853895 0.837385 0.916075
0.864195 0.976257 1
0.865354 0.976471 1
0.870878 0.977554 1
0.89752 0.982788 1
0.995193 1 1
