public/textures/grade/Fuji/Cliff-FLog.cube
TITLE "Generated by Resolve"
LUT_3D_SIZE 5
0 0 0.00953689
0.0625162 0 0
0.283482 0.01944 0
0.644541 0.159045 0
0.965621 0.572045 0.19913
0.0099031 0.0675364 0
0.0851453 0.0671702 0
0.306584 0.0725567 0
0.660029 0.203601 0
0.967117 0.585336 0.210803
0.143938 0.300374 0.0186465
0.186954 0.302007 0.0214847
0.359457 0.305867 0.00875868
0.703059 0.372702 0
0.972122 0.64065 0.266316
0.562295 0.699138 0.243259
0.575204 0.699336 0.243748
0.62974 0.700603 0.245228
0.791302 0.711467 0.28835
0.969985 0.796094 0.507332
0.942718 0.958846 0.86569
0.943389 0.959045 0.866392
0.946532 0.960098 0.869642
0.95993 0.964187 0.888426
0.997223 0.985458 0.944183
0 0 0.116396
0.0659037 0 0.112688
0.323522 0 0.00668345
0.672953 0.172229 0
0.969024 0.575921 0.240482
0.0124666 0.0791791 0.0947127
0.0805982 0.0817426 0.0897383
0.323613 0.0919966 0.0256352
0.685603 0.21474 0
0.970626 0.589303 0.250584
0.141695 0.313893 0.0773785
0.18706 0.315267 0.0796063
0.368063 0.317067 0.0649882
0.717601 0.380484 0
0.974105 0.643824 0.299611
0.562325 0.702998 0.272618
0.575051 0.702846 0.272648
0.629847 0.703655 0.274128
0.792035 0.71371 0.316289
0.969726 0.797589 0.523369
0.943053 0.959274 0.868208
0.943725 0.959472 0.86891
0.946777 0.960525 0.872328
0.96022 0.96466 0.890486
0.997345 0.985779 0.945373
0.0265507 0.05066 0.379248
0.0866865 0.0541695 0.38764
0.319417 0.0661631 0.352407
0.737301 0.167849 0.190326
0.975921 0.593713 0.381857
0.0505226 0.119554 0.370962
0.106706 0.123018 0.375738
0.333608 0.132052 0.345434
0.730999 0.245289 0.217197
0.976349 0.605676 0.38732
0.151003 0.347082 0.30779
0.192248 0.350057 0.306752
0.37763 0.351614 0.292607
0.738796 0.411795 0.237446
0.977142 0.656855 0.418738
0.561852 0.71487 0.388769
0.574975 0.714763 0.388998
0.630152 0.71487 0.389944
0.792203 0.722927 0.423255
0.967559 0.803662 0.586709
0.944533 0.961196 0.879927
0.945129 0.96141 0.880568
0.948089 0.962295 0.883268
0.961334 0.966674 0.898955
0.998215 0.987411 0.950668
0.20647 0.269505 0.712612
0.242954 0.272358 0.717037
0.395132 0.283101 0.72047
0.735958 0.36289 0.69073
0.988556 0.643641 0.655085
0.224155 0.30901 0.711986
0.259113 0.311482 0.715557
0.40531 0.321263 0.718303
0.737896 0.392309 0.688823
0.982452 0.656611 0.658854
0.302556 0.456001 0.698238
0.330892 0.457603 0.699489
0.449699 0.463035 0.698894
0.741741 0.508293 0.672236
0.960494 0.707683 0.675639
0.585779 0.748486 0.671397
0.596033 0.748638 0.671107
0.640436 0.749386 0.669886
0.79115 0.755001 0.675227
0.958801 0.827329 0.741253
0.951171 0.968505 0.917037
0.951797 0.968704 0.917433
0.954696 0.96965 0.919554
0.967285 0.974411 0.929625
1 0.994308 0.969833
0.632639 0.682658 0.928893
0.640604 0.683177 0.928649
0.677241 0.686732 0.928527
0.796506 0.707591 0.924971
0.952743 0.804883 0.91162
0.638071 0.690684 0.9281
0.646296 0.691356 0.928038
0.681498 0.694591 0.92752
0.797589 0.714534 0.923735
0.952438 0.808835 0.911406
0.663935 0.725399 0.923934
0.671031 0.725978 0.923827
0.701961 0.728664 0.923308
0.805646 0.745586 0.919799
0.951736 0.827619 0.911208
0.770123 0.83473 0.912657
0.773709 0.835019 0.912551
0.789487 0.836667 0.912215
0.849989 0.846479 0.912566
0.956741 0.895018 0.921004
0.979263 0.992081 0.981735
0.97969 0.992248 0.981964
0.981552 0.993118 0.983078
0.990494 0.997223 0.988266
1 1 1
