public/textures/grade/Fuji/Cliff-FLog.cube
TITLE "Generated by Resolve"
LUT_3D_SIZE 9
0 0 0.00953689
0.0132906 0 0.00753796
0.0625162 0 0
0.147402 0.00183108 0
0.283482 0.01944 0
0.460212 0.0521553 0
0.644541 0.159045 0
0.82504 0.340566 0
0.965621 0.572045 0.19913
0 0.0191958 0.00265507
0.0221103 0.0189212 9.15541e-05
0.0740826 0.0182498 0
0.157702 0.0232853 0
0.293477 0.0376898 0
0.468208 0.0736553 0
0.650629 0.175463 0
0.827863 0.350881 0
0.966049 0.576883 0.203449
0.0099031 0.0675364 0
0.0367437 0.0675364 0
0.0851453 0.0671702 0
0.171847 0.0658732 0
0.306584 0.0725567 0
0.479026 0.110414 0
0.660029 0.203601 0
0.832731 0.369589 0
0.967117 0.585336 0.210803
0.0531472 0.155276 0
0.0758068 0.156176 0
0.112459 0.156878 0
0.189059 0.157137 0
0.322942 0.160067 0
0.496941 0.185534 0
0.677333 0.262837 0
0.842435 0.408988 0
0.969177 0.603769 0.228031
0.143938 0.300374 0.0186465
0.159152 0.300816 0.0196536
0.186954 0.302007 0.0214847
0.245335 0.303578 0.0210575
0.359457 0.305867 0.00875868
0.52755 0.320409 0
0.703059 0.372702 0
0.856184 0.483406 0
0.972122 0.64065 0.266316
0.313603 0.498909 0.0986801
0.324041 0.499138 0.0989853
0.34226 0.499641 0.0995346
0.380911 0.500328 0.0987411
0.456809 0.502968 0.0917525
0.584375 0.508568 0.0807507
0.737301 0.536248 0.0344396
0.873381 0.600595 0.129625
0.973938 0.705547 0.349035
0.562295 0.699138 0.243259
0.56701 0.699168 0.243397
0.575204 0.699336 0.243748
0.593225 0.699489 0.244205
0.62974 0.700603 0.245228
0.69398 0.701473 0.271061
0.791302 0.711467 0.28835
0.892638 0.740322 0.348928
0.969985 0.796094 0.507332
0.789899 0.850721 0.521248
0.791211 0.850782 0.521813
0.793622 0.850919 0.522866
0.798856 0.851286 0.524971
0.809857 0.851804 0.530327
0.831403 0.852689 0.548913
0.868147 0.854109 0.593042
0.918517 0.867308 0.642969
0.967193 0.894804 0.737469
0.942718 0.958846 0.86569
0.942946 0.958907 0.865934
0.943389 0.959045 0.866392
0.944411 0.95935 0.867338
0.946532 0.960098 0.869642
0.951247 0.961685 0.874708
0.95993 0.964187 0.888426
0.974868 0.970443 0.911696
0.997223 0.985458 0.944183
0 0 0.0484169
0.0148928 0 0.0476234
0.0649271 0 0.040238
0.165713 0 0.00553903
0.30074 0.0139467 0
0.475395 0.0591592 0
0.657053 0.163836 0
0.831189 0.343694 0
0.967056 0.573587 0.214603
0 0.0227054 0.0430152
0.0217594 0.0238193 0.0411841
0.0743267 0.0237736 0.0310979
0.164385 0.0277562 0.0104067
0.307866 0.038117 0
0.482628 0.0805066 0
0.662394 0.179706 0
0.833814 0.353918 0
0.967254 0.578088 0.218219
0.0069276 0.0733501 0.028397
0.0343633 0.0736095 0.0281834
0.083711 0.0729839 0.0256046
0.174945 0.0727245 0.00585946
0.315801 0.079408 0
0.492012 0.116091 0
0.671092 0.207736 0
0.83856 0.372412 0
0.96846 0.586755 0.225803
0.0507362 0.161364 0.0218051
0.0739605 0.162188 0.0225986
0.112413 0.162951 0.0224155
0.191272 0.162493 0.0171969
0.330098 0.165133 0
0.507225 0.189609 0
0.686625 0.266316 0
0.847135 0.411597 0
0.970321 0.605066 0.24213
0.142779 0.305837 0.0396582
0.158663 0.306584 0.0409094
0.186786 0.307362 0.0422675
0.246708 0.308888 0.0418402
0.363134 0.309957 0.0286564
0.533532 0.323613 0
0.709041 0.37554 0
0.859632 0.485451 0.00340276
0.972824 0.641825 0.278462
0.313848 0.502678 0.112566
0.324346 0.502846 0.112917
0.342641 0.503182 0.11339
0.381811 0.503777 0.113039
0.457938 0.505684 0.106493
0.586389 0.511223 0.0984817
0.739696 0.538247 0.0550851
0.875151 0.601923 0.148104
0.974075 0.706218 0.358526
0.56231 0.700572 0.253788
0.567041 0.700603 0.25391
0.575265 0.700755 0.254261
0.593149 0.700694 0.25452
0.629953 0.701885 0.255726
0.694362 0.702602 0.280812
0.791562 0.712139 0.298268
0.892836 0.741024 0.357946
0.969924 0.796628 0.512978
0.789853 0.851102 0.526574
0.791165 0.851164 0.527123
0.793561 0.851286 0.528145
0.798703 0.851652 0.530617
0.809796 0.852171 0.535485
0.831235 0.852995 0.553201
0.868009 0.854459 0.597635
0.918334 0.867658 0.646769
0.967117 0.895109 0.739834
0.942809 0.958999 0.866667
0.943053 0.95906 0.866911
0.943511 0.959197 0.867292
0.944533 0.959518 0.868177
0.946593 0.96025 0.870604
0.951293 0.961791 0.875563
0.960037 0.964355 0.889174
0.974945 0.970596 0.912322
0.997284 0.985595 0.944625
0 0 0.116396
0.0178073 0 0.117678
0.0659037 0 0.112688
0.163561 0.00215152 0.0859388
0.323522 0 0.00668345
0.491737 0.072755 0
0.672953 0.172229 0
0.839826 0.348928 0
0.969024 0.575921 0.240482
0 0.028748 0.112184
0.0249638 0.0299687 0.111559
0.0724346 0.0308843 0.105898
0.171298 0.0316167 0.0780804
0.320974 0.0420691 0.0219577
0.498558 0.0930037 0
0.677821 0.187396 0
0.842512 0.359396 0
0.969726 0.580667 0.24419
0.0124666 0.0791791 0.0947127
0.0363928 0.080766 0.0937057
0.0805982 0.0817426 0.0897383
0.173709 0.0844129 0.0692607
0.323613 0.0919966 0.0256352
0.506874 0.126146 0
0.685603 0.21474 0
0.846738 0.377615 0
0.970626 0.589303 0.250584
0.0457618 0.170428 0.0715343
0.0701457 0.171145 0.0723125
0.110704 0.171527 0.0720378
0.193454 0.17055 0.0661784
0.337728 0.173281 0.0227054
0.519982 0.19704 0
0.698756 0.272282 0
0.85391 0.415747 0
0.971664 0.607095 0.265263
0.141695 0.313893 0.0773785
0.158114 0.314626 0.0784466
0.18706 0.315267 0.0796063
0.248554 0.316274 0.0783093
0.368063 0.317067 0.0649882
0.542138 0.32961 0
0.717601 0.380484 0
0.864836 0.489021 0.0501411
0.974105 0.643824 0.299611
0.314336 0.508522 0.138018
0.324559 0.508263 0.137911
0.34313 0.508598 0.13846
0.382635 0.508904 0.138186
0.460136 0.510765 0.132937
0.589426 0.514992 0.127642
0.743038 0.541146 0.0942397
0.877501 0.604364 0.179263
0.97435 0.707561 0.374746
0.562325 0.702998 0.272618
0.567086 0.703014 0.272587
0.575051 0.702846 0.272648
0.593301 0.702998 0.273228
0.629847 0.703655 0.274128
0.69485 0.704662 0.297368
0.792035 0.71371 0.316289
0.89308 0.74229 0.373938
0.969726 0.797589 0.523369
0.789654 0.851728 0.536736
0.790997 0.851804 0.537102
0.793439 0.851942 0.537881
0.798581 0.852277 0.540291
0.809613 0.852781 0.545373
0.831067 0.853727 0.561608
0.867826 0.855116 0.605463
0.918242 0.868269 0.653132
0.967025 0.895674 0.74374
0.943053 0.959274 0.868208
0.943297 0.95935 0.868452
0.943725 0.959472 0.86891
0.944717 0.959777 0.869932
0.946777 0.960525 0.872328
0.951354 0.961975 0.877134
0.96022 0.96466 0.890486
0.975097 0.970871 0.913481
0.997345 0.985779 0.945373
0.000839246 0.01355 0.229221
0.0251926 0.0149233 0.2327
0.0695506 0.0164645 0.231037
0.161135 0.0189364 0.213565
0.323827 0.0263218 0.157397
0.522789 0.0504158 0.0410163
0.692546 0.191562 0.0249332
0.852842 0.360998 0.0835889
0.972625 0.581842 0.292134
0.00943008 0.0427558 0.225483
0.0331731 0.0442359 0.22707
0.0764935 0.0459602 0.22472
0.167666 0.0479286 0.208698
0.331502 0.0516976 0.152712
0.524193 0.0886854 0.0535897
0.697063 0.205936 0.0253147
0.855146 0.371069 0.0868086
0.97322 0.586435 0.295445
0.0242618 0.0908827 0.209842
0.0468452 0.0926375 0.210727
0.0876783 0.0943008 0.208804
0.176059 0.0957961 0.19678
0.34139 0.0951247 0.141833
0.520607 0.148989 0.0785077
0.703639 0.231846 0.0256809
0.858381 0.388647 0.0928969
0.973556 0.594446 0.300359
0.0560922 0.181765 0.179095
0.0754711 0.183276 0.178454
0.111192 0.185214 0.176333
0.193439 0.186023 0.169177
0.343297 0.190417 0.133654
0.534234 0.214054 0.0700236
0.714916 0.28632 0.0295262
0.863752 0.425422 0.107301
0.974594 0.612207 0.312749
0.138262 0.328008 0.154864
0.15552 0.32842 0.155413
0.186206 0.329 0.15581
0.250874 0.329427 0.154391
0.374456 0.328862 0.144442
0.553506 0.340871 0.0834821
0.729381 0.390539 0.0550088
0.872023 0.496376 0.146715
0.975814 0.648066 0.341665
0.314427 0.518624 0.192691
0.325048 0.51873 0.192996
0.34374 0.518471 0.192981
0.384405 0.518791 0.193118
0.462898 0.519615 0.188846
0.594766 0.522866 0.187091
0.749111 0.547509 0.166735
0.881132 0.609049 0.236576
0.974823 0.710811 0.408713
0.561944 0.707301 0.312016
0.566735 0.707256 0.312139
0.575067 0.707301 0.31249
0.593576 0.707378 0.3131
0.630442 0.707729 0.313909
0.695186 0.708522 0.332052
0.792493 0.716991 0.353384
0.892989 0.74464 0.406821
0.969055 0.79942 0.545327
0.789425 0.853117 0.557427
0.790692 0.853147 0.557885
0.792935 0.853086 0.558648
0.798016 0.853376 0.560815
0.809354 0.854139 0.565393
0.830869 0.855497 0.578729
0.86717 0.856275 0.622095
0.917952 0.869596 0.666865
0.966812 0.896895 0.752438
0.943496 0.959884 0.872114
0.943725 0.959945 0.872358
0.944167 0.960082 0.872786
0.945144 0.960388 0.873793
0.947234 0.961135 0.875883
0.951598 0.962585 0.880751
0.960632 0.965301 0.893187
0.975479 0.971496 0.915831
0.997543 0.986221 0.947051
0.0265507 0.05066 0.379248
0.0479133 0.0521096 0.384161
0.0866865 0.0541695 0.38764
0.168597 0.057557 0.381643
0.319417 0.0661631 0.352407
0.533135 0.0942855 0.278691
0.737301 0.167849 0.190326
0.864454 0.387823 0.25835
0.975921 0.593713 0.381857
0.0354314 0.0762341 0.378195
0.0564126 0.0778058 0.382116
0.0940261 0.0797436 0.384817
0.175174 0.0831006 0.379309
0.325368 0.0904707 0.350958
0.539132 0.115679 0.276997
0.735836 0.197498 0.200031
0.86598 0.396521 0.259159
0.976104 0.598123 0.383886
0.0505226 0.119554 0.370962
0.0704967 0.120974 0.373754
0.106706 0.123018 0.375738
0.185428 0.126131 0.371099
0.333608 0.132052 0.345434
0.547311 0.151919 0.271962
0.730999 0.245289 0.217197
0.868574 0.41239 0.260945
0.976349 0.605676 0.38732
0.082536 0.203815 0.34818
0.100511 0.205493 0.349493
0.133104 0.207431 0.34995
0.20502 0.210025 0.346624
0.346517 0.213703 0.327581
0.559548 0.225788 0.257633
0.724987 0.318227 0.237461
0.873213 0.44622 0.265568
0.977035 0.622629 0.39646
0.151003 0.347082 0.30779
0.165545 0.348333 0.307836
0.192248 0.350057 0.306752
0.25069 0.352255 0.302708
0.37763 0.351614 0.292607
0.560525 0.364355 0.256352
0.738796 0.411795 0.237446
0.87892 0.512093 0.281987
0.977142 0.656855 0.418738
0.313466 0.534951 0.302052
0.324514 0.534936 0.302144
0.344015 0.534966 0.302327
0.385595 0.534401 0.301686
0.466667 0.534432 0.298085
0.599237 0.536171 0.296468
0.754376 0.559533 0.284657
0.884398 0.618753 0.335851
0.97435 0.717159 0.471641
0.561852 0.71487 0.388769
0.566323 0.714885 0.388922
0.574975 0.714763 0.388998
0.593118 0.714794 0.389425
0.630152 0.71487 0.389944
0.695979 0.71606 0.399237
0.792203 0.722927 0.423255
0.892561 0.750042 0.469245
0.967559 0.803662 0.586709
0.788937 0.855634 0.597253
0.790249 0.855695 0.597696
0.792401 0.855863 0.598581
0.797833 0.856138 0.600031
0.808789 0.856611 0.604105
0.830777 0.85861 0.61387
0.866606 0.859236 0.654154
0.917098 0.872236 0.693309
0.966094 0.899229 0.769924
0.944533 0.961196 0.879927
0.944762 0.961257 0.88014
0.945129 0.96141 0.880568
0.946014 0.961746 0.881529
0.948089 0.962295 0.883268
0.952682 0.963836 0.888014
0.961334 0.966674 0.898955
0.976181 0.972641 0.920867
0.998215 0.987411 0.950668
0.087068 0.128435 0.550484
0.104448 0.129839 0.554589
0.13611 0.132006 0.559487
0.204669 0.135912 0.562402
0.336904 0.144137 0.552117
0.531624 0.171969 0.521035
0.737346 0.255085 0.463935
0.901152 0.398611 0.431754
0.973327 0.617761 0.513603
0.0946365 0.148943 0.550851
0.111727 0.15021 0.554406
0.143267 0.152331 0.55906
0.210422 0.156207 0.561837
0.341466 0.163882 0.551766
0.535134 0.190051 0.520699
0.73962 0.269017 0.462882
0.901549 0.407782 0.431525
0.973739 0.621653 0.515007
0.108705 0.184497 0.549935
0.125246 0.185733 0.552392
0.15523 0.187732 0.555947
0.221088 0.191562 0.558679
0.349279 0.198093 0.549401
0.540459 0.221607 0.519356
0.743221 0.293385 0.460883
0.896819 0.430014 0.436332
0.973663 0.628443 0.516732
0.138537 0.255787 0.540459
0.154101 0.257145 0.542458
0.181964 0.258961 0.544671
0.242512 0.262104 0.545892
0.363821 0.267277 0.538369
0.548882 0.285695 0.512322
0.749126 0.344335 0.455283
0.879744 0.47982 0.452415
0.974151 0.643442 0.521675
0.201801 0.382239 0.514504
0.214878 0.383169 0.515129
0.238193 0.38439 0.515679
0.289235 0.386572 0.515267
0.393652 0.389975 0.509667
0.562036 0.40264 0.485756
0.75317 0.440925 0.445045
0.876524 0.543923 0.461738
0.97377 0.674418 0.534691
0.333577 0.558602 0.483513
0.342061 0.558556 0.482765
0.358526 0.559045 0.481971
0.393927 0.55993 0.480018
0.46865 0.560098 0.476143
0.601495 0.561074 0.469215
0.754345 0.582895 0.457267
0.882856 0.63772 0.482216
0.970901 0.730312 0.569955
0.56318 0.728038 0.515053
0.567849 0.727901 0.515053
0.57612 0.727367 0.514702
0.594156 0.72723 0.514809
0.63093 0.726909 0.514733
0.696696 0.728618 0.515221
0.790753 0.734035 0.534676
0.889769 0.760067 0.566613
0.964416 0.811872 0.653346
0.789807 0.86067 0.662959
0.791104 0.860716 0.663264
0.793469 0.860822 0.663859
0.798474 0.861158 0.665309
0.809201 0.861692 0.668345
0.830839 0.863752 0.675563
0.866361 0.865507 0.703807
0.916197 0.877638 0.737346
0.965499 0.904204 0.799924
0.946593 0.963699 0.894209
0.946838 0.96376 0.894408
0.94728 0.963882 0.894789
0.948226 0.964187 0.895613
0.950225 0.96492 0.897322
0.954787 0.966445 0.901473
0.963424 0.969512 0.910506
0.977829 0.975387 0.930846
0.999664 0.989837 0.957946
0.20647 0.269505 0.712612
0.219455 0.270268 0.714076
0.242954 0.272358 0.717037
0.294316 0.276097 0.720638
0.395132 0.283101 0.72047
0.55671 0.30367 0.710353
0.735958 0.36289 0.69073
0.886046 0.485512 0.655375
0.988556 0.643641 0.655085
0.212696 0.283803 0.712612
0.225483 0.284566 0.714046
0.24889 0.286595 0.716808
0.299641 0.290028 0.720317
0.399191 0.297124 0.720195
0.558679 0.316457 0.70985
0.73666 0.373434 0.690059
0.885863 0.492256 0.654475
0.987411 0.647883 0.656306
0.224155 0.30901 0.711986
0.236744 0.310079 0.713573
0.259113 0.311482 0.715557
0.308232 0.314565 0.718471
0.40531 0.321263 0.718303
0.562493 0.339117 0.708629
0.737896 0.392309 0.688823
0.886244 0.504921 0.653681
0.982452 0.656611 0.658854
0.249271 0.360983 0.709133
0.260929 0.361608 0.710109
0.282231 0.363149 0.711864
0.327901 0.365835 0.713512
0.419272 0.37113 0.712947
0.569238 0.385916 0.703548
0.73933 0.432181 0.684733
0.886168 0.53106 0.651164
0.972595 0.675349 0.665049
0.302556 0.456001 0.698238
0.312886 0.456535 0.698695
0.330892 0.457603 0.699489
0.370153 0.459251 0.699977
0.449699 0.463035 0.698894
0.583352 0.472602 0.691127
0.741741 0.508293 0.672236
0.886595 0.582116 0.64741
0.960494 0.707683 0.675639
0.409705 0.59646 0.677531
0.416754 0.596704 0.677531
0.429725 0.59707 0.677409
0.457649 0.597498 0.676478
0.51519 0.598993 0.674418
0.616632 0.603555 0.66949
0.754528 0.622507 0.65481
0.870008 0.67509 0.654704
0.960708 0.754833 0.692058
0.585779 0.748486 0.671397
0.589258 0.748592 0.671336
0.596033 0.748638 0.671107
0.610254 0.748547 0.67039
0.640436 0.749386 0.669886
0.702266 0.749004 0.670405
0.79115 0.755001 0.675227
0.8851 0.77908 0.689616
0.958801 0.827329 0.741253
0.796078 0.870161 0.750439
0.797269 0.870222 0.750652
0.799451 0.870314 0.751049
0.804059 0.870634 0.75201
0.814343 0.871336 0.754086
0.834669 0.872908 0.758236
0.869032 0.876738 0.771176
0.916808 0.887373 0.798566
0.96492 0.912688 0.843229
0.951171 0.968505 0.917037
0.951385 0.968582 0.917189
0.951797 0.968704 0.917433
0.952758 0.968994 0.917952
0.954696 0.96965 0.919554
0.958785 0.971069 0.922789
0.967285 0.974411 0.929625
0.981338 0.980362 0.946563
1 0.994308 0.969833
0.40145 0.472541 0.840299
0.409033 0.473182 0.840681
0.422995 0.47425 0.841245
0.452857 0.476204 0.841917
0.513069 0.481193 0.842542
0.616556 0.493309 0.84065
0.751446 0.525765 0.833555
0.87602 0.597314 0.821744
0.967208 0.712734 0.803754
0.4056 0.480415 0.839918
0.412879 0.48069 0.840024
0.426505 0.481605 0.840436
0.456443 0.483848 0.841443
0.515633 0.488197 0.841764
0.61825 0.500206 0.840238
0.751995 0.531884 0.833204
0.875822 0.601999 0.821149
0.966796 0.71519 0.803601
0.413016 0.493904 0.838972
0.420279 0.494453 0.839353
0.433265 0.495048 0.839551
0.462486 0.497047 0.840558
0.520836 0.501488 0.840848
0.620859 0.512383 0.838788
0.75288 0.542794 0.832197
0.875456 0.609979 0.819989
0.966445 0.719692 0.803784
0.429831 0.522454 0.836637
0.436667 0.522927 0.836988
0.449332 0.52372 0.837552
0.476448 0.525139 0.837934
0.531456 0.529015 0.837995
0.626978 0.538857 0.835966
0.754437 0.565545 0.829282
0.87483 0.627771 0.817578
0.965515 0.729793 0.80412
0.466087 0.577447 0.831632
0.471977 0.577813 0.831754
0.48307 0.578378 0.831846
0.507073 0.579705 0.831998
0.555367 0.582589 0.831586
0.641062 0.589975 0.829709
0.75848 0.611017 0.823697
0.873701 0.663218 0.812741
0.963363 0.750774 0.805066
0.538293 0.667231 0.822019
0.542901 0.667369 0.821958
0.550942 0.66772 0.821942
0.568536 0.668086 0.821378
0.605554 0.669886 0.820905
0.672572 0.674296 0.819165
0.77084 0.687724 0.815106
0.874434 0.725078 0.807202
0.960739 0.790188 0.810803
0.660349 0.779339 0.812863
0.662867 0.779431 0.812802
0.667491 0.779583 0.812726
0.67747 0.780041 0.812619
0.698482 0.780865 0.8121
0.73904 0.783597 0.811856
0.804227 0.790875 0.812528
0.887617 0.811109 0.812818
0.951461 0.854505 0.835874
0.818021 0.887129 0.841871
0.818906 0.887221 0.841978
0.820462 0.887404 0.842222
0.823987 0.887816 0.842786
0.831754 0.888777 0.844068
0.849424 0.88986 0.847013
0.879606 0.894026 0.852995
0.921935 0.904234 0.867735
0.966613 0.927855 0.895659
0.960861 0.976989 0.947173
0.961059 0.977066 0.947295
0.96141 0.977188 0.947509
0.962158 0.977478 0.948013
0.963867 0.97818 0.948989
0.967636 0.979675 0.951522
0.975158 0.982773 0.956695
0.988098 0.988983 0.967803
1 1 0.986969
0.632639 0.682658 0.928893
0.635447 0.682704 0.928679
0.640604 0.683177 0.928649
0.652583 0.684276 0.928725
0.677241 0.686732 0.928527
0.723445 0.692638 0.927291
0.796506 0.707591 0.924971
0.881407 0.741039 0.91899
0.952743 0.804883 0.91162
0.634638 0.685252 0.928603
0.637537 0.685527 0.928603
0.642786 0.68603 0.928618
0.65449 0.687144 0.928588
0.678599 0.689448 0.928069
0.724804 0.695338 0.927184
0.796963 0.710124 0.92459
0.881407 0.743099 0.918624
0.952422 0.806165 0.91133
0.638071 0.690684 0.9281
0.640955 0.690929 0.928084
0.646296 0.691356 0.928038
0.657649 0.692317 0.927871
0.681498 0.694591 0.92752
0.726833 0.70042 0.926558
0.797589 0.714534 0.923735
0.881605 0.746975 0.91812
0.952438 0.808835 0.911406
0.646235 0.70193 0.92668
0.648875 0.702174 0.92668
0.653834 0.702602 0.92665
0.664744 0.703624 0.926558
0.68748 0.705684 0.925978
0.731426 0.711223 0.925216
0.799908 0.724376 0.92224
0.882078 0.755199 0.917037
0.952102 0.814984 0.911177
0.663935 0.725399 0.923934
0.666438 0.725597 0.923903
0.671031 0.725978 0.923827
0.681056 0.726879 0.923827
0.701961 0.728664 0.923308
0.741756 0.733532 0.922057
0.805646 0.745586 0.919799
0.883818 0.773098 0.915312
0.951736 0.827619 0.911208
0.70132 0.768505 0.918654
0.703349 0.768673 0.918608
0.706752 0.769055 0.918608
0.714916 0.769757 0.918425
0.731701 0.771298 0.917845
0.76492 0.775311 0.917067
0.819074 0.78468 0.914977
0.888319 0.807004 0.912978
0.951751 0.852659 0.912352
0.770123 0.83473 0.912657
0.771389 0.834852 0.912627
0.773709 0.835019 0.912551
0.778485 0.83537 0.912291
0.789487 0.836667 0.912215
0.811444 0.83949 0.912169
0.849989 0.846479 0.912566
0.902724 0.862135 0.914549
0.956741 0.895018 0.921004
0.871412 0.913695 0.922911
0.871962 0.913787 0.922972
0.872953 0.913954 0.923095
0.875212 0.914366 0.923354
0.879988 0.915343 0.923964
0.88986 0.917311 0.925155
0.908644 0.921904 0.928481
0.938247 0.932143 0.93579
0.973983 0.952758 0.9505
0.979263 0.992081 0.981735
0.979416 0.992142 0.981811
0.97969 0.992248 0.981964
0.980301 0.992508 0.982284
0.981552 0.993118 0.983078
0.984375 0.994293 0.984619
0.990494 0.997223 0.988266
1 1 0.995361
1 1 1
