public/textures/grade/Fuji/Cliff-FLog.cube
TITLE "Generated by Resolve"
LUT_3D_SIZE 33
0 0 0.00953689
0 0 0.00924697
0.000350958 0 0.00889601
0.00628672 0 0.00831617
0.0132906 0 0.00753796
0.0225376 0 0.00534066
0.0338598 0 0.00270085
0.0470283 0 0
0.0625162 0 0
0.0800488 0 0
0.098497 0 0
0.121019 0 0
0.147402 0.00183108 0
0.176837 0.00517281 0
0.209781 0.00918593 0
0.245533 0.0137942 0
0.283482 0.01944 0
0.324559 0.0257267 0
0.367971 0.0333257 0
0.41326 0.041886 0
0.460212 0.0521553 0
0.50576 0.0728008 0
0.551476 0.0975052 0
0.597864 0.12604 0
0.644541 0.159045 0
0.690608 0.197009 0
0.737072 0.240208 0
0.781811 0.288136 0
0.82504 0.340566 0
0.865553 0.396628 0
0.902876 0.454795 0.0109102
0.936431 0.51371 0.106874
0.965621 0.572045 0.19913
0 0 0.0083772
0 0 0.00801099
0.00177005 0 0.00746166
0.00810254 0 0.00686656
0.0155184 0 0.00526436
0.0254978 0 0.00285344
0.0373083 0 0
0.0510872 0 0
0.0650339 0 0
0.0808118 0.000137331 0
0.100694 0.00195315 0
0.123583 0.00425727 0
0.149889 0.00700389 0
0.179324 0.0102541 0
0.212451 0.0139925 0
0.247654 0.0185397 0
0.286336 0.0238804 0
0.327077 0.0301061 0
0.370718 0.0374762 0
0.415763 0.0458991 0
0.462119 0.0573434 0
0.507591 0.0776989 0
0.553155 0.102022 0
0.599588 0.130266 0
0.646128 0.16318 0
0.69221 0.200717 0
0.738155 0.243366 0
0.782773 0.291188 0
0.825788 0.343236 0
0.866117 0.398901 0
0.903471 0.456641 0.0122377
0.93669 0.515251 0.108324
0.965743 0.573266 0.200214
0 0.00389105 0.00680552
0 0.0040589 0.0062562
0.00317388 0.00430304 0.00584421
0.0102083 0.00440986 0.00477607
0.0172732 0.00471504 0.00343328
0.0269169 0.00480659 0.00158694
0.0382391 0.0047303 0
0.0516976 0.00454719 0
0.0677043 0.00447089 0
0.084062 0.00588998 0
0.103609 0.00764477 0
0.126268 0.00976577 0
0.152316 0.0122072 0
0.18204 0.0152285 0
0.214618 0.0189059 0
0.25005 0.0232395 0
0.288792 0.028336 0
0.329473 0.0344854 0
0.373159 0.0415808 0
0.418448 0.0498817 0
0.464225 0.0627451 0
0.509651 0.0829938 0
0.55523 0.106737 0
0.601373 0.134722 0
0.647547 0.166903 0
0.693568 0.204471 0
0.739223 0.246571 0
0.783948 0.294133 0
0.826734 0.345815 0
0.866911 0.401083 0
0.903944 0.458488 0.0137484
0.936934 0.516777 0.109758
0.965881 0.574472 0.201312
0 0.0109865 0.00489815
0 0.0113222 0.0043946
0.00483711 0.0114443 0.00396735
0.0119631 0.0112459 0.00331121
0.0202945 0.0113222 0.00135805
0.0301061 0.0111086 0
0.0415961 0.0110475 0
0.0550393 0.0108797 0
0.0706951 0.0108949 0
0.0872206 0.0119936 0
0.106416 0.0133516 0
0.128832 0.0151064 0
0.154955 0.0174258 0
0.184314 0.020325 0
0.216724 0.0236973 0
0.252552 0.0278477 0
0.291035 0.0328832 0
0.332204 0.0387884 0
0.375357 0.0456855 0
0.420905 0.0538186 0
0.466011 0.0678569 0
0.511299 0.0874342 0
0.556893 0.11107 0
0.60296 0.138766 0
0.648951 0.171023 0
0.695033 0.208179 0
0.740322 0.249958 0
0.784482 0.296757 0
0.827512 0.348424 0
0.867475 0.403326 0
0.904311 0.460349 0.0151369
0.937179 0.518288 0.111177
0.966018 0.575677 0.202396
0 0.0191958 0.00265507
0 0.0193027 0.002121
0.00688182 0.0191653 0.00190738
0.0141756 0.0191653 0.00108339
0.0221103 0.0189212 9.15541e-05
0.0324102 0.0188754 0
0.0442054 0.0186313 0
0.0580911 0.0185092 0
0.0740826 0.0182498 0
0.0907149 0.0187076 0
0.109514 0.0197452 0
0.131838 0.0212253 0
0.157702 0.0232853 0
0.18674 0.0257877 0
0.219242 0.0289311 0
0.254734 0.03299 0
0.293477 0.0376898 0
0.33463 0.0434424 0
0.378073 0.0502022 0
0.42327 0.0580301 0
0.468208 0.0736553 0
0.513146 0.0928359 0
0.558724 0.116075 0
0.604776 0.143511 0
0.650629 0.175463 0
0.696178 0.211856 0
0.741466 0.253635 0
0.785473 0.300023 0
0.827863 0.350881 0
0.868055 0.405768 0
0.904692 0.462394 0.0167239
0.937453 0.519936 0.112734
0.966049 0.576883 0.203449
0 0.0287633 0
0.00221256 0.0287022 0
0.00950637 0.0285344 0
0.0167391 0.0285954 0
0.0245212 0.0286717 0
0.0343938 0.0283055 0
0.0464485 0.0282139 0
0.0605631 0.0277562 0
0.0767681 0.0272984 0
0.0946517 0.0272526 0
0.113603 0.0278477 0
0.135698 0.0288548 0
0.160952 0.0304417 0
0.189548 0.0325933 0
0.222187 0.0355535 0
0.257328 0.0391699 0
0.296407 0.0436866 0
0.337392 0.049134 0
0.381125 0.0556191 0
0.425223 0.0650034 0
0.470405 0.0801709 0
0.515114 0.0992142 0
0.560708 0.121874 0
0.606729 0.148898 0
0.652369 0.180484 0
0.697978 0.216815 0
0.743038 0.258091 0
0.786786 0.30399 0
0.828717 0.354391 0
0.86833 0.408347 0
0.904952 0.464714 0.0184024
0.937636 0.521798 0.114397
0.966094 0.578164 0.2047
0 0.039765 0
0.0059968 0.0397498 0
0.0131685 0.0395666 0
0.0202029 0.0395819 0
0.0277256 0.0396124 0
0.0366979 0.0394446 0
0.0487526 0.0391546 0
0.0627146 0.0389258 0
0.0794842 0.0386816 0
0.0975357 0.0383001 0
0.117647 0.0379034 0
0.139391 0.0383154 0
0.164584 0.0394598 0
0.193423 0.0411994 0
0.225513 0.0435492 0
0.260807 0.0468452 0
0.299336 0.0509957 0
0.340612 0.0561074 0
0.384512 0.0623636 0
0.427878 0.0735943 0
0.47277 0.0885328 0
0.517861 0.107195 0
0.563409 0.129351 0
0.609293 0.155825 0
0.654902 0.186969 0
0.700328 0.222782 0
0.744427 0.263172 0
0.788357 0.308827 0
0.829999 0.358602 0
0.869184 0.411978 0
0.905241 0.467521 0.0204318
0.93785 0.52398 0.116442
0.966461 0.580072 0.206546
0.0034638 0.052491 0
0.0108339 0.0525063 0
0.0176547 0.0524453 0
0.0245212 0.0525063 0
0.0319066 0.0525978 0
0.0405432 0.0525978 0
0.0515602 0.0523842 0
0.0654307 0.0520027 0
0.0821546 0.0518196 0
0.0999771 0.0513466 0
0.12018 0.0509499 0
0.143069 0.050721 0
0.169192 0.0505989 0
0.19733 0.0516976 0
0.229419 0.0535897 0
0.264836 0.0563668 0
0.303197 0.0598459 0
0.344259 0.0647135 0
0.386694 0.0727245 0
0.430625 0.0840467 0
0.475456 0.0984054 0
0.520867 0.116625 0
0.566369 0.138155 0
0.611902 0.163912 0
0.657176 0.194491 0
0.702663 0.229664 0
0.746838 0.269749 0
0.789685 0.314351 0
0.831342 0.36379 0
0.870436 0.416312 0
0.906157 0.471122 0.0238956
0.938506 0.526909 0.119615
0.966781 0.582452 0.208179
0.0099031 0.0675364 0
0.0165408 0.0674907 0
0.0232242 0.0675669 0
0.0299077 0.0675975 0
0.0367437 0.0675364 0
0.0453956 0.067628 0
0.0558328 0.0677653 0
0.068513 0.0672465 0
0.0851453 0.0671702 0
0.102602 0.0669261 0
0.122667 0.0664836 0
0.145602 0.0659648 0
0.171847 0.0658732 0
0.2009 0.0660258 0
0.233051 0.0668803 0
0.268177 0.068925 0
0.306584 0.0725567 0
0.347005 0.07776 0
0.389776 0.085893 0
0.433692 0.0966506 0
0.479026 0.110414 0
0.524193 0.12781 0
0.569818 0.148821 0
0.614893 0.173877 0
0.660029 0.203601 0
0.705089 0.238071 0
0.749203 0.277317 0
0.792035 0.321447 0
0.832731 0.369589 0
0.871626 0.421668 0
0.906996 0.475608 0.0275883
0.93904 0.530556 0.123095
0.967117 0.585336 0.210803
0.0174411 0.0848249 0
0.0240177 0.085008 0
0.0303655 0.085069 0
0.0366217 0.0851301 0
0.0434577 0.0852674 0
0.0517586 0.0854047 0
0.0616007 0.085359 0
0.0736706 0.0855116 0
0.0885939 0.0846571 0
0.105913 0.0847181 0
0.125826 0.0845197 0
0.14873 0.0842145 0
0.174685 0.0838331 0
0.203494 0.083711 0
0.235889 0.0843061 0
0.271244 0.0861982 0
0.309545 0.0893263 0
0.350011 0.094316 0
0.393164 0.101839 0
0.437385 0.111696 0
0.482704 0.124895 0
0.527886 0.141207 0
0.573541 0.161547 0
0.618799 0.185977 0
0.663966 0.215 0
0.708476 0.248569 0
0.752087 0.286976 0
0.794339 0.32961 0
0.834745 0.377142 0
0.872923 0.427649 0
0.908019 0.48098 0.0322271
0.939712 0.534966 0.126848
0.967483 0.588861 0.214023
0.0268254 0.105028 0
0.0331273 0.105211 0
0.0392615 0.105425 0
0.0453651 0.105592 0
0.0517281 0.105592 0
0.0597543 0.105806 0
0.0693523 0.106081 0
0.0808728 0.106126 0
0.0940871 0.106447 0
0.11017 0.105501 0
0.129839 0.105653 0
0.152529 0.105455 0
0.17818 0.105318 0
0.207294 0.105272 0
0.239643 0.105531 0
0.274632 0.106783 0
0.313252 0.109468 0
0.353887 0.11371 0
0.39704 0.120272 0
0.441352 0.129595 0
0.486519 0.141634 0
0.532341 0.157427 0
0.577981 0.176776 0
0.622904 0.200305 0
0.668193 0.228382 0
0.711833 0.260853 0
0.755169 0.29807 0
0.79707 0.340017 0
0.836835 0.385748 0
0.874571 0.435416 0
0.908995 0.487022 0.0368963
0.940398 0.539849 0.131548
0.96817 0.592996 0.218235
0.0385138 0.128527 0
0.0445106 0.128725 0
0.0504005 0.128923 0
0.0561837 0.129107 0
0.0621958 0.129183 0
0.0697948 0.129305 0
0.0791791 0.129519 0
0.0901656 0.12987 0
0.102159 0.129976 0
0.116854 0.130434 0
0.135317 0.129458 0
0.157519 0.129702 0
0.182971 0.129763 0
0.211826 0.129686 0
0.244083 0.129961 0
0.279362 0.130983 0
0.317708 0.132891 0
0.358206 0.136522 0
0.401587 0.142367 0
0.445823 0.150423 0
0.4916 0.162081 0
0.537301 0.176562 0
0.582635 0.194903 0
0.627832 0.217304 0
0.672694 0.244388 0
0.716274 0.275486 0
0.758831 0.31133 0
0.799893 0.351949 0
0.839704 0.396567 0
0.87631 0.444236 0
0.910582 0.494728 0.0445563
0.941192 0.546181 0.137667
0.968307 0.597742 0.222507
0.0531472 0.155276 0
0.0587625 0.155566 0
0.0643015 0.15581 0
0.0698405 0.156024 0
0.0758068 0.156176 0
0.0831006 0.156237 0
0.0915541 0.156512 0
0.10103 0.156802 0
0.112459 0.156878 0
0.126558 0.157259 0
0.143038 0.15761 0
0.164218 0.156786 0
0.189059 0.157137 0
0.217472 0.157336 0
0.249485 0.157656 0
0.284855 0.158465 0
0.322942 0.160067 0
0.363622 0.162951 0
0.406546 0.16791 0
0.451362 0.175158 0
0.496941 0.185534 0
0.542718 0.199084 0
0.58822 0.216342 0
0.633524 0.237629 0
0.677333 0.262837 0
0.720928 0.293004 0
0.763134 0.327169 0
0.803586 0.366033 0
0.842435 0.408988 0
0.87863 0.455299 0
0.911727 0.503639 0.0529335
0.942397 0.553719 0.145525
0.969177 0.603769 0.228031
0.0708171 0.185733 0
0.0762036 0.186007 0
0.0817121 0.186282 0
0.0869459 0.186511 0
0.0920424 0.186511 0
0.098436 0.186786 0
0.105776 0.187076 0
0.114687 0.187472 0
0.125612 0.187518 0
0.138857 0.1879 0
0.154635 0.188205 0
0.173526 0.188586 0
0.196857 0.18764 0.000396735
0.224994 0.188434 0
0.256291 0.189014 0
0.291371 0.189532 0
0.329381 0.190753 0
0.37023 0.193332 0
0.413138 0.197635 0
0.457542 0.203632 0
0.503273 0.213062 0
0.549096 0.225238 0
0.594202 0.241199 0
0.639292 0.261021 0
0.683207 0.285054 0
0.725856 0.313008 0
0.76762 0.345968 0
0.807462 0.382803 0
0.845533 0.423713 0
0.880964 0.467948 0
0.913588 0.514336 0.0636606
0.943297 0.562387 0.153765
0.969482 0.610697 0.234623
0.0926528 0.219974 0.0016022
0.097261 0.220249 0.00198367
0.101503 0.220264 0.002121
0.105669 0.220432 0.00238041
0.110307 0.220706 0.00276188
0.116045 0.221027 0.00317388
0.123156 0.221347 0.00360113
0.131838 0.221637 0.00395209
0.142046 0.221805 0.00410468
0.154574 0.222278 0.00434882
0.169482 0.222538 0.00401312
0.18732 0.223011 0.00323491
0.208347 0.223224 0.00244144
0.234592 0.222583 0.00653086
0.265278 0.223331 0
0.299657 0.224247 0
0.337148 0.225483 0
0.377615 0.227405 0
0.420371 0.230961 0
0.464866 0.236667 0
0.510292 0.244526 0
0.555779 0.255634 0
0.601205 0.270008 0
0.645426 0.288228 0
0.689204 0.310491 0
0.731792 0.336858 0
0.77232 0.367407 0
0.811719 0.402457 0
0.848753 0.44097 0
0.883558 0.482811 0.000335698
0.915755 0.527138 0.0785992
0.944335 0.572732 0.164202
0.97055 0.619287 0.24358
0.115648 0.258122 0.00846876
0.119844 0.258335 0.00880446
0.123888 0.258564 0.00918593
0.128084 0.258747 0.00947585
0.132464 0.258976 0.00984207
0.137804 0.259266 0.0102693
0.144167 0.259342 0.0104829
0.152331 0.259586 0.0108644
0.162066 0.260029 0.011368
0.173953 0.260487 0.0117647
0.187762 0.260716 0.0116426
0.204883 0.26128 0.0113069
0.224537 0.261677 0.00994888
0.248051 0.262211 0.0104067
0.276967 0.26128 0.0139315
0.310353 0.262577 0.00115969
0.347311 0.264057 0
0.387213 0.26598 0
0.429313 0.268925 0
0.473365 0.273594 0
0.518486 0.280324 0
0.563607 0.290242 0
0.608698 0.302907 0
0.652735 0.319402 0
0.695903 0.339803 0
0.737499 0.364034 0
0.777935 0.392462 0
0.81619 0.424689 0
0.852659 0.460883 0
0.886336 0.500053 0.0164187
0.917708 0.541802 0.0959793
0.945876 0.585 0.176608
0.971405 0.629099 0.253513
0.143938 0.300374 0.0186465
0.147402 0.300389 0.0187839
0.151202 0.30045 0.0189975
0.154894 0.300664 0.0193484
0.159152 0.300816 0.0196536
0.164141 0.301045 0.0200504
0.170245 0.30135 0.0205234
0.177844 0.30164 0.0209812
0.186954 0.302007 0.0214847
0.197559 0.302129 0.0216526
0.21088 0.302632 0.0219883
0.226627 0.303273 0.0220798
0.245335 0.303578 0.0210575
0.267338 0.304494 0.0195315
0.292653 0.304631 0.021973
0.323888 0.304051 0.0239109
0.359457 0.305867 0.00875868
0.398474 0.307698 0
0.439918 0.310445 0
0.482979 0.314488 0
0.52755 0.320409 0
0.572335 0.328542 0
0.616678 0.340154 0
0.660533 0.354513 0
0.703059 0.372702 0
0.744137 0.395041 0
0.78352 0.420645 0
0.821057 0.450416 0
0.856184 0.483406 0
0.889662 0.519799 0.037583
0.919982 0.558572 0.116258
0.947768 0.599237 0.192554
0.972122 0.64065 0.266316
0.177203 0.34609 0.0322118
0.180575 0.346288 0.0325628
0.184146 0.346441 0.0328527
0.187701 0.346563 0.0331121
0.191379 0.346746 0.0334478
0.195865 0.346593 0.0334173
0.201434 0.346807 0.033814
0.208255 0.347097 0.034287
0.216709 0.347402 0.0347295
0.226917 0.347768 0.0350958
0.239063 0.348257 0.0354467
0.253376 0.34844 0.0352026
0.27068 0.349142 0.0349889
0.290944 0.349569 0.0335851
0.314809 0.350668 0.0313726
0.342168 0.35053 0.0377661
0.375769 0.350835 0.0371862
0.412512 0.352697 0.0192569
0.452659 0.355154 0.000640879
0.494804 0.35877 0
0.538155 0.363882 0
0.58204 0.371115 0
0.625834 0.380621 0
0.66894 0.393545 0
0.710582 0.40943 0
0.750912 0.429023 0
0.789487 0.45243 0
0.825879 0.47892 0
0.860548 0.509056 0.00421149
0.892576 0.54197 0.0649729
0.922164 0.577646 0.138994
0.949187 0.615259 0.21004
0.972564 0.654017 0.281544
0.21648 0.394949 0.0499123
0.219532 0.395132 0.0502327
0.222751 0.395254 0.0504768
0.225986 0.395361 0.050721
0.229511 0.395468 0.0509346
0.233616 0.395651 0.0512856
0.238926 0.395804 0.0515602
0.244968 0.395895 0.0518044
0.252262 0.395972 0.052018
0.261372 0.396323 0.05243
0.272526 0.396689 0.0527504
0.286 0.397131 0.0527199
0.301549 0.397299 0.0520943
0.320211 0.398062 0.0513924
0.342199 0.399008 0.0497139
0.367178 0.399863 0.0461585
0.396109 0.399374 0.059205
0.430808 0.400427 0.0537423
0.468559 0.402716 0.0333104
0.508782 0.405875 0.0131228
0.550713 0.4103 0
0.59324 0.41648 0
0.635904 0.424826 0
0.677943 0.435554 0
0.719005 0.449516 0
0.757961 0.466468 0
0.795392 0.486732 0
0.831235 0.510262 0
0.864836 0.537118 0.0368353
0.896101 0.566964 0.0999313
0.924666 0.599161 0.164996
0.950591 0.633265 0.2309
0.973053 0.669169 0.299977
0.261845 0.446296 0.0719921
0.264515 0.446464 0.0722667
0.267414 0.446555 0.0724498
0.270298 0.446632 0.0726329
0.273457 0.446708 0.0727855
0.277073 0.446876 0.0730755
0.281834 0.446983 0.0732891
0.287343 0.447196 0.0736095
0.294331 0.447349 0.0738537
0.302174 0.447318 0.0738537
0.311986 0.447578 0.0739452
0.323995 0.447929 0.0739452
0.338399 0.448341 0.0737316
0.355138 0.448798 0.0729992
0.374746 0.449287 0.0714122
0.397742 0.45034 0.0688029
0.423606 0.45127 0.0656443
0.453819 0.450492 0.0876478
0.488624 0.452277 0.074464
0.526345 0.455024 0.0521553
0.565713 0.458854 0.0313726
0.606439 0.464042 0.0128786
0.647334 0.471153 0
0.688136 0.480354 0
0.727291 0.491814 0
0.765743 0.506539 0
0.802045 0.523888 0.00598154
0.836316 0.544381 0.0348363
0.869017 0.567803 0.0806134
0.899367 0.59411 0.136538
0.927275 0.62295 0.194644
0.952117 0.65388 0.255421
0.973663 0.686412 0.322301
0.313603 0.498909 0.0986801
0.316167 0.49897 0.0987716
0.318715 0.499016 0.0988327
0.321263 0.499077 0.0988937
0.324041 0.499138 0.0989853
0.327169 0.499275 0.0991684
0.331319 0.499352 0.0992599
0.336294 0.499474 0.099382
0.34226 0.499641 0.0995346
0.349371 0.49987 0.0996872
0.358129 0.499901 0.0995346
0.368307 0.499977 0.0992599
0.380911 0.500328 0.0987411
0.39588 0.500786 0.0980697
0.413123 0.501457 0.0969253
0.433295 0.501854 0.0946059
0.456809 0.502968 0.0917525
0.482918 0.50338 0.0974594
0.51371 0.502647 0.118196
0.547829 0.505364 0.100847
0.584375 0.508568 0.0807507
0.622156 0.512917 0.0619059
0.660731 0.51873 0.0466773
0.699168 0.526452 0.0371557
0.737301 0.536248 0.0344396
0.77351 0.548135 0.0406958
0.808972 0.563134 0.0585031
0.842069 0.580484 0.089662
0.873381 0.600595 0.129625
0.902678 0.623346 0.176471
0.929503 0.648707 0.22771
0.953079 0.675883 0.285023
0.973938 0.705547 0.349035
0.37142 0.551537 0.126833
0.373617 0.551568 0.126894
0.375799 0.551598 0.126925
0.37792 0.551644 0.126986
0.380056 0.551751 0.127123
0.382971 0.551781 0.127169
0.386526 0.551843 0.127153
0.390677 0.551965 0.127199
0.39585 0.552071 0.127184
0.402182 0.552178 0.127199
0.409583 0.552392 0.12726
0.418326 0.552483 0.127092
0.42887 0.552529 0.126696
0.441672 0.552895 0.12636
0.45684 0.553368 0.125689
0.474495 0.553918 0.124269
0.494392 0.554543 0.122393
0.51783 0.555749 0.119677
0.543679 0.555352 0.13576
0.573358 0.555352 0.147982
0.60647 0.558419 0.134478
0.640848 0.562051 0.12105
0.676631 0.56672 0.108843
0.712337 0.572992 0.101244
0.748119 0.581048 0.100313
0.782925 0.591211 0.106767
0.816159 0.603098 0.12221
0.848112 0.618051 0.147646
0.877928 0.634958 0.179736
0.906126 0.654276 0.219516
0.931731 0.676051 0.26598
0.953918 0.700008 0.319677
0.973388 0.726009 0.380163
0.433448 0.603021 0.159777
0.434989 0.603128 0.159869
0.436805 0.603143 0.159854
0.438636 0.603159 0.159838
0.44062 0.603174 0.159823
0.443046 0.603204 0.159808
0.445975 0.603235 0.159823
0.449302 0.603357 0.15996
0.453696 0.603403 0.15996
0.4589 0.603494 0.160006
0.465126 0.603647 0.160052
0.472541 0.603845 0.160098
0.481437 0.603632 0.159609
0.492119 0.603891 0.159442
0.504891 0.604273 0.15906
0.519875 0.604776 0.158404
0.536797 0.605158 0.157321
0.556435 0.606104 0.156161
0.578546 0.606973 0.16083
0.603586 0.606271 0.179965
0.632166 0.607019 0.184894
0.663157 0.610391 0.176104
0.694926 0.614328 0.168734
0.727916 0.619211 0.164034
0.76051 0.625742 0.163821
0.793072 0.633951 0.170535
0.824338 0.6439 0.182971
0.854414 0.655756 0.203372
0.882811 0.669871 0.231144
0.909468 0.686366 0.266957
0.933349 0.704997 0.310048
0.954345 0.725643 0.360357
0.972534 0.748348 0.417014
0.497688 0.652476 0.198215
0.499168 0.652476 0.198245
0.500648 0.652491 0.19826
0.502113 0.652506 0.198276
0.503517 0.652567 0.198383
0.505348 0.652613 0.198444
0.507744 0.652628 0.198474
0.510674 0.652659 0.198505
0.514244 0.652689 0.198535
0.518257 0.652827 0.198688
0.523491 0.652888 0.198703
0.529488 0.653056 0.198871
0.536904 0.653025 0.198535
0.545388 0.653071 0.198352
0.555749 0.653391 0.198413
0.568017 0.653803 0.198428
0.582361 0.654353 0.198352
0.598505 0.654749 0.197574
0.617212 0.655802 0.197482
0.63772 0.65539 0.212268
0.661738 0.654978 0.231449
0.688228 0.656809 0.230243
0.716228 0.660029 0.225956
0.745418 0.664424 0.224277
0.775006 0.669474 0.225803
0.804486 0.67602 0.231739
0.833509 0.68397 0.243534
0.861418 0.693614 0.261921
0.887831 0.705303 0.287617
0.912276 0.718898 0.320073
0.934295 0.734386 0.359426
0.954376 0.752041 0.406317
0.971283 0.771618 0.459541
0.562295 0.699138 0.243259
0.563455 0.699138 0.24329
0.564599 0.699153 0.24332
0.565759 0.699153 0.243351
0.56701 0.699168 0.243397
0.568536 0.699184 0.243442
0.570428 0.699199 0.243488
0.572412 0.699306 0.243687
0.575204 0.699336 0.243748
0.578622 0.699367 0.243839
0.582742 0.699428 0.243961
0.587427 0.699596 0.244236
0.593225 0.699489 0.244205
0.599893 0.699565 0.244373
0.608438 0.699779 0.244373
0.618219 0.700145 0.244755
0.62974 0.700603 0.245228
0.642954 0.70106 0.24567
0.657954 0.701732 0.246067
0.674937 0.702022 0.255589
0.69398 0.701473 0.271061
0.71632 0.701442 0.28658
0.740276 0.703914 0.284657
0.765103 0.707225 0.285084
0.791302 0.711467 0.28835
0.817441 0.71664 0.295842
0.843168 0.722866 0.307317
0.868528 0.730861 0.324941
0.892638 0.740322 0.348928
0.914855 0.751308 0.379004
0.935699 0.764569 0.415595
0.953887 0.779248 0.458381
0.969985 0.796094 0.507332
0.625238 0.742565 0.295705
0.625986 0.742611 0.295811
0.626871 0.742626 0.295888
0.627741 0.742626 0.295933
0.628702 0.742641 0.295995
0.629877 0.742657 0.296071
0.631327 0.742672 0.296162
0.633082 0.742702 0.296284
0.635233 0.742718 0.296422
0.637568 0.74284 0.296742
0.640711 0.742901 0.296956
0.644388 0.742809 0.297093
0.648814 0.742718 0.297261
0.654047 0.742947 0.297856
0.660685 0.74313 0.298192
0.668254 0.74345 0.29897
0.677241 0.743847 0.300008
0.687785 0.744335 0.30132
0.699565 0.744656 0.302739
0.713252 0.745052 0.309285
0.728466 0.74461 0.322927
0.74609 0.744198 0.33875
0.765576 0.744961 0.347951
0.786984 0.747845 0.350698
0.808942 0.751125 0.355749
0.831617 0.755108 0.364218
0.853925 0.760235 0.376654
0.876371 0.766598 0.393683
0.897765 0.774456 0.416037
0.918059 0.783551 0.443961
0.936629 0.794171 0.477089
0.953521 0.806546 0.515908
0.968246 0.820768 0.559899
0.685176 0.782254 0.358999
0.685756 0.782284 0.359121
0.686275 0.78233 0.359274
0.686839 0.782361 0.359411
0.687541 0.782376 0.359518
0.688411 0.782391 0.359655
0.689479 0.782406 0.359808
0.6907 0.782345 0.359945
0.69218 0.782284 0.360098
0.694011 0.782208 0.360204
0.696376 0.782254 0.360403
0.698955 0.782422 0.360906
0.702388 0.782513 0.361532
0.706538 0.782635 0.36228
0.711223 0.782879 0.363348
0.717174 0.783078 0.364523
0.723964 0.783413 0.366094
0.732036 0.783856 0.367651
0.741283 0.784039 0.369665
0.75169 0.784405 0.375906
0.763607 0.784268 0.38735
0.777096 0.783719 0.400931
0.792569 0.783612 0.416892
0.809766 0.785306 0.422843
0.827756 0.787961 0.429389
0.846815 0.791547 0.438895
0.86598 0.795575 0.451514
0.88484 0.800732 0.46772
0.903685 0.80705 0.488457
0.921767 0.814588 0.513771
0.938125 0.823194 0.54374
0.95349 0.833844 0.578424
0.96698 0.845747 0.617029
0.7402 0.817945 0.434546
0.740673 0.81796 0.434623
0.741146 0.817975 0.434714
0.741512 0.818021 0.434836
0.741924 0.818067 0.434958
0.742473 0.818112 0.435111
0.743236 0.818143 0.435248
0.744167 0.818173 0.435508
0.745312 0.818219 0.435843
