public/textures/grade/Fuji/Gems-FLog.cube
TITLE "Generated by Resolve"
LUT_3D_SIZE 33
0.000335698 0.0043183 0.0130617
0.00283818 0.00480659 0.0117952
0.00544747 0.0053254 0.0107576
0.00743114 0.00604257 0.0109407
0.010071 0.00717174 0.00924697
0.0175021 0.00672923 0.00715648
0.0255131 0.00654612 0.00491341
0.0353246 0.00653086 0.00216678
0.0476081 0.00672923 0
0.0635386 0.00694286 0
0.0819867 0.00799573 0
0.104402 0.0100404 0
0.133425 0.0121462 0
0.167987 0.0161135 0
0.208377 0.022797 0
0.254627 0.0334325 0
0.307393 0.0492256 0
0.367071 0.0722515 0
0.432578 0.103212 0
0.493858 0.135943 0
0.527657 0.172381 0
0.501289 0.219333 0
0.444556 0.274632 0.108248
0.391989 0.327062 0.259922
0.371115 0.371115 0.371115
0.403784 0.403784 0.403784
0.435706 0.435706 0.435706
0.46923 0.46923 0.46923
0.505913 0.505913 0.505913
0.567926 0.544182 0.518318
0.747173 0.570062 0.391394
0.926741 0.598627 0.302602
0.987289 0.648234 0.344747
0 0.00732433 0.0148928
0.00157168 0.00772107 0.0131533
0.00564584 0.00802625 0.0110781
0.00868238 0.00839246 0.00962844
0.0132296 0.00852979 0.00805676
0.0191501 0.00852979 0.00633249
0.0265202 0.00872816 0.00436408
0.036408 0.00894179 0.00173953
0.0485389 0.00924697 0
0.0641489 0.00952163 0
0.0819715 0.0107881 0
0.105455 0.0121309 0
0.134356 0.0145418 0
0.168536 0.0184787 0
0.208225 0.025391 0
0.254627 0.0359503 0
0.307225 0.0520027 0
0.366354 0.0747234 0
0.431632 0.105333 0
0.49308 0.137667 0
0.527367 0.173617 0
0.502281 0.219913 0
0.448966 0.275029 0.104005
0.396048 0.327092 0.255619
0.37171 0.37171 0.37171
0.403952 0.403952 0.403952
0.436377 0.436377 0.436377
0.470161 0.470161 0.470161
0.50695 0.50695 0.50695
0.574456 0.544533 0.511986
0.754894 0.570214 0.384451
0.929168 0.599466 0.301823
0.98735 0.649302 0.346075
0 0.0108492 0.0134432
0.000396735 0.0110781 0.0121157
0.00437934 0.0111543 0.0107118
0.00822461 0.0114137 0.00923171
0.0131533 0.0114137 0.00784314
0.0194247 0.0115511 0.00595102
0.0270237 0.0117189 0.00369268
0.03682 0.0119783 0.0009308
0.0488289 0.0122835 0
0.0639811 0.0127108 0
0.0832685 0.0132906 0
0.106935 0.0146334 0
0.135164 0.0168765 0
0.168688 0.0210575 0
0.208499 0.0279088 0
0.254582 0.0385595 0
0.306722 0.0545052 0
0.365515 0.0773785 0
0.430518 0.10721 0
0.492393 0.139452 0
0.527031 0.174762 0
0.504662 0.220554 0
0.452964 0.275212 0.0996872
0.400397 0.327184 0.251102
0.372183 0.372183 0.372183
0.404532 0.404532 0.404532
0.43679 0.43679 0.43679
0.471092 0.471092 0.471092
0.508049 0.508049 0.508049
0.581125 0.544869 0.505501
0.7626 0.570367 0.3776
0.931502 0.60032 0.301167
0.987381 0.650385 0.347417
0 0.0141146 0.01355
0.000320439 0.0140841 0.0121462
0.00454719 0.0142672 0.0107576
0.00694286 0.0150759 0.00914015
0.0121309 0.0149386 0.00833143
0.0184634 0.0151827 0.00621042
0.0263981 0.0153201 0.00376898
0.0362249 0.0155184 0.000808728
0.0486763 0.0159457 0
0.06392 0.0165103 0
0.082887 0.0170291 0
0.106249 0.0180514 0
0.134798 0.0200198 0
0.169345 0.0237888 0
0.208698 0.0304112 0
0.254215 0.0411994 0
0.306355 0.0569924 0
0.364843 0.079881 0
0.429419 0.109133 0
0.491417 0.141161 0
0.526726 0.175952 0
0.507362 0.221408 0
0.457084 0.275547 0.095552
0.404639 0.327382 0.246906
0.372885 0.372534 0.372168
0.405035 0.405035 0.405035
0.437537 0.437537 0.437537
0.471916 0.471916 0.471916
0.509178 0.509178 0.509178
0.587808 0.545251 0.499062
0.770306 0.570535 0.370809
0.933745 0.601205 0.300603
0.987396 0.651484 0.348791
0 0.017731 0.0139162
0.000900282 0.0178531 0.012604
0.00315862 0.0184787 0.0111543
0.00555428 0.0194247 0.00924697
0.0108492 0.0191501 0.00869764
0.0170138 0.0194095 0.00669871
0.0252842 0.0196994 0.00425727
0.0352483 0.0200046 0.00128176
0.0477455 0.0203861 0
0.0627451 0.0207523 0
0.0817426 0.0211185 0
0.105623 0.0222019 0
0.134371 0.0243687 0
0.16846 0.0278935 0
0.208621 0.0336614 0
0.254078 0.0441291 0
0.305913 0.0597391 0
0.363973 0.0827955 0
0.428199 0.111315 0
0.490257 0.142947 0
0.52639 0.177295 0
0.510155 0.222232 0
0.461173 0.275563 0.0905623
0.408957 0.327276 0.241917
0.377127 0.372473 0.367437
0.405676 0.405676 0.405676
0.438437 0.438437 0.438437
0.472663 0.472663 0.472663
0.510369 0.510369 0.510369
0.594995 0.545739 0.492348
0.778561 0.570764 0.36379
0.936049 0.602167 0.30013
0.987381 0.652659 0.350317
0 0.0226902 0.014435
0 0.0233463 0.0131228
0.00111391 0.0241245 0.0114595
0.00340276 0.0251316 0.00935378
0.00840772 0.0251774 0.00880446
0.0152895 0.0249332 0.00788891
0.0238804 0.0254063 0.00466926
0.0336309 0.0255741 0.00190738
0.0463722 0.025864 0
0.0617227 0.0261845 0
0.0803082 0.0267185 0
0.104723 0.0277867 0
0.132967 0.0297246 0
0.166979 0.0332189 0
0.206973 0.0390784 0
0.253452 0.0481727 0
0.30544 0.0633402 0
0.363088 0.0860304 0
0.426902 0.11397 0
0.488777 0.145022 0
0.525887 0.178866 0
0.513405 0.223377 0
0.466545 0.275944 0.0849165
0.414679 0.327382 0.235843
0.382208 0.372412 0.361791
0.406424 0.406424 0.406424
0.43949 0.43949 0.43949
0.474083 0.474083 0.474083
0.511467 0.511467 0.511467
0.604303 0.546166 0.483238
0.78851 0.571099 0.355596
0.938766 0.603433 0.299931
0.987427 0.654108 0.352285
0 0.0297093 0.0153964
0 0.0304112 0.0137636
0 0.0312505 0.011902
0.000976577 0.0322576 0.00975052
0.00547799 0.0325322 0.00865187
0.0132448 0.0318608 0.00840772
0.0214389 0.0319219 0.0062562
0.0316777 0.032578 0.00231937
0.0440833 0.0328832 0
0.0596933 0.0332799 0
0.0781262 0.0337224 0
0.102739 0.0345312 0
0.131212 0.0364691 0
0.16527 0.0399939 0
0.205158 0.045594 0
0.251347 0.0544747 0
0.304021 0.0682536 0
0.362081 0.0900282 0
0.425284 0.117113 0
0.487129 0.147707 0
0.525124 0.180514 0
0.517464 0.224796 0
0.472709 0.276356 0.0782483
0.421546 0.327062 0.227573
0.388373 0.372137 0.354498
0.40763 0.40763 0.40763
0.440726 0.440726 0.440726
0.4757 0.4757 0.4757
0.51342 0.51342 0.51342
0.614786 0.54638 0.472435
0.799817 0.571267 0.34583
0.941619 0.604837 0.299535
0.987182 0.655512 0.354116
0 0.0380255 0.0155795
0 0.0388647 0.0139162
0 0.0398566 0.0122377
0 0.0409552 0.00999466
0.00167849 0.0417334 0.00842298
0.00985733 0.0409705 0.00874342
0.0187228 0.0405737 0.00769055
0.0292973 0.0409705 0.00445563
0.0417487 0.0415503 0
0.0572213 0.0417945 0
0.0757153 0.0424353 0
0.100282 0.0434119 0
0.129259 0.0451972 0
0.162799 0.0482185 0
0.202808 0.0536965 0
0.248875 0.0626383 0
0.301274 0.0756695 0
0.360357 0.0949722 0
0.423728 0.120958 0
0.485222 0.151019 0
0.524254 0.182681 0
0.52221 0.226154 0
0.480568 0.276677 0.0693065
0.430106 0.326665 0.217151
0.395819 0.371984 0.345968
0.408835 0.408835 0.408835
0.442542 0.442542 0.442542
0.477699 0.477699 0.477699
0.51574 0.51574 0.51574
0.629053 0.547143 0.458824
0.81416 0.571603 0.334066
0.944686 0.606546 0.299229
0.986877 0.65771 0.357015
0 0.0486763 0.0164492
0 0.0495766 0.0146487
0 0.0505989 0.0125429
0 0.0518196 0.0102998
0 0.0530861 0.00810254
0.00531014 0.0520333 0.00856031
0.0150301 0.0513313 0.00830091
0.0256809 0.0512398 0.00643931
0.0383307 0.0520027 0.00213626
0.0541695 0.0527047 0
0.072694 0.0531777 0
0.0969558 0.0540322 0
0.126299 0.0556497 0
0.160021 0.058854 0
0.199527 0.0639963 0
0.24538 0.0722057 0
0.298329 0.0856031 0
0.356832 0.102937 0
0.421424 0.125353 0
0.482826 0.154894 0
0.523674 0.185824 0
0.527047 0.228122 0
0.489799 0.277241 0.058854
0.439918 0.327016 0.206821
0.405905 0.372168 0.335195
0.410788 0.410788 0.410788
0.444709 0.444709 0.444709
0.480247 0.480247 0.480247
0.523995 0.5178 0.510872
0.647379 0.54786 0.44094
0.830549 0.572488 0.321889
0.94844 0.608988 0.299519
0.986435 0.660441 0.360815
0 0.0614786 0.0171206
0 0.0625772 0.0152895
0 0.063798 0.0134127
0 0.0650339 0.0112917
0 0.0666209 0.00860609
0.000839246 0.0658885 0.00895705
0.0108034 0.0649271 0.0091249
0.0220493 0.064332 0.0081178
0.0350347 0.0644694 0.00520333
0.0500038 0.0654765 0
0.0692912 0.0661936 0
0.0930037 0.0672313 0
0.122057 0.068864 0
0.156451 0.0715953 0
0.196353 0.0764935 0
0.241443 0.0846723 0
0.29369 0.096376 0
0.352514 0.112276 0
0.417548 0.132815 0
0.480079 0.159564 0
0.524224 0.190494 0
0.532357 0.230686 0
0.500084 0.278065 0.0471809
0.452598 0.327276 0.192737
0.418799 0.37258 0.321614
0.413016 0.413016 0.413016
0.447776 0.447776 0.447776
0.483528 0.483528 0.483528
0.54226 0.519051 0.49308
0.668971 0.548623 0.419837
0.848463 0.573754 0.308934
0.952529 0.612116 0.30074
0.985733 0.663767 0.365621
0 0.0779583 0.0185092
0 0.0791028 0.0167086
0 0.0803388 0.0147097
0 0.0819104 0.0125734
0 0.0835126 0.0099794
0 0.0834058 0.00943008
0.00543221 0.0824292 0.010193
0.017731 0.081529 0.0101015
0.0308995 0.0808576 0.00857557
0.0466621 0.0814527 0.00468452
0.0651255 0.0826123 0
0.0888075 0.0833448 0
0.117082 0.0848554 0
0.152087 0.0875257 0
0.191424 0.091722 0
0.237003 0.0983291 0
0.289448 0.108705 0
0.347723 0.123171 0
0.412055 0.141756 0
0.47628 0.165652 0
0.523735 0.195544 0
0.537957 0.233799 0
0.512276 0.27953 0.0338598
0.468391 0.32784 0.175189
0.435798 0.373449 0.304128
0.426825 0.414649 0.4009
0.451316 0.451316 0.451316
0.487785 0.487785 0.487785
0.566018 0.520684 0.470024
0.696971 0.549661 0.393027
0.865736 0.575601 0.297475
0.956497 0.616022 0.302739
0.984909 0.667826 0.371756
0 0.100404 0.0230411
0 0.101259 0.0209659
0 0.102373 0.0191043
0 0.103517 0.0171206
0 0.104845 0.0145418
0 0.105821 0.0119478
0 0.104753 0.0130312
0.0114443 0.103868 0.0137026
0.0258946 0.102846 0.0133059
0.0421149 0.102556 0.0115511
0.0610513 0.1028 0.00697337
0.0839857 0.10428 0
0.112642 0.105364 0
0.1467 0.107042 0
0.186252 0.11043 0
0.2318 0.116014 0
0.283207 0.124376 0
0.341802 0.136706 0
0.406058 0.153445 0
0.471565 0.175006 0
0.523293 0.203021 0
0.544793 0.238911 0
0.527901 0.282475 0.0179294
0.488441 0.329488 0.154253
0.458228 0.375036 0.281544
0.44947 0.416464 0.378866
0.466819 0.45449 0.440375
0.513359 0.48983 0.462974
0.59707 0.522606 0.439612
0.730205 0.550851 0.361761
0.884504 0.578714 0.286763
0.959884 0.6206 0.305867
0.983063 0.672374 0.378698
0 0.126452 0.0318456
0 0.127321 0.0298924
0 0.128283 0.0278019
0 0.129274 0.0258793
0 0.130404 0.0237278
0 0.131777 0.0207828
0 0.132006 0.0192264
0.00485237 0.130907 0.0204318
0.0201114 0.129656 0.0212406
0.0370794 0.128588 0.0207828
0.056611 0.128176 0.0186923
0.0785687 0.12845 0.0135653
0.107683 0.129992 0.00263981
0.141817 0.131701 0
0.180575 0.134005 0
0.226108 0.138155 0
0.27718 0.145083 0
0.334813 0.155016 0
0.399008 0.169329 0
0.466697 0.188907 0
0.522301 0.213748 0
0.552254 0.246326 0
0.546273 0.287251 0.000198367
0.514977 0.332662 0.127581
0.486488 0.377371 0.252995
0.47982 0.41915 0.349294
0.498573 0.457191 0.409445
0.547951 0.492363 0.428809
0.636393 0.52462 0.400504
0.771435 0.552789 0.325292
0.901503 0.583062 0.279088
0.963043 0.62681 0.311406
0.980957 0.678401 0.388403
0 0.156939 0.0462196
0 0.157748 0.0446784
0 0.158541 0.0428931
0 0.15938 0.0411383
0 0.160311 0.0388342
0 0.161273 0.0357977
0 0.162814 0.0323796
0 0.162966 0.0316777
0.0132448 0.161776 0.0331121
0.0311131 0.160296 0.0337377
0.0508583 0.159426 0.033753
0.0739757 0.158434 0.0313878
0.102922 0.158801 0.0260319
0.136217 0.160708 0.0125124
0.174853 0.162799 0
0.219791 0.165698 0
0.270939 0.170794 0
0.328466 0.179019 0
0.391409 0.191135 0
0.459236 0.207141 0
0.520836 0.229191 0
0.560418 0.258244 0
0.56733 0.294926 0
0.547784 0.337667 0.0950637
0.52517 0.38114 0.213703
0.520119 0.422705 0.309163
0.541253 0.460731 0.367163
0.593957 0.495567 0.382971
0.686427 0.527138 0.351492
0.816892 0.555413 0.288411
0.917678 0.58967 0.275593
0.965026 0.63418 0.319341
0.977447 0.68545 0.399878
0 0.192386 0.0696117
0 0.193057 0.0679484
0 0.193774 0.0665141
0 0.194369 0.0646372
0 0.194995 0.0626383
0 0.195941 0.0601205
0 0.197131 0.0569009
0 0.198657 0.0528573
0.00534066 0.19884 0.0509651
0.0240024 0.197635 0.0531014
0.0452277 0.196414 0.0545663
0.0688945 0.19498 0.0546273
0.0989853 0.194141 0.0530709
0.131838 0.194217 0.0464485
0.170306 0.196368 0.0294499
0.213947 0.199344 0.0145724
0.264729 0.203204 0
0.321508 0.209277 0
0.384024 0.218723 0
0.450752 0.232319 0
0.517082 0.250492 0
0.567117 0.275257 0
0.590097 0.307729 0
0.586282 0.346365 0.0596933
0.572366 0.387579 0.167849
0.572061 0.427619 0.256626
0.59675 0.4654 0.311711
0.653407 0.499748 0.324315
0.746593 0.530632 0.295506
0.858808 0.560571 0.261173
0.930175 0.598413 0.277333
0.965484 0.643519 0.330922
0.973266 0.69424 0.415076
0 0.232853 0.103593
0 0.233371 0.102174
0 0.233921 0.100908
0 0.234455 0.0994736
0 0.235096 0.0981308
0 0.235843 0.0961471
0 0.236805 0.0937972
0.00283818 0.23769 0.0900282
0.00814832 0.23917 0.0855726
0.015198 0.240803 0.0803235
0.036759 0.239506 0.0830854
0.0627298 0.237812 0.0852369
0.0946517 0.2365 0.0870527
0.129198 0.235203 0.0860456
0.166735 0.235218 0.0785382
0.209827 0.238224 0.0584268
0.25864 0.241535 0.039826
0.314687 0.246311 0.0187076
0.37644 0.253544 0
0.442588 0.264256 0
0.511223 0.278965 0
0.571649 0.299489 0
0.610986 0.326421 0
0.626612 0.360388 0.028809
0.628733 0.397726 0.115373
0.636027 0.435645 0.194858
0.665583 0.471717 0.243687
0.724941 0.505486 0.256794
0.810758 0.536507 0.244816
0.889235 0.569924 0.249775
0.938643 0.61001 0.285908
0.964157 0.655543 0.347951
0.967712 0.70454 0.433509
0 0.279026 0.143984
0 0.279484 0.14316
0.00129702 0.27985 0.142031
0.00349432 0.279988 0.140612
0.00602731 0.280461 0.139559
0.00932326 0.28101 0.138125
0.0130922 0.281773 0.136568
0.0176547 0.282704 0.134569
0.023209 0.283757 0.131563
0.0293889 0.284977 0.12752
0.0364538 0.286564 0.122271
0.0534218 0.287144 0.12105
0.0880598 0.285176 0.123873
0.126711 0.283452 0.126955
0.165881 0.282002 0.127245
0.208453 0.282475 0.121569
0.255283 0.285679 0.100801
0.308949 0.28954 0.0789502
0.369345 0.295155 0.0544289
0.434745 0.303487 0.0255589
0.503258 0.315465 0
0.570886 0.331914 0
0.625711 0.353689 0
0.661768 0.381262 0.0153201
0.684657 0.413886 0.0735485
0.705837 0.448234 0.134707
0.740749 0.482139 0.179034
0.796246 0.514748 0.201648
0.860304 0.547646 0.22179
0.908339 0.5841 0.254108
0.942229 0.624826 0.30219
0.959747 0.669551 0.369665
0.961013 0.716747 0.455634
0.0195926 0.330037 0.189014
0.0221408 0.330343 0.188251
0.0246586 0.330632 0.187472
0.0269932 0.330999 0.186908
0.029633 0.331334 0.186023
0.0328679 0.331731 0.184955
0.036286 0.332097 0.183551
0.0406806 0.332647 0.181918
0.046128 0.333486 0.180026
0.0525826 0.334524 0.177737
0.0601816 0.335744 0.17464
0.0693217 0.337087 0.169741
0.0819104 0.339635 0.163409
0.123232 0.337911 0.167727
0.165621 0.335668 0.171252
0.210132 0.333913 0.172564
0.256245 0.3346 0.167803
0.306981 0.338491 0.148302
0.364508 0.343206 0.129046
0.427863 0.349905 0.107759
0.495109 0.359487 0.0800793
0.563348 0.372641 0.0531319
0.62916 0.390127 0.0370184
0.682887 0.4121 0.0431678
0.724498 0.438727 0.07187
0.761563 0.468757 0.112367
0.801801 0.49984 0.153307
0.844236 0.531762 0.191562
0.883253 0.566186 0.229541
0.916518 0.60296 0.272663
0.94107 0.643153 0.32726
0.952483 0.686046 0.397421
0.953552 0.730968 0.481468
0.054139 0.385382 0.238178
0.0564279 0.385687 0.237873
0.058854 0.385901 0.237369
0.0612497 0.38613 0.23682
0.063859 0.386358 0.23621
0.066865 0.386725 0.235645
0.0706798 0.387091 0.23473
0.0751049 0.38764 0.233753
0.080354 0.388052 0.232151
0.0864576 0.388647 0.230411
0.0942245 0.389731 0.228275
0.104021 0.391135 0.225162
0.116014 0.393103 0.220584
0.129473 0.395682 0.21355
0.168032 0.394888 0.215991
0.214191 0.39237 0.22034
0.262592 0.391043 0.222629
0.311437 0.391989 0.217899
0.365057 0.396735 0.199359
0.42472 0.40235 0.18265
0.488792 0.410056 0.166567
0.555245 0.420722 0.148455
0.620249 0.434928 0.133471
0.683314 0.452888 0.125429
0.737118 0.474449 0.132647
0.783032 0.499641 0.154025
0.823011 0.528176 0.18526
0.858579 0.558831 0.220554
0.889433 0.591363 0.25861
0.915984 0.626886 0.304707
0.934432 0.664759 0.361257
0.94313 0.704845 0.431098
0.945861 0.746532 0.509911
0.101961 0.444572 0.291295
0.103868 0.444694 0.290883
0.105715 0.444907 0.290623
0.107576 0.445121 0.290318
0.109621 0.445289 0.289921
0.112016 0.445487 0.289433
0.115007 0.445823 0.288884
0.118715 0.446235 0.288106
0.123461 0.446708 0.286961
0.129198 0.44744 0.285679
0.135714 0.44799 0.283558
0.144488 0.449256 0.281254
0.155291 0.450965 0.27779
0.16846 0.45333 0.272816
0.183124 0.456428 0.265248
0.224887 0.455222 0.26891
0.273304 0.452552 0.273671
0.323201 0.451713 0.27602
0.373556 0.453483 0.271199
0.428489 0.459266 0.252979
0.488045 0.465644 0.239811
0.549615 0.474372 0.229053
0.612222 0.485985 0.218479
0.672267 0.500908 0.212192
0.728435 0.519158 0.212696
0.77763 0.540368 0.22211
0.819303 0.564767 0.241352
0.854994 0.59202 0.267964
0.884459 0.622126 0.303319
0.907958 0.654734 0.348058
0.924041 0.689738 0.404364
0.933272 0.726619 0.47042
0.93817 0.764553 0.542992
0.153368 0.50602 0.346761
0.154833 0.50602 0.346258
0.156298 0.506035 0.345769
0.157977 0.506203 0.345464
0.159686 0.506477 0.345281
0.161975 0.506722 0.344823
0.164813 0.507027 0.344198
0.168383 0.507393 0.343404
0.17261 0.507942 0.34258
0.178073 0.508553 0.341207
0.184588 0.509422 0.339666
0.192096 0.510231 0.33727
0.20174 0.511711 0.334462
0.213657 0.513787 0.330434
0.227665 0.516732 0.324895
0.248417 0.519158 0.31928
0.294255 0.516899 0.325368
0.34255 0.514473 0.329915
0.391821 0.51458 0.331533
0.441733 0.517433 0.326116
0.495827 0.5243 0.308095
0.552346 0.531243 0.29955
0.609247 0.540642 0.293294
0.665599 0.55285 0.28864
0.718441 0.568048 0.288563
0.766339 0.585885 0.294057
0.808377 0.606973 0.306874
0.844038 0.630549 0.327962
0.87364 0.656855 0.358892
0.896269 0.685802 0.400793
0.912673 0.717021 0.452583
0.923842 0.749584 0.512261
0.931167 0.784375 0.579919
0.212268 0.567926 0.400946
0.213657 0.567956 0.400488
0.215076 0.567987 0.400015
0.21651 0.568048 0.399573
0.218235 0.568246 0.399176
0.22031 0.568536 0.398779
0.222858 0.568902 0.398306
0.226139 0.569268 0.397543
0.230167 0.569772 0.396521
0.234928 0.570459 0.395468
0.241016 0.571252 0.39379
0.248188 0.572381 0.391821
0.256306 0.573434 0.388891
0.266682 0.575372 0.38555
0.279133 0.577996 0.380743
0.293294 0.581704 0.374243
0.331273 0.579644 0.37792
0.374578 0.577676 0.383398
0.419577 0.576242 0.386709
0.46598 0.577569 0.386877
0.51342 0.581598 0.380468
0.564477 0.58938 0.362493
0.615259 0.596582 0.359304
0.665522 0.606332 0.357
0.714336 0.618708 0.356878
0.759686 0.633677 0.360952
0.799435 0.650858 0.37142
0.834562 0.671336 0.391089
0.863081 0.693751 0.419409
0.885725 0.718715 0.457328
0.903075 0.745846 0.50425
0.91577 0.775036 0.559106
0.92546 0.804959 0.618936
0.279393 0.628443 0.450828
0.280659 0.628519 0.450355
0.281941 0.628595 0.449882
0.28333 0.628763 0.449485
0.284886 0.628977 0.449073
0.286809 0.629236 0.448569
0.289113 0.629572 0.448005
0.291829 0.630045 0.447364
0.295354 0.630549 0.446372
0.299672 0.631205 0.445106
0.304723 0.63209 0.443717
0.31107 0.633158 0.441642
0.318471 0.634607 0.439216
0.326696 0.636057 0.435691
0.337011 0.63859 0.431495
0.35082 0.641443 0.426734
0.385351 0.639307 0.431556
0.422065 0.636927 0.435798
0.460838 0.635859 0.439673
0.500557 0.63592 0.441077
0.541985 0.638407 0.439094
0.58529 0.643809 0.432242
0.630884 0.651987 0.416617
0.674907 0.659281 0.417319
0.718181 0.668986 0.419104
0.758785 0.681315 0.425223
0.795819 0.695842 0.437125
0.828183 0.712093 0.455222
0.855619 0.731334 0.482078
0.877974 0.752575 0.516869
0.896025 0.775876 0.559182
0.910414 0.800809 0.607935
0.921736 0.827237 0.661692
0.35256 0.68661 0.493812
0.353735 0.686824 0.493477
0.35494 0.687022 0.493111
0.356115 0.687236 0.492729
0.357397 0.687465 0.492302
0.358968 0.687739 0.491768
0.360922 0.688106 0.491127
0.363195 0.688548 0.49044
0.365927 0.689143 0.489525
0.369436 0.689845 0.488258
0.373632 0.69073 0.486595
0.378531 0.69189 0.48481
0.384588 0.693339 0.4822
0.391119 0.694911 0.478828
0.402441 0.696284 0.476616
0.426291 0.694759 0.480064
0.452934 0.693202 0.483726
0.481941 0.691402 0.486946
0.51339 0.690562 0.489998
0.546166 0.690898 0.491981
0.58053 0.692485 0.491798
0.616419 0.69604 0.489158
0.654505 0.70222 0.48426
0.692866 0.710338 0.475853
0.729976 0.717723 0.481346
0.765377 0.727291 0.489815
0.797986 0.739269 0.503243
0.827375 0.752682 0.521447
0.85301 0.76846 0.546548
0.874861 0.786297 0.578164
0.892866 0.805768 0.615595
0.908095 0.827176 0.658915
0.920943 0.849744 0.705974
0.430671 0.74197 0.533532
0.431601 0.742184 0.533165
0.432532 0.742397 0.532799
0.433448 0.742626 0.532448
0.43447 0.74287 0.532067
0.435721 0.74316 0.531594
0.437217 0.743526 0.530983
0.439033 0.743999 0.530221
0.441077 0.744595 0.529564
0.443793 0.745296 0.52845
0.447028 0.746212 0.527001
0.453513 0.746502 0.526726
0.464317 0.7458 0.528542
0.477211 0.744549 0.530266
0.49218 0.743511 0.53257
0.509621 0.742489 0.535241
0.529274 0.741573 0.538125
0.551156 0.740871 0.54107
0.574716 0.7402 0.543389
0.600687 0.740688 0.545724
0.627939 0.741863 0.546868
0.65716 0.744915 0.547646
0.687449 0.749264 0.547082
0.718441 0.755428 0.546151
0.75021 0.763561 0.546014
0.779934 0.770977 0.556649
0.80795 0.780423 0.57084
0.833753 0.791516 0.589059
0.856809 0.804562 0.612512
0.87718 0.819364 0.64094
0.894804 0.835874 0.674342
0.909911 0.853529 0.711162
0.923644 0.872953 0.7523
0.52459 0.789258 0.583291
0.526162 0.789136 0.583566
0.527733 0.789014 0.583841
0.52929 0.788907 0.584115
0.530983 0.788769 0.584421
0.533059 0.788617 0.584802
0.535576 0.788434 0.58526
0.538643 0.788205 0.585824
0.542168 0.787991 0.58648
0.546349 0.787762 0.587289
0.551751 0.787396 0.588281
0.558221 0.786999 0.589426
0.565316 0.786526 0.590661
0.573877 0.785855 0.591928
0.584131 0.785458 0.593759
0.596521 0.784955 0.595834
0.61033 0.784665 0.598184
0.625986 0.784573 0.600702
0.642847 0.784512 0.602853
0.662089 0.78529 0.605509
0.682857 0.786862 0.608179
0.704784 0.78909 0.610178
0.72842 0.792737 0.612787
0.75259 0.797757 0.615961
0.777478 0.804395 0.617929
0.801923 0.811383 0.625406
0.824933 0.818845 0.639597
0.846815 0.828061 0.657282
0.86714 0.838941 0.678889
0.88539 0.851041 0.7037
0.901579 0.8645 0.731899
0.91632 0.879683 0.764126
0.929412 0.895552 0.797909
0.634989 0.824704 0.652491
0.635966 0.824659 0.652705
0.636957 0.824613 0.652918
0.637934 0.824567 0.653132
0.639017 0.824521 0.653361
0.640314 0.82446 0.653635
0.641901 0.824414 0.653971
0.643839 0.824323 0.654383
0.646097 0.824262 0.654887
0.648692 0.824231 0.655512
0.65185 0.823987 0.656016
0.655711 0.823728 0.656641
0.660655 0.823621 0.657694
0.666209 0.823636 0.658991
0.673152 0.82359 0.660456
0.68098 0.823697 0.662226
0.690455 0.823835 0.664179
0.701106 0.824231 0.666407
0.712642 0.824598 0.668406
0.726024 0.825681 0.671244
0.740871 0.827298 0.674418
0.75671 0.829282 0.677455
0.773892 0.832532 0.681712
0.791836 0.836469 0.686351
0.810544 0.841718 0.69279
0.83035 0.848569 0.697078
0.848463 0.854902 0.709514
0.86598 0.862242 0.725093
0.883009 0.871061 0.743786
0.898741 0.881132 0.765118
0.912856 0.89189 0.788128
0.926268 0.904402 0.814694
0.938399 0.917525 0.84242
0.73022 0.858549 0.723873
0.73077 0.858518 0.72398
0.73135 0.858518 0.724132
0.73196 0.858534 0.7243
0.732586 0.858534 0.724453
0.733379 0.858549 0.724666
0.734356 0.858579 0.724926
0.735531 0.858595 0.725231
0.736782 0.858671 0.725658
