public/textures/grade/Fuji/Gems-FLog.cube
TITLE "Generated by Resolve"
LUT_3D_SIZE 5
0.000335698 0.0043183 0.0130617
0.0476081 0.00672923 0
0.307393 0.0492256 0
0.371115 0.371115 0.371115
0.987289 0.648234 0.344747
0 0.0486763 0.0164492
0.0383307 0.0520027 0.00213626
0.298329 0.0856031 0
0.405905 0.372168 0.335195
0.986435 0.660441 0.360815
0 0.279026 0.143984
0.023209 0.283757 0.131563
0.255283 0.285679 0.100801
0.684657 0.413886 0.0735485
0.961013 0.716747 0.455634
0.430671 0.74197 0.533532
0.441077 0.744595 0.529564
0.529274 0.741573 0.538125
0.75021 0.763561 0.546014
0.923644 0.872953 0.7523
0.993301 0.99527 0.991867
0.993606 0.995483 0.992203
0.995087 0.996521 0.993805
1 1 1
1 1 1
0 0.00347906 0.105806
0.0286259 0.0136263 0.106706
0.307942 0.0622568 0.00601205
0.435935 0.375677 0.317571
0.995911 0.651637 0.365698
0 0.053254 0.124697
0.0484779 0.0620279 0.0894484
0.297169 0.101869 0.011429
0.482292 0.374426 0.268452
0.992813 0.663905 0.382879
0.0350805 0.283055 0.19826
0.0663157 0.286976 0.190356
0.261784 0.293919 0.159197
0.723201 0.417594 0.0764324
0.963455 0.720043 0.4766
0.441947 0.743099 0.550271
0.452598 0.745525 0.546822
0.53077 0.745525 0.550134
0.752285 0.765881 0.56112
0.92517 0.874662 0.761654
0.993713 0.99559 0.992493
0.994018 0.995804 0.992813
0.995483 0.996826 0.994385
1 1 1
1 1 1
0 0.0202335 0.456275
0.0119783 0.0372625 0.454627
0.204501 0.109316 0.495918
0.834836 0.35079 0.231617
1 0.667933 0.48365
0 0.0657054 0.441672
0.0252232 0.0829023 0.43827
0.21532 0.145403 0.466178
0.827726 0.35819 0.231113
1 0.680049 0.498909
0 0.303273 0.471794
0.0379492 0.307027 0.463203
0.290288 0.324559 0.387732
0.782971 0.438056 0.276829
0.970092 0.733913 0.570916
0.495262 0.7449 0.636286
0.50605 0.746258 0.633631
0.553155 0.755535 0.622599
0.762249 0.776486 0.633936
0.930938 0.881575 0.799619
0.994873 0.997223 0.995254
0.995071 0.997452 0.995605
0.996521 0.99823 0.997482
1 1 1
1 1 1
0.114046 0.207797 0.549187
0.132494 0.221515 0.630915
0.275883 0.274601 0.841825
0.647471 0.497871 0.946548
0.929458 0.771099 0.804501
0.123186 0.2421 0.626108
0.146944 0.255512 0.702647
0.289738 0.304189 0.859693
0.648539 0.510674 0.932906
0.930022 0.776928 0.806043
0.196506 0.400046 0.836606
0.225956 0.408179 0.853986
0.360464 0.442313 0.870893
0.665263 0.579492 0.878523
0.934188 0.803769 0.816052
0.586236 0.784588 0.889006
0.598215 0.785565 0.886336
0.650065 0.790158 0.874311
0.805646 0.817105 0.837522
0.94406 0.906432 0.893248
1 1 1
1 1 1
1 1 1
1 1 1
1 1 1
0.642267 0.724987 0.98027
0.65153 0.727443 0.978134
0.690806 0.73843 0.968429
0.800961 0.783246 0.952819
0.923537 0.903685 0.949264
0.651896 0.73434 0.977798
0.660761 0.736675 0.975494
0.698238 0.747005 0.96611
0.806088 0.790509 0.949508
0.925353 0.90663 0.949889
0.696468 0.774578 0.968154
0.703593 0.776043 0.965591
0.735012 0.784924 0.956863
0.828672 0.820661 0.938643
0.933364 0.919188 0.952865
0.844968 0.890562 0.959426
0.848142 0.891356 0.958267
0.86157 0.894957 0.953613
0.904341 0.912596 0.94786
0.967086 0.963806 0.972961
1 1 1
1 1 1
1 1 1
1 1 1
1 1 1
