public/textures/grade/Fuji/Gems-FLog.cube
TITLE "Generated by Resolve"
LUT_3D_SIZE 9
0.000335698 0.0043183 0.0130617
0.010071 0.00717174 0.00924697
0.0476081 0.00672923 0
0.133425 0.0121462 0
0.307393 0.0492256 0
0.527657 0.172381 0
0.371115 0.371115 0.371115
0.505913 0.505913 0.505913
0.987289 0.648234 0.344747
0 0.017731 0.0139162
0.0108492 0.0191501 0.00869764
0.0477455 0.0203861 0
0.134371 0.0243687 0
0.305913 0.0597391 0
0.52639 0.177295 0
0.377127 0.372473 0.367437
0.510369 0.510369 0.510369
0.987381 0.652659 0.350317
0 0.0486763 0.0164492
0 0.0530861 0.00810254
0.0383307 0.0520027 0.00213626
0.126299 0.0556497 0
0.298329 0.0856031 0
0.523674 0.185824 0
0.405905 0.372168 0.335195
0.523995 0.5178 0.510872
0.986435 0.660441 0.360815
0 0.126452 0.0318456
0 0.130404 0.0237278
0.0201114 0.129656 0.0212406
0.107683 0.129992 0.00263981
0.27718 0.145083 0
0.522301 0.213748 0
0.486488 0.377371 0.252995
0.636393 0.52462 0.400504
0.980957 0.678401 0.388403
0 0.279026 0.143984
0.00602731 0.280461 0.139559
0.023209 0.283757 0.131563
0.0880598 0.285176 0.123873
0.255283 0.285679 0.100801
0.503258 0.315465 0
0.684657 0.413886 0.0735485
0.860304 0.547646 0.22179
0.961013 0.716747 0.455634
0.153368 0.50602 0.346761
0.159686 0.506477 0.345281
0.17261 0.507942 0.34258
0.20174 0.511711 0.334462
0.294255 0.516899 0.325368
0.495827 0.5243 0.308095
0.718441 0.568048 0.288563
0.87364 0.656855 0.358892
0.931167 0.784375 0.579919
0.430671 0.74197 0.533532
0.43447 0.74287 0.532067
0.441077 0.744595 0.529564
0.464317 0.7458 0.528542
0.529274 0.741573 0.538125
0.627939 0.741863 0.546868
0.75021 0.763561 0.546014
0.856809 0.804562 0.612512
0.923644 0.872953 0.7523
0.810285 0.891524 0.794278
0.811704 0.891661 0.794766
0.814099 0.891936 0.795682
0.819699 0.892546 0.797665
0.830655 0.894011 0.801678
0.851942 0.898116 0.810361
0.885008 0.90808 0.827665
0.92549 0.927733 0.861433
0.963317 0.957763 0.922454
0.993301 0.99527 0.991867
0.993408 0.995346 0.991989
0.993606 0.995483 0.992203
0.994079 0.995804 0.992691
0.995087 0.996521 0.993805
0.996155 0.998413 0.996567
1 1 1
1 1 1
1 1 1
0 0.00410468 0.0418555
0.00976577 0.00700389 0.03888
0.0312963 0.0184634 0.0314488
0.134646 0.0163577 0.00337224
0.312093 0.0493172 0
0.535653 0.170077 0
0.386694 0.374563 0.36199
0.510002 0.510002 0.510002
0.990555 0.649439 0.351873
0 0.0182956 0.0507973
0.0135653 0.0215 0.0375982
0.047303 0.0256046 0.0257877
0.133577 0.0302586 0.00329595
0.308324 0.0644694 0
0.537087 0.177081 0
0.40235 0.374075 0.344594
0.514031 0.514031 0.514031
0.990204 0.653803 0.357397
0 0.0527657 0.0469368
0.0103914 0.0528878 0.039704
0.0415351 0.0563058 0.0301823
0.128756 0.0607462 0.00463874
0.299565 0.0923171 0
0.536553 0.188449 0
0.431632 0.373449 0.312001
0.54165 0.519402 0.495186
0.988876 0.661662 0.368399
0 0.128771 0.0663767
0 0.131319 0.0592813
0.0197299 0.137057 0.0446937
0.112016 0.134844 0.0334173
0.279957 0.149966 0
0.529946 0.216632 0
0.513436 0.3785 0.230274
0.657267 0.525353 0.383215
0.982544 0.679652 0.396155
0.0115358 0.280659 0.165805
0.0224308 0.282246 0.162356
0.0403754 0.285008 0.155444
0.0879835 0.290105 0.140398
0.258061 0.288869 0.124224
0.505806 0.318837 0.0215
0.699382 0.415152 0.0720684
0.867506 0.548669 0.224262
0.961913 0.717937 0.46302
0.160891 0.507546 0.355566
0.167483 0.508324 0.354482
0.180194 0.509758 0.351797
0.209033 0.513451 0.343969
0.295262 0.520058 0.332052
0.497749 0.526589 0.316426
0.720485 0.56997 0.295155
0.875074 0.658274 0.365942
0.93193 0.78529 0.585565
0.434577 0.742458 0.539223
0.438407 0.743313 0.53785
0.44509 0.744991 0.5355
0.464088 0.747158 0.532082
0.529946 0.742992 0.542245
0.628885 0.742992 0.551751
0.750927 0.76437 0.551308
0.857572 0.805402 0.617624
0.924193 0.873579 0.755627
0.810864 0.892195 0.797101
0.812284 0.892317 0.797574
0.814694 0.892592 0.798459
0.820294 0.893187 0.800381
0.831144 0.894545 0.804257
0.852491 0.898634 0.81297
0.885542 0.908537 0.830076
0.925872 0.928115 0.863264
0.963561 0.958038 0.923476
0.993439 0.995377 0.992096
0.993561 0.995453 0.992218
0.993759 0.99559 0.992432
0.994217 0.995911 0.99292
0.995224 0.996628 0.994018
0.996277 0.998489 0.996826
1 1 1
1 1 1
1 1 1
0 0.00347906 0.105806
0.00860609 0.0080415 0.101549
0.0286259 0.0136263 0.106706
0.0938735 0.0475471 0.0807813
0.307942 0.0622568 0.00601205
0.559228 0.174319 0
0.435935 0.375677 0.317571
0.516594 0.516594 0.516594
0.995911 0.651637 0.365698
0 0.0180819 0.107759
0.0106508 0.0229038 0.101732
0.037583 0.0293584 0.0985885
0.105669 0.0553902 0.0737011
0.304189 0.0766308 0.00813306
0.557244 0.181079 0
0.452384 0.375113 0.300206
0.53109 0.519158 0.506798
0.995056 0.655665 0.37113
0 0.053254 0.124697
0.00157168 0.0570687 0.114031
0.0484779 0.0620279 0.0894484
0.128466 0.0707866 0.063386
0.297169 0.101869 0.011429
0.552621 0.192828 0
0.482292 0.374426 0.268452
0.576669 0.521385 0.464317
0.992813 0.663905 0.382879
0 0.134356 0.119875
0.0106508 0.134432 0.114549
0.0460517 0.136858 0.104295
0.115267 0.140856 0.0867475
0.282399 0.155962 0.026566
0.539925 0.221927 0
0.562951 0.378897 0.190616
0.693599 0.525505 0.354086
0.985061 0.681895 0.410803
0.0350805 0.283055 0.19826
0.0462959 0.284306 0.195377
0.0663157 0.286976 0.190356
0.106111 0.292775 0.175082
0.261784 0.293919 0.159197
0.509575 0.324056 0.0650339
0.723201 0.417594 0.0764324
0.880858 0.550729 0.230625
0.963455 0.720043 0.4766
0.17348 0.510353 0.370764
0.179843 0.511116 0.369696
0.19176 0.512078 0.36669
0.220706 0.516075 0.359808
0.296269 0.524529 0.342702
0.500923 0.530144 0.330205
0.723003 0.57258 0.30605
0.877485 0.660761 0.379126
0.933165 0.786603 0.595102
0.441947 0.743099 0.550271
0.445823 0.743908 0.548989
0.452598 0.745525 0.546822
0.466758 0.749035 0.540749
0.53077 0.745525 0.550134
0.630533 0.744976 0.560891
0.752285 0.765881 0.56112
0.858961 0.806897 0.626825
0.92517 0.874662 0.761654
0.811963 0.893431 0.801968
0.813352 0.893538 0.802441
0.815778 0.893797 0.803372
0.821378 0.894331 0.80531
0.832227 0.895613 0.80914
0.853193 0.899367 0.817319
0.886503 0.909392 0.83444
0.926574 0.928801 0.866606
0.964019 0.958526 0.925322
0.993713 0.99559 0.992493
0.99382 0.995666 0.992599
0.994018 0.995804 0.992813
0.994476 0.996109 0.993301
0.995483 0.996826 0.994385
0.996567 0.998566 0.997299
1 1 1
1 1 1
1 1 1
0 0.00541695 0.236805
0 0.0111391 0.234592
0.0331426 0.0211948 0.230671
0.0799725 0.033402 0.252369
0.241077 0.14522 0.196551
0.575463 0.186481 0.0266575
0.564843 0.369818 0.214221
0.606897 0.518547 0.440284
1 0.656138 0.399573
0 0.0210727 0.23386
0.00190738 0.026978 0.231006
0.0361486 0.0369268 0.225925
0.0889448 0.0506447 0.241596
0.248692 0.147356 0.188449
0.571054 0.193317 0.029221
0.578424 0.369085 0.200855
0.633204 0.518502 0.417258
1 0.660624 0.405951
0 0.0523842 0.23035
0.00746166 0.0581826 0.226276
0.0419776 0.0673533 0.218753
0.104143 0.0832074 0.22002
0.262974 0.14902 0.172885
0.562387 0.204929 0.0345312
0.60473 0.369238 0.176944
0.684947 0.518608 0.373083
0.999405 0.668421 0.417014
0 0.137652 0.254795
0 0.140795 0.248051
0.0320592 0.144854 0.234745
0.128679 0.152697 0.196521
0.282032 0.172229 0.149508
0.543633 0.233616 0.0496834
0.668635 0.375067 0.12459
0.802472 0.520363 0.282628
0.988922 0.686488 0.44477
0.0522316 0.289998 0.256321
0.0781262 0.29012 0.25391
0.109499 0.290867 0.249149
0.145617 0.295521 0.238544
0.266499 0.303471 0.217746
0.514839 0.333181 0.143648
0.759609 0.421469 0.111009
0.906828 0.554269 0.254597
0.966308 0.72459 0.507012
0.19556 0.514595 0.399542
0.20174 0.515267 0.398367
0.213031 0.516411 0.39585
0.241062 0.520012 0.389349
0.301381 0.531777 0.366857
0.504341 0.536019 0.358557
0.728023 0.578546 0.334539
0.881758 0.66537 0.410101
0.935821 0.790097 0.617578
0.458534 0.743526 0.576043
0.462516 0.744244 0.574975
0.46952 0.745647 0.57319
0.484688 0.749111 0.568627
0.53138 0.750973 0.568017
0.633783 0.749203 0.581994
0.755535 0.769451 0.584253
0.861784 0.809705 0.646525
0.927214 0.877028 0.774578
0.814176 0.896193 0.812421
0.815442 0.896315 0.812924
0.818021 0.896483 0.813794
0.823224 0.896696 0.815305
0.834531 0.898009 0.81944
0.855482 0.901488 0.82739
0.888502 0.911162 0.84361
0.92813 0.930312 0.873777
0.965011 0.959594 0.929335
0.994293 0.996048 0.993362
0.9944 0.996124 0.993469
0.994598 0.996262 0.993667
0.995056 0.996567 0.994141
0.995468 0.997436 0.995346
0.997131 0.998764 0.998093
1 1 1
1 1 1
1 1 1
0 0.0202335 0.456275
0 0.0264744 0.455848
0.0119783 0.0372625 0.454627
0.0884565 0.0607156 0.455131
0.204501 0.109316 0.495918
0.464561 0.312444 0.391699
0.834836 0.35079 0.231617
0.922026 0.490822 0.303105
1 0.667933 0.48365
0 0.0362249 0.450538
0 0.042649 0.44976
0.0167544 0.0535439 0.448157
0.092668 0.0769207 0.447456
0.208515 0.1234 0.485496
0.466285 0.31191 0.385275
0.832425 0.352956 0.231113
0.92903 0.493156 0.302205
1 0.672389 0.489219
0 0.0657054 0.441672
0 0.0721904 0.440604
0.0252232 0.0829023 0.43827
0.101076 0.104616 0.434852
0.21532 0.145403 0.466178
0.470863 0.310414 0.373571
0.827726 0.35819 0.231113
0.939086 0.49868 0.302785
1 0.680049 0.498909
0 0.139391 0.433768
0.0112764 0.143923 0.430747
0.0447852 0.151278 0.426505
0.119982 0.16672 0.417212
0.236103 0.19736 0.426108
0.487098 0.311055 0.350317
0.81529 0.375921 0.236896
0.947311 0.515587 0.308721
0.99202 0.697704 0.521935
0 0.303273 0.471794
0 0.304479 0.468345
0.0379492 0.307027 0.463203
0.126482 0.311757 0.447166
0.290288 0.324559 0.387732
0.517769 0.35935 0.326177
0.782971 0.438056 0.276829
0.937362 0.565332 0.350805
0.970092 0.733913 0.570916
0.204257 0.527077 0.487297
0.217441 0.527001 0.485847
0.240665 0.527077 0.483421
0.294316 0.526024 0.475792
0.354772 0.534905 0.459663
0.513542 0.54873 0.439323
0.736538 0.590372 0.41622
0.88893 0.675349 0.483436
0.940444 0.797162 0.663218
0.495262 0.7449 0.636286
0.498756 0.745205 0.635172
0.50605 0.746258 0.633631
0.52166 0.748928 0.630549
0.553155 0.755535 0.622599
0.640345 0.759106 0.628962
0.762249 0.776486 0.633936
0.867597 0.816342 0.688548
0.930938 0.881575 0.799619
0.81767 0.902144 0.831739
0.819135 0.902159 0.832212
0.82179 0.90222 0.833097
0.827375 0.902464 0.83505
0.838849 0.903136 0.838926
0.860334 0.906035 0.846967
0.892531 0.914778 0.861524
0.93109 0.933211 0.887434
0.966873 0.961608 0.936858
0.994873 0.997223 0.995254
0.994934 0.997314 0.995377
0.995071 0.997452 0.995605
0.995514 0.997681 0.996216
0.996521 0.99823 0.997482
0.998688 0.999466 0.999557
1 1 1
1 1 1
1 1 1
0 0.0774701 0.557763
0 0.0834211 0.576104
0.0143435 0.0937667 0.605509
0.072343 0.114611 0.658915
0.226688 0.165682 0.718532
0.407843 0.269184 0.783307
0.684413 0.507805 0.641611
0.975967 0.538521 0.544701
1 0.698894 0.636469
0 0.0924086 0.576852
0 0.098085 0.593347
0.0183261 0.107759 0.619364
0.0796216 0.127993 0.667247
0.230274 0.17615 0.714458
0.409506 0.27599 0.77554
0.683604 0.508843 0.637919
0.972137 0.542046 0.545098
0.998016 0.702724 0.639811
0 0.120119 0.604471
0.00393683 0.125109 0.61767
0.0256046 0.133684 0.638315
0.0916304 0.152499 0.676524
0.237308 0.196658 0.706142
0.412711 0.289219 0.761929
0.6822 0.510948 0.630884
0.965393 0.549218 0.546517
0.993378 0.709514 0.645472
0.00819409 0.181323 0.64097
0.0202029 0.18558 0.649439
0.0458076 0.192996 0.66334
0.11873 0.20972 0.683696
0.254612 0.24625 0.686152
0.422934 0.323201 0.732219
0.681071 0.517296 0.616907
0.951034 0.566461 0.551186
0.983871 0.724498 0.658778
0.054078 0.311559 0.682567
0.0726482 0.314672 0.68542
0.110536 0.320714 0.687602
0.181353 0.33283 0.680278
0.299733 0.357733 0.664164
0.458473 0.408453 0.675486
0.69543 0.539467 0.595544
0.926482 0.60853 0.568292
0.967178 0.755383 0.685222
0.180209 0.550454 0.734203
0.192981 0.551308 0.733196
0.21648 0.552102 0.729915
0.268727 0.555215 0.721386
0.371221 0.561975 0.699046
0.548547 0.57998 0.636362
0.745083 0.623911 0.602655
0.892561 0.699916 0.628077
0.944747 0.812604 0.74342
0.492256 0.765347 0.75404
0.499504 0.765316 0.753033
0.512276 0.765332 0.751278
0.540032 0.76492 0.746792
0.599176 0.764782 0.738003
0.672953 0.773007 0.725368
0.776211 0.791119 0.729366
0.877577 0.829236 0.759869
0.937133 0.890532 0.841367
0.839384 0.905577 0.871595
0.840299 0.905852 0.871672
0.841871 0.906371 0.871885
0.845502 0.907561 0.872297
0.852888 0.910201 0.873289
0.868421 0.915526 0.876829
0.900328 0.921721 0.889891
0.936812 0.938827 0.910201
0.97055 0.965713 0.949722
0.997772 0.998611 0.998734
0.997879 0.998672 0.99881
0.998093 0.998795 0.998962
0.998535 0.999084 0.999283
0.999481 0.999741 0.999985
1 1 1
1 1 1
1 1 1
1 1 1
0.114046 0.207797 0.549187
0.119417 0.212863 0.577569
0.132494 0.221515 0.630915
0.17464 0.239445 0.730251
0.275883 0.274601 0.841825
0.427482 0.331624 0.923506
0.647471 0.497871 0.946548
0.808148 0.676066 0.820874
0.929458 0.771099 0.804501
0.116991 0.219699 0.576913
0.122911 0.224765 0.605661
0.137179 0.233341 0.657969
0.180453 0.250813 0.749218
0.280842 0.284825 0.84918
0.432792 0.34107 0.923262
0.647501 0.502037 0.941848
0.807889 0.678508 0.819272
0.929641 0.773175 0.805066
0.123186 0.2421 0.626108
0.130175 0.247059 0.654383
0.146944 0.255512 0.702647
0.189715 0.271366 0.777829
0.289738 0.304189 0.859693
0.442634 0.359365 0.919646
0.648539 0.510674 0.932906
0.807279 0.682704 0.8159
0.930022 0.776928 0.806043
0.141115 0.292882 0.721004
0.150576 0.297337 0.743099
0.168872 0.304341 0.775647
0.212604 0.318791 0.824506
0.310521 0.348211 0.872312
0.465019 0.400961 0.900877
0.651896 0.531167 0.913588
0.806806 0.692775 0.809567
0.931075 0.785397 0.808591
0.196506 0.400046 0.836606
0.20705 0.403113 0.843946
0.225956 0.408179 0.853986
0.269596 0.419669 0.867811
0.360464 0.442313 0.870893
0.51516 0.487984 0.853254
0.665263 0.579492 0.878523
0.810437 0.717159 0.801999
0.934188 0.803769 0.816052
0.321599 0.581415 0.907439
0.332616 0.582681 0.904997
0.352819 0.585336 0.899855
0.395987 0.591119 0.886061
0.473823 0.603433 0.859297
0.587915 0.629191 0.829786
0.711727 0.678843 0.835462
0.835187 0.767452 0.804578
0.937316 0.842969 0.839521
0.586236 0.784588 0.889006
0.590509 0.784924 0.88806
0.598215 0.785565 0.886336
0.615244 0.78703 0.88249
0.650065 0.790158 0.874311
0.713878 0.79852 0.860059
0.805646 0.817105 0.837522
0.888762 0.852781 0.847044
0.94406 0.906432 0.893248
0.855604 0.919051 0.919631
0.856489 0.919249 0.919676
0.858213 0.919615 0.919707
0.862104 0.920394 0.919738
0.87129 0.92192 0.919783
0.890105 0.924666 0.919951
0.915587 0.93283 0.923858
0.946212 0.948013 0.938521
0.97615 0.972213 0.965728
1 1 1
1 1 1
1 1 1
1 1 1
1 1 1
1 1 1
1 1 1
1 1 1
1 1 1
0.313359 0.443015 0.933593
0.320378 0.445106 0.938811
0.334615 0.449836 0.948119
0.366796 0.459861 0.963073
0.436286 0.480827 0.976883
0.562585 0.52401 0.971542
0.678965 0.595056 1
0.811444 0.721233 0.953002
0.890303 0.837568 0.905348
0.318288 0.451514 0.939437
0.326192 0.454078 0.944762
0.340398 0.458686 0.952941
0.372229 0.468208 0.965682
0.44126 0.488975 0.976623
0.56582 0.530846 0.968719
0.680903 0.600107 0.998596
0.812116 0.724056 0.951324
0.890867 0.839292 0.905394
0.328389 0.467353 0.949004
0.335912 0.469795 0.953094
0.350027 0.474205 0.959518
0.381628 0.483314 0.969055
0.44947 0.503227 0.97528
0.570962 0.543465 0.964248
0.685161 0.609796 0.992035
0.813367 0.729442 0.948119
0.891783 0.842268 0.905333
0.351843 0.502007 0.963256
0.35964 0.504189 0.965515
0.373632 0.508171 0.968734
0.404456 0.516533 0.972442
0.469291 0.534356 0.970184
0.582696 0.570352 0.955154
0.694743 0.630701 0.978225
0.816602 0.741329 0.941634
0.894255 0.849134 0.905745
0.409522 0.571756 0.972412
0.416556 0.573495 0.971923
0.429099 0.576104 0.970367
0.457572 0.582956 0.966567
0.514534 0.597162 0.957412
0.611322 0.625574 0.940993
0.717388 0.674388 0.951553
0.824521 0.766079 0.929931
0.899947 0.863188 0.90753
0.523491 0.68545 0.968826
0.529381 0.686473 0.966796
0.540383 0.688304 0.962921
0.562676 0.692531 0.955261
0.605631 0.701183 0.940963
0.675776 0.719219 0.923384
0.767956 0.753536 0.911879
0.847166 0.814801 0.917266
0.914168 0.890913 0.915785
0.702052 0.822217 0.957885
0.704921 0.822461 0.956649
0.709941 0.822995 0.954543
0.722118 0.824643 0.949722
0.747112 0.828534 0.939513
0.789853 0.837156 0.921996
0.843244 0.855116 0.910323
0.895155 0.887251 0.922118
0.943771 0.933181 0.93991
0.900114 0.934829 0.953979
0.900679 0.934981 0.953948
0.901625 0.93521 0.953872
0.90396 0.935927 0.953857
0.909285 0.937682 0.953994
0.919631 0.941268 0.954452
0.937179 0.948623 0.956832
0.961273 0.961791 0.964294
0.98497 0.982238 0.984497
1 1 1
1 1 1
1 1 1
1 1 1
1 1 1
1 1 1
1 1 1
1 1 1
1 1 1
0.642267 0.724987 0.98027
0.64538 0.725872 0.979568
0.65153 0.727443 0.978134
0.664286 0.730694 0.97496
0.690806 0.73843 0.968429
0.738399 0.754116 0.957046
0.800961 0.783246 0.952819
0.86424 0.835782 0.953994
0.923537 0.903685 0.949264
0.645899 0.72845 0.979568
0.649149 0.72932 0.978744
0.65507 0.730831 0.977234
0.667414 0.733959 0.973999
0.693629 0.741634 0.967559
0.740154 0.756634 0.956313
0.802777 0.78584 0.951598
0.865263 0.837537 0.953536
0.924193 0.904723 0.949493
0.651896 0.73434 0.977798
0.655116 0.735149 0.976928
0.660761 0.736675 0.975494
0.673182 0.740063 0.972412
0.698238 0.747005 0.96611
0.744076 0.762005 0.954955
0.806088 0.790509 0.949508
0.866865 0.840406 0.95259
0.925353 0.90663 0.949889
0.666468 0.747845 0.974334
0.669001 0.748379 0.973495
0.674327 0.74963 0.971878
0.68603 0.752743 0.96878
0.709484 0.759197 0.962753
0.752941 0.77348 0.95227
0.813153 0.800259 0.945449
0.871015 0.847425 0.950866
0.927779 0.910613 0.950652
0.696468 0.774578 0.968154
0.698955 0.775036 0.967193
0.703593 0.776043 0.965591
0.713954 0.778851 0.962478
0.735012 0.784924 0.956863
0.772534 0.797055 0.947723
0.828672 0.820661 0.938643
0.880156 0.86186 0.94815
0.933364 0.919188 0.952865
0.754208 0.8224 0.960327
0.756298 0.822889 0.959503
0.760082 0.823789 0.958038
0.76759 0.825528 0.955077
0.783719 0.830198 0.94995
0.812451 0.839643 0.94316
0.855299 0.857755 0.93724
0.89958 0.889525 0.946578
0.945235 0.936141 0.95877
0.844968 0.890562 0.959426
0.846113 0.890837 0.958999
0.848142 0.891356 0.958267
0.852628 0.892531 0.956695
0.86157 0.894957 0.953613
0.878782 0.900832 0.949218
0.904341 0.912596 0.94786
0.935195 0.932845 0.955474
0.967086 0.963806 0.972961
0.947799 0.962417 0.977172
0.948089 0.962524 0.977172
0.948577 0.962707 0.977157
0.949767 0.963211 0.977203
0.952605 0.964477 0.977386
0.958373 0.967208 0.977905
0.968139 0.972473 0.979355
0.982254 0.982574 0.985718
0.998444 0.998383 0.998734
1 1 1
1 1 1
1 1 1
1 1 1
1 1 1
1 1 1
1 1 1
1 1 1
1 1 1
