public/textures/grade/Fuji/Guardians-FLog.cube
TITLE "Generated by Resolve"
LUT_3D_SIZE 9
0.0141146 0.020798 0.0184939
0.0508888 0.0177005 0.0111238
0.103792 0.0160372 0.00563058
0.194278 0.0163882 0
0.329625 0.0303807 0
0.501488 0.0747539 0
0.682063 0.173602 0.013962
0.834424 0.337789 0.103853
0.945739 0.546105 0.273762
0.0208286 0.0483711 0.0116426
0.0537881 0.0478981 0.00856031
0.108049 0.0467842 0.00311284
0.196811 0.0489662 0
0.329061 0.0615549 0
0.498772 0.101152 0
0.678767 0.19234 0.0174411
0.832731 0.348669 0.107836
0.945159 0.551003 0.276493
0.0339361 0.099733 0.00241093
0.0636912 0.0998856 0.0016022
0.112535 0.0996262 0
0.1991 0.101076 0
0.328145 0.110842 0
0.495125 0.143694 0
0.674159 0.22385 0.0243229
0.829389 0.36701 0.114
0.943664 0.559548 0.280812
0.0695201 0.189258 0
0.092958 0.189883 0
0.132891 0.190494 0
0.208026 0.191638 0
0.329519 0.198367 0
0.489769 0.222431 0.00552377
0.666087 0.284779 0.0398413
0.822919 0.405783 0.128725
0.940764 0.578622 0.290715
0.147341 0.325093 0.0141299
0.163012 0.325429 0.014786
0.191348 0.326268 0.0162203
0.247288 0.32752 0.0185245
0.346502 0.332219 0.0240024
0.489998 0.347143 0.0378271
0.657084 0.38883 0.0753948
0.813733 0.477256 0.160861
0.935393 0.616434 0.3122
0.285084 0.498985 0.0889906
0.293873 0.499001 0.0894789
0.310399 0.499565 0.0910353
0.344518 0.500679 0.0939193
0.411002 0.503578 0.101305
0.519081 0.511604 0.116381
0.660426 0.534783 0.151995
0.806378 0.588113 0.226276
0.929625 0.683482 0.358343
0.476692 0.684245 0.246235
0.481041 0.684367 0.246769
0.488594 0.684672 0.247852
0.505531 0.685313 0.250202
0.539818 0.686702 0.254887
0.603204 0.690394 0.265934
0.700236 0.70103 0.291981
0.816785 0.72726 0.345235
0.928557 0.78027 0.443259
0.682567 0.850202 0.465522
0.684184 0.850248 0.465782
0.687144 0.850355 0.46627
0.693553 0.85066 0.467491
0.707332 0.851087 0.469856
0.736156 0.85272 0.476051
0.786343 0.856779 0.489219
0.859861 0.867475 0.51838
0.94464 0.891524 0.576547
0.859724 0.980972 0.693324
0.860243 0.981003 0.693401
0.861173 0.981033 0.693553
0.863157 0.98117 0.69395
0.867964 0.981369 0.694881
0.878035 0.981933 0.697215
0.8981 0.983215 0.702434
0.933379 0.986816 0.714397
0.983658 0.995865 0.740307
0.0158389 0.0230564 0.058381
0.0439307 0.0230411 0.0538338
0.103258 0.0201877 0.0428016
0.19527 0.0213931 0.0326696
0.329915 0.0358129 0.0216678
0.502007 0.0800183 0.0191958
0.682139 0.177707 0.0444953
0.83447 0.340032 0.127855
0.94551 0.547021 0.288365
0.0184939 0.0533303 0.0545205
0.0439612 0.0548409 0.0529946
0.112291 0.0507973 0.03888
0.199191 0.0537118 0.0314641
0.330434 0.0665751 0.0228885
0.499596 0.105898 0.0216678
0.678798 0.195819 0.0476692
0.832364 0.35053 0.130831
0.94493 0.551904 0.290974
0.0339208 0.104219 0.0442969
0.0623484 0.104707 0.0423133
0.113741 0.103944 0.0373999
0.202457 0.105013 0.0305638
0.330312 0.115206 0.0246738
0.496239 0.14786 0.026276
0.674479 0.226993 0.0539712
0.829252 0.3691 0.137011
0.943496 0.560433 0.294896
0.0710002 0.193194 0.0360266
0.0944228 0.193591 0.0358434
0.133989 0.194308 0.0349584
0.210254 0.195499 0.0325933
0.331792 0.201785 0.0310216
0.491173 0.225711 0.0371405
0.666545 0.287663 0.0680095
0.822889 0.407599 0.15079
0.940597 0.5794 0.304524
0.148867 0.327626 0.0483406
0.164858 0.328206 0.0489662
0.192752 0.32871 0.0496529
0.24889 0.330266 0.0514839
0.347906 0.334508 0.0548714
0.491157 0.349218 0.066453
0.65742 0.39057 0.100389
0.813565 0.478264 0.180194
0.935241 0.617075 0.324895
0.28603 0.50016 0.114473
0.295171 0.500496 0.115251
0.311543 0.501091 0.116625
0.345647 0.502144 0.119265
0.411765 0.504738 0.125109
0.519997 0.512886 0.139208
0.661021 0.535897 0.17203
0.806546 0.588922 0.242374
0.929549 0.683848 0.369223
0.477256 0.684779 0.261738
0.481605 0.684901 0.262242
0.489143 0.685206 0.263249
0.505882 0.685695 0.265263
0.540261 0.68719 0.27013
0.603632 0.690822 0.280613
0.700298 0.701167 0.304677
0.816892 0.727565 0.35642
0.928512 0.780453 0.451331
0.682673 0.850278 0.47335
0.684291 0.85034 0.473564
0.687266 0.850446 0.473945
0.693675 0.850752 0.475013
0.707424 0.851194 0.477333
0.736095 0.852644 0.483177
0.786404 0.85684 0.49604
0.859892 0.867521 0.524437
0.94461 0.891539 0.581353
0.859739 0.980972 0.696269
0.860258 0.980987 0.696361
0.861189 0.981018 0.696544
0.863157 0.981155 0.697017
0.867964 0.981338 0.697963
0.878035 0.981903 0.700252
0.898116 0.983215 0.705119
0.933364 0.986786 0.717037
0.983612 0.995834 0.742443
0.0174868 0.0279698 0.131853
0.0442206 0.0286259 0.12813
0.0959793 0.0288548 0.11931
0.191653 0.0305943 0.102541
0.329366 0.0446632 0.0871901
0.501137 0.0880598 0.0790265
0.681117 0.183871 0.0962692
0.833844 0.343801 0.16788
0.945312 0.548577 0.313695
0.0217594 0.0591592 0.126314
0.0491035 0.0606241 0.123903
0.0993973 0.0613107 0.115694
0.197238 0.0619516 0.0987869
0.330419 0.0742962 0.0861372
0.499596 0.113313 0.0805524
0.67837 0.201984 0.0991531
0.832105 0.354238 0.170596
0.944289 0.55317 0.315236
0.0338445 0.110567 0.11725
0.0576333 0.112184 0.116609
0.0969711 0.114748 0.1149
0.207034 0.110689 0.092958
0.332433 0.121874 0.0856489
0.496757 0.154482 0.0831922
0.674083 0.232288 0.103883
0.82884 0.372641 0.17583
0.943114 0.561975 0.319448
0.0711833 0.198856 0.103319
0.0933852 0.199725 0.102678
0.132113 0.200458 0.100771
0.211933 0.200992 0.0943313
0.334676 0.206943 0.088365
0.492576 0.231052 0.0911421
0.666682 0.291997 0.115282
0.822431 0.41033 0.187472
0.940108 0.580591 0.328084
0.150713 0.331701 0.105699
0.166705 0.332052 0.106065
0.193881 0.332692 0.106111
0.250111 0.334295 0.105959
0.350072 0.33846 0.106996
0.493263 0.352926 0.114458
0.65832 0.393896 0.143191
0.813611 0.480598 0.214008
0.935134 0.618158 0.347341
0.287648 0.502663 0.158206
0.297032 0.502922 0.15874
0.312688 0.503258 0.159243
0.347341 0.504326 0.161547
0.413108 0.50695 0.166079
0.521096 0.514855 0.177417
0.661616 0.537392 0.205676
0.806775 0.590295 0.270008
0.929198 0.684321 0.38793
0.478126 0.685679 0.289235
0.482444 0.685802 0.289677
0.489967 0.686107 0.290578
0.506447 0.686381 0.292088
0.540719 0.687816 0.295995
0.604334 0.691569 0.305974
0.700755 0.701869 0.327749
0.81706 0.728115 0.37586
0.928435 0.780758 0.465919
0.682918 0.850462 0.486824
0.684535 0.850523 0.487068
0.687404 0.850645 0.487526
0.693889 0.850919 0.488609
0.707607 0.851347 0.490837
0.736171 0.852735 0.496208
0.786496 0.856947 0.508415
0.859907 0.867597 0.53547
0.944533 0.891585 0.590188
0.859754 0.980926 0.701869
0.860273 0.980941 0.701946
0.861204 0.980987 0.702083
0.863172 0.981109 0.702464
0.867994 0.981323 0.703273
0.87805 0.981872 0.705486
0.898116 0.983169 0.710445
0.933349 0.986755 0.721859
0.98349 0.995712 0.746731
0.0227054 0.0424811 0.258549
0.0500649 0.0437629 0.255177
0.0957809 0.0458686 0.248508
0.182605 0.0501564 0.233234
0.322545 0.0631723 0.209552
0.497444 0.104036 0.191379
0.678141 0.195819 0.194675
0.831952 0.351446 0.245045
0.94406 0.551736 0.364126
0.0302586 0.0730297 0.251011
0.0563211 0.0746471 0.248341
0.0998245 0.0767681 0.242771
0.185397 0.0805219 0.228885
0.324376 0.0912184 0.206607
0.496376 0.127962 0.190845
0.675959 0.213306 0.196109
0.830228 0.361456 0.247059
0.943282 0.556619 0.365911
0.0439307 0.122087 0.239872
0.0673533 0.123537 0.238163
0.107088 0.125612 0.234257
0.189517 0.128573 0.22266
0.328359 0.135866 0.201068
0.49514 0.167437 0.190585
0.672404 0.24271 0.198795
0.827451 0.379294 0.251072
0.941939 0.564935 0.36907
0.0753796 0.208774 0.223682
0.0946822 0.210254 0.223728
0.127123 0.212543 0.223072
0.190249 0.216861 0.22118
0.340627 0.216068 0.193622
0.493889 0.240543 0.191775
0.666056 0.300542 0.205585
0.82179 0.416434 0.259998
0.939345 0.583444 0.376272
0.152453 0.339406 0.213092
0.167483 0.340108 0.213092
0.193133 0.341085 0.21265
0.248219 0.342809 0.210727
0.352361 0.345602 0.204791
0.496925 0.359228 0.204898
0.659541 0.399756 0.224628
0.813123 0.484947 0.27982
0.934585 0.620584 0.392782
0.290394 0.506996 0.241794
0.299367 0.507301 0.242252
0.314961 0.50753 0.242435
0.348806 0.508873 0.243641
0.414237 0.511238 0.245014
0.522942 0.518791 0.251652
0.663249 0.540963 0.272831
0.806989 0.592645 0.325475
0.928847 0.685954 0.42768
0.479408 0.687251 0.343694
0.483665 0.687373 0.34403
0.491157 0.687678 0.344717
0.507912 0.688289 0.346197
0.541909 0.68957 0.349294
0.605402 0.693217 0.356756
0.701625 0.703319 0.374777
0.817151 0.728939 0.415625
0.928161 0.781369 0.495995
0.683406 0.850858 0.515877
0.685008 0.850919 0.516091
0.687556 0.850935 0.516304
0.694072 0.851041 0.516899
0.708141 0.851713 0.519112
0.736355 0.853147 0.523735
0.786725 0.857237 0.534371
0.859983 0.867796 0.558999
0.944366 0.891707 0.609216
0.859831 0.98088 0.713664
0.860349 0.980896 0.713741
0.86128 0.980941 0.713909
0.863249 0.981064 0.714321
0.86804 0.981262 0.71516
0.877913 0.981628 0.716991
0.898085 0.983063 0.721767
0.933318 0.986679 0.73254
0.983307 0.99556 0.756024
0.0434577 0.0784466 0.440513
0.0675822 0.0801709 0.437766
0.107973 0.0827344 0.432334
0.184039 0.0882124 0.420111
0.31223 0.101427 0.397406
0.486656 0.137316 0.369085
0.670817 0.220691 0.353414
0.827451 0.366369 0.375311
0.941588 0.558862 0.454948
0.0512551 0.105348 0.431815
0.0744488 0.106706 0.429343
0.112902 0.109392 0.424674
0.187106 0.11429 0.413855
0.313375 0.126162 0.393027
0.486213 0.158602 0.366506
0.669306 0.236683 0.353063
0.825635 0.375967 0.375616
0.9411 0.5635 0.456367
0.0654459 0.148684 0.418235
0.0868849 0.150271 0.416312
0.122774 0.152468 0.412695
0.192691 0.157031 0.404059
0.315084 0.166766 0.386053
0.486091 0.194202 0.36199
0.667033 0.263905 0.352804
0.823285 0.392889 0.377676
0.939712 0.571588 0.458259
0.0967727 0.228382 0.397665
0.114611 0.229603 0.396658
0.145449 0.231525 0.394888
0.20679 0.235386 0.38967
0.320851 0.242374 0.375845
0.488731 0.261555 0.355596
0.66302 0.317678 0.353231
0.818814 0.428061 0.382269
0.937362 0.58938 0.463416
0.164401 0.353597 0.378164
0.17702 0.354238 0.377813
0.199695 0.355871 0.377554
0.24567 0.359121 0.376745
0.329732 0.365667 0.375357
0.503273 0.371511 0.350256
0.660136 0.411276 0.358572
0.812009 0.493874 0.393591
0.933028 0.625528 0.474891
0.294286 0.515709 0.380423
0.302419 0.516136 0.380606
0.31725 0.516838 0.38085
0.348714 0.518013 0.38085
0.413046 0.520531 0.38027
0.525353 0.526284 0.377035
0.666239 0.547219 0.386481
0.807004 0.598001 0.423224
0.927886 0.689204 0.500252
0.481544 0.691096 0.441367
0.48574 0.691203 0.441535
0.49305 0.691508 0.441947
0.509483 0.692103 0.442756
0.543267 0.693156 0.444465
0.606302 0.696574 0.448035
0.702937 0.706065 0.458961
0.817914 0.731395 0.489525
0.927977 0.782834 0.553872
0.684352 0.851606 0.570886
0.68574 0.851713 0.571115
0.68864 0.85182 0.571405
0.695125 0.852064 0.572076
0.708736 0.852445 0.573327
0.73698 0.854063 0.577005
0.786969 0.85771 0.584726
0.860105 0.868055 0.604501
0.943954 0.891829 0.646799
0.860044 0.98085 0.738277
0.860548 0.980865 0.738338
0.861387 0.980926 0.738506
0.863447 0.981033 0.738842
0.868116 0.981247 0.739574
0.87805 0.981582 0.74107
0.89807 0.982879 0.745052
0.933288 0.986572 0.754543
0.983124 0.995468 0.775402
0.0944533 0.152529 0.648753
0.113024 0.153796 0.646204
0.144808 0.156252 0.642145
0.207736 0.161517 0.633021
0.316838 0.173678 0.615213
0.475563 0.202823 0.58735
0.657374 0.27126 0.559472
0.818067 0.398077 0.553353
0.937179 0.573953 0.590417
0.101472 0.172869 0.640833
0.119692 0.174304 0.638682
0.150546 0.176638 0.634974
0.211643 0.181552 0.626444
0.318486 0.192508 0.609918
0.475517 0.220096 0.583871
0.656382 0.284627 0.557671
0.81706 0.406348 0.553063
0.936629 0.578302 0.59089
0.114549 0.207019 0.628122
0.131518 0.20824 0.626245
0.160678 0.21062 0.623041
0.21857 0.215076 0.615839
0.321904 0.225116 0.601633
0.475502 0.249378 0.578347
0.655344 0.307958 0.555169
0.815579 0.421744 0.552987
0.935836 0.585992 0.59202
0.143389 0.272633 0.606043
0.158297 0.273777 0.604883
0.183642 0.275517 0.602518
0.23595 0.279332 0.597543
0.330617 0.287434 0.586969
0.477378 0.306737 0.568109
0.653452 0.354635 0.550378
0.812757 0.453239 0.552651
0.933486 0.602411 0.593545
0.203677 0.38201 0.577844
0.214786 0.382696 0.577234
0.234638 0.384176 0.576333
0.27599 0.386984 0.573846
0.354788 0.392828 0.568597
0.486229 0.405386 0.557183
0.655039 0.43772 0.54432
0.80856 0.512932 0.554589
0.930251 0.636179 0.599298
0.315328 0.532753 0.562249
0.322606 0.533181 0.562249
0.335042 0.533654 0.561944
0.362417 0.535546 0.56202
0.415885 0.539437 0.561975
0.508202 0.547829 0.562112
0.672587 0.560601 0.545388
0.807858 0.60972 0.565728
0.926635 0.696696 0.613352
0.488289 0.699702 0.584543
0.492119 0.69984 0.584604
0.498772 0.70016 0.584817
0.513451 0.700481 0.584817
0.545068 0.701976 0.585519
0.605768 0.704723 0.586023
0.705028 0.712764 0.586984
0.81973 0.736355 0.603021
0.927718 0.786648 0.646815
0.686244 0.854276 0.661921
0.687785 0.854322 0.661997
0.690639 0.854414 0.66212
0.696803 0.854673 0.662516
0.710506 0.855146 0.663218
0.738018 0.856352 0.664851
0.787778 0.859785 0.669047
0.860655 0.869551 0.6813
0.943969 0.893126 0.712428
0.860365 0.980957 0.783597
0.860868 0.980972 0.783642
0.861799 0.981003 0.783734
0.863905 0.981079 0.783948
0.868513 0.981308 0.784497
0.87863 0.981826 0.785733
0.898543 0.983093 0.788617
0.933288 0.986465 0.795499
0.98294 0.995438 0.812451
0.194812 0.278935 0.828656
0.207263 0.280049 0.827161
0.228534 0.281788 0.824292
0.273014 0.285786 0.818509
0.355581 0.294865 0.806592
0.485252 0.315892 0.78645
0.648661 0.364523 0.760983
0.806592 0.460746 0.742184
0.930648 0.606561 0.748425
0.200229 0.292058 0.823331
0.212329 0.293111 0.821897
0.232944 0.294743 0.819165
0.276753 0.298482 0.813642
0.357733 0.307301 0.802579
0.485664 0.327428 0.783383
0.648066 0.374044 0.758618
0.806302 0.467506 0.74165
0.930282 0.610285 0.748379
0.210269 0.314504 0.814252
0.221729 0.315511 0.813031
0.241932 0.317342 0.81088
0.283894 0.32076 0.805859
0.362295 0.328588 0.795529
0.487602 0.34757 0.778241
0.647684 0.390997 0.755505
0.805386 0.479255 0.740215
0.929656 0.616999 0.748318
0.233021 0.360616 0.797467
0.243458 0.361456 0.79649
0.26154 0.362676 0.794629
0.300038 0.365728 0.790661
0.372885 0.372686 0.782483
0.491783 0.388769 0.768017
0.647929 0.426215 0.749355
0.803815 0.504341 0.737514
0.928603 0.631113 0.748531
0.280797 0.443351 0.77174
0.28925 0.444022 0.771191
0.304311 0.44477 0.770031
0.336248 0.447105 0.767483
0.398749 0.452445 0.76199
0.504555 0.464164 0.752468
0.650507 0.492195 0.73991
0.802487 0.553582 0.733593
0.926497 0.660471 0.74905
0.371603 0.567208 0.746471
0.377462 0.56759 0.746258
0.388083 0.568276 0.745846
0.410605 0.569757 0.7449
0.45658 0.573068 0.743191
0.538598 0.58027 0.739147
0.663264 0.59675 0.733059
0.805508 0.636515 0.732158
0.925124 0.714122 0.753079
0.515511 0.716442 0.744121
0.518608 0.71664 0.744152
0.524376 0.716976 0.744183
0.537133 0.717723 0.744274
0.563622 0.719142 0.744121
0.614237 0.723003 0.744366
0.696757 0.732036 0.746639
0.825803 0.748882 0.741894
0.928512 0.796078 0.76701
0.69366 0.861051 0.779812
0.695018 0.861051 0.779797
0.697368 0.861204 0.779919
0.703227 0.861402 0.780041
0.71577 0.861967 0.780438
0.741238 0.863203 0.78117
0.789288 0.866484 0.782788
0.862959 0.874754 0.786709
0.945098 0.896757 0.804471
0.862638 0.982422 0.852903
0.863127 0.982437 0.852934
0.864042 0.982467 0.852979
0.86595 0.982574 0.853147
0.870604 0.982757 0.853407
0.880354 0.98323 0.854185
0.899931 0.984344 0.855741
0.934051 0.987427 0.85951
0.983276 0.996017 0.870665
0.352895 0.454963 0.945891
0.359411 0.455177 0.945022
0.371511 0.45623 0.943954
0.397177 0.458747 0.941131
0.447791 0.464027 0.934997
0.536812 0.476616 0.924514
0.663462 0.505333 0.909438
0.803647 0.565362 0.894621
0.92549 0.668147 0.891371
0.356451 0.461524 0.943481
0.362829 0.462165 0.942855
0.374853 0.463218 0.941573
0.399725 0.465431 0.938674
0.450385 0.47068 0.933181
0.538247 0.482826 0.92285
0.663752 0.510872 0.908064
0.803586 0.569772 0.89395
0.925353 0.670848 0.891142
0.362707 0.473686 0.939284
0.369223 0.47422 0.938613
0.380667 0.475288 0.937469
0.404944 0.477363 0.934722
0.454231 0.482383 0.929595
0.540566 0.494102 0.919982
0.664714 0.520821 0.905974
0.803769 0.57763 0.892989
0.925246 0.675593 0.890913
0.377203 0.499504 0.930632
0.383352 0.499977 0.930053
0.394064 0.500938 0.929061
0.417273 0.502922 0.927016
0.463554 0.507317 0.922225
0.546471 0.517784 0.913756
0.66688 0.542 0.901549
0.803464 0.594476 0.890486
0.924834 0.686229 0.890135
0.408865 0.550301 0.916014
0.414282 0.550637 0.915679
0.423301 0.551064 0.914763
0.443992 0.552773 0.9131
0.4851 0.556497 0.90956
0.560189 0.56492 0.903212
0.672984 0.584802 0.894087
0.804334 0.628305 0.886137
0.924285 0.708492 0.888731
0.47129 0.635111 0.896651
0.475349 0.635355 0.896406
0.48249 0.635874 0.89601
0.498299 0.637064 0.895155
0.530816 0.639475 0.89308
0.591775 0.645014 0.889509
0.688731 0.658839 0.884688
0.8094 0.689632 0.881544
0.924697 0.750851 0.887999
0.577722 0.750912 0.885435
0.580072 0.750927 0.885252
0.584329 0.751232 0.885191
0.594354 0.751812 0.884901
0.615488 0.753216 0.884367
0.656626 0.756115 0.883375
0.72665 0.76347 0.881941
0.825757 0.780957 0.882612
0.930541 0.818875 0.891356
0.720562 0.876143 0.896986
0.721736 0.876188 0.896986
0.723766 0.876173 0.896895
0.728267 0.87628 0.896864
0.738842 0.876799 0.897047
0.760311 0.877928 0.897124
0.800504 0.881346 0.898222
0.863584 0.889494 0.901656
0.949706 0.907073 0.906508
0.870512 0.987396 0.935622
0.870863 0.987396 0.935622
0.871641 0.987396 0.935607
0.873518 0.987442 0.935653
0.877653 0.98761 0.935775
0.886534 0.988022 0.936172
0.904662 0.988937 0.936889
0.937423 0.991714 0.938903
0.98555 0.999252 0.944366
0.550896 0.65066 1
0.553674 0.650965 1
0.55906 0.651438 1
0.570581 0.652461 1
0.595163 0.654978 1
0.642893 0.660731 1
0.721096 0.674327 1
0.824659 0.704585 0.996338
0.930495 0.762722 0.995407
0.552544 0.653666 1
0.555489 0.653925 1
0.56083 0.654383 1
0.572045 0.655192 1
0.596735 0.657847 1
0.643641 0.663432 1
0.721736 0.676951 1
0.824933 0.706813 0.996048
0.930526 0.764309 0.995254
0.555795 0.658625 1
0.558724 0.658854 1
0.563699 0.659373 1
0.575296 0.660456 1
0.598993 0.662806 1
0.645838 0.668482 1
0.723125 0.681559 1
0.825147 0.710552 0.99527
0.930617 0.767224 0.994995
0.563241 0.670161 1
0.565942 0.670359 1
0.571023 0.670802 1
0.582025 0.671885 1
0.605112 0.674022 1
0.650523 0.679286 1
0.725963 0.691798 0.999252
0.826535 0.719524 0.994369
0.93077 0.773388 0.994385
0.57995 0.694621 1
0.582422 0.694759 1
0.586816 0.694865 1
0.596948 0.695796 1
0.618616 0.697917 1
0.660716 0.70222 1
0.732174 0.713207 0.996033
0.829099 0.737911 0.992081
0.931472 0.787213 0.993393
0.614038 0.740246 0.997848
0.61619 0.740383 0.997711
0.620127 0.740658 0.997482
0.628382 0.741039 0.996887
0.646876 0.742626 0.996048
0.683406 0.74612 0.993988
0.747005 0.754589 0.991226
0.835966 0.774044 0.98912
0.933883 0.814633 0.992355
0.677806 0.812833 0.990768
0.679332 0.812924 0.990707
0.682139 0.813092 0.9906
0.688197 0.813565 0.990433
0.701457 0.814282 0.989746
0.729 0.816617 0.989136
0.77818 0.82179 0.987716
0.852827 0.834485 0.987716
0.940322 0.862455 0.992462
0.775479 0.905364 0.993362
0.776318 0.905409 0.993347
0.777813 0.905409 0.99324
0.781201 0.905425 0.993027
0.788937 0.905882 0.992935
0.80528 0.907027 0.992844
0.836591 0.909422 0.992737
0.88838 0.915846 0.99379
0.95761 0.93106 0.998688
0.892485 0.998779 1
0.892851 0.998795 1
0.893538 0.99881 1
0.894957 0.998917 1
0.898482 0.999039 1
0.906004 0.99939 1
0.921202 1 1
0.94934 1 1
0.992615 1 1
