public/textures/grade/Fuji/Guardians-FLog.cube
TITLE "Generated by Resolve"
LUT_3D_SIZE 33
0.0141146 0.020798 0.0184939
0.0225071 0.0201267 0.0165408
0.0351568 0.0184787 0.013077
0.0428016 0.0180972 0.0120851
0.0508888 0.0177005 0.0111238
0.0610056 0.0173495 0.0102235
0.0733806 0.0168307 0.0087892
0.0872969 0.016434 0.00729381
0.103792 0.0160372 0.00563058
0.122347 0.0156558 0.00361639
0.143603 0.0154879 0.00146487
0.167514 0.0156405 0
0.194278 0.0163882 0
0.223911 0.0179904 0
0.256367 0.0208743 0
0.291539 0.0247654 0
0.329625 0.0303807 0
0.369772 0.0375372 0
0.412039 0.0473487 0
0.456077 0.0596475 0
0.501488 0.0747539 0
0.547219 0.0935225 0
0.593057 0.116167 0
0.63827 0.142992 0.00247196
0.682063 0.173602 0.013962
0.723781 0.208988 0.0293431
0.763241 0.248096 0.0493477
0.80029 0.291127 0.0743572
0.834424 0.337789 0.103853
0.865888 0.387304 0.139071
0.89482 0.439033 0.179446
0.92137 0.492226 0.224414
0.945739 0.546105 0.273762
0.0164492 0.0266117 0.0164797
0.0242313 0.0263066 0.0152285
0.0339971 0.0255131 0.0134737
0.0432898 0.0247501 0.0118257
0.0522927 0.0243839 0.0107118
0.0628977 0.0239261 0.00944533
0.0753338 0.0235752 0.00817884
0.089189 0.0231937 0.00669871
0.105394 0.0228428 0.00491341
0.123812 0.0227359 0.00318914
0.145052 0.0228885 0.00112917
0.168826 0.0233616 0
0.195163 0.0245365 0
0.224399 0.0264134 0
0.256519 0.0290379 0
0.291691 0.033051 0
0.329366 0.0383154 0
0.369589 0.0453193 0
0.411673 0.0546731 0
0.455406 0.0666209 0
0.500999 0.0816052 0
0.546746 0.0998093 0
0.592309 0.121736 0
0.637476 0.147921 0.00323491
0.681315 0.178393 0.0149081
0.723033 0.212818 0.0302586
0.762631 0.25182 0.0502174
0.799741 0.294331 0.0751354
0.834195 0.340398 0.105028
0.865568 0.389548 0.140032
0.894484 0.440909 0.180209
0.92108 0.493767 0.225101
0.945586 0.547311 0.274434
0.0182193 0.0332647 0.014847
0.0256046 0.0331884 0.0139925
0.0340734 0.0326848 0.012726
0.0433967 0.0320745 0.0115511
0.0529183 0.0314641 0.0102235
0.0640116 0.0310369 0.00894179
0.0763561 0.0306096 0.0075227
0.0906844 0.0304265 0.00622568
0.106859 0.0303502 0.00457771
0.125246 0.0304723 0.00273136
0.145876 0.0308537 0.00062562
0.169589 0.0315099 0
0.196048 0.0327306 0
0.225071 0.0344396 0
0.256764 0.0371252 0
0.291844 0.0409705 0
0.329229 0.0460212 0
0.369421 0.0529641 0
0.411368 0.0618296 0
0.455009 0.073579 0
0.500175 0.0880598 0
0.545876 0.105791 0
0.591485 0.127367 0
0.636652 0.153124 0.00404364
0.680598 0.18291 0.0158694
0.722271 0.217014 0.0312505
0.76199 0.255161 0.0510719
0.799207 0.29752 0.0760357
0.833707 0.343099 0.105943
0.865293 0.39176 0.141054
0.894408 0.442679 0.181231
0.921004 0.495216 0.226017
0.945571 0.548455 0.275242
0.0198367 0.0402533 0.013489
0.0270542 0.0401465 0.0126497
0.0350652 0.0399481 0.0117494
0.0435492 0.0395056 0.0106355
0.0531624 0.0391241 0.00952163
0.0646372 0.0387274 0.0083772
0.0772106 0.0384222 0.00695811
0.0914015 0.0382696 0.00544747
0.107729 0.0383001 0.00390631
0.125948 0.0384527 0.00202945
0.146777 0.0388037 0.000198367
0.170321 0.0395819 0
0.196292 0.0406195 0
0.225116 0.0423743 0
0.256962 0.0449378 0
0.292042 0.0484932 0
0.329122 0.0535744 0
0.369192 0.0601511 0
0.411078 0.0689555 0
0.454536 0.0801099 0
0.499306 0.0943008 0
0.545296 0.111879 0
0.591012 0.132937 0
0.635889 0.157885 0.00483711
0.679667 0.18735 0.0164645
0.721569 0.221134 0.0322118
0.76141 0.258656 0.0520485
0.798657 0.300649 0.0769818
0.833234 0.345769 0.106844
0.864866 0.394003 0.141909
0.894102 0.444556 0.181857
0.92079 0.496712 0.226749
0.945373 0.549676 0.275822
0.0208286 0.0483711 0.0116426
0.028275 0.0484321 0.011017
0.0361486 0.048249 0.010193
0.0443732 0.0481727 0.00947585
0.0537881 0.0478981 0.00856031
0.0649882 0.0474403 0.00738537
0.0775311 0.0471504 0.00614939
0.0919661 0.046891 0.00466926
0.108049 0.0467842 0.00311284
0.126757 0.0467994 0.00146487
0.147494 0.0472572 0
0.170779 0.0479133 0
0.196811 0.0489662 0
0.225757 0.0507362 0
0.25742 0.0531014 0
0.291707 0.0567178 0
0.329061 0.0615549 0
0.368688 0.0678721 0
0.410681 0.0764935 0
0.454047 0.0871595 0
0.498772 0.101152 0
0.544411 0.118135 0
0.590112 0.138674 0
0.634958 0.163394 0.00579843
0.678767 0.19234 0.0174411
0.720882 0.225208 0.0332189
0.760739 0.262562 0.0531014
0.798093 0.303563 0.0778821
0.832731 0.348669 0.107836
0.864408 0.396445 0.14284
0.893751 0.446571 0.182589
0.920485 0.49836 0.227497
0.945159 0.551003 0.276493
0.0227359 0.0583352 0.00967422
0.0303349 0.0584115 0.0091249
0.0382239 0.0583963 0.00854505
0.0462196 0.0581521 0.0077821
0.0550698 0.057969 0.00703441
0.0655528 0.0576028 0.00602731
0.0780804 0.0573739 0.00508125
0.092607 0.0570687 0.00367742
0.108904 0.0571603 0.00238041
0.127367 0.0572061 0.000900282
0.148013 0.0574502 0
0.171221 0.0580301 0
0.197681 0.0590066 0
0.226261 0.0607309 0
0.257481 0.0629435 0
0.291905 0.0664836 0
0.329046 0.0709239 0
0.368215 0.0772412 0
0.410193 0.0852979 0
0.45359 0.0959793 0
0.498024 0.109117 0
0.543481 0.125628 0
0.589151 0.146044 0
0.634165 0.170031 0.00709545
0.677699 0.197971 0.018555
0.719905 0.230518 0.0343938
0.75996 0.267308 0.0544137
0.797375 0.307698 0.0791485
0.83212 0.35172 0.108919
0.863874 0.39942 0.143969
0.893309 0.449042 0.183627
0.920119 0.500389 0.228428
0.944884 0.552636 0.277287
0.0250553 0.0700236 0.00715648
0.0327001 0.0701305 0.00679026
0.040589 0.0701762 0.00637827
0.0483406 0.0699931 0.00584421
0.0569772 0.0698863 0.00541695
0.0672313 0.06981 0.00476081
0.0793622 0.0695048 0.00376898
0.0934615 0.069337 0.00271611
0.109834 0.0690776 0.00154116
0.128115 0.0690471 0
0.148745 0.0693217 0
0.172015 0.0699168 0
0.197742 0.0708782 0
0.226215 0.0723735 0
0.25774 0.0747082 0
0.291829 0.0777752 0
0.32871 0.0822309 0
0.368063 0.0881819 0
0.409461 0.0959029 0
0.452796 0.106157 0
0.497169 0.118761 0
0.542657 0.134844 0
0.588037 0.154437 0.000213626
0.633066 0.177676 0.00857557
0.67686 0.205127 0.0203098
0.719066 0.236912 0.0359655
0.758923 0.272602 0.0558022
0.79649 0.312703 0.0806592
0.831373 0.356008 0.110399
0.863249 0.402564 0.14522
0.892699 0.451911 0.184741
0.919661 0.502831 0.229526
0.944396 0.554376 0.278004
0.0289158 0.0838331 0.00509651
0.0366522 0.0839399 0.00479133
0.0442512 0.0838788 0.00436408
0.0515755 0.0838331 0.00392157
0.0595712 0.0838178 0.00344854
0.069337 0.0836347 0.00271611
0.0808118 0.0835431 0.00201419
0.0948501 0.0834211 0.00135805
0.110796 0.0832685 0.000259403
0.128817 0.0833143 0
0.149844 0.0834058 0
0.172656 0.0839857 0
0.198657 0.0847486 0
0.226978 0.086183 0
0.258 0.0882277 0
0.291875 0.0912337 0
0.328283 0.0954147 0
0.367514 0.100862 0
0.408713 0.108568 0
0.452018 0.117876 0
0.496315 0.13022 0
0.541543 0.145571 0
0.586709 0.164416 0.00167849
0.631785 0.186892 0.0103456
0.675547 0.213458 0.021973
0.717571 0.244373 0.0375677
0.757961 0.279423 0.0579232
0.795453 0.318273 0.0823987
0.830457 0.361212 0.1122
0.862501 0.406973 0.1467
0.89218 0.455222 0.186297
0.918914 0.505486 0.230549
0.943923 0.55668 0.279072
0.0339361 0.099733 0.00241093
0.0415198 0.0997482 0.00233463
0.0486458 0.0997482 0.00207523
0.0558328 0.0998398 0.00187686
0.0636912 0.0998856 0.0016022
0.0728923 0.0997482 0.00111391
0.0838483 0.0998398 0.000701915
0.0971084 0.0995956 0
0.112535 0.0996262 0
0.130343 0.0995041 0
0.150744 0.0998093 0
0.173938 0.100191 0
0.1991 0.101076 0
0.22739 0.102235 0
0.258228 0.104173 0
0.291859 0.10695 0
0.328145 0.110842 0
0.366995 0.115999 0
0.408026 0.122927 0
0.450568 0.132067 0
0.495125 0.143694 0
0.5402 0.15845 0
0.585275 0.176257 0.0034638
0.630365 0.198108 0.0124666
0.674159 0.22385 0.0243229
0.716381 0.253605 0.0402075
0.756344 0.287358 0.0597238
0.794186 0.325536 0.0844282
0.829389 0.36701 0.114
0.861585 0.412299 0.148745
0.891417 0.459663 0.18822
0.918578 0.509056 0.232303
0.943664 0.559548 0.280812
0.0399939 0.11812 6.10361e-05
0.0470283 0.118242 0
0.0542 0.118273 0
0.0609293 0.118135 0
0.0682231 0.118227 0
0.0770733 0.118318 0
0.0878614 0.118334 0
0.100313 0.118318 0
0.115358 0.118456 0
0.132906 0.118334 0
0.152483 0.118471 0
0.175051 0.118776 0
0.200214 0.119585 0
0.228183 0.120806 0
0.258961 0.122545 0
0.292103 0.124819 0
0.328328 0.128496 0
0.3664 0.133394 0
0.407279 0.139986 0
0.449744 0.148653 0
0.49398 0.159411 0
0.538949 0.173434 0.000106813
0.583886 0.190249 0.00614939
0.628687 0.211109 0.0151675
0.672435 0.235737 0.0271305
0.714748 0.264332 0.0428626
0.755032 0.297139 0.0629435
0.792721 0.333761 0.087068
0.828061 0.374533 0.116655
0.860502 0.418204 0.151141
0.890517 0.465034 0.19057
0.917845 0.513497 0.234363
0.94313 0.563134 0.282689
0.0479438 0.139101 0
0.0547494 0.139147 0
0.0613413 0.139284 0
0.0677348 0.139422 0
0.0746166 0.139467 0
0.0829633 0.139422 0
0.0930495 0.139528 0
0.104921 0.139513 0
0.119127 0.13959 0
0.136095 0.139742 0
0.155322 0.139879 0
0.177142 0.14023 0
0.201755 0.140764 0
0.22916 0.141695 0
0.259403 0.143435 0
0.292332 0.145708 0
0.327947 0.14902 0
0.366201 0.153552 0
0.406348 0.159625 0
0.448493 0.167391 0
0.492271 0.177661 0
0.537026 0.190524 0.00256352
0.582025 0.206806 0.00910964
0.626764 0.226398 0.0182803
0.670619 0.249638 0.0305028
0.712795 0.277058 0.0462959
0.753246 0.308446 0.0663767
0.791302 0.343999 0.0908217
0.826566 0.383032 0.119783
0.85919 0.425879 0.154223
0.889464 0.471015 0.193179
0.916899 0.5187 0.236774
0.942458 0.567498 0.284932
0.0576791 0.16286 0
0.0639658 0.162783 0
0.070222 0.162936 0
0.0763409 0.163088 0
0.0828412 0.163272 0
0.0905318 0.163333 0
0.100145 0.163409 0
0.111574 0.163592 0
0.124819 0.163577 0
0.14078 0.163745 0
0.159121 0.163821 0
0.180362 0.16434 0
0.204181 0.16492 0
0.231205 0.165789 0
0.260533 0.167224 0
0.293111 0.169177 0
0.328481 0.172198 0
0.365789 0.176577 0
0.405539 0.181842 0
0.447913 0.189212 0
0.491081 0.198688 0.0016022
0.535134 0.210834 0.00621042
0.580301 0.225666 0.0130617
0.624613 0.2439 0.0222477
0.668421 0.266011 0.0348058
0.710857 0.291859 0.0505379
0.751141 0.321859 0.0705272
0.789425 0.355779 0.0947585
0.824979 0.393637 0.123903
0.85771 0.434577 0.15758
0.888273 0.478737 0.196567
0.915984 0.524773 0.239948
0.941665 0.572305 0.287282
0.0695201 0.189258 0
0.0753033 0.189441 0
0.0809796 0.189624 0
0.0868391 0.189731 0
0.092958 0.189883 0
0.100404 0.190036 0
0.109224 0.190005 0
0.120043 0.190219 0
0.132891 0.190494 0
0.147829 0.190539 0
0.165072 0.191012 0
0.185077 0.191241 0
0.208026 0.191638 0
0.234287 0.19266 0
0.262806 0.194049 0
0.294957 0.195819 0
0.329519 0.198367 0
0.366217 0.201984 0
0.40557 0.207111 0
0.446632 0.213794 0.00202945
0.489769 0.222431 0.00552377
0.533684 0.233402 0.0108034
0.577829 0.247333 0.017731
0.622614 0.264302 0.0273899
0.666087 0.284779 0.0398413
0.708461 0.309209 0.0558175
0.748974 0.337469 0.0756237
0.787228 0.369696 0.0998703
0.822919 0.405783 0.128725
0.85626 0.445304 0.162448
0.886763 0.48748 0.200595
0.915084 0.532357 0.244053
0.940764 0.578622 0.290715
0.0842145 0.218921 0
0.0896162 0.219074 0
0.09514 0.219165 0
0.100282 0.219348 0
0.10602 0.219409 0
0.112581 0.219409 0
0.120867 0.219608 0
0.130907 0.219837 0
0.142763 0.220142 0
0.156558 0.220264 0
0.173114 0.220722 0
0.192294 0.220935 0
0.214282 0.221653 0
0.238682 0.2224 0
0.266606 0.223392 0
0.297292 0.225086 0.000259403
0.331044 0.227466 0.0011902
0.367117 0.230793 0.00242618
0.405814 0.235279 0.0043183
0.446448 0.241154 0.00691234
0.488548 0.24918 0.0109712
0.532067 0.259052 0.0163577
0.575921 0.271778 0.0234989
0.619898 0.287419 0.033463
0.663584 0.306493 0.0462959
0.706111 0.32929 0.0623789
0.746532 0.355596 0.0820325
0.784726 0.385962 0.105989
0.820722 0.420035 0.134585
0.854337 0.457588 0.167865
0.885374 0.498268 0.205814
0.913481 0.541131 0.24802
0.939696 0.585672 0.294713
0.10161 0.251667 0.00077821
0.106813 0.251759 0.000900282
0.111727 0.251896 0.00112917
0.116548 0.251698 0.00106813
0.121752 0.251835 0.00131228
0.128069 0.252003 0.00149538
0.135714 0.252186 0.00170901
0.144808 0.252445 0.00198367
0.155535 0.252445 0.00199893
0.168643 0.252781 0.00233463
0.183658 0.2533 0.00280766
0.201511 0.253559 0.00294499
0.222126 0.254353 0.00340276
0.245731 0.254948 0.00404364
0.272068 0.255924 0.00450141
0.301427 0.257343 0.00500496
0.334127 0.259678 0.00656138
0.369162 0.262745 0.0080415
0.406699 0.266407 0.0102998
0.446601 0.271702 0.0135653
0.488319 0.278889 0.0180056
0.530785 0.287846 0.0236057
0.57435 0.299138 0.0310063
0.617853 0.313512 0.0411994
0.660945 0.330861 0.0537881
0.703212 0.351812 0.0701305
0.743832 0.376532 0.0899062
0.782223 0.404669 0.113481
0.818479 0.436576 0.141741
0.852201 0.471992 0.174319
0.883528 0.510536 0.211841
0.912001 0.551492 0.25362
0.938613 0.594553 0.299596
0.122469 0.286885 0.00579843
0.127001 0.287037 0.0059968
0.131365 0.287205 0.00622568
0.135897 0.287312 0.00637827
0.14052 0.28748 0.00660716
0.146471 0.287602 0.00680552
0.153353 0.2878 0.00706493
0.161364 0.2878 0.00717174
0.171511 0.288029 0.00772107
0.183642 0.288304 0.00817884
0.197421 0.288441 0.00840772
0.214023 0.288975 0.00892653
0.233112 0.289723 0.00959792
0.254917 0.290379 0.0102235
0.279728 0.291325 0.0110323
0.308217 0.29279 0.0125124
0.339086 0.294575 0.0138094
0.372824 0.297093 0.0158694
0.409094 0.300725 0.0184939
0.447974 0.305455 0.0220951
0.48838 0.31133 0.0264439
0.530282 0.319631 0.032517
0.572854 0.329778 0.040528
0.616403 0.342763 0.0507515
0.658976 0.358572 0.0637522
0.700694 0.377371 0.0795148
0.741146 0.399802 0.0991531
0.779797 0.426062 0.122789
0.816052 0.455619 0.150347
0.850172 0.488624 0.182483
0.881407 0.524926 0.219013
0.910491 0.563882 0.260304
0.937041 0.604623 0.305318
0.147341 0.325093 0.0141299
0.151186 0.325292 0.0144045
0.155261 0.325399 0.0146181
0.159075 0.325353 0.0146334
0.163012 0.325429 0.014786
0.168322 0.325567 0.0150454
0.174502 0.325795 0.0153964
0.182315 0.325963 0.0157473
0.191348 0.326268 0.0162203
0.201755 0.326345 0.0164645
0.214649 0.326726 0.0171511
0.230167 0.327108 0.0179141
0.247288 0.32752 0.0185245
0.267857 0.328313 0.0195773
0.290944 0.329122 0.0205844
0.317296 0.330648 0.022034
0.346502 0.332219 0.0240024
0.378576 0.334417 0.0258946
0.413108 0.337499 0.0287938
0.450507 0.34165 0.0326848
0.489998 0.347143 0.0378271
0.530571 0.353948 0.0438087
0.572549 0.363226 0.0519112
0.614557 0.374563 0.0621958
0.657084 0.38883 0.0753948
0.698589 0.405936 0.091249
0.738643 0.426093 0.110491
0.777173 0.449821 0.133577
0.813733 0.477256 0.160861
0.847745 0.507774 0.19234
0.879423 0.541466 0.228321
0.908644 0.577981 0.268406
0.935393 0.616434 0.3122
0.175448 0.365637 0.0259556
0.17911 0.365728 0.0261692
0.182742 0.365835 0.0263218
0.186114 0.366003 0.0265507
0.189883 0.36614 0.0267338
0.194583 0.366278 0.0269627
0.199863 0.366415 0.0272374
0.206546 0.366415 0.0274052
0.214618 0.366705 0.0279393
0.224323 0.367041 0.0285496
0.235843 0.367453 0.0292668
0.249104 0.367651 0.0297856
0.265446 0.368154 0.0309453
0.284001 0.368704 0.0320897
0.305318 0.369558 0.0332189
0.329595 0.370703 0.0348821
0.356817 0.37232 0.0370336
0.387213 0.374182 0.0394751
0.419959 0.376837 0.042649
0.455177 0.380453 0.0463874
0.493034 0.385199 0.0515602
0.532647 0.391424 0.0584115
0.573205 0.399313 0.0664073
0.614481 0.409293 0.0765393
0.655604 0.421668 0.08925
0.696712 0.437095 0.105348
0.736568 0.455314 0.12401
0.774716 0.476356 0.14638
0.811246 0.501198 0.173098
0.845151 0.52903 0.203815
0.877241 0.560433 0.238956
0.906981 0.594217 0.278172
0.933974 0.63006 0.321126
0.207874 0.408316 0.0419318
0.211093 0.408392 0.0421454
0.213962 0.40856 0.0424201
0.217105 0.408637 0.0426337
0.220508 0.408728 0.0428626
0.224567 0.408881 0.0431678
0.229328 0.409079 0.0435645
0.235401 0.409277 0.0439765
0.242329 0.409522 0.04448
0.250599 0.409598 0.0448005
0.261189 0.409918 0.0453346
0.273381 0.410376 0.0462501
0.287251 0.410849 0.0471962
0.304082 0.411353 0.0484627
0.323903 0.412131 0.0501259
0.345632 0.413016 0.0516213
0.370901 0.414557 0.0538796
0.398688 0.416236 0.0564584
0.429801 0.418402 0.0597238
0.462943 0.4215 0.0639811
0.498436 0.425605 0.068986
0.536263 0.43093 0.0756542
0.575555 0.437842 0.0839857
0.615595 0.446525 0.0941939
0.65568 0.457328 0.106584
0.695674 0.470527 0.121813
0.734981 0.486915 0.140703
0.772534 0.505791 0.162203
0.808759 0.527825 0.187961
0.843153 0.553231 0.21767
0.875074 0.581308 0.251514
0.904784 0.612375 0.289219
0.932326 0.645884 0.331258
0.244297 0.45301 0.0628367
0.246906 0.452949 0.0628824
0.249653 0.453025 0.0630961
0.252369 0.453086 0.0632944
0.25507 0.453223 0.0635843
0.25861 0.453346 0.0638895
0.262959 0.453468 0.06421
0.267918 0.453712 0.0647288
0.274281 0.45391 0.0652323
0.281636 0.454246 0.0659342
0.290517 0.454231 0.0663157
0.301228 0.454643 0.0671855
0.31397 0.455177 0.0681621
0.328878 0.455833 0.0695506
0.345892 0.456275 0.071107
0.366232 0.457221 0.073106
0.38854 0.458259 0.0750591
0.414298 0.459983 0.0778973
0.442527 0.461921 0.0811627
0.47393 0.464378 0.0852979
0.507088 0.467887 0.090547
0.542535 0.472419 0.0970016
0.579767 0.478325 0.10515
0.61828 0.485832 0.115251
0.657221 0.495048 0.127352
0.695766 0.506722 0.142214
0.734325 0.520546 0.159823
0.771466 0.537346 0.180774
0.80705 0.556893 0.205325
0.841245 0.579461 0.234058
0.873411 0.605035 0.266941
0.903166 0.633021 0.303181
0.930907 0.66363 0.343648
0.285084 0.498985 0.0889906
0.287144 0.498985 0.0890974
0.289143 0.498955 0.0891737
0.291356 0.498924 0.0892653
0.293873 0.499001 0.0894789
0.296941 0.499077 0.0897383
0.300359 0.499275 0.090135
0.304906 0.499397 0.090547
0.310399 0.499565 0.0910353
0.316686 0.49987 0.091722
0.324468 0.500175 0.0925002
0.333608 0.500343 0.0931258
0.344518 0.500679 0.0939193
0.357626 0.501259 0.0952926
0.373098 0.501915 0.0970932
0.390692 0.502403 0.0988327
0.411002 0.503578 0.101305
0.433646 0.504768 0.10367
0.459556 0.506691 0.107301
0.487846 0.508843 0.111284
0.519081 0.511604 0.116381
0.551934 0.51548 0.122454
0.586969 0.520363 0.130587
0.623117 0.526772 0.140093
0.660426 0.534783 0.151995
0.697795 0.544427 0.165698
0.734936 0.556695 0.18294
0.771267 0.571054 0.20296
0.806378 0.588113 0.226276
0.840131 0.607889 0.253712
0.871885 0.63061 0.284398
0.901442 0.655695 0.319295
0.929625 0.683482 0.358343
0.328954 0.545632 0.120562
0.330861 0.545647 0.120699
0.332677 0.545571 0.120745
0.334295 0.545586 0.120836
0.336202 0.545602 0.120943
0.338796 0.545678 0.121141
0.34197 0.545769 0.121386
0.345815 0.545876 0.121675
0.350164 0.546105 0.122179
0.355795 0.546273 0.122744
0.362249 0.546578 0.123507
0.370382 0.546868 0.124361
0.379492 0.547051 0.125154
0.390631 0.547448 0.126375
0.404135 0.547982 0.128145
0.419745 0.54873 0.130144
0.437369 0.549355 0.132067
0.45774 0.550683 0.134722
0.480385 0.551995 0.137835
0.506142 0.554086 0.142153
0.534279 0.556405 0.146838
0.564828 0.559472 0.152941
0.596963 0.563653 0.160113
0.631037 0.568902 0.169238
0.665919 0.575692 0.180148
0.701656 0.584085 0.193729
0.737057 0.594156 0.209506
0.772473 0.606668 0.228611
0.806592 0.621317 0.250706
0.839429 0.638514 0.276051
0.870985 0.658228 0.305592
0.900786 0.680537 0.338796
0.928512 0.705165 0.37528
0.375952 0.592447 0.157305
0.377462 0.592401 0.157351
0.378973 0.592355 0.157412
0.380468 0.592309 0.157458
0.382193 0.59234 0.15761
0.384024 0.592477 0.157931
0.386648 0.592554 0.158206
0.389853 0.592645 0.158541
0.393744 0.592752 0.158953
0.398138 0.592981 0.159548
0.403845 0.593164 0.160189
0.410391 0.593469 0.161059
0.418708 0.593729 0.162097
0.427909 0.593774 0.163027
0.439231 0.594308 0.164553
0.452583 0.59498 0.166079
0.467903 0.595636 0.168032
0.485649 0.596521 0.170489
0.505821 0.59794 0.173831
0.528206 0.599374 0.177356
0.553368 0.601511 0.181933
0.58114 0.604059 0.18793
0.610574 0.607416 0.194553
0.641749 0.611826 0.202792
0.674449 0.617365 0.213214
0.707988 0.624292 0.225742
0.741588 0.632959 0.240345
0.775051 0.643366 0.257725
0.808301 0.655833 0.278401
0.840345 0.670634 0.302312
0.871168 0.687587 0.32958
0.900359 0.707118 0.360616
0.927611 0.728618 0.394919
0.425254 0.638651 0.199329
0.426566 0.638666 0.199451
0.427893 0.638697 0.199619
0.429221 0.638727 0.199786
0.430655 0.638758 0.199969
0.432441 0.638804 0.200183
0.43447 0.638895 0.200488
0.436957 0.639002 0.200809
0.440192 0.639094 0.201144
0.444129 0.6392 0.201541
0.448524 0.639445 0.202136
0.454215 0.639628 0.202823
0.460731 0.639948 0.203754
0.468696 0.640055 0.204562
0.477928 0.640375 0.205737
0.489113 0.64094 0.207385
0.502281 0.641627 0.209384
0.517235 0.642176 0.211398
0.53489 0.643305 0.214099
0.554314 0.644511 0.217395
0.576455 0.646342 0.221836
0.6009 0.64828 0.226963
0.627665 0.651286 0.233509
0.655741 0.654887 0.241001
0.685939 0.659312 0.250614
0.716793 0.665125 0.261692
0.748501 0.67219 0.275227
0.779889 0.68069 0.291112
0.81149 0.691417 0.309804
0.84213 0.703655 0.331609
0.872099 0.718135 0.356939
0.900526 0.734813 0.385306
0.927718 0.753841 0.417578
0.476692 0.684245 0.246235
0.47776 0.684276 0.246372
0.478828 0.684306 0.246494
0.479881 0.684337 0.246632
0.481041 0.684367 0.246769
0.48246 0.684398 0.246952
0.484184 0.684459 0.247166
0.486213 0.68455 0.247456
0.488594 0.684672 0.247852
0.491753 0.684779 0.248264
0.495598 0.684886 0.248753
0.499931 0.68513 0.249454
0.505531 0.685313 0.250202
0.511772 0.685466 0.250996
0.519631 0.685618 0.251789
0.528878 0.686107 0.253101
0.539818 0.686702 0.254887
0.552605 0.687358 0.256992
0.567254 0.688014 0.259297
0.584314 0.689189 0.262562
0.603204 0.690394 0.265934
0.624765 0.692271 0.270985
0.647898 0.694392 0.276509
0.673136 0.697169 0.282994
0.700236 0.70103 0.291981
0.728573 0.705791 0.302022
0.757809 0.711589 0.314
0.786908 0.718486 0.327947
0.816785 0.72726 0.345235
0.846189 0.737835 0.36527
0.874815 0.749828 0.387961
0.902403 0.764065 0.414054
0.928557 0.78027 0.443259
0.528862 0.728618 0.297078
0.529717 0.728649 0.2972
0.530556 0.728664 0.297307
0.531395 0.728695 0.297414
0.532311 0.72871 0.297536
0.53344 0.72874 0.297688
0.534829 0.728786 0.297887
0.536522 0.728832 0.2981
0.538445 0.728939 0.298436
0.540841 0.729061 0.298833
0.543908 0.729152 0.29926
0.547646 0.729274 0.299779
0.551827 0.729473 0.300481
0.556954 0.729381 0.300893
0.563195 0.729702 0.301961
0.571008 0.730007 0.303166
0.57995 0.730495 0.304723
0.590555 0.731106 0.306416
0.602609 0.731548 0.308263
0.617105 0.732448 0.311223
0.633188 0.733532 0.314687
0.651514 0.734874 0.318654
0.67187 0.736843 0.323537
0.693828 0.739055 0.329473
0.71783 0.741833 0.336599
0.742962 0.745586 0.345647
0.769268 0.750362 0.356207
0.796597 0.756146 0.368948
0.82414 0.763256 0.383917
0.851789 0.771969 0.401846
0.878798 0.781964 0.422141
0.90515 0.793774 0.445594
0.930816 0.807797 0.472465
0.581079 0.771282 0.351202
0.581735 0.771313 0.351308
0.582406 0.771328 0.351385
0.583062 0.771344 0.351492
0.583795 0.771359 0.351598
0.58468 0.771389 0.35172
0.585763 0.77142 0.351873
0.587106 0.771466 0.352071
0.588739 0.771511 0.352316
0.590448 0.771649 0.352697
0.592798 0.771664 0.352956
0.595575 0.771588 0.35317
0.599084 0.771634 0.353643
0.603159 0.771862 0.354406
0.608438 0.772045 0.355276
0.614511 0.772351 0.356451
0.622095 0.772641 0.357809
0.630686 0.773129 0.359457
0.640467 0.773434 0.361059
0.652308 0.774227 0.363226
0.665995 0.775189 0.366201
0.680964 0.776165 0.369497
0.698451 0.777707 0.373922
0.717327 0.779416 0.378653
0.738384 0.781826 0.385397
0.760479 0.784802 0.392798
0.784146 0.788525 0.402106
0.808759 0.79321 0.413245
0.833844 0.798962 0.426169
0.859464 0.80592 0.441718
0.884718 0.81416 0.459785
0.909667 0.82414 0.480507
0.934035 0.835508 0.504463
0.632563 0.811734 0.407691
0.633051 0.811719 0.407736
0.633524 0.811704 0.407767
0.634012 0.811688 0.407813
0.634546 0.811688 0.407858
0.635248 0.811719 0.407965
0.636088 0.811734 0.408103
0.637125 0.811765 0.408255
0.638407 0.81181 0.408453
