public/textures/grade/Fuji/Guardians-FLog.cube
TITLE "Generated by Resolve"
LUT_3D_SIZE 5
0.0141146 0.020798 0.0184939
0.103792 0.0160372 0.00563058
0.329625 0.0303807 0
0.682063 0.173602 0.013962
0.945739 0.546105 0.273762
0.0339361 0.099733 0.00241093
0.112535 0.0996262 0
0.328145 0.110842 0
0.674159 0.22385 0.0243229
0.943664 0.559548 0.280812
0.147341 0.325093 0.0141299
0.191348 0.326268 0.0162203
0.346502 0.332219 0.0240024
0.657084 0.38883 0.0753948
0.935393 0.616434 0.3122
0.476692 0.684245 0.246235
0.488594 0.684672 0.247852
0.539818 0.686702 0.254887
0.700236 0.70103 0.291981
0.928557 0.78027 0.443259
0.859724 0.980972 0.693324
0.861173 0.981033 0.693553
0.867964 0.981369 0.694881
0.8981 0.983215 0.702434
0.983658 0.995865 0.740307
0.0174868 0.0279698 0.131853
0.0959793 0.0288548 0.11931
0.329366 0.0446632 0.0871901
0.681117 0.183871 0.0962692
0.945312 0.548577 0.313695
0.0338445 0.110567 0.11725
0.0969711 0.114748 0.1149
0.332433 0.121874 0.0856489
0.674083 0.232288 0.103883
0.943114 0.561975 0.319448
0.150713 0.331701 0.105699
0.193881 0.332692 0.106111
0.350072 0.33846 0.106996
0.65832 0.393896 0.143191
0.935134 0.618158 0.347341
0.478126 0.685679 0.289235
0.489967 0.686107 0.290578
0.540719 0.687816 0.295995
0.700755 0.701869 0.327749
0.928435 0.780758 0.465919
0.859754 0.980926 0.701869
0.861204 0.980987 0.702083
0.867994 0.981323 0.703273
0.898116 0.983169 0.710445
0.98349 0.995712 0.746731
0.0434577 0.0784466 0.440513
0.107973 0.0827344 0.432334
0.31223 0.101427 0.397406
0.670817 0.220691 0.353414
0.941588 0.558862 0.454948
0.0654459 0.148684 0.418235
0.122774 0.152468 0.412695
0.315084 0.166766 0.386053
0.667033 0.263905 0.352804
0.939712 0.571588 0.458259
0.164401 0.353597 0.378164
0.199695 0.355871 0.377554
0.329732 0.365667 0.375357
0.660136 0.411276 0.358572
0.933028 0.625528 0.474891
0.481544 0.691096 0.441367
0.49305 0.691508 0.441947
0.543267 0.693156 0.444465
0.702937 0.706065 0.458961
0.927977 0.782834 0.553872
0.860044 0.98085 0.738277
0.861387 0.980926 0.738506
0.868116 0.981247 0.739574
0.89807 0.982879 0.745052
0.983124 0.995468 0.775402
0.194812 0.278935 0.828656
0.228534 0.281788 0.824292
0.355581 0.294865 0.806592
0.648661 0.364523 0.760983
0.930648 0.606561 0.748425
0.210269 0.314504 0.814252
0.241932 0.317342 0.81088
0.362295 0.328588 0.795529
0.647684 0.390997 0.755505
0.929656 0.616999 0.748318
0.280797 0.443351 0.77174
0.304311 0.44477 0.770031
0.398749 0.452445 0.76199
0.650507 0.492195 0.73991
0.926497 0.660471 0.74905
0.515511 0.716442 0.744121
0.524376 0.716976 0.744183
0.563622 0.719142 0.744121
0.696757 0.732036 0.746639
0.928512 0.796078 0.76701
0.862638 0.982422 0.852903
0.864042 0.982467 0.852979
0.870604 0.982757 0.853407
0.899931 0.984344 0.855741
0.983276 0.996017 0.870665
0.550896 0.65066 1
0.55906 0.651438 1
0.595163 0.654978 1
0.721096 0.674327 1
0.930495 0.762722 0.995407
0.555795 0.658625 1
0.563699 0.659373 1
0.598993 0.662806 1
0.723125 0.681559 1
0.930617 0.767224 0.994995
0.57995 0.694621 1
0.586816 0.694865 1
0.618616 0.697917 1
0.732174 0.713207 0.996033
0.931472 0.787213 0.993393
0.677806 0.812833 0.990768
0.682139 0.813092 0.9906
0.701457 0.814282 0.989746
0.77818 0.82179 0.987716
0.940322 0.862455 0.992462
0.892485 0.998779 1
0.893538 0.99881 1
0.898482 0.999039 1
0.921202 1 1
0.992615 1 1
