public/textures/grade/Fuji/Licorice-FLog.cube
TITLE "Generated by Resolve"
LUT_3D_SIZE 33
0 0 0.0552071
0 0 0.0539559
0 0 0.0527504
0 0 0.0513771
0 0 0.0496986
0 0.000442512 0.047776
0.00688182 0.0018616 0.0454261
0.0214389 0.00137331 0.0451209
0.0389868 0.000762951 0.0451972
0.0597086 0.000137331 0.0458686
0.085069 0 0.0470893
0.115282 0 0.0484321
0.151995 0 0.0500038
0.196246 0 0.0507362
0.248692 0 0.0492103
0.308186 0 0.045243
0.370245 0 0.0416419
0.433097 0 0.0371405
0.495781 0.00427253 0.0349432
0.558587 0.0125887 0.0335393
0.623423 0.0231479 0.0337072
0.688685 0.0371862 0.035111
0.753399 0.0550088 0.0377203
0.816754 0.0773175 0.0419471
0.878981 0.107866 0.0486152
0.938247 0.142763 0.0579538
0.995392 0.182391 0.0706035
1 0.226078 0.0863203
1 0.273548 0.103532
1 0.324163 0.125216
1 0.377264 0.150149
1 0.432181 0.179263
1 0.488045 0.211978
0 0.00518807 0.0538338
0 0.00563058 0.0527504
0 0.00587472 0.0517128
0 0.00621042 0.0505684
0 0.00650034 0.0491646
0 0.00740063 0.0475166
0.00894179 0.00851453 0.0454108
0.0231937 0.00900282 0.0447242
0.0404364 0.0087129 0.0449073
0.0607767 0.00823987 0.045594
0.0852674 0.00762951 0.0467689
0.11545 0.00683604 0.0486152
0.15169 0.00570687 0.0504158
0.195377 0.00428779 0.0513924
0.247044 0.00292973 0.0502327
0.306722 0.00154116 0.0461738
0.369253 0.00230411 0.0426642
0.432013 0.00587472 0.038468
0.494957 0.0124819 0.035935
0.557946 0.0195315 0.034699
0.622415 0.0296178 0.0346532
0.687526 0.0432441 0.0359197
0.752529 0.0604868 0.0384985
0.816266 0.0835279 0.0428931
0.87837 0.113207 0.0495003
0.937392 0.147524 0.0587625
0.994186 0.186145 0.0712749
1 0.229465 0.0872663
1 0.276539 0.104356
1 0.32668 0.125933
1 0.379324 0.150866
1 0.43386 0.179919
1 0.489387 0.212543
0 0.0126497 0.0525826
0 0.0130465 0.0514534
0 0.0135195 0.0504616
0 0.0139773 0.049546
0 0.014435 0.0482795
0 0.015259 0.0468605
0.0108949 0.0161593 0.0452583
0.0239567 0.0171817 0.0438544
0.0409247 0.0171969 0.0442054
0.0606394 0.0172122 0.0449836
0.0851453 0.0170443 0.0467231
0.115251 0.0163577 0.0487831
0.150927 0.0152743 0.0507362
0.19411 0.0142214 0.052018
0.245716 0.0125429 0.0511177
0.305226 0.0111086 0.0470588
0.367117 0.0118715 0.0425422
0.43064 0.0148623 0.039292
0.493935 0.0195926 0.0370336
0.557229 0.0263828 0.0358129
0.621851 0.0362097 0.0356756
0.686671 0.0494087 0.0368353
0.751659 0.0660258 0.039292
0.815457 0.0895247 0.0437324
0.877058 0.118212 0.0501411
0.93695 0.152087 0.0597238
0.993393 0.190234 0.0721447
1 0.232578 0.087953
1 0.279423 0.105272
1 0.329168 0.12668
1 0.381384 0.151598
1 0.435538 0.180575
1 0.490669 0.213062
0 0.0208591 0.051194
0 0.0215152 0.0502022
0 0.0220798 0.0492409
0 0.0224918 0.0480964
0 0.0231022 0.046952
0.00149538 0.0235447 0.045716
0.0122683 0.0244602 0.0447242
0.0247196 0.0256046 0.0437324
0.0411231 0.0261082 0.0438697
0.0607614 0.0263828 0.0446784
0.0846265 0.0263066 0.046479
0.113619 0.0258488 0.0485847
0.149325 0.0250553 0.0508888
0.192676 0.0238193 0.0525826
0.243778 0.0220645 0.0512703
0.302831 0.0208438 0.0472725
0.365637 0.0209506 0.0432898
0.429465 0.0231785 0.0402838
0.492714 0.0265812 0.0381628
0.556527 0.0332494 0.0368658
0.620722 0.0425422 0.0365759
0.685634 0.0551308 0.0375677
0.750668 0.0715343 0.0400397
0.814618 0.0949416 0.0444953
0.876524 0.123369 0.0511177
0.936126 0.15668 0.0605478
0.992905 0.194156 0.0729992
1 0.236042 0.0888533
1 0.282032 0.105928
1 0.331548 0.12752
1 0.383429 0.152316
1 0.437201 0.181201
1 0.491783 0.213458
0 0.0306401 0.0501717
0 0.0311437 0.0489509
0 0.0316625 0.047837
0 0.032105 0.0466468
0 0.0324254 0.0455024
0.00337224 0.0330663 0.0446479
0.0137484 0.0337987 0.0441444
0.0261997 0.0349889 0.0439155
0.0406806 0.0362554 0.0437324
0.0601511 0.0364233 0.04448
0.0834821 0.0364385 0.046128
0.112749 0.0360266 0.048661
0.148379 0.0352483 0.0511177
0.190997 0.033875 0.0526741
0.242023 0.0322118 0.051957
0.300832 0.0307622 0.0480507
0.363943 0.0305486 0.0441138
0.428168 0.0311742 0.041474
0.491737 0.0342565 0.0393988
0.555261 0.0403601 0.0379034
0.620066 0.0495155 0.0377508
0.684932 0.0615854 0.038529
0.749523 0.0781415 0.0408942
0.813642 0.101228 0.0453651
0.875532 0.129061 0.0519722
0.935103 0.161257 0.0613413
0.992187 0.198474 0.0740215
1 0.239796 0.0897841
1 0.28513 0.106752
1 0.333822 0.128206
1 0.385412 0.153063
1 0.438819 0.181704
1 0.493172 0.214038
0 0.0422522 0.0494392
0 0.0428321 0.0487068
0 0.0430457 0.0476539
0 0.0434424 0.0469673
0 0.0439155 0.0464027
0.00325017 0.0444648 0.0459449
0.0135805 0.0452888 0.0457923
0.0253147 0.0462196 0.0457008
0.0404059 0.0471351 0.0455329
0.0598611 0.0480049 0.0455787
0.0829023 0.0483406 0.0465705
0.11136 0.0482643 0.0489509
0.14609 0.0474556 0.0512856
0.188479 0.0460517 0.0530251
0.239353 0.0445411 0.0528573
0.298466 0.0420233 0.0491493
0.362127 0.0404974 0.0457618
0.426429 0.0406043 0.0429389
0.490394 0.0435492 0.0408789
0.553399 0.049073 0.0392462
0.618647 0.0576791 0.0389258
0.683528 0.0690776 0.0395666
0.74818 0.0862287 0.041825
0.812314 0.108354 0.0462806
0.874342 0.135454 0.0531014
0.934279 0.167208 0.0625772
0.990799 0.203403 0.0750439
1 0.244221 0.0910048
1 0.289021 0.107881
1 0.337041 0.129244
1 0.387839 0.153903
1 0.440726 0.182483
1 0.494835 0.214862
0 0.0548714 0.0548409
0 0.0552377 0.0540475
0 0.0554513 0.0532692
0 0.0558022 0.0526894
0 0.0562448 0.0522469
0.00202945 0.0566873 0.0518502
0.0127718 0.0574197 0.0515602
0.0253452 0.0581979 0.0513619
0.0411688 0.059144 0.0514382
0.0576638 0.0614939 0.0494392
0.0816205 0.0616465 0.0488441
0.110353 0.0610666 0.0508888
0.144854 0.0603799 0.0531167
0.187015 0.0591287 0.0548867
0.237156 0.0569009 0.0545663
0.29633 0.0542 0.0510872
0.359136 0.0522316 0.0475319
0.424475 0.0519722 0.0447395
0.488258 0.0544594 0.0424659
0.551705 0.0594797 0.0408331
0.616281 0.0673991 0.0402533
0.681636 0.0790112 0.0408942
0.746914 0.0960708 0.0433509
0.810849 0.117418 0.0477913
0.872938 0.143648 0.0545357
0.933043 0.174044 0.0639506
0.98999 0.209628 0.0766613
1 0.249744 0.0924697
1 0.293614 0.109346
1 0.341024 0.130526
1 0.391165 0.155093
1 0.443442 0.183551
1 0.496986 0.215793
0 0.0693065 0.0626383
0 0.0696422 0.0618753
0 0.0698405 0.0610819
0 0.0702983 0.0606394
0 0.0708019 0.0602884
0.00248722 0.0712139 0.0597696
0.0132601 0.0718853 0.0594797
0.0258335 0.0724804 0.0592203
0.041413 0.0731975 0.0591287
0.0546731 0.0766308 0.056199
0.0771954 0.0780346 0.0529183
0.107927 0.0771038 0.0543679
0.143008 0.0758831 0.0560922
0.184649 0.0741283 0.0573739
0.235065 0.0717632 0.0570535
0.293614 0.0687877 0.0536507
0.356283 0.0662852 0.0497139
0.420813 0.0657206 0.0466773
0.485893 0.0671855 0.0442969
0.549676 0.0717784 0.042649
0.614404 0.0796063 0.0420539
0.679774 0.091783 0.04271
0.744762 0.107637 0.045182
0.808698 0.127901 0.0494087
0.871153 0.152972 0.056199
0.931456 0.182803 0.0657206
0.98854 0.217334 0.0785992
1 0.255909 0.0941634
1 0.299336 0.11107
1 0.345708 0.132174
1 0.395209 0.156588
1 0.446738 0.184863
1 0.499672 0.216953
0 0.0872511 0.0736858
0 0.08748 0.0728161
0 0.0878614 0.0722057
0 0.0881819 0.0716716
0 0.088365 0.070985
0.00248722 0.0888838 0.0705119
0.0127413 0.0896468 0.0702831
0.0251621 0.0902571 0.0698558
0.040177 0.0911879 0.0697185
0.0530404 0.0945602 0.0660563
0.0738079 0.096025 0.0627756
0.103777 0.0962997 0.0593881
0.139834 0.0949569 0.0606546
0.181704 0.0928359 0.0612345
0.231556 0.0899519 0.0603342
0.28983 0.0863355 0.0564126
0.35285 0.0833143 0.0522927
0.417487 0.0822614 0.0492409
0.482933 0.08336 0.0467079
0.546868 0.0878614 0.0449378
0.611917 0.0953689 0.0441901
0.677104 0.106172 0.0447547
0.742412 0.121279 0.0471962
0.806806 0.140261 0.0514992
0.869017 0.164202 0.0582437
0.929488 0.192767 0.0679026
0.986755 0.226093 0.0807965
1 0.263981 0.096437
1 0.30573 0.113069
1 0.351568 0.134173
1 0.399969 0.158389
1 0.450736 0.186465
1 0.502907 0.218372
0 0.108736 0.0893568
0 0.109148 0.0887312
0 0.109316 0.087953
0 0.109682 0.0874342
0 0.110063 0.0869306
0.00234989 0.110521 0.0864271
0.0125429 0.110872 0.0857099
0.0248875 0.111574 0.0851911
0.0388647 0.112276 0.0845808
0.0542153 0.114214 0.0821851
0.0680705 0.118547 0.0740826
0.0996872 0.117922 0.06981
0.135058 0.117388 0.0674296
0.177676 0.114946 0.0669718
0.22855 0.111437 0.0650187
0.28629 0.107698 0.0604105
0.348348 0.104479 0.0559854
0.413169 0.102525 0.0522927
0.478767 0.103059 0.0497902
0.543694 0.106798 0.047837
0.609033 0.113497 0.0470741
0.674067 0.123293 0.0473793
0.739834 0.137194 0.0500191
0.804227 0.155093 0.0542763
0.867018 0.177905 0.0612497
0.927382 0.20502 0.0709087
0.984573 0.236622 0.0838636
1 0.273136 0.0990616
1 0.314061 0.115724
1 0.358114 0.13637
1 0.405585 0.160357
1 0.455436 0.188495
1 0.506828 0.219974
0 0.133684 0.108278
0 0.13402 0.107652
0 0.134356 0.107103
0 0.134676 0.106569
0 0.134813 0.105852
0.00224308 0.135286 0.105287
0.0123445 0.135943 0.104784
0.0242008 0.136461 0.10399
0.0389258 0.137209 0.10309
0.0562142 0.137758 0.101549
0.0662242 0.143069 0.091249
0.0949569 0.142687 0.0860456
0.130419 0.142794 0.0771649
0.173648 0.140581 0.0753338
0.223972 0.137072 0.0719005
0.282109 0.132555 0.0660105
0.344579 0.12874 0.0609293
0.408698 0.126238 0.0567941
0.474327 0.126131 0.0537728
0.539193 0.128969 0.0516365
0.605112 0.134325 0.0504921
0.670863 0.14342 0.0511482
0.73666 0.155932 0.0534524
0.800992 0.172503 0.0576791
0.864286 0.193759 0.0648051
0.924712 0.219287 0.074464
0.982284 0.249592 0.0876631
1 0.284398 0.102419
1 0.323476 0.1187
1 0.366583 0.139284
1 0.412451 0.163043
1 0.460945 0.190677
1 0.511131 0.221866
0 0.16228 0.129946
0 0.162585 0.129335
0 0.162905 0.128786
0 0.163226 0.128267
0 0.163333 0.12752
0.00300603 0.16379 0.127047
0.0131228 0.164324 0.126329
0.0252232 0.164981 0.12549
0.0396124 0.165469 0.124102
0.0580148 0.166064 0.122332
0.070573 0.169482 0.11368
0.0886549 0.172519 0.102068
0.127367 0.169818 0.0979324
0.16875 0.169726 0.0857252
0.219898 0.165957 0.0817731
0.277882 0.16144 0.074342
0.339193 0.157183 0.0679484
0.403418 0.153765 0.0628214
0.469581 0.152758 0.0592355
0.534325 0.154345 0.0565042
0.600458 0.158862 0.0554665
0.666789 0.166217 0.0557107
0.732738 0.177493 0.0578775
0.797772 0.192599 0.0624857
0.860609 0.211978 0.0692607
0.921477 0.236118 0.0792401
0.979187 0.264515 0.0919509
1 0.297734 0.1066
1 0.335042 0.122713
1 0.376181 0.142794
1 0.420981 0.166384
1 0.467872 0.193652
1 0.516869 0.224414
0 0.194385 0.153933
0 0.194766 0.153445
0 0.195087 0.152911
0 0.195422 0.152407
0 0.195529 0.151659
0.00782788 0.19588 0.150866
0.0179294 0.196307 0.149935
0.0300298 0.196826 0.148821
0.0451667 0.196902 0.146914
0.064271 0.197162 0.144625
0.0769207 0.199908 0.136858
0.0865797 0.205051 0.121614
0.124346 0.201801 0.116762
0.167544 0.199588 0.105806
0.215686 0.198077 0.0931258
0.273701 0.193591 0.0858778
0.334112 0.18912 0.0779736
0.398093 0.185367 0.0716411
0.46389 0.183246 0.0669413
0.529824 0.18352 0.0636606
0.595819 0.186969 0.0621805
0.661875 0.19324 0.0621958
0.72845 0.202655 0.0642863
0.793881 0.216083 0.0686351
0.856962 0.233387 0.0752728
0.917967 0.25568 0.0854963
0.975326 0.2822 0.0975967
1 0.313252 0.111498
1 0.348669 0.127474
1 0.387732 0.147127
1 0.430625 0.170138
1 0.475929 0.196872
1 0.523644 0.227649
0 0.229465 0.178897
0 0.229694 0.178286
0.000183108 0.229999 0.177783
0.00601205 0.230182 0.177172
0.0126497 0.230335 0.176425
0.020798 0.230701 0.175677
0.0309148 0.231052 0.17464
0.0434577 0.231373 0.17322
0.0584268 0.231357 0.171145
0.0778363 0.231373 0.168566
0.0865492 0.23444 0.158999
0.0949111 0.238605 0.144991
0.12372 0.237369 0.135241
0.168093 0.233631 0.128511
0.215076 0.233173 0.107286
0.269673 0.229358 0.0996414
0.329976 0.224735 0.0917067
0.393515 0.2206 0.0843671
0.458366 0.217823 0.0781872
0.524071 0.21677 0.0737316
0.591043 0.218647 0.0713817
0.657237 0.223239 0.0708171
0.723095 0.231205 0.0725261
0.788617 0.24271 0.076585
0.851987 0.258457 0.0835279
0.913069 0.278019 0.0927596
0.971252 0.302647 0.104494
1 0.331441 0.117556
1 0.364569 0.133288
1 0.401724 0.152392
1 0.442176 0.174914
1 0.485878 0.201358
1 0.531548 0.23125
0.0145571 0.266621 0.202731
0.0204776 0.266697 0.202075
0.0262303 0.26685 0.201526
0.0324559 0.267033 0.200931
0.0389715 0.267292 0.200351
0.0471504 0.267536 0.199542
0.0572976 0.267765 0.198459
0.0693675 0.267659 0.196826
0.0855421 0.267597 0.194797
0.0929885 0.269871 0.188205
0.0988785 0.272648 0.178592
0.105272 0.276204 0.164508
0.128878 0.275624 0.154238
0.17261 0.271092 0.149294
0.218097 0.268544 0.135622
0.266758 0.268528 0.114473
0.32668 0.263478 0.108156
0.388861 0.259113 0.100313
0.453513 0.255619 0.0933394
0.518181 0.254261 0.088014
0.584375 0.254261 0.0841535
0.651514 0.257389 0.0829786
0.718151 0.263264 0.0838636
0.783108 0.272892 0.0872511
0.846967 0.286336 0.0934462
0.907912 0.304158 0.101854
0.966232 0.325811 0.112673
1 0.352438 0.125093
1 0.383124 0.140322
1 0.417777 0.158892
1 0.456046 0.180926
1 0.497292 0.206409
1 0.541283 0.235798
0.0594034 0.304982 0.225086
0.0652018 0.305165 0.224643
0.0710002 0.305348 0.224186
0.076997 0.30544 0.223621
0.0834974 0.305608 0.223087
0.0912032 0.305592 0.222171
0.0969253 0.306096 0.220127
0.100328 0.307698 0.216449
0.104189 0.309621 0.211597
0.108431 0.311864 0.204974
0.112764 0.314153 0.195743
0.117662 0.316991 0.183536
0.140459 0.316091 0.175219
0.180743 0.311879 0.171664
0.223529 0.308293 0.162768
0.270451 0.307378 0.142168
0.323491 0.306127 0.126772
0.385138 0.301488 0.119615
0.448936 0.2972 0.112001
0.513497 0.294469 0.105394
0.579034 0.293889 0.100938
0.645899 0.295308 0.0984207
0.711788 0.299458 0.0982071
0.777371 0.306798 0.100587
0.841062 0.317922 0.105547
0.902678 0.33312 0.113115
0.9608 0.352758 0.122942
1 0.376242 0.134249
1 0.40444 0.14905
1 0.43653 0.166735
1 0.47219 0.188022
1 0.510826 0.212772
1 0.552422 0.241306
0.1075 0.347036 0.24828
0.108965 0.347738 0.246937
0.110475 0.348409 0.24538
0.11191 0.349096 0.243839
0.11339 0.349859 0.242206
0.11519 0.350759 0.239918
0.11725 0.351873 0.237201
0.119646 0.35317 0.233478
0.122103 0.354482 0.228626
0.125032 0.356283 0.222538
0.128267 0.35845 0.21442
0.131655 0.360815 0.203586
0.156329 0.359213 0.198322
0.193652 0.355184 0.195575
0.233753 0.351247 0.189319
0.277195 0.348974 0.175769
0.325917 0.349783 0.148821
0.382498 0.346288 0.141238
0.445258 0.341924 0.133974
0.50985 0.338399 0.126833
0.574792 0.336629 0.121065
0.64007 0.336507 0.117281
0.706401 0.339025 0.115862
0.77113 0.344411 0.116869
0.834806 0.353201 0.12047
0.896376 0.365759 0.126711
0.955184 0.382498 0.13518
1 0.403662 0.145678
1 0.428443 0.15935
1 0.457725 0.17615
1 0.490684 0.19649
1 0.52668 0.220386
1 0.565545 0.247807
0.131456 0.396155 0.266636
0.132479 0.396704 0.26511
0.133486 0.397253 0.2636
0.13431 0.397711 0.262196
0.135134 0.398093 0.260334
0.136324 0.39881 0.258213
0.137713 0.39971 0.25565
0.1393 0.400763 0.252049
0.1411 0.402029 0.247715
0.143175 0.403494 0.242145
0.145296 0.404837 0.234775
0.148684 0.407019 0.224643
0.177783 0.404181 0.223468
0.210483 0.400473 0.221088
0.248402 0.396704 0.216571
0.28925 0.39353 0.206989
0.33373 0.392599 0.188556
0.383734 0.393286 0.163027
0.443229 0.388876 0.158068
0.506493 0.384894 0.150988
0.571252 0.381918 0.14464
0.635538 0.381033 0.139834
0.700481 0.381674 0.136767
0.76553 0.385275 0.1364
0.828382 0.391852 0.13846
0.889357 0.402014 0.143099
0.94818 0.415915 0.149844
1 0.433906 0.159365
1 0.456062 0.171862
1 0.481804 0.187442
1 0.511376 0.206638
1 0.544594 0.229435
1 0.580789 0.255802
0.154665 0.446738 0.28571
0.155352 0.447196 0.284474
0.156024 0.447608 0.283009
0.156634 0.44802 0.281498
0.157275 0.448463 0.27985
0.158068 0.449058 0.278065
0.158846 0.449546 0.275395
0.159792 0.450172 0.272328
0.161028 0.451072 0.268223
0.162753 0.452277 0.26302
0.165057 0.453788 0.255955
0.178531 0.453513 0.25153
0.203586 0.450675 0.250095
0.233692 0.447456 0.24828
0.26717 0.443717 0.244617
0.305821 0.440375 0.237644
0.347341 0.438178 0.22417
0.392996 0.438636 0.201007
0.44445 0.437812 0.182864
0.505196 0.433371 0.177432
0.568383 0.429816 0.170718
0.63238 0.427543 0.165118
0.695949 0.427344 0.161151
0.759487 0.428855 0.158984
0.822248 0.433631 0.159457
0.883116 0.441154 0.162173
0.941512 0.452354 0.167269
0.996857 0.467308 0.175463
1 0.486168 0.186496
1 0.508934 0.201022
1 0.535348 0.218921
1 0.565209 0.240299
1 0.598169 0.265278
0.178119 0.498207 0.306188
0.1785 0.498482 0.30486
0.178912 0.498772 0.303441
0.179355 0.499138 0.302296
0.179858 0.499474 0.30071
0.180484 0.499901 0.298711
0.181262 0.500481 0.296391
0.1823 0.501152 0.293248
0.183429 0.501747 0.289052
0.185031 0.502708 0.283803
0.194491 0.502571 0.280507
0.213169 0.500771 0.279744
0.235523 0.498466 0.27866
0.261524 0.495293 0.276631
0.292378 0.491981 0.273686
0.326589 0.488685 0.268315
0.365438 0.485893 0.258213
0.407401 0.484688 0.240818
0.453895 0.486015 0.212909
0.507362 0.48333 0.20444
0.567788 0.479225 0.198947
0.629938 0.476204 0.192844
0.69279 0.474586 0.187869
0.755077 0.475059 0.184634
0.816587 0.47744 0.183047
0.876814 0.483177 0.184237
0.93463 0.491646 0.187839
0.990143 0.503471 0.194202
1 0.519249 0.2038
1 0.538705 0.216831
1 0.561547 0.233051
1 0.588388 0.253101
1 0.618158 0.27657
0.203098 0.550164 0.32668
0.203555 0.550439 0.325261
0.203998 0.550713 0.323781
0.204456 0.551003 0.322301
0.204974 0.551324 0.320806
0.205631 0.551751 0.318929
0.206424 0.552239 0.316304
0.207477 0.552834 0.313008
0.21297 0.552789 0.311208
0.224231 0.551568 0.310658
0.23711 0.550057 0.309957
0.253239 0.548409 0.309209
0.272984 0.546227 0.308034
0.295857 0.54374 0.306401
0.322438 0.540459 0.30338
0.353628 0.537346 0.298787
0.387961 0.53463 0.291112
0.427131 0.532555 0.277668
0.469154 0.532326 0.256489
0.515877 0.533425 0.231266
0.570916 0.529595 0.22739
0.630304 0.525872 0.22208
0.690715 0.523445 0.216617
0.752102 0.522393 0.212177
0.812665 0.523445 0.209415
0.871 0.526757 0.208865
0.92842 0.533165 0.21117
0.983001 0.542275 0.21593
1 0.554879 0.22388
1 0.571084 0.23505
1 0.590829 0.249805
1 0.613642 0.267796
1 0.640131 0.289754
0.231189 0.60264 0.345113
0.231617 0.602899 0.343618
0.2336 0.602853 0.34284
0.236851 0.602533 0.342702
0.240452 0.602182 0.342565
0.244892 0.601724 0.342367
0.249729 0.601328 0.342229
0.256382 0.600626 0.341924
0.264454 0.599771 0.341527
0.273671 0.598856 0.341131
0.28542 0.597391 0.340368
0.298863 0.595682 0.339406
0.315511 0.593835 0.338262
0.335851 0.591455 0.336416
0.35906 0.588952 0.333852
0.385718 0.58584 0.329519
0.416846 0.583139 0.322896
0.451225 0.580896 0.312352
0.489998 0.579904 0.295674
0.531731 0.580423 0.271275
0.578775 0.580102 0.255482
0.634836 0.575814 0.251438
0.691966 0.572732 0.246479
0.750561 0.570733 0.241718
0.80943 0.570336 0.238193
0.867262 0.571756 0.236408
0.922759 0.575845 0.23711
0.976532 0.582483 0.240238
1 0.592508 0.246601
1 0.60557 0.256062
1 0.621851 0.268788
1 0.641566 0.284947
1 0.664683 0.305531
0.288624 0.649287 0.374044
0.291081 0.649088 0.373968
0.293889 0.648768 0.373816
0.296712 0.648447 0.373663
0.299794 0.648096 0.373495
0.303548 0.647669 0.373266
0.308171 0.647135 0.372992
0.313207 0.646647 0.372778
0.320073 0.645853 0.37232
0.328435 0.644846 0.371756
0.337942 0.643809 0.37113
0.349767 0.642039 0.369863
0.363775 0.640406 0.368566
0.380621 0.638498 0.366796
0.400885 0.636194 0.364126
0.424079 0.633829 0.360342
0.450675 0.631052 0.354284
0.481743 0.62884 0.345281
0.515465 0.627253 0.331899
0.553368 0.627222 0.312703
0.595102 0.628229 0.285054
0.642298 0.625498 0.280919
0.696864 0.621912 0.277226
0.752117 0.61915 0.272633
0.80853 0.617517 0.26865
0.864134 0.61767 0.266072
0.918349 0.619699 0.265461
0.971298 0.624262 0.267262
1 0.63151 0.271839
1 0.641672 0.279347
1 0.654917 0.290166
1 0.671244 0.304814
1 0.69131 0.323934
0.353902 0.693385 0.404852
0.355779 0.693233 0.404791
0.358099 0.692958 0.404608
0.360449 0.692668 0.40441
0.362997 0.692363 0.404227
0.366155 0.691966 0.403967
0.370001 0.691478 0.403662
0.374701 0.690898 0.40325
0.379812 0.690379 0.402884
0.38677 0.689509 0.402213
0.395254 0.688441 0.401373
0.404562 0.687144 0.400244
0.416678 0.685512 0.398672
0.430716 0.68394 0.396796
0.447486 0.682109 0.394217
0.467277 0.680079 0.390494
0.49044 0.67776 0.384955
0.51696 0.675593 0.376928
0.547066 0.674128 0.365698
0.57998 0.673228 0.34992
0.617197 0.673777 0.328222
0.657618 0.67364 0.310414
0.70573 0.669963 0.307805
0.757229 0.667018 0.30428
0.810086 0.664637 0.300328
0.863355 0.66334 0.297307
0.915251 0.664012 0.295857
0.966812 0.66656 0.296345
1 0.671656 0.299382
1 0.679133 0.305272
1 0.689464 0.314412
1 0.703029 0.327611
1 0.719585 0.344823
0.421363 0.735515 0.435004
0.42295 0.735363 0.434897
0.424887 0.735119 0.434684
0.42681 0.734874 0.434485
0.42887 0.734615 0.434241
0.431434 0.734279 0.433951
0.434592 0.733883 0.433585
0.438437 0.733394 0.433143
0.442893 0.732876 0.432578
0.448218 0.73228 0.431937
0.455116 0.73135 0.430884
0.463157 0.730053 0.42945
0.472786 0.728969 0.428016
0.484993 0.72752 0.425864
0.499062 0.725978 0.423163
0.515541 0.724361 0.419516
0.534844 0.722667 0.414511
0.556863 0.720714 0.40737
0.582696 0.719326 0.397681
0.611841 0.718425 0.384375
0.644038 0.718166 0.366445
0.679835 0.718914 0.342931
0.720073 0.716976 0.338308
0.766842 0.713283 0.335714
0.81529 0.710384 0.332387
0.865095 0.708324 0.329442
0.914763 0.707805 0.327459
0.964248 0.708797 0.327184
1 0.711879 0.329137
1 0.717067 0.333623
1 0.725277 0.341802
1 0.735851 0.353201
1 0.749462 0.368872
0.490455 0.775464 0.463691
0.491997 0.775265 0.463462
0.493584 0.775067 0.463233
0.495155 0.774853 0.462989
0.496849 0.774639 0.462715
0.498894 0.774395 0.462379
0.501411 0.774075 0.461952
0.504509 0.773678 0.461448
0.508156 0.773144 0.460731
0.511955 0.77261 0.460014
0.517464 0.771847 0.458915
0.524239 0.771038 0.457588
0.531868 0.77026 0.456092
0.541756 0.769162 0.45388
0.553002 0.768063 0.45124
0.56701 0.76669 0.447456
0.58294 0.765408 0.442695
0.601053 0.763821 0.436255
0.622766 0.762646 0.427756
0.64773 0.761761 0.416403
0.674998 0.761227 0.401724
0.707042 0.761532 0.381994
0.741207 0.760922 0.36849
0.781338 0.758053 0.367254
0.824933 0.75494 0.36495
0.87126 0.752056 0.362325
0.917281 0.750561 0.360357
0.963134 0.7505 0.359808
1 0.751919 0.361166
1 0.755032 0.364782
1 0.760937 0.371695
1 0.769116 0.381735
1 0.77995 0.39559
0.559472 0.813123 0.490166
0.560647 0.81294 0.489891
0.561822 0.812757 0.489616
0.562982 0.812589 0.489326
0.564309 0.812421 0.489036
0.565942 0.812238 0.48867
0.567941 0.812009 0.488228
0.570397 0.811704 0.487694
0.573373 0.811368 0.486992
0.576455 0.811124 0.486351
0.580941 0.810605 0.485283
0.586328 0.810025 0.483909
0.59292 0.809323 0.48217
0.600305 0.808652 0.480217
0.609842 0.807721 0.477394
0.620645 0.806836 0.474037
0.634089 0.805753 0.469368
0.648829 0.804501 0.463539
0.666743 0.803586 0.456016
0.687663 0.802823 0.446174
0.711513 0.801984 0.433188
0.738079 0.802121 0.417578
0.767697 0.802441 0.399268
0.800549 0.800198 0.399115
0.839216 0.796796 0.397818
0.880919 0.793973 0.39617
0.922774 0.791791 0.394766
0.965026 0.790692 0.394186
1 0.790936 0.39527
1 0.79266 0.398245
1 0.79649 0.40412
1 0.802472 0.41297
1 0.811109 0.425315
0.628809 0.848341 0.514504
0.629755 0.848249 0.514229
0.630701 0.848142 0.51397
0.631647 0.848035 0.513695
0.632685 0.847929 0.513405
0.633967 0.847791 0.513039
0.635538 0.847623 0.512596
0.63743 0.847425 0.512032
0.639735 0.847211 0.511345
