public/textures/grade/Fuji/Licorice-FLog.cube
TITLE "Generated by Resolve"
LUT_3D_SIZE 9
0 0 0.0552071
0 0 0.0496986
0.0389868 0.000762951 0.0451972
0.151995 0 0.0500038
0.370245 0 0.0416419
0.623423 0.0231479 0.0337072
0.878981 0.107866 0.0486152
1 0.273548 0.103532
1 0.488045 0.211978
0 0.0306401 0.0501717
0 0.0324254 0.0455024
0.0406806 0.0362554 0.0437324
0.148379 0.0352483 0.0511177
0.363943 0.0305486 0.0441138
0.620066 0.0495155 0.0377508
0.875532 0.129061 0.0519722
1 0.28513 0.106752
1 0.493172 0.214038
0 0.0872511 0.0736858
0 0.088365 0.070985
0.040177 0.0911879 0.0697185
0.139834 0.0949569 0.0606546
0.35285 0.0833143 0.0522927
0.611917 0.0953689 0.0441901
0.869017 0.164202 0.0582437
1 0.30573 0.113069
1 0.502907 0.218372
0 0.194385 0.153933
0 0.195529 0.151659
0.0451667 0.196902 0.146914
0.124346 0.201801 0.116762
0.334112 0.18912 0.0779736
0.595819 0.186969 0.0621805
0.856962 0.233387 0.0752728
1 0.348669 0.127474
1 0.523644 0.227649
0.1075 0.347036 0.24828
0.11339 0.349859 0.242206
0.122103 0.354482 0.228626
0.156329 0.359213 0.198322
0.325917 0.349783 0.148821
0.574792 0.336629 0.121065
0.834806 0.353201 0.12047
1 0.428443 0.15935
1 0.565545 0.247807
0.203098 0.550164 0.32668
0.204974 0.551324 0.320806
0.21297 0.552789 0.311208
0.272984 0.546227 0.308034
0.387961 0.53463 0.291112
0.570916 0.529595 0.22739
0.812665 0.523445 0.209415
1 0.554879 0.22388
1 0.640131 0.289754
0.421363 0.735515 0.435004
0.42887 0.734615 0.434241
0.442893 0.732876 0.432578
0.472786 0.728969 0.428016
0.534844 0.722667 0.414511
0.644038 0.718166 0.366445
0.81529 0.710384 0.332387
1 0.711879 0.329137
1 0.749462 0.368872
0.698634 0.880842 0.536446
0.701595 0.880568 0.535363
0.706584 0.880217 0.533623
0.718822 0.87924 0.528832
0.743877 0.877455 0.517861
0.794659 0.875624 0.491539
0.884184 0.871473 0.467094
1 0.863035 0.468009
1 0.871321 0.489097
0.950439 0.988998 0.604761
0.951324 0.988983 0.604257
0.952895 0.988754 0.60441
0.956451 0.988296 0.6047
0.964157 0.987335 0.605417
0.980865 0.985077 0.606836
1 0.980758 0.606683
1 0.975189 0.606989
1 0.973281 0.613672
0 0 0.0954604
0 0.00163272 0.0887617
0.0465858 0.00383001 0.07953
0.160204 0.00128176 0.0734417
0.374365 0.000747692 0.0578012
0.627543 0.0318456 0.0513008
0.880827 0.115251 0.0651865
1 0.277775 0.115236
1 0.489906 0.220676
0 0.0325628 0.090898
0 0.0353399 0.0838636
0.0512245 0.0396429 0.0751659
0.15903 0.0398566 0.0739757
0.368902 0.0378729 0.0625162
0.624887 0.0577401 0.0557565
0.877485 0.13579 0.0686503
1 0.289189 0.118379
1 0.495003 0.22266
0 0.0924086 0.0916762
0.00697337 0.0937819 0.0881819
0.0561837 0.0962539 0.0855116
0.153231 0.0998703 0.0795758
0.357473 0.0920272 0.0722667
0.616892 0.103044 0.0631571
0.871122 0.170504 0.0752117
1 0.309529 0.124269
1 0.504692 0.226642
0 0.195575 0.160204
0.023743 0.196292 0.157641
0.0689708 0.197589 0.154055
0.136248 0.205097 0.131151
0.33785 0.195163 0.101442
0.600565 0.192203 0.0831006
0.859144 0.238361 0.0922103
1 0.351675 0.137621
1 0.525154 0.235615
0.11429 0.348409 0.261448
0.130449 0.349065 0.259358
0.138689 0.353765 0.247578
0.155993 0.363195 0.211353
0.328496 0.352758 0.165652
0.577447 0.339681 0.137407
0.836896 0.35642 0.132967
1 0.430854 0.168551
1 0.566903 0.255268
0.214939 0.548913 0.339803
0.216724 0.550271 0.334218
0.220005 0.552438 0.322499
0.273289 0.548104 0.316197
0.389029 0.536095 0.299229
0.572503 0.531075 0.236835
0.813138 0.524651 0.217899
1 0.556283 0.231724
1 0.641077 0.296101
0.421485 0.736171 0.44036
0.429252 0.73521 0.439521
0.442908 0.733516 0.437949
0.473182 0.729534 0.433387
0.534874 0.723095 0.419974
0.644434 0.718669 0.37258
0.815442 0.710903 0.338674
1 0.712398 0.334951
1 0.74995 0.373877
0.69865 0.880934 0.540139
0.70161 0.880674 0.539055
0.7066 0.880308 0.537331
0.718608 0.879194 0.532479
0.743923 0.877562 0.521492
0.794705 0.875715 0.495308
0.884215 0.87158 0.470924
1 0.863172 0.471626
1 0.871504 0.492195
0.950393 0.988998 0.60676
0.951293 0.988998 0.606195
0.952865 0.988785 0.606271
0.95642 0.988327 0.606561
0.964126 0.987366 0.607279
0.98085 0.985107 0.60856
1 0.980743 0.608469
1 0.975219 0.608637
1 0.973312 0.615244
0 0.00105287 0.169085
0 0.00547799 0.163775
0.0506752 0.0104829 0.152911
0.165789 0.0104219 0.13579
0.374197 0.0132296 0.102388
0.633341 0.0462654 0.0806744
0.882856 0.127611 0.0911879
1 0.284504 0.136843
1 0.493019 0.236133
0 0.0362402 0.163577
0.00387579 0.0399786 0.157916
0.0573892 0.0466316 0.146929
0.168048 0.047776 0.132143
0.369802 0.049424 0.105303
0.630945 0.0710613 0.0840009
0.879576 0.146838 0.0941329
1 0.296086 0.139788
1 0.498268 0.238224
0 0.0977798 0.150256
0.0233768 0.0999008 0.144793
0.0722972 0.10309 0.136812
0.168582 0.107576 0.12668
0.359518 0.106294 0.110872
0.624811 0.114534 0.0894026
0.874022 0.180102 0.099794
1 0.315679 0.144869
1 0.507805 0.241901
0.0198672 0.200381 0.178424
0.0484932 0.200732 0.175036
0.0964065 0.200687 0.170016
0.161898 0.208515 0.15642
0.342535 0.204318 0.135042
0.608927 0.200397 0.108904
0.861906 0.246052 0.114809
1 0.357168 0.157214
1 0.527901 0.25005
0.117632 0.35169 0.280171
0.133516 0.352224 0.278614
0.158907 0.352636 0.274922
0.17995 0.36231 0.246952
0.331563 0.358099 0.195438
0.5823 0.345296 0.161242
0.839261 0.361563 0.153048
1 0.435096 0.186023
1 0.569375 0.268818
0.235309 0.545983 0.362905
0.237171 0.547372 0.357763
0.240787 0.55021 0.347204
0.273411 0.550774 0.331212
0.390921 0.538994 0.315099
0.574166 0.533349 0.254627
0.814145 0.527428 0.234287
1 0.558679 0.246006
1 0.642786 0.307652
0.422065 0.737163 0.450217
0.429526 0.735973 0.449195
0.443076 0.734295 0.447608
0.473884 0.730587 0.443275
0.53518 0.724056 0.429953
0.645121 0.7196 0.38381
0.815656 0.711833 0.35021
1 0.713207 0.345434
1 0.750866 0.382773
0.698726 0.881148 0.546654
0.701732 0.880888 0.545571
0.706645 0.880507 0.543786
0.718578 0.879301 0.538857
0.744015 0.877745 0.528206
0.794812 0.875898 0.502266
0.883955 0.871611 0.477806
1 0.863447 0.478279
1 0.871839 0.497993
0.950362 0.989029 0.610193
0.951278 0.989029 0.609628
0.952865 0.988861 0.609491
0.956405 0.988388 0.609796
0.964096 0.987427 0.610498
0.980758 0.985153 0.611902
1 0.980713 0.611704
1 0.975265 0.611749
1 0.973358 0.618112
0 0.0115358 0.299275
0.00476081 0.0168002 0.29427
0.0591745 0.0259709 0.284001
0.166491 0.0308537 0.269398
0.361578 0.0379187 0.225238
0.630396 0.0691234 0.168826
0.881559 0.152956 0.158679
1 0.29929 0.187671
1 0.500526 0.271
0 0.0459297 0.291661
0.0142519 0.0506447 0.286885
0.0670481 0.0585336 0.278004
0.169879 0.0661021 0.263264
0.360769 0.0713817 0.222278
0.629465 0.0970779 0.166766
0.879347 0.170367 0.159701
1 0.310231 0.189776
1 0.505608 0.272816
0.0027924 0.105791 0.278218
0.0326238 0.108919 0.27451
0.0817578 0.11371 0.266911
0.175753 0.122011 0.252216
0.357824 0.125673 0.217136
0.624735 0.142596 0.165133
0.87451 0.200748 0.160693
1 0.329259 0.193484
1 0.514504 0.275792
0.0592355 0.21297 0.255573
0.0843366 0.213779 0.251255
0.121508 0.215122 0.244724
0.195361 0.219745 0.232776
0.351873 0.221942 0.212375
0.612436 0.22002 0.175174
0.863966 0.262058 0.169574
1 0.368566 0.202319
1 0.534417 0.282551
0.133959 0.357656 0.311284
0.149523 0.357153 0.308492
0.17847 0.356909 0.304173
0.232288 0.359152 0.290806
0.344625 0.366995 0.250294
0.58497 0.356741 0.216602
0.842939 0.372076 0.199054
1 0.443626 0.225299
1 0.574441 0.298314
0.275044 0.539895 0.409369
0.277546 0.541329 0.405081
0.281941 0.544228 0.397024
0.29102 0.551751 0.373236
0.392416 0.545068 0.351171
0.576013 0.539147 0.295399
0.815473 0.532799 0.270314
1 0.563668 0.277516
1 0.646586 0.333104
0.424018 0.73875 0.471687
0.431708 0.737835 0.470893
0.44506 0.736385 0.469459
0.47509 0.732906 0.46537
0.53608 0.726436 0.452842
0.646052 0.721325 0.408576
0.816114 0.713893 0.375586
1 0.715312 0.368505
1 0.752651 0.401938
0.698665 0.881422 0.560784
0.701503 0.881178 0.559808
0.706584 0.880781 0.558068
0.718791 0.879774 0.553429
0.744259 0.878187 0.542962
0.795087 0.876341 0.517388
0.883894 0.872053 0.493111
1 0.863859 0.492576
1 0.87248 0.510231
0.950301 0.989105 0.617975
0.951202 0.98909 0.617411
0.952834 0.989013 0.6168
0.956374 0.988525 0.61709
0.963973 0.987533 0.617746
0.980636 0.985275 0.619165
1 0.980835 0.618601
1 0.975326 0.618235
1 0.97351 0.624262
0.0033875 0.0412299 0.484337
0.0335546 0.0464027 0.480323
0.0840772 0.0553292 0.472572
0.178363 0.0745251 0.455833
0.345373 0.0841077 0.432746
0.60061 0.11249 0.36672
0.865476 0.19408 0.307668
1 0.331273 0.294453
1 0.515984 0.342336
0.0133822 0.0725414 0.476356
0.0427863 0.077409 0.472679
0.0908827 0.085893 0.4654
0.181872 0.105104 0.448432
0.345388 0.113481 0.427527
0.599023 0.137819 0.362478
0.863615 0.212177 0.3037
1 0.34049 0.294011
1 0.520775 0.343236
0.0328069 0.129961 0.462745
0.0598917 0.132982 0.459266
0.104616 0.137972 0.453147
0.189914 0.15169 0.438025
0.345647 0.161013 0.41796
0.595422 0.179538 0.354314
0.860685 0.243153 0.297246
1 0.357244 0.294194
1 0.529213 0.344869
0.0820172 0.229267 0.438254
0.103731 0.230625 0.435752
0.138445 0.232624 0.431006
0.210788 0.238865 0.419043
0.349096 0.248814 0.398795
0.587198 0.259068 0.341619
0.855238 0.297551 0.289113
1 0.392859 0.296162
1 0.547921 0.349172
0.182422 0.37734 0.401221
0.195575 0.377661 0.398688
0.219577 0.378103 0.394095
0.266453 0.379797 0.386511
0.36907 0.384253 0.375204
0.577096 0.383154 0.337942
0.840314 0.394339 0.295918
1 0.461555 0.306325
1 0.585809 0.359228
0.300862 0.543694 0.46862
0.310933 0.543343 0.466987
0.328664 0.54287 0.464195
0.36228 0.543206 0.454398
0.413062 0.553445 0.420325
0.578027 0.550683 0.377203
0.814496 0.544869 0.34461
1 0.574182 0.341131
1 0.654505 0.384588
0.434211 0.741299 0.517189
0.437537 0.741772 0.514778
0.450904 0.740353 0.513634
0.478996 0.737545 0.510628
0.538293 0.731334 0.499809
0.648066 0.725551 0.459892
0.816312 0.718349 0.426871
1 0.720195 0.415244
1 0.757275 0.441489
0.699321 0.882811 0.590707
0.702266 0.882521 0.589715
0.707652 0.882048 0.587839
0.719295 0.881132 0.583673
0.744717 0.879149 0.573129
0.795834 0.877195 0.548379
0.88394 0.873442 0.524071
1 0.865476 0.522148
1 0.874174 0.535821
0.95024 0.989319 0.634287
0.951141 0.989319 0.633738
0.952712 0.989258 0.632685
0.956146 0.988769 0.632242
0.963714 0.987778 0.632883
0.980285 0.985656 0.634394
1 0.98114 0.633555
1 0.975647 0.632364
1 0.973892 0.63711
0.0769207 0.120623 0.695033
0.100023 0.123964 0.691829
0.137743 0.13051 0.686
0.215869 0.147295 0.672236
0.358801 0.167712 0.649546
0.569406 0.191882 0.618784
0.827985 0.254444 0.553216
1 0.382681 0.489219
1 0.547875 0.472099
0.0860609 0.147585 0.688121
0.10721 0.150225 0.685008
0.144228 0.155673 0.679713
0.220142 0.170016 0.666743
0.359121 0.189929 0.643702
0.567575 0.211749 0.61445
0.82594 0.269551 0.548592
1 0.391974 0.486137
1 0.552056 0.471946
0.102342 0.191363 0.677028
0.121538 0.193256 0.674022
0.15613 0.197406 0.66862
0.228367 0.208713 0.656641
0.361074 0.227268 0.634211
0.564355 0.245579 0.607202
0.82211 0.295857 0.540749
1 0.40882 0.480644
1 0.55935 0.471229
0.137011 0.272175 0.654734
0.154162 0.273548 0.652399
0.184573 0.275853 0.648096
0.248173 0.282628 0.637568
0.366537 0.299001 0.614649
0.559075 0.31162 0.591897
0.813367 0.349126 0.526375
1 0.444022 0.469413
1 0.575662 0.470405
0.212589 0.402258 0.616617
0.225376 0.402686 0.615
0.24831 0.403433 0.611856
0.296834 0.405676 0.604105
0.391913 0.413046 0.587259
0.555734 0.423697 0.56463
0.797696 0.444541 0.502434
1 0.500099 0.458198
1 0.609506 0.470756
0.329244 0.571679 0.574212
0.336233 0.571359 0.572961
0.349554 0.571466 0.571206
0.3794 0.571694 0.567346
0.449821 0.571405 0.559045
0.575021 0.576379 0.540185
0.787305 0.575113 0.497261
1 0.597513 0.461967
1 0.671809 0.479545
0.516213 0.728206 0.622629
0.518044 0.728862 0.619898
0.521447 0.73048 0.615274
0.528817 0.734768 0.604013
0.556741 0.739406 0.58439
0.653376 0.73402 0.561822
0.805112 0.731151 0.525689
0.997925 0.731456 0.500557
1 0.76704 0.514366
0.704387 0.885481 0.645563
0.70721 0.885206 0.644663
0.71191 0.88484 0.643229
0.723522 0.883833 0.639246
0.747646 0.882002 0.629786
0.797391 0.880064 0.606683
0.883375 0.87689 0.580209
1 0.869215 0.574517
1 0.87808 0.583032
0.947906 0.989868 0.670527
0.948775 0.989853 0.670008
0.950378 0.989853 0.669032
0.953719 0.989868 0.667094
0.961501 0.989197 0.665629
0.977035 0.986999 0.666957
1 0.982742 0.666163
1 0.977478 0.663142
1 0.975525 0.664881
0.200366 0.267613 0.883986
0.215198 0.269154 0.881376
0.241917 0.272908 0.877165
0.297856 0.281712 0.867414
0.402472 0.30341 0.845991
0.576547 0.319127 0.821805
0.791623 0.3608 0.786236
1 0.452064 0.728283
1 0.600549 0.667781
0.206165 0.283467 0.879362
0.22089 0.285145 0.877058
0.246662 0.288334 0.872801
0.301549 0.296284 0.863493
0.404547 0.316487 0.842344
0.575814 0.332036 0.817945
0.789319 0.371527 0.783276
1 0.459251 0.725811
1 0.604532 0.666545
0.217227 0.310689 0.871275
0.231205 0.312215 0.869154
0.255756 0.314778 0.864912
0.308553 0.321431 0.855817
0.407706 0.33901 0.835752
0.574517 0.355062 0.811414
0.785489 0.390753 0.778241
0.998215 0.472877 0.72166
1 0.611643 0.663386
0.241871 0.365545 0.854765
0.254185 0.366247 0.852491
0.277028 0.368292 0.848798
0.325093 0.372992 0.840406
0.416617 0.385779 0.821881
0.572976 0.401556 0.797131
0.778225 0.430625 0.767269
0.990799 0.50103 0.7122
1 0.627466 0.657267
0.295125 0.46154 0.822477
0.305577 0.461982 0.820737
0.323613 0.463081 0.817807
0.362997 0.465263 0.810651
0.440833 0.472068 0.796155
0.575113 0.486091 0.771038
0.766629 0.504891 0.747219
0.977234 0.556451 0.694026
1 0.655421 0.648188
0.399039 0.601221 0.771649
0.405966 0.601251 0.77055
0.418158 0.601434 0.768673
0.44448 0.601663 0.764233
0.499046 0.603479 0.75494
0.598245 0.610529 0.736843
0.757519 0.621256 0.717266
0.958114 0.649088 0.666926
1 0.706279 0.636896
0.530587 0.757076 0.736873
0.534905 0.756909 0.736248
0.542382 0.756741 0.735256
0.559152 0.755917 0.732692
0.595941 0.755016 0.728374
0.667872 0.753109 0.72079
0.775326 0.760159 0.702464
0.947753 0.762921 0.667948
1 0.789425 0.640696
0.716945 0.893431 0.738857
0.71899 0.893248 0.738766
0.723507 0.892699 0.738384
0.733486 0.891539 0.737408
0.75375 0.889693 0.73489
0.794415 0.887175 0.726421
0.862715 0.889067 0.701595
0.970947 0.88571 0.692699
1 0.891844 0.678019
0.935622 0.991989 0.752956
0.93637 0.991974 0.75259
0.937713 0.991974 0.751949
0.940795 0.991989 0.750469
0.947372 0.992081 0.747311
0.961639 0.992218 0.73994
0.989044 0.989487 0.741482
1 0.985473 0.737743
1 0.983902 0.733104
0.380667 0.464546 1
0.388861 0.465431 1
0.403906 0.467018 1
0.436164 0.47039 0.997894
0.501015 0.479332 0.984192
0.616495 0.495277 0.96112
0.785336 0.514702 0.936629
0.965011 0.566812 0.903899
1 0.666285 0.858228
0.384237 0.47245 1
0.392691 0.473198 1
0.407111 0.474327 1
0.439155 0.477943 0.995453
0.503197 0.486427 0.982025
0.61677 0.501884 0.958663
0.784176 0.520806 0.934325
0.963912 0.571633 0.902541
1 0.669306 0.856977
0.390829 0.486107 1
0.398627 0.48687 0.999832
0.413001 0.488228 0.997116
0.443717 0.491157 0.990784
0.506188 0.498924 0.977798
0.617365 0.514549 0.954559
0.783062 0.532067 0.930861
0.961456 0.580087 0.899718
1 0.674708 0.854612
0.405219 0.515221 0.990417
0.41268 0.515816 0.989044
0.426108 0.51693 0.986526
0.454902 0.51928 0.980621
0.51429 0.525597 0.968383
0.619058 0.54078 0.945083
0.780224 0.555489 0.922835
0.956558 0.598917 0.893843
1 0.686824 0.850019
0.437186 0.571771 0.968887
0.44329 0.572045 0.967681
0.455283 0.572671 0.965377
0.48069 0.574441 0.960555
0.532937 0.578546 0.950149
0.626444 0.590341 0.928923
0.776028 0.602869 0.907256
0.946929 0.637003 0.88217
1 0.711788 0.840162
0.502312 0.665278 0.931991
0.506966 0.665431 0.931273
0.516014 0.665599 0.929625
0.534798 0.66601 0.925917
0.575357 0.667811 0.918181
0.650629 0.673274 0.902907
0.775433 0.68368 0.881529
0.932784 0.705196 0.861906
1 0.759548 0.822858
0.614969 0.788403 0.879347
0.617914 0.788388 0.878874
0.62295 0.788418 0.878111
0.634775 0.788418 0.876234
0.659617 0.788418 0.872068
0.70898 0.789868 0.863737
0.793606 0.795926 0.848173
0.920745 0.805646 0.834379
1 0.831785 0.809628
0.758343 0.903578 0.860395
0.760021 0.903487 0.860197
0.763119 0.903319 0.859846
0.769818 0.902998 0.859159
0.785 0.902205 0.857633
0.812345 0.902495 0.852659
0.858549 0.906569 0.842893
0.939178 0.910384 0.834577
1 0.918257 0.821378
0.925368 0.998245 0.859251
0.925933 0.998245 0.859144
0.926986 0.99823 0.858946
0.929305 0.998245 0.858488
0.934508 0.998276 0.85742
0.94548 0.998413 0.854749
0.967681 0.999542 0.84828
1 0.998901 0.846845
1 0.998764 0.840528
0.594827 0.674174 1
0.59826 0.674479 1
0.604944 0.674632 1
0.619608 0.675776 1
0.650904 0.678782 1
0.710201 0.685847 1
0.815137 0.69546 1
0.950195 0.717128 0.992111
1 0.770672 0.962249
0.596017 0.677043 1
0.599695 0.677256 1
0.60647 0.677714 1
0.621042 0.678904 1
0.651713 0.681483 1
0.711055 0.68867 1
0.815106 0.698314 1
0.949676 0.719173 0.99118
1 0.77229 0.961715
0.599084 0.682811 1
0.602716 0.68304 1
0.609354 0.683482 1
0.623606 0.684611 1
0.653819 0.686976 1
0.712413 0.693919 1
0.814755 0.703182 1
0.948745 0.723644 0.989425
1 0.775433 0.960266
0.605982 0.695079 1
0.609094 0.695369 1
0.615473 0.695735 1
0.629465 0.696666 1
0.658732 0.698756 1
0.715633 0.705119 1
0.814878 0.714488 1
0.946456 0.733272 0.985595
1 0.782879 0.957427
0.621134 0.720806 1
0.624369 0.720943 1
0.630274 0.721233 1
0.643076 0.722026 1
0.669932 0.72372 1
0.722881 0.72874 1
0.815885 0.737911 0.997436
0.943221 0.753964 0.977752
1 0.798245 0.951537
0.653819 0.769299 1
0.656474 0.76936 1
0.661387 0.769512 1
0.672023 0.770001 1
0.695094 0.771206 1
0.741085 0.774212 0.998718
0.82034 0.782635 0.979782
0.937453 0.793866 0.961883
1 0.82884 0.940246
0.719326 0.845228 0.980056
0.721202 0.845243 0.979644
0.724437 0.845304 0.978988
0.731777 0.845136 0.977203
0.748257 0.845533 0.973739
0.78143 0.846769 0.966522
0.841382 0.851545 0.953277
0.935485 0.859464 0.937469
1 0.88127 0.923919
0.814954 0.936965 0.938109
0.815915 0.936965 0.938003
0.817685 0.936965 0.937789
0.821424 0.937041 0.937407
0.829953 0.937194 0.936507
0.848676 0.937194 0.934249
0.888594 0.937087 0.929107
0.953811 0.9402 0.918853
1 0.947478 0.915343
0.93637 1 0.935851
0.936873 1 0.935851
0.937804 1 0.935836
0.939895 1 0.935775
0.944274 1 0.935653
0.953628 1 0.93489
0.971969 1 0.932097
1 1 0.923629
1 1 0.925582
