public/textures/grade/Fuji/Licorice-FLog.cube
TITLE "Generated by Resolve"
LUT_3D_SIZE 5
0 0 0.0552071
0.0389868 0.000762951 0.0451972
0.370245 0 0.0416419
0.878981 0.107866 0.0486152
1 0.488045 0.211978
0 0.0872511 0.0736858
0.040177 0.0911879 0.0697185
0.35285 0.0833143 0.0522927
0.869017 0.164202 0.0582437
1 0.502907 0.218372
0.1075 0.347036 0.24828
0.122103 0.354482 0.228626
0.325917 0.349783 0.148821
0.834806 0.353201 0.12047
1 0.565545 0.247807
0.421363 0.735515 0.435004
0.442893 0.732876 0.432578
0.534844 0.722667 0.414511
0.81529 0.710384 0.332387
1 0.749462 0.368872
0.950439 0.988998 0.604761
0.952895 0.988754 0.60441
0.964157 0.987335 0.605417
1 0.980758 0.606683
1 0.973281 0.613672
0 0.00105287 0.169085
0.0506752 0.0104829 0.152911
0.374197 0.0132296 0.102388
0.882856 0.127611 0.0911879
1 0.493019 0.236133
0 0.0977798 0.150256
0.0722972 0.10309 0.136812
0.359518 0.106294 0.110872
0.874022 0.180102 0.099794
1 0.507805 0.241901
0.117632 0.35169 0.280171
0.158907 0.352636 0.274922
0.331563 0.358099 0.195438
0.839261 0.361563 0.153048
1 0.569375 0.268818
0.422065 0.737163 0.450217
0.443076 0.734295 0.447608
0.53518 0.724056 0.429953
0.815656 0.711833 0.35021
1 0.750866 0.382773
0.950362 0.989029 0.610193
0.952865 0.988861 0.609491
0.964096 0.987427 0.610498
1 0.980713 0.611704
1 0.973358 0.618112
0.0033875 0.0412299 0.484337
0.0840772 0.0553292 0.472572
0.345373 0.0841077 0.432746
0.865476 0.19408 0.307668
1 0.515984 0.342336
0.0328069 0.129961 0.462745
0.104616 0.137972 0.453147
0.345647 0.161013 0.41796
0.860685 0.243153 0.297246
1 0.529213 0.344869
0.182422 0.37734 0.401221
0.219577 0.378103 0.394095
0.36907 0.384253 0.375204
0.840314 0.394339 0.295918
1 0.585809 0.359228
0.434211 0.741299 0.517189
0.450904 0.740353 0.513634
0.538293 0.731334 0.499809
0.816312 0.718349 0.426871
1 0.757275 0.441489
0.95024 0.989319 0.634287
0.952712 0.989258 0.632685
0.963714 0.987778 0.632883
1 0.98114 0.633555
1 0.973892 0.63711
0.200366 0.267613 0.883986
0.241917 0.272908 0.877165
0.402472 0.30341 0.845991
0.791623 0.3608 0.786236
1 0.600549 0.667781
0.217227 0.310689 0.871275
0.255756 0.314778 0.864912
0.407706 0.33901 0.835752
0.785489 0.390753 0.778241
1 0.611643 0.663386
0.295125 0.46154 0.822477
0.323613 0.463081 0.817807
0.440833 0.472068 0.796155
0.766629 0.504891 0.747219
1 0.655421 0.648188
0.530587 0.757076 0.736873
0.542382 0.756741 0.735256
0.595941 0.755016 0.728374
0.775326 0.760159 0.702464
1 0.789425 0.640696
0.935622 0.991989 0.752956
0.937713 0.991974 0.751949
0.947372 0.992081 0.747311
0.989044 0.989487 0.741482
1 0.983902 0.733104
0.594827 0.674174 1
0.604944 0.674632 1
0.650904 0.678782 1
0.815137 0.69546 1
1 0.770672 0.962249
0.599084 0.682811 1
0.609354 0.683482 1
0.653819 0.686976 1
0.814755 0.703182 1
1 0.775433 0.960266
0.621134 0.720806 1
0.630274 0.721233 1
0.669932 0.72372 1
0.815885 0.737911 0.997436
1 0.798245 0.951537
0.719326 0.845228 0.980056
0.724437 0.845304 0.978988
0.748257 0.845533 0.973739
0.841382 0.851545 0.953277
1 0.88127 0.923919
0.93637 1 0.935851
0.937804 1 0.935836
0.944274 1 0.935653
0.971969 1 0.932097
1 1 0.925582
