public/textures/grade/Fuji/Parasitic-FLog.cube
TITLE "Generated by Resolve"
LUT_3D_SIZE 9
0 0.0019379 0
0.0040589 0.000534066 0
0.0930343 0 0
0.225299 0 0
0.39707 0 0
0.580606 0.0215915 0
0.762158 0.122591 0
0.945083 0.289021 0
1 0.504906 0.0882887
0 0.0330053 0
0.0015259 0.0321202 0
0.0807355 0.0243229 0
0.212207 0.0145266 0
0.384192 0.0157931 0
0.570642 0.0506294 0
0.759472 0.142092 0
0.943969 0.300649 0
1 0.510491 0.0882429
0 0.0887312 0
0 0.0876783 0
0.0636759 0.0835584 0
0.188159 0.0750134 0
0.361303 0.0723888 0
0.5561 0.0975967 0
0.755352 0.175326 0
0.940688 0.320577 0
1 0.520088 0.087953
0 0.182498 0
0.0174411 0.181689 0
0.0664988 0.180346 0
0.16463 0.176089 0
0.327764 0.172168 0
0.532784 0.184863 0
0.744595 0.241245 0
0.934096 0.362844 0
1 0.541482 0.0885176
0.0590524 0.324681 0
0.0781872 0.324422 0
0.11133 0.32462 0
0.180194 0.323674 0
0.309483 0.322393 0
0.503365 0.326192 0
0.72195 0.357504 0
0.919173 0.442725 0
1 0.584268 0.0910658
0.176226 0.518761 0
0.187259 0.518425 0
0.208225 0.518303 0
0.252781 0.517555 0
0.34136 0.516442 0
0.492607 0.51548 0
0.692851 0.526131 0
0.892668 0.570047 0
1 0.661692 0.103044
0.356298 0.72752 0.014725
0.362448 0.727291 0.014023
0.373159 0.726986 0.013138
0.397375 0.726162 0.0112459
0.447288 0.724269 0.00787366
0.542092 0.721141 0.00489815
0.689494 0.72047 0.01355
0.865507 0.73312 0.0539864
1 0.775189 0.143313
0.566415 0.908278 0.176654
0.568917 0.908125 0.176486
0.573449 0.907866 0.176181
0.584451 0.907088 0.175418
0.607217 0.905425 0.173556
0.654383 0.902739 0.171908
0.738827 0.898451 0.172885
0.862028 0.896559 0.190143
1 0.906188 0.243824
0.760433 1 0.396994
0.761379 1 0.396918
0.763134 1 0.39675
0.767117 1 0.396384
0.775677 1 0.395789
0.794873 1 0.394141
0.832288 1 0.392935
0.898863 1 0.395773
0.992615 1 0.414939
0 0.00358587 0.0371557
0.00262455 0.00309758 0.0348516
0.0882429 0 0.0207828
0.224201 0 0
0.397818 0 0
0.583139 0.0250706 0
0.767132 0.125063 0
0.949538 0.290288 0.0033875
1 0.504799 0.104707
0 0.033753 0.0247807
0.00270085 0.0344549 0.0218967
0.0830091 0.0269169 0.00109865
0.214405 0.0173648 0
0.386252 0.0188144 0
0.573709 0.0536355 0
0.76437 0.143984 0
0.948013 0.301472 0.00273136
1 0.510384 0.104524
0 0.0894026 0.00277714
0.00231937 0.0894331 0
0.0621042 0.0867933 0
0.18996 0.0776684 0
0.364401 0.0749676 0
0.559976 0.100069 0
0.760311 0.177035 0
0.944915 0.321645 0.00144961
1 0.519905 0.104463
0 0.183841 0
0.0205386 0.183566 0
0.067689 0.182727 0
0.164904 0.179294 0
0.330632 0.174517 0
0.537118 0.186847 0
0.749401 0.242802 0
0.938033 0.363714 0
1 0.541314 0.104311
0.0616617 0.326238 0
0.080354 0.326467 0
0.112306 0.326528 0
0.180392 0.326284 0
0.310124 0.324544 0
0.505913 0.327688 0
0.725353 0.358373 0
0.922133 0.442847 0
1 0.584009 0.106157
0.176501 0.519738 0
0.187839 0.519783 0
0.208942 0.519615 0
0.253025 0.51902 0
0.341146 0.517647 0
0.493278 0.516854 0
0.694514 0.527016 0
0.894896 0.570108 0.0121157
1 0.661357 0.116564
0.355718 0.727916 0.0359503
0.361852 0.727687 0.0353246
0.372519 0.727398 0.0343633
0.396551 0.726421 0.0320134
0.446647 0.724727 0.0276799
0.541512 0.721538 0.0238499
0.689143 0.720409 0.0301823
0.865995 0.733059 0.0681468
1 0.774884 0.154253
0.565744 0.908186 0.1888
0.568139 0.908064 0.188632
0.572808 0.907774 0.188296
0.583795 0.906996 0.187457
0.606455 0.905318 0.185855
0.653574 0.902495 0.183108
0.738277 0.898344 0.183383
0.861784 0.896376 0.19939
1 0.905928 0.251392
0.760082 1 0.402747
0.761028 1 0.402609
0.762783 1 0.40238
0.766766 1 0.401892
0.775341 1 0.401236
0.794461 1 0.399878
0.831907 1 0.398611
0.898528 1 0.401007
0.99237 1 0.419471
0 0.00761425 0.126711
0.00236515 0.00656138 0.124269
0.0655833 0.00233463 0.118715
0.207462 0 0.0941176
0.394141 0 0.0480507
0.585016 0.0311284 0.0129091
0.774258 0.12874 0.011017
0.956817 0.291722 0.0468452
1 0.504524 0.134722
0 0.0389258 0.109087
0.00288396 0.039704 0.106691
0.0577859 0.0382086 0.100999
0.205325 0.024094 0.076051
0.385077 0.024506 0.0365148
0.577203 0.0590066 0.00862135
0.772183 0.147723 0.00839246
0.955291 0.302937 0.0459144
1 0.509712 0.134051
0 0.091249 0.0865034
0.00769055 0.0922713 0.0846876
0.051606 0.093492 0.0805982
0.195682 0.0803693 0.0448768
0.368429 0.0792401 0.0184176
0.565301 0.104479 0.000549325
0.767636 0.180041 0.00355535
0.952209 0.322866 0.044007
1 0.519585 0.133959
0.00311284 0.185168 0.0558633
0.0270085 0.185779 0.0530556
0.0688334 0.186145 0.0459754
0.163684 0.183902 0.0248264
0.335714 0.178027 0
0.543587 0.190295 0
0.756527 0.24509 0
0.944686 0.364202 0.0404364
1 0.540597 0.133135
0.0657206 0.328679 0.0263523
0.0829786 0.329091 0.0237736
0.114046 0.329366 0.0183719
0.180591 0.329656 0.00633249
0.310536 0.32842 0
0.51046 0.330449 0
0.731395 0.360265 0
0.927687 0.443458 0.0365911
1 0.583535 0.133425
0.177737 0.521523 0.0180056
0.189181 0.521523 0.0166476
0.209339 0.521126 0.0134737
0.252872 0.520943 0.00749218
0.340703 0.519738 0
0.493538 0.518654 0
0.696834 0.527718 0
0.898604 0.570169 0.0445869
1 0.660533 0.140444
0.354757 0.728496 0.0737621
0.360861 0.728283 0.0729381
0.371481 0.727993 0.071809
0.395209 0.726833 0.0688029
0.445075 0.725078 0.0637827
0.540413 0.722164 0.0573739
0.688899 0.72076 0.0600748
0.866835 0.732937 0.0932631
1 0.774319 0.173877
0.564553 0.907958 0.211048
0.566796 0.907881 0.210941
0.571649 0.90753 0.210483
0.58265 0.906783 0.209262
0.605264 0.905165 0.206958
0.652277 0.902251 0.203906
0.737224 0.898131 0.202762
0.86128 0.896025 0.216464
1 0.90544 0.265553
0.759396 1 0.413626
0.760342 1 0.41352
0.762081 1 0.413336
0.766064 1 0.412909
0.774624 1 0.412177
0.793713 1 0.410483
0.831266 1 0.408438
0.897963 1 0.410056
0.991928 1 0.427283
0 0.01944 0.282551
0.00251774 0.0191653 0.279606
0.0560006 0.0182803 0.274098
0.168154 0.0140536 0.260243
0.364874 0.0109255 0.220615
0.579675 0.0441444 0.161395
0.784344 0.135378 0.129793
0.969741 0.294102 0.139467
1 0.503609 0.198459
0 0.0512245 0.261769
0.00424201 0.0516823 0.258824
0.0545205 0.0513619 0.253895
0.161913 0.047776 0.243229
0.359426 0.0420539 0.206943
0.575036 0.0700999 0.154055
0.783123 0.153628 0.126467
0.96791 0.305013 0.137514
1 0.508995 0.198169
0 0.101823 0.23122
0.0118257 0.102586 0.228779
0.0552682 0.103426 0.224704
0.150774 0.102052 0.216083
0.353582 0.0914168 0.184436
0.567605 0.113283 0.141726
0.779126 0.185168 0.118822
0.964431 0.324666 0.133745
1 0.518578 0.196704
0.0166476 0.190585 0.194095
0.0376287 0.191699 0.193347
0.0730602 0.193301 0.191882
0.142046 0.196445 0.186969
0.345663 0.182391 0.141146
0.552621 0.19498 0.115999
0.768643 0.248539 0.104875
0.956695 0.365728 0.127626
1 0.53959 0.195041
0.0742199 0.332204 0.160616
0.0901045 0.332906 0.159579
0.118257 0.33373 0.155962
0.17879 0.335271 0.145602
0.30811 0.334264 0.114839
0.517845 0.333928 0.0834363
0.742321 0.362097 0.083711
0.938323 0.443519 0.117449
1 0.582513 0.191897
0.179934 0.523674 0.131289
0.190646 0.523827 0.12961
0.209949 0.523583 0.125811
0.252476 0.523735 0.118563
0.338704 0.522713 0.102831
0.493065 0.521599 0.0806134
0.702129 0.529091 0.0771038
0.905165 0.569635 0.113741
1 0.659297 0.192935
0.352773 0.728832 0.153719
0.358419 0.728725 0.152834
0.369284 0.728389 0.150988
0.393103 0.727687 0.147387
0.442527 0.725948 0.140337
0.53756 0.72314 0.129488
0.688075 0.721309 0.123842
0.868223 0.732113 0.14757
1 0.772763 0.217243
0.562112 0.907423 0.259068
0.564538 0.907286 0.258824
0.569253 0.906783 0.258076
0.579782 0.905974 0.256641
0.602701 0.904662 0.254093
0.649729 0.901808 0.248936
0.734752 0.897642 0.245136
0.860151 0.895262 0.253742
1 0.904372 0.296193
0.757961 1 0.437568
0.758907 1 0.437446
0.760647 1 0.437232
0.764614 1 0.436683
0.773205 1 0.435431
0.791989 1 0.433219
0.829786 1 0.430762
0.896681 1 0.430762
0.990982 1 0.445335
0 0.0526894 0.496956
0.0122072 0.0530098 0.493034
0.058381 0.0537728 0.486244
0.148638 0.0548867 0.472313
0.309941 0.0584573 0.446418
0.544457 0.0793774 0.398169
0.78616 0.153323 0.343114
0.984451 0.300237 0.312886
1 0.502586 0.325719
0 0.0808728 0.475334
0.0163424 0.081239 0.471672
0.060853 0.0821241 0.465888
0.147082 0.0834058 0.454032
0.30576 0.0857099 0.433722
0.542443 0.101961 0.391318
0.785504 0.170016 0.338811
0.982818 0.310521 0.309987
1 0.508034 0.324025
0.00318914 0.12607 0.441932
0.0268406 0.127062 0.439368
0.0665751 0.128222 0.434852
0.146685 0.129763 0.427039
0.29958 0.130388 0.414191
0.54049 0.139605 0.380011
0.78352 0.199039 0.330007
0.979767 0.329198 0.304814
1 0.517266 0.321798
0.0340581 0.209094 0.395163
0.0530861 0.210071 0.394064
0.085893 0.211597 0.392157
0.153307 0.213901 0.388632
0.289021 0.214557 0.382742
0.538521 0.212284 0.354589
0.776745 0.257755 0.311238
0.972412 0.368521 0.293538
1 0.537972 0.31696
0.0912032 0.342748 0.358144
0.105104 0.34316 0.357488
0.130144 0.344442 0.356771
0.182467 0.346517 0.354849
0.280354 0.350607 0.349096
0.531044 0.338491 0.29752
0.755825 0.365255 0.274281
0.95407 0.444205 0.273228
1 0.580224 0.308415
0.189639 0.526375 0.323568
0.199527 0.526497 0.32285
0.217472 0.526711 0.321294
0.255665 0.526894 0.316228
0.334524 0.527489 0.302434
0.488365 0.526223 0.265446
0.708568 0.530571 0.237095
0.916564 0.56849 0.249256
1 0.656397 0.298116
0.352209 0.72871 0.305241
0.357992 0.728511 0.304265
0.368124 0.728298 0.302678
0.391073 0.727687 0.298711
0.438605 0.726299 0.289418
0.531868 0.723918 0.271534
0.685069 0.721538 0.25066
0.871092 0.730892 0.25568
1 0.770001 0.304143
0.558129 0.905623 0.355886
0.560708 0.90547 0.355428
0.565454 0.905165 0.354574
0.575647 0.904616 0.352895
0.598245 0.903014 0.348775
0.64509 0.900572 0.341054
0.730083 0.896132 0.331289
0.857267 0.893492 0.329473
1 0.901991 0.359289
0.755352 1 0.487678
0.756298 1 0.487526
0.758038 1 0.487251
0.761975 1 0.48661
0.770489 1 0.48539
0.789075 1 0.482078
0.826856 1 0.477836
0.894026 1 0.474586
0.989105 1 0.483925
0.0323644 0.125643 0.714809
0.0531319 0.126329 0.711894
0.088777 0.12784 0.706661
0.159869 0.130938 0.697353
0.288014 0.137774 0.683253
0.492988 0.153994 0.664714
0.752285 0.204334 0.630625
0.982193 0.323232 0.578973
1 0.505974 0.538979
0.0390326 0.14696 0.699794
0.0589609 0.147982 0.697368
0.0930343 0.149538 0.693263
0.161822 0.152316 0.686015
0.287648 0.157885 0.674937
0.492027 0.172091 0.660807
0.751476 0.218387 0.626978
0.980789 0.332326 0.575479
1 0.510994 0.536965
0.050309 0.183062 0.677501
0.068986 0.18381 0.676234
0.101152 0.185412 0.673777
0.166262 0.187869 0.669062
0.287327 0.192798 0.662516
0.488701 0.203601 0.652766
0.750225 0.243107 0.620996
0.979339 0.348943 0.570642
1 0.51986 0.533776
0.0743877 0.252613 0.645289
0.0903334 0.253513 0.644968
0.118379 0.254536 0.643961
0.176867 0.256687 0.642664
0.288212 0.260182 0.64004
0.482719 0.266148 0.635203
0.745678 0.293614 0.606668
0.973831 0.383993 0.558083
1 0.538857 0.526162
0.121248 0.371069 0.60795
0.133959 0.37142 0.607416
0.15671 0.37232 0.606668
0.204517 0.373709 0.605097
0.29781 0.376394 0.600671
0.469841 0.378363 0.597238
0.736675 0.386542 0.573678
0.960967 0.45214 0.530526
1 0.579019 0.510353
0.214893 0.538003 0.566613
0.22356 0.538186 0.566247
0.23917 0.538003 0.565072
0.273579 0.538491 0.563272
0.342138 0.539269 0.559442
0.462898 0.541833 0.55111
0.720333 0.532998 0.50396
0.929335 0.568689 0.482811
1 0.652857 0.484321
0.36408 0.728283 0.534035
0.369314 0.72813 0.53341
0.378378 0.727977 0.532357
0.398627 0.727153 0.529366
0.442115 0.726253 0.523888
0.526436 0.724559 0.507912
0.677806 0.722713 0.469383
0.8748 0.728298 0.444633
1 0.765515 0.461219
0.557183 0.901747 0.524041
0.559625 0.901595 0.523537
0.563653 0.901457 0.522789
0.573709 0.900877 0.520623
0.594949 0.899779 0.516075
0.639582 0.897368 0.505913
0.723064 0.893523 0.487861
0.851911 0.890593 0.469444
0.999863 0.89836 0.477699
0.751888 1 0.583429
0.752804 1 0.583215
0.754498 1 0.582849
0.758007 1 0.582177
0.76672 1 0.580285
0.785107 1 0.576562
0.8224 1 0.569574
0.889128 1 0.560128
0.985275 1 0.559762
0.126604 0.254582 0.920897
0.140276 0.255344 0.920714
0.164691 0.256168 0.920287
0.215488 0.258442 0.918639
0.3131 0.263355 0.915434
0.477745 0.274907 0.909102
0.704723 0.307729 0.895644
0.942779 0.388449 0.863432
1 0.530938 0.811124
0.130541 0.268513 0.916701
0.144274 0.269078 0.916762
0.167819 0.269902 0.915953
0.217441 0.272068 0.914427
0.314015 0.276646 0.911589
0.476616 0.287434 0.905638
0.703304 0.317968 0.892897
0.941649 0.395941 0.861234
1 0.53521 0.809262
0.137636 0.292485 0.909499
0.150591 0.293095 0.909285
0.17377 0.294148 0.908873
0.221775 0.29601 0.907378
0.315648 0.299687 0.904311
0.475807 0.309392 0.899382
0.700786 0.336553 0.887907
0.939559 0.408865 0.857221
1 0.542779 0.806348
0.153964 0.342321 0.894026
0.16582 0.342824 0.893812
0.186954 0.343282 0.893019
0.231708 0.344808 0.891722
0.320348 0.347677 0.88925
0.473869 0.354696 0.885313
0.695399 0.375631 0.876753
0.934859 0.436728 0.848173
1 0.559243 0.798245
0.189776 0.433112 0.864546
0.199908 0.433402 0.864286
0.217853 0.433509 0.863371
0.256779 0.434211 0.861875
0.334844 0.435706 0.85951
0.472587 0.439414 0.855863
0.683772 0.450675 0.851835
0.924437 0.492561 0.828656
1 0.593545 0.78201
0.264256 0.571054 0.819425
0.271901 0.571038 0.818982
0.285344 0.571099 0.81825
0.314565 0.571054 0.816632
0.374502 0.571221 0.813382
0.484688 0.571756 0.80763
0.664134 0.574182 0.804623
0.906065 0.589502 0.789197
1 0.658442 0.749798
0.395621 0.737469 0.774044
0.399802 0.737423 0.773785
0.40824 0.737133 0.773068
0.426505 0.736599 0.771603
0.464454 0.735363 0.768185
0.539025 0.733532 0.761975
0.660426 0.733715 0.751034
0.879286 0.728771 0.717845
1 0.762341 0.69752
0.570535 0.897246 0.742138
0.572381 0.897139 0.741894
0.57644 0.896864 0.74136
0.585458 0.896315 0.740185
0.604929 0.895232 0.737621
0.645029 0.89305 0.731533
0.720211 0.890333 0.717388
0.844038 0.888334 0.68246
0.998672 0.893599 0.66215
0.752438 1 0.736217
0.753307 1 0.736019
0.754894 1 0.735637
0.758541 1 0.734737
0.766445 1 0.732891
0.784085 1 0.728649
0.819181 1 0.719509
0.882979 1 0.703243
0.979477 1 0.688045
0.271168 0.43801 1
0.27924 0.437842 1
0.29398 0.43827 1
0.326085 0.439185 1
0.391226 0.440757 1
0.508827 0.446067 1
0.685634 0.462181 1
0.89514 0.506157 1
1 0.59791 1
0.273304 0.445396 1
0.281636 0.445548 1
0.296193 0.445991 1
0.328084 0.446387 1
0.39237 0.448249 1
0.508827 0.453117 1
0.6851 0.468299 1
0.894041 0.511177 1
1 0.601053 1
0.277821 0.458762 1
0.285695 0.458976 1
0.299931 0.459358 1
0.331151 0.459632 1
0.394171 0.461265 1
0.508934 0.465766 1
0.683879 0.479545 1
0.892378 0.520119 1
1 0.606546 1
0.288121 0.487343 1
0.29601 0.487358 1
0.309606 0.487617 1
0.339055 0.48809 1
0.39913 0.489052 1
0.510262 0.492363 1
0.680186 0.503975 1
0.888197 0.539284 1
1 0.619028 1
0.312001 0.543801 1
0.318685 0.543877 1
0.330373 0.543633 1
0.357397 0.543786 1
0.411917 0.544182 1
0.514275 0.545708 1
0.675822 0.553002 1
0.87837 0.578866 1
1 0.645258 1
0.361822 0.638773 1
0.36733 0.638666 1
0.377096 0.638544 1
0.398611 0.638346 1
0.443778 0.637568 1
0.529351 0.637003 1
0.670832 0.639338 1
0.86096 0.652033 1
1 0.696071 0.999786
0.45803 0.767636 0.98526
0.461585 0.767346 0.984787
0.467826 0.767178 0.984298
0.482292 0.766659 0.983063
0.513558 0.76556 0.980514
0.57528 0.763317 0.975235
0.681392 0.761563 0.968078
0.838712 0.763516 0.966537
1 0.780026 0.958511
0.603647 0.903395 0.938933
0.605585 0.903243 0.938735
0.609064 0.902861 0.938262
0.616464 0.90222 0.937316
0.633585 0.901091 0.935424
0.668803 0.898726 0.93135
0.735103 0.895567 0.924331
0.837903 0.893828 0.914443
0.995987 0.893172 0.895644
0.767666 1 0.910323
0.768444 1 0.910185
0.769879 1 0.909926
0.772915 1 0.909514
0.780346 1 0.908415
0.796002 1 0.906249
0.827985 1 0.901076
0.884489 1 0.889632
0.97293 1 0.862882
0.461601 0.644526 1
0.465705 0.64448 1
0.473335 0.644388 1
0.489693 0.644144 1
0.524865 0.643931 1
0.593332 0.644297 1
0.709651 0.647898 1
0.86894 0.663767 1
1 0.707729 1
0.462837 0.647868 1
0.466987 0.647807 1
0.474556 0.6477 1
0.490761 0.647196 1
0.525765 0.647166 1
0.593606 0.647334 1
0.709911 0.650782 1
0.868391 0.666407 1
1 0.709651 1
0.465324 0.653407 1
0.469429 0.65333 1
0.476448 0.653346 1
0.492638 0.653239 1
0.526894 0.652857 1
0.594873 0.65301 1
0.709621 0.65626 1
0.867216 0.670848 1
1 0.713176 1
0.470619 0.666423 1
0.474556 0.666316 1
0.481804 0.666194 1
0.49752 0.666072 1
0.530785 0.665568 1
0.596918 0.665415 1
0.709041 0.668299 1
0.864897 0.68162 1
1 0.72076 1
0.483268 0.693919 1
0.4869 0.693736 1
0.493019 0.693416 1
0.507897 0.693095 1
0.539513 0.692638 1
0.601755 0.691661 1
0.709239 0.693156 1
0.860288 0.703624 1
1 0.737499 1
0.510872 0.744961 1
0.514076 0.744839 1
0.519936 0.74461 1
0.53228 0.743938 1
0.559609 0.743252 1
0.614755 0.741878 1
0.711803 0.741512 1
0.852689 0.747066 1
1 0.771282 1
0.567315 0.825757 1
0.569711 0.825635 1
0.573663 0.825513 1
0.58352 0.824994 1
0.604257 0.823728 1
0.647562 0.821958 1
0.725505 0.819532 1
0.845869 0.819883 1
0.995209 0.831067 1
0.665537 0.926085 1
0.666957 0.925978 1
0.66952 0.925704 1
0.674952 0.925185 1
0.687907 0.924285 1
0.715358 0.922545 1
0.768017 0.919341 1
0.854917 0.916457 1
0.974319 0.917662 1
0.796414 1 1
0.797086 1 1
0.798337 1 1
0.801205 1 1
0.80737 1 1
0.821225 1 1
0.849058 1 1
0.900221 1 1
0.977172 1 1
