public/textures/grade/Fuji/Parasitic-FLog.cube
TITLE "Generated by Resolve"
LUT_3D_SIZE 33
0 0.0019379 0
0 0.00195315 0
0 0.00230411 0
0 0.00239567 0
0.0040589 0.000534066 0
0.023209 0 0
0.0438544 0 0
0.0674601 0 0
0.0930343 0 0
0.121752 0 0
0.153216 0 0
0.187732 0 0
0.225299 0 0
0.265187 0 0
0.307454 0 0
0.351644 0 0
0.39707 0 0
0.443259 0 0
0.48983 0 0
0.535668 0.00634775 0
0.580606 0.0215915 0
0.624872 0.0409247 0
0.669749 0.0642252 0
0.715663 0.0915236 0
0.762158 0.122591 0
0.810208 0.157977 0
0.857023 0.197498 0
0.902266 0.241215 0
0.945083 0.289021 0
0.985855 0.340154 0.00172427
1 0.393713 0.0270237
1 0.44889 0.0560464
1 0.504906 0.0882887
0 0.00894179 0
0 0.00929274 0
0 0.00952163 0
0 0.00929274 0
0.00395209 0.00770581 0
0.0219425 0.00521859 0
0.0423743 0.00262455 0
0.0658732 0 0
0.0915694 0 0
0.119951 0 0
0.151537 0 0
0.185962 0 0
0.222507 0 0
0.262364 0 0
0.304524 0 0
0.348562 0 0
0.394202 0 0
0.440131 0 0
0.486702 0.00277714 0
0.532753 0.0140841 0
0.578073 0.0291905 0
0.622995 0.047776 0
0.668101 0.0702525 0
0.714336 0.0968338 0
0.761639 0.127535 0
0.809476 0.162081 0
0.856947 0.201266 0
0.9019 0.244602 0
0.944732 0.29192 0
0.985534 0.342611 0.00164797
1 0.395773 0.026978
1 0.450599 0.0558633
1 0.506279 0.0882734
0 0.016434 0
0 0.0167239 0
0 0.0167544 0
0 0.016495 0
0.00363165 0.0149844 0
0.0202487 0.0130312 0
0.0398871 0.010605 0
0.0629587 0.00798047 0
0.0888685 0.00515755 0
0.11722 0.00250248 0
0.148531 0 0
0.182437 0 0
0.219471 0 0
0.25922 0 0
0.301503 0 0
0.345464 0 0
0.391226 0 0
0.437247 0.00329595 0
0.483558 0.0108949 0
0.529961 0.0218204 0
0.575616 0.0362402 0
0.621149 0.0542 0
0.666865 0.0761425 0
0.713497 0.102235 0
0.7608 0.132357 0
0.809018 0.166461 0
0.856321 0.204868 0
0.901823 0.247852 0
0.944381 0.29482 0
0.985199 0.345052 0.00157168
1 0.397818 0.0269169
1 0.452293 0.055787
1 0.507652 0.0882582
0 0.024155 0
0 0.0243229 0
0 0.0244144 0
0 0.0240787 0
0.00273136 0.0228885 0
0.017731 0.0215763 0
0.0371099 0.0194247 0
0.059266 0.0171054 0
0.0849317 0.0145418 0
0.113176 0.0118563 0
0.144961 0.0091249 0
0.179385 0.00680552 0
0.21619 0.00477607 0
0.25594 0.00343328 0
0.298146 0.00303655 0
0.342245 0.00401312 0
0.387991 0.00662242 0
0.434379 0.0113375 0
0.480613 0.0189212 0
0.527108 0.0291752 0
0.573159 0.0430762 0
0.61944 0.0607919 0
0.665522 0.0821698 0
0.712154 0.107408 0
0.759945 0.136995 0
0.808835 0.170642 0
0.855817 0.208591 0
0.901488 0.251164 0
0.944106 0.297627 0
0.984848 0.347494 0.00137331
1 0.399863 0.0268711
1 0.453971 0.0557565
1 0.50901 0.0882582
0 0.0330053 0
0 0.0333104 0
0 0.0332494 0
0 0.0331121 0
0.0015259 0.0321202 0
0.0160372 0.0308232 0
0.0339818 0.0291295 0
0.0554971 0.0269322 0
0.0807355 0.0243229 0
0.108873 0.0217594 0
0.140551 0.0191196 0
0.17528 0.0165713 0
0.212207 0.0145266 0
0.25214 0.0131838 0
0.294301 0.0125734 0
0.338781 0.0132448 0
0.384192 0.0157931 0
0.430976 0.0200351 0
0.477546 0.0273594 0
0.524056 0.0371252 0
0.570642 0.0506294 0
0.61709 0.0676738 0
0.663996 0.088304 0
0.711238 0.11313 0
0.759472 0.142092 0
0.808026 0.175067 0
0.855436 0.212696 0
0.900725 0.254414 0
0.943969 0.300649 0
0.984466 0.350149 0.00114443
1 0.40206 0.0268101
1 0.455787 0.0557259
1 0.510491 0.0882429
0 0.0438849 0
0 0.0441444 0
0 0.0440833 0
0 0.0438087 0
7.62951e-05 0.0429236 0
0.0139925 0.0417029 0
0.0307164 0.0404212 0
0.0512703 0.0384985 0
0.0758831 0.0363622 0
0.103853 0.0338293 0
0.135698 0.0309606 0
0.170275 0.0283513 0
0.207599 0.0262913 0
0.247578 0.0247807 0
0.289754 0.0238956 0
0.334493 0.0244907 0
0.379889 0.026566 0
0.426764 0.0306554 0
0.473915 0.0372168 0
0.520882 0.0469062 0
0.567727 0.0594339 0
0.614481 0.0758831 0
0.662318 0.0961013 0
0.710246 0.120104 0
0.758465 0.148043 0
0.807553 0.180545 0
0.855009 0.217639 0
0.900191 0.258808 0
0.943145 0.304051 0
0.98436 0.353231 0.00143435
1 0.404776 0.0267643
1 0.458015 0.0556954
1 0.512322 0.0881056
0 0.0565042 0
0 0.0566873 0
0 0.0567636 0
0 0.0564889 0
0 0.0556191 0
0.0127413 0.0547036 0
0.0285649 0.0534676 0
0.0484321 0.0518349 0
0.0714733 0.0498512 0
0.0986191 0.0474556 0
0.129625 0.044892 0
0.164279 0.0423743 0
0.201785 0.0400549 0
0.241871 0.0382544 0
0.284703 0.0373846 0
0.328756 0.0375982 0
0.374746 0.0394598 0
0.421561 0.0432746 0
0.469215 0.0491798 0
0.516854 0.0582589 0
0.564263 0.0701152 0
0.612009 0.0858473 0
0.660197 0.105135 0
0.708598 0.128313 0
0.757656 0.155612 0
0.806683 0.187381 0
0.853864 0.223407 0
0.899794 0.264042 0
0.942489 0.308705 0
0.983444 0.356771 0.000991836
1 0.407782 0.0269627
1 0.460639 0.0558175
1 0.514336 0.0876783
0 0.0715648 0
0 0.0717479 0
0 0.0717021 0
0 0.0712749 0
0 0.0703746 0
0.0112612 0.0695506 0
0.0261692 0.0686198 0
0.0449226 0.0673533 0
0.0669108 0.0656748 0
0.0935988 0.063447 0
0.123476 0.0612039 0
0.158022 0.0585794 0
0.195117 0.0563058 0
0.235111 0.0544747 0
0.277546 0.0532845 0
0.322423 0.0531472 0
0.368917 0.0544747 0
0.415686 0.0577707 0
0.464134 0.063386 0
0.512001 0.0714427 0
0.56025 0.0828565 0
0.608881 0.0975509 0
0.657786 0.115846 0
0.706828 0.13817 0
0.756512 0.16437 0
0.805676 0.195148 0
0.853208 0.230625 0
0.898512 0.270176 0
0.942031 0.314183 0
0.982727 0.361547 0.000869764
1 0.411551 0.026688
1 0.463539 0.0556954
1 0.516777 0.087953
0 0.0887312 0
0 0.0887922 0
0 0.0886397 0
0 0.088365 0
0 0.0876783 0
0.0106966 0.0869306 0
0.0256657 0.0860151 0
0.0424048 0.0849775 0
0.0636759 0.0835584 0
0.0882277 0.0817578 0
0.117952 0.0796063 0
0.150591 0.0775158 0
0.188159 0.0750134 0
0.227771 0.0730449 0
0.270359 0.0716564 0
0.315206 0.0712749 0
0.361303 0.0723888 0
0.409186 0.0749523 0
0.457404 0.0798657 0
0.506691 0.0871748 0
0.5561 0.0975967 0
0.605509 0.111452 0
0.65507 0.128573 0
0.704936 0.150088 0
0.755352 0.175326 0
0.80473 0.204959 0
0.852033 0.238972 0
0.897734 0.277821 0
0.940688 0.320577 0
0.982208 0.367193 0.00108339
1 0.416449 0.0264897
1 0.467582 0.0556649
1 0.520088 0.087953
0 0.1084 0
0 0.108415 0
0 0.108309 0
0 0.107729 0
0.000244144 0.107057 0
0.0117647 0.106538 0
0.025391 0.105867 0
0.0416876 0.104952 0
0.0615854 0.103914 0
0.084947 0.102419 0
0.112566 0.100511 0
0.144183 0.098436 0
0.180148 0.096376 0
0.219745 0.0944228 0
0.261692 0.0930953 0
0.306401 0.092134 0
0.353521 0.0927138 0
0.401556 0.0948196 0
0.450568 0.0991531 0
0.500679 0.10573 0
0.55082 0.115099 0
0.60148 0.127871 0
0.651789 0.143847 0
0.7028 0.163912 0
0.753429 0.188067 0
0.803098 0.216403 0
0.850858 0.249454 0
0.896284 0.286702 0
0.939788 0.328588 0
0.980743 0.3738 0.000595102
1 0.422232 0.0266423
1 0.472496 0.0556649
1 0.524117 0.0879988
0 0.130831 0
0 0.130678 0
0 0.130434 0
0 0.129824 0
0.00341802 0.129427 0
0.0137942 0.128939 0
0.0269017 0.128313 0
0.0424201 0.127428 0
0.0604562 0.126619 0
0.0826581 0.125551 0
0.108339 0.124117 0
0.139132 0.122148 0
0.173312 0.120226 0
0.211337 0.118349 0
0.25362 0.116793 0
0.298161 0.115892 0
0.344442 0.116213 0
0.393271 0.117815 0
0.44332 0.121218 0
0.493828 0.126757 0
0.54493 0.135256 0
0.596796 0.146532 0
0.648524 0.161639 0
0.700145 0.180316 0
0.751125 0.203037 0
0.800977 0.230106 0
0.848737 0.261769 0
0.894453 0.297963 0
0.938094 0.337926 0
0.97969 0.382101 0.000518807
1 0.428962 0.0262455
1 0.478141 0.0559701
1 0.529 0.0880751
0 0.155657 0
0 0.155322 0
0 0.154833 0
0.000564584 0.154543 0
0.00901808 0.154253 0
0.019089 0.153735 0
0.0308537 0.153353 0
0.0451514 0.152895 0
0.0622263 0.152026 0
0.0825666 0.151202 0
0.106477 0.14995 0
0.135363 0.148516 0
0.168048 0.146883 0
0.20444 0.145357 0
0.245777 0.143572 0
0.289296 0.142641 0
0.336019 0.14258 0
0.384985 0.143786 0
0.435096 0.146304 0
0.487129 0.151202 0
0.538903 0.158587 0
0.591562 0.168811 0
0.644526 0.182223 0
0.696727 0.199359 0
0.748531 0.22063 0
0.798352 0.24622 0
0.846754 0.276173 0
0.892378 0.31078 0
0.936385 0.349538 0
0.977874 0.391684 0.000259403
1 0.437354 0.026627
1 0.485115 0.0554971
1 0.534371 0.0882887
0 0.182498 0
0 0.182162 0
0.00280766 0.181979 0
0.00982681 0.181857 0
0.0174411 0.181689 0
0.0264439 0.181521 0
0.0372473 0.181079 0
0.05066 0.180728 0
0.0664988 0.180346 0
0.0849928 0.179629 0
0.108171 0.178653 0
0.134081 0.177508 0
0.16463 0.176089 0
0.199329 0.175006 0
0.238895 0.173571 0
0.281666 0.172625 0
0.327764 0.172168 0
0.376394 0.172625 0
0.427222 0.174838 0
0.47924 0.178714 0
0.532784 0.184863 0
0.585901 0.193881 0
0.639521 0.205936 0
0.692592 0.221744 0
0.744595 0.241245 0
0.794995 0.265202 0
0.843519 0.29337 0
0.889937 0.325978 0
0.934096 0.362844 0
0.975967 0.403571 0.000320439
1 0.447074 0.0264439
1 0.493538 0.0560616
1 0.541482 0.0885176
0.0021973 0.212726 0
0.00868238 0.212665 0
0.0153353 0.212528 0
0.0216526 0.212436 0
0.0284123 0.212314 0
0.0366827 0.211963 0
0.0465858 0.211841 0
0.0589456 0.211551 0
0.0738079 0.211215 0
0.0906844 0.210712 0
0.111452 0.210254 0
0.135653 0.209415 0
0.163851 0.208698 0
0.197009 0.207355 0
0.233845 0.206226 0
0.275059 0.20531 0
0.32018 0.204883 0
0.368444 0.205112 0
0.418906 0.206683 0
0.47155 0.209644 0
0.525139 0.214969 0
0.579843 0.222385 0
0.634165 0.233021 0
0.687388 0.247211 0
0.740154 0.26511 0
0.791089 0.287297 0
0.839948 0.313344 0
0.886992 0.343755 0
0.931334 0.378592 0
0.973434 0.417197 7.62951e-05
1 0.459159 0.0266423
1 0.503227 0.0563821
1 0.549508 0.0885634
0.0193484 0.246342 0
0.0250553 0.246372 0
0.0309606 0.246326 0
0.0361639 0.246113 0
0.0425269 0.246036 0
0.0499886 0.245991 0
0.0590982 0.245914 0
0.0700542 0.245808 0
0.0827955 0.245457 0
0.0987564 0.245228 0
0.117952 0.244907 0
0.140124 0.244251 0
0.166751 0.243748 0
0.196582 0.243046 0
0.231342 0.24213 0
0.270756 0.241154 0
0.314168 0.241001 0
0.361563 0.241062 0
0.411154 0.241901 0
0.463905 0.24416 0
0.518395 0.248417 0
0.572778 0.25478 0
0.627756 0.263737 0
0.682139 0.276143 0
0.734691 0.29218 0
0.786404 0.312169 0
0.835966 0.336461 0
0.883146 0.364553 0
0.928115 0.396948 0
0.970382 0.433219 0.000442512
1 0.472908 0.0268559
1 0.514961 0.056611
1 0.559442 0.0894636
0.0383001 0.28336 0
0.0434424 0.283421 0
0.0487831 0.283421 0
0.0536965 0.283497 0
0.0593576 0.283497 0
0.0659342 0.283558 0
0.0743572 0.283482 0
0.0839704 0.283207 0
0.0960098 0.283146 0
0.110307 0.283085 0
0.127214 0.282673 0
0.147585 0.282506 0
0.171817 0.282246 0
0.200137 0.281514 0
0.232349 0.280934 0
0.269322 0.280629 0
0.310506 0.280079 0
0.355764 0.280003 0
0.405005 0.280629 0
0.456764 0.282475 0
0.510567 0.285283 0
0.565866 0.290608 0
0.620569 0.298268 0
0.675395 0.309178 0
0.729244 0.323156 0
0.780819 0.340749 0
0.830961 0.362417 0
0.878874 0.388434 0
0.92401 0.41828 0
0.966766 0.451942 0.0009308
1 0.488899 0.0276799
1 0.528984 0.0573892
1 0.57084 0.0900282
0.0590524 0.324681 0
0.06392 0.324697 0
0.0688182 0.324666 0
0.0731212 0.324559 0
0.0781872 0.324422 0
0.0841688 0.324483 0
0.0917372 0.324483 0
0.100526 0.324559 0
0.11133 0.32462 0
0.124086 0.3243 0
0.139666 0.324269 0
0.158221 0.324193 0
0.180194 0.323674 0
0.205829 0.323583 0
0.235523 0.32314 0
0.270573 0.32282 0
0.309483 0.322393 0
0.352224 0.322332 0
0.399664 0.322499 0
0.450111 0.323766 0
0.503365 0.326192 0
0.5579 0.329854 0
0.613428 0.336233 0
0.667933 0.345144 0
0.72195 0.357504 0
0.774639 0.373022 0
0.825101 0.392065 0
0.873503 0.415229 0
0.919173 0.442725 0
0.962386 0.473548 0.00177005
1 0.507713 0.0284581
1 0.54493 0.058381
1 0.584268 0.0910658
0.0825971 0.369177 0
0.0868849 0.369207 0
0.0908217 0.369314 0
0.0950637 0.369329 0
0.0996872 0.369345 0
0.104952 0.369451 0
0.11165 0.369345 0
0.119402 0.369207 0
0.129137 0.369253 0
0.141283 0.369192 0
0.155489 0.369177 0
0.172091 0.368811 0
0.19173 0.368887 0
0.215457 0.368521 0
0.242771 0.368277 0
0.274449 0.367987 0
0.31136 0.36759 0
0.352117 0.367315 0
0.396567 0.367483 0
0.445396 0.368032 0
0.496757 0.369848 0
0.550713 0.372946 0
0.605631 0.377707 0
0.660227 0.38497 0
0.714504 0.394903 0
0.767422 0.408484 0
0.81854 0.425254 0
0.866941 0.445487 0
0.913558 0.469902 0
0.957244 0.497612 0.00340276
0.998993 0.529168 0.0302129
1 0.563561 0.0597086
1 0.6 0.0924086
0.109178 0.416861 0
0.112978 0.416876 0
0.116762 0.416876 0
0.120531 0.416892 0
0.124269 0.416983 0
0.12932 0.416983 0
0.135363 0.416999 0
0.142504 0.41706 0
0.151003 0.417075 0
0.161669 0.416709 0
0.174517 0.416663 0
0.189807 0.416632 0
0.207843 0.416358 0
0.228717 0.416236 0
0.2542 0.416037 0
0.283009 0.415564 0
0.316533 0.415488 0
0.354894 0.414954 0
0.397131 0.414832 0
0.442832 0.415259 0
0.492531 0.416175 0
0.544381 0.418509 0
0.598398 0.422263 0
0.652995 0.427893 0
0.706767 0.435996 0
0.759869 0.446891 0
0.811307 0.461524 0
0.860594 0.478996 0
0.907134 0.500313 0
0.951736 0.5252 0.00628672
0.993057 0.553216 0.0324102
1 0.584222 0.0623178
1 0.618219 0.0946975
0.140673 0.46688 0
0.14345 0.466835 0
0.146777 0.466835 0
0.150072 0.466819 0
0.153689 0.466804 0
0.158053 0.466804 0
0.163134 0.466865 0
0.169757 0.466819 0
0.177371 0.46688 0
0.187076 0.466804 0
0.198062 0.466438 0
0.211704 0.466331 0
0.228016 0.466255 0
0.247456 0.466117 0
0.26978 0.465614 0
0.296223 0.465476 0
0.326406 0.464973 0
0.361273 0.464897 0
0.40087 0.464408 0
0.444099 0.464424 0
0.490593 0.465095 0
0.540627 0.466407 0
0.592416 0.4692 0
0.64593 0.473533 0
0.699535 0.479759 0
0.752163 0.488777 0
0.803311 0.500557 0
0.852918 0.515587 0
0.900481 0.533623 0
0.944976 0.555413 0.0104067
0.987305 0.580453 0.0364691
1 0.60795 0.0661173
1 0.638697 0.0982071
0.176226 0.518761 0
0.179004 0.518624 0
0.181567 0.518517 0
0.184115 0.518456 0
0.187259 0.518425 0
0.191119 0.518395 0
0.19585 0.518334 0
0.20119 0.518395 0
0.208225 0.518303 0
0.216434 0.518273 0
0.226871 0.51809 0
0.238682 0.517784 0
0.252781 0.517555 0
0.269978 0.517418 0
0.290425 0.517205 0
0.313924 0.516594 0
0.34136 0.516442 0
0.37261 0.515877 0
0.408469 0.515801 0
0.448844 0.515358 0
0.492607 0.51548 0
0.53933 0.516381 0
0.589212 0.518074 0
0.640604 0.521202 0
0.692851 0.526131 0
0.744518 0.532952 0
0.796078 0.542535 0
0.845396 0.554742 0
0.892668 0.570047 0
0.938094 0.588342 0.0164797
0.980926 0.609873 0.0422675
1 0.634241 0.0706951
1 0.661692 0.103044
0.215839 0.57142 0
0.218311 0.571344 0
0.220691 0.571191 0
0.223041 0.571038 0
0.225238 0.571023 0
0.228611 0.570962 0
0.232746 0.570871 0
0.237797 0.570779 0
0.243549 0.570748 0
0.251041 0.570581 0
0.25977 0.570474 0
0.270436 0.570306 0
0.282612 0.56994 0
0.297459 0.56968 0
0.315404 0.569467 0
0.336629 0.569177 0
0.360967 0.568475 0
0.389181 0.568246 0
0.421149 0.567636 0
0.457893 0.567468 0
0.498283 0.567147 0
0.542062 0.567407 0
0.588937 0.568353 0
0.63769 0.570474 0
0.688151 0.573892 0
0.738689 0.579263 0
0.788647 0.586419 0
0.838102 0.596277 0
0.885451 0.608637 0.00323491
0.930892 0.623804 0.0249332
0.973632 0.6421 0.0497597
1 0.663294 0.0779736
1 0.687022 0.109026
0.259831 0.624186 0
0.261891 0.624033 0
0.263951 0.623865 0
0.26598 0.623713 0
0.268284 0.623652 0
0.270848 0.623652 0
0.274159 0.623621 0
0.278416 0.623529 0
0.283619 0.623407 0
0.289677 0.623331 0
0.297246 0.623194 0
0.30634 0.623056 0
0.317342 0.622843 0
0.32987 0.622263 0
0.345342 0.622034 0
0.36379 0.621714 0
0.385351 0.621118 0
0.410391 0.620539 0
0.43917 0.620233 0
0.471489 0.619577 0
0.508385 0.61915 0
0.548608 0.619089 0
0.591424 0.619516 0
0.63801 0.620447 0
0.685512 0.622812 0
0.734386 0.626413 0
0.782971 0.631846 0
0.831006 0.639261 0
0.877897 0.649119 0.0159304
0.923125 0.661494 0.0368658
0.965988 0.676463 0.060502
1 0.694377 0.0872663
1 0.714473 0.117403
0.306645 0.67631 0
0.308415 0.676234 0
0.310231 0.676173 0
0.312016 0.676127 0
0.31397 0.676066 0
0.316381 0.67599 0
0.319036 0.67599 0
0.322469 0.675929 0
0.326879 0.675792 0
0.33225 0.675624 0
0.338415 0.675517 0
0.346242 0.675303 0
0.355459 0.675105 0
0.366644 0.674571 0
0.379705 0.674113 0
0.395529 0.673777 0
0.414343 0.673365 0
0.436027 0.672496 0
0.461143 0.672099 0
0.490105 0.671229 0
0.52311 0.670726 0
0.559091 0.670161 0
0.598917 0.670283 0
0.641108 0.67068 0
0.685863 0.671885 0
0.73167 0.674357 0
0.778622 0.67805 0.00384527
0.825315 0.683177 0.0167544
0.871229 0.690837 0.0331121
0.915923 0.700175 0.0518654
0.958434 0.712261 0.074464
0.998474 0.726864 0.0998093
1 0.74403 0.128893
0.356298 0.72752 0.014725
0.357809 0.727459 0.0145571
0.359319 0.727398 0.0143893
0.360815 0.727352 0.0142214
0.362448 0.727291 0.014023
0.364462 0.727214 0.0137942
0.366934 0.727123 0.0135653
0.369467 0.727138 0.0134585
0.373159 0.726986 0.013138
0.377661 0.726818 0.0127413
0.383139 0.726604 0.0122835
0.389303 0.726482 0.0118868
0.397375 0.726162 0.0112459
0.406439 0.725734 0.0104982
0.417914 0.725109 0.00947585
0.431327 0.724727 0.00869764
0.447288 0.724269 0.00787366
0.466087 0.723674 0.00695811
0.487938 0.722805 0.00555428
0.513313 0.722164 0.00534066
0.542092 0.721141 0.00489815
0.574334 0.720699 0.00547799
0.609659 0.720104 0.00633249
0.647715 0.719951 0.00901808
0.689494 0.72047 0.01355
0.732433 0.721904 0.0197757
0.776898 0.724163 0.028748
0.821012 0.727611 0.0394293
0.865507 0.73312 0.0539864
0.909239 0.74049 0.0718242
0.951019 0.74966 0.0920882
0.991012 0.761318 0.11632
1 0.775189 0.143313
0.407843 0.776837 0.0481117
0.409094 0.776776 0.0480049
0.410315 0.776715 0.0478828
0.411566 0.776669 0.047776
0.412909 0.776593 0.0476539
0.414572 0.776516 0.0475013
0.416617 0.776425 0.0473335
0.418906 0.776364 0.0471809
0.421668 0.776303 0.0470283
0.425406 0.77612 0.0467079
0.429953 0.775906 0.0462043
0.435508 0.775677 0.0456245
0.441718 0.775464 0.0450752
0.449516 0.774762 0.0441444
0.458778 0.774456 0.0436255
0.470466 0.773938 0.0428473
0.483909 0.773465 0.0421759
0.500069 0.772824 0.0416724
0.518639 0.771786 0.0408026
0.54052 0.771084 0.0402838
0.565164 0.770321 0.0396277
0.593423 0.769421 0.0397345
0.624933 0.768811 0.0407874
0.659281 0.768185 0.0422827
0.696452 0.767834 0.0459602
0.736004 0.768215 0.0507515
0.777234 0.769436 0.0581216
0.819272 0.771695 0.0680247
0.861479 0.775341 0.0803845
0.90338 0.780774 0.0957046
0.944091 0.787533 0.114534
0.983398 0.796384 0.136217
1 0.807645 0.162112
0.460731 0.823697 0.0863966
0.461753 0.823636 0.0863203
0.462776 0.82356 0.0862287
0.463798 0.823514 0.0861524
0.464912 0.823438 0.0860609
0.46627 0.823362 0.0859693
0.467948 0.82327 0.085832
0.469841 0.823194 0.0857404
0.472053 0.823133 0.0856641
0.47512 0.82295 0.08542
0.478813 0.82266 0.0850843
0.483177 0.822202 0.0845655
0.488487 0.821866 0.084123
0.494835 0.821622 0.0835889
0.502907 0.82121 0.0828107
0.512123 0.820844 0.0822461
0.523247 0.820371 0.0817121
0.537026 0.819684 0.0809949
0.552438 0.818708 0.0801404
0.570855 0.81799 0.0796979
0.591821 0.817319 0.0795758
0.616175 0.816144 0.0788891
0.643381 0.815442 0.0796826
0.67393 0.814298 0.0811933
0.707195 0.81387 0.0834821
0.742962 0.813519 0.0874189
0.780407 0.813931 0.0931563
0.819486 0.815076 0.101259
0.859159 0.817212 0.111879
0.899351 0.820615 0.125078
0.938582 0.825391 0.141649
0.977142 0.831968 0.161746
1 0.840391 0.184573
0.513848 0.867445 0.129335
0.514641 0.867369 0.129229
0.515419 0.867277 0.129137
0.516197 0.867201 0.12903
0.517052 0.867109 0.128939
0.518151 0.867048 0.128847
0.519448 0.866972 0.12874
0.520714 0.866972 0.12874
0.522683 0.86685 0.128588
