public/textures/grade/Fuji/Parasitic-FLog.cube
TITLE "Generated by Resolve"
LUT_3D_SIZE 5
0 0.0019379 0
0.0930343 0 0
0.39707 0 0
0.762158 0.122591 0
1 0.504906 0.0882887
0 0.0887312 0
0.0636759 0.0835584 0
0.361303 0.0723888 0
0.755352 0.175326 0
1 0.520088 0.087953
0.0590524 0.324681 0
0.11133 0.32462 0
0.309483 0.322393 0
0.72195 0.357504 0
1 0.584268 0.0910658
0.356298 0.72752 0.014725
0.373159 0.726986 0.013138
0.447288 0.724269 0.00787366
0.689494 0.72047 0.01355
1 0.775189 0.143313
0.760433 1 0.396994
0.763134 1 0.39675
0.775677 1 0.395789
0.832288 1 0.392935
0.992615 1 0.414939
0 0.00761425 0.126711
0.0655833 0.00233463 0.118715
0.394141 0 0.0480507
0.774258 0.12874 0.011017
1 0.504524 0.134722
0 0.091249 0.0865034
0.051606 0.093492 0.0805982
0.368429 0.0792401 0.0184176
0.767636 0.180041 0.00355535
1 0.519585 0.133959
0.0657206 0.328679 0.0263523
0.114046 0.329366 0.0183719
0.310536 0.32842 0
0.731395 0.360265 0
1 0.583535 0.133425
0.354757 0.728496 0.0737621
0.371481 0.727993 0.071809
0.445075 0.725078 0.0637827
0.688899 0.72076 0.0600748
1 0.774319 0.173877
0.759396 1 0.413626
0.762081 1 0.413336
0.774624 1 0.412177
0.831266 1 0.408438
0.991928 1 0.427283
0 0.0526894 0.496956
0.058381 0.0537728 0.486244
0.309941 0.0584573 0.446418
0.78616 0.153323 0.343114
1 0.502586 0.325719
0.00318914 0.12607 0.441932
0.0665751 0.128222 0.434852
0.29958 0.130388 0.414191
0.78352 0.199039 0.330007
1 0.517266 0.321798
0.0912032 0.342748 0.358144
0.130144 0.344442 0.356771
0.280354 0.350607 0.349096
0.755825 0.365255 0.274281
1 0.580224 0.308415
0.352209 0.72871 0.305241
0.368124 0.728298 0.302678
0.438605 0.726299 0.289418
0.685069 0.721538 0.25066
1 0.770001 0.304143
0.755352 1 0.487678
0.758038 1 0.487251
0.770489 1 0.48539
0.826856 1 0.477836
0.989105 1 0.483925
0.126604 0.254582 0.920897
0.164691 0.256168 0.920287
0.3131 0.263355 0.915434
0.704723 0.307729 0.895644
1 0.530938 0.811124
0.137636 0.292485 0.909499
0.17377 0.294148 0.908873
0.315648 0.299687 0.904311
0.700786 0.336553 0.887907
1 0.542779 0.806348
0.189776 0.433112 0.864546
0.217853 0.433509 0.863371
0.334844 0.435706 0.85951
0.683772 0.450675 0.851835
1 0.593545 0.78201
0.395621 0.737469 0.774044
0.40824 0.737133 0.773068
0.464454 0.735363 0.768185
0.660426 0.733715 0.751034
1 0.762341 0.69752
0.752438 1 0.736217
0.754894 1 0.735637
0.766445 1 0.732891
0.819181 1 0.719509
0.979477 1 0.688045
0.461601 0.644526 1
0.473335 0.644388 1
0.524865 0.643931 1
0.709651 0.647898 1
1 0.707729 1
0.465324 0.653407 1
0.476448 0.653346 1
0.526894 0.652857 1
0.709621 0.65626 1
1 0.713176 1
0.483268 0.693919 1
0.493019 0.693416 1
0.539513 0.692638 1
0.709239 0.693156 1
1 0.737499 1
0.567315 0.825757 1
0.573663 0.825513 1
0.604257 0.823728 1
0.725505 0.819532 1
0.995209 0.831067 1
0.796414 1 1
0.798337 1 1
0.80737 1 1
0.849058 1 1
0.977172 1 1
