public/textures/grade/RED/Gems-Log3G10.cube
TITLE "Generated by Resolve"
LUT_3D_SIZE 33
0.000671397 0.00485237 0.013901
0.00421149 0.00526436 0.0118105
0.00810254 0.00627146 0.0107118
0.0195621 0.0059205 0.00619516
0.0360876 0.00500496 0.0009308
0.0596628 0.00410468 0
0.0899977 0.00445563 0
0.13431 0.00453193 0
0.191882 0.00740063 0
0.265431 0.0166629 0
0.354803 0.0378424 0
0.45539 0.0783551 0
0.518593 0.142565 0
0.463371 0.225544 0.0256046
0.312596 0.309972 0.307454
0.351766 0.351766 0.351766
0.384085 0.384085 0.384085
0.408164 0.408164 0.408164
0.425208 0.425208 0.425208
0.446906 0.446906 0.446906
0.467231 0.467231 0.467231
0.482628 0.482628 0.482628
0.494514 0.494514 0.494514
0.503304 0.503304 0.503304
0.509804 0.509804 0.509804
0.514488 0.514488 0.514488
0.517861 0.517861 0.517861
0.520394 0.520394 0.520394
0.522118 0.522118 0.522118
0.523354 0.523354 0.523354
0.524132 0.524132 0.524132
0.524132 0.524132 0.524132
0.524132 0.524132 0.524132
0 0.00798047 0.0135348
0.00154116 0.0080415 0.0111391
0.00814832 0.00794995 0.00794995
0.0183413 0.00732433 0.0043946
0.0340429 0.00668345 0
0.0562905 0.00662242 0
0.0880293 0.00556954 0
0.132601 0.00538643 0
0.190219 0.00827039 0
0.26389 0.0178225 0
0.353384 0.0394903 0
0.454322 0.0799573 0
0.518914 0.143587 0
0.464256 0.225895 0.0245975
0.313497 0.31014 0.306935
0.351995 0.351995 0.351995
0.384344 0.384344 0.384344
0.408469 0.408469 0.408469
0.425559 0.425559 0.425559
0.448096 0.448096 0.448096
0.468345 0.468345 0.468345
0.483589 0.483589 0.483589
0.494728 0.494728 0.494728
0.503304 0.503304 0.503304
0.509804 0.509804 0.509804
0.514488 0.514488 0.514488
0.517861 0.517861 0.517861
0.520394 0.520394 0.520394
0.522118 0.522118 0.522118
0.523354 0.523354 0.523354
0.524132 0.524132 0.524132
0.524132 0.524132 0.524132
0.524132 0.524132 0.524132
0 0.011841 0.0113222
0 0.0115206 0.00962844
0.00384527 0.0115358 0.00668345
0.0143282 0.0110018 0.00321965
0.0307164 0.010193 0
0.0538949 0.00894179 0
0.086305 0.00706493 0
0.130388 0.00686656 0
0.188022 0.00999466 0
0.261585 0.0198062 0
0.351156 0.0417945 0
0.452644 0.0825666 0
0.519356 0.145205 0
0.465965 0.226215 0.0224155
0.315099 0.310262 0.305623
0.352346 0.352346 0.352346
0.38468 0.38468 0.38468
0.40882 0.40882 0.40882
0.425956 0.425956 0.425956
0.449454 0.449454 0.449454
0.469902 0.469902 0.469902
0.485237 0.485237 0.485237
0.496315 0.496315 0.496315
0.504265 0.504265 0.504265
0.509834 0.509834 0.509834
0.514488 0.514488 0.514488
0.517861 0.517861 0.517861
0.520394 0.520394 0.520394
0.522118 0.522118 0.522118
0.523354 0.523354 0.523354
0.524132 0.524132 0.524132
0.524132 0.524132 0.524132
0.524132 0.524132 0.524132
0 0.0172122 0.010193
0 0.0174411 0.00862135
0 0.0178531 0.00569162
0.00669871 0.0173495 0.00299077
0.0232548 0.016434 0
0.0469062 0.0148623 0
0.0793774 0.0127413 0
0.125704 0.0111391 0
0.184283 0.012726 0
0.257221 0.0228275 0
0.34696 0.0449378 0
0.44921 0.0856336 0
0.518685 0.146639 0
0.469581 0.226352 0.0173495
0.318563 0.31017 0.302052
0.352667 0.352667 0.352667
0.385016 0.385016 0.385016
0.409247 0.409247 0.409247
0.42797 0.42797 0.42797
0.451423 0.451423 0.451423
0.471885 0.471885 0.471885
0.487205 0.487205 0.487205
0.498482 0.498482 0.498482
0.506615 0.506615 0.506615
0.512261 0.512261 0.512261
0.51603 0.51603 0.51603
0.518547 0.518547 0.518547
0.520378 0.520378 0.520378
0.522118 0.522118 0.522118
0.523354 0.523354 0.523354
0.524132 0.524132 0.524132
0.524132 0.524132 0.524132
0.524132 0.524132 0.524132
0 0.0254215 0.00793469
0 0.0258793 0.00663767
0 0.0266117 0.00408942
0 0.0280919 0
0.0115816 0.0256504 0
0.0355688 0.0245365 0
0.0687572 0.0222171 0
0.115282 0.019913 0
0.175799 0.0203098 0
0.250645 0.0272831 0
0.340093 0.0486915 0
0.443091 0.0888533 0
0.516869 0.148425 0
0.47567 0.226184 0.00823987
0.325048 0.309438 0.294179
0.352941 0.352941 0.352941
0.385351 0.385351 0.385351
0.410285 0.410285 0.410285
0.431052 0.431052 0.431052
0.45359 0.45359 0.45359
0.474189 0.474189 0.474189
0.489754 0.489754 0.489754
0.501198 0.501198 0.501198
0.509529 0.509529 0.509529
0.515312 0.515312 0.515312
0.519265 0.519265 0.519265
0.521935 0.521935 0.521935
0.523796 0.523796 0.523796
0.524956 0.524956 0.524956
0.525658 0.525658 0.525658
0.525979 0.525979 0.525979
0.525719 0.525719 0.525719
0.52546 0.52546 0.52546
0 0.0370031 0.00575265
0 0.0375677 0.004654
0 0.0384985 0.00263981
0 0.0401007 0
0 0.0399634 0
0.0193027 0.0376593 0
0.0529641 0.0361334 0
0.0996414 0.0334173 0
0.161395 0.0325628 0
0.23827 0.0371099 0
0.330373 0.0537575 0
0.433692 0.0923323 0
0.512413 0.149645 0
0.484611 0.225467 0
0.335042 0.307912 0.28098
0.352956 0.352956 0.352956
0.385473 0.385473 0.385473
0.41323 0.41323 0.41323
0.434485 0.434485 0.434485
0.455756 0.455756 0.455756
0.476448 0.476448 0.476448
0.492348 0.492348 0.492348
0.504143 0.504143 0.504143
0.512795 0.512795 0.512795
0.519005 0.519005 0.519005
0.523262 0.523262 0.523262
0.526131 0.526131 0.526131
0.528145 0.528145 0.528145
0.529519 0.529519 0.529519
0.530373 0.530373 0.530373
0.530831 0.530831 0.530831
0.530571 0.530571 0.530571
0.530343 0.530343 0.530343
0 0.0524605 0.00669871
0 0.053254 0.00607309
0 0.0544442 0.00463874
0 0.0560922 0.00146487
0 0.0590219 0
0 0.0569924 0
0.0310674 0.0545357 0
0.0764935 0.0523842 0
0.140246 0.0502632 0
0.218708 0.0527504 0
0.313878 0.0651102 0
0.420172 0.0966201 0
0.504448 0.150591 0
0.496513 0.224048 0
0.350179 0.30518 0.259602
0.352682 0.352682 0.352682
0.386633 0.386633 0.386633
0.416159 0.416159 0.416159
0.43801 0.43801 0.43801
0.457618 0.457618 0.457618
0.478553 0.478553 0.478553
0.494713 0.494713 0.494713
0.50692 0.50692 0.50692
0.515969 0.515969 0.515969
0.522545 0.522545 0.522545
0.527337 0.527337 0.527337
0.530663 0.530663 0.530663
0.533043 0.533043 0.533043
0.534707 0.534707 0.534707
0.535729 0.535729 0.535729
0.536355 0.536355 0.536355
0.536202 0.536202 0.536202
0.535988 0.535988 0.535988
0 0.074342 0.00883497
0 0.0755779 0.0087129
0 0.0770733 0.00781262
0 0.0792554 0.00570687
0 0.0822614 0.000488289
0 0.0865949 0
0 0.0812848 0
0.0471656 0.0776074 0
0.109972 0.0748608 0
0.190921 0.0753033 0
0.288319 0.0844434 0
0.399313 0.106447 0
0.491661 0.151583 0
0.50399 0.221561 0
0.37145 0.301122 0.227863
0.351965 0.351965 0.351965
0.388602 0.388602 0.388602
0.41886 0.41886 0.41886
0.44155 0.44155 0.44155
0.459388 0.459388 0.459388
0.480415 0.480415 0.480415
0.496712 0.496712 0.496712
0.509361 0.509361 0.509361
0.518761 0.518761 0.518761
0.525795 0.525795 0.525795
0.531029 0.531029 0.531029
0.534676 0.534676 0.534676
0.537423 0.537423 0.537423
0.539345 0.539345 0.539345
0.540627 0.540627 0.540627
0.541451 0.541451 0.541451
0.541314 0.541314 0.541314
0.541253 0.541253 0.541253
0 0.108125 0.0167544
0 0.109407 0.0169375
0 0.111391 0.0171054
0 0.11371 0.0159762
0 0.116503 0.0122683
0 0.119677 0.00456245
0 0.124529 0
0.00852979 0.116289 0
0.069398 0.111177 0
0.153124 0.10782 0
0.253223 0.109758 0
0.367163 0.124132 0
0.474067 0.156222 0
0.501488 0.217639 0
0.400854 0.295186 0.180575
0.350835 0.350835 0.350835
0.390005 0.390005 0.390005
0.421241 0.421241 0.421241
0.44506 0.44506 0.44506
0.463249 0.463249 0.463249
0.482048 0.482048 0.482048
0.498695 0.498695 0.498695
0.511696 0.511696 0.511696
0.52137 0.52137 0.52137
0.528847 0.528847 0.528847
0.53434 0.53434 0.53434
0.538308 0.538308 0.538308
0.541314 0.541314 0.541314
0.543496 0.543496 0.543496
0.545083 0.545083 0.545083
0.54609 0.54609 0.54609
0.546014 0.546014 0.546014
0.545953 0.545953 0.545953
0 0.150622 0.034165
0 0.152285 0.0352483
0 0.154406 0.036347
0 0.157259 0.0369573
0 0.160647 0.0355535
0 0.163882 0.0301823
0 0.167269 0.0193484
0 0.171466 0
0.0215152 0.16141 0.000595102
0.103731 0.154101 0
0.206851 0.150805 0
0.324681 0.15407 0
0.447807 0.171756 0
0.499931 0.215976 0
0.436713 0.288136 0.117494
0.351034 0.351034 0.351034
0.390845 0.390845 0.390845
0.423072 0.423072 0.423072
0.447822 0.447822 0.447822
0.467048 0.467048 0.467048
0.483436 0.483436 0.483436
0.500313 0.500313 0.500313
0.513344 0.513344 0.513344
0.523598 0.523598 0.523598
0.531273 0.531273 0.531273
0.537148 0.537148 0.537148
0.541466 0.541466 0.541466
0.544793 0.544793 0.544793
0.547219 0.547219 0.547219
0.548867 0.548867 0.548867
0.549935 0.549935 0.549935
0.54992 0.54992 0.54992
0.549874 0.549874 0.549874
0 0.202274 0.0679484
0 0.203922 0.068986
0 0.206378 0.0714427
0 0.209934 0.0745251
0 0.214069 0.0761273
0 0.218173 0.0742351
0 0.221881 0.067277
0 0.225376 0.0529183
0 0.228809 0.0250706
0.0419623 0.217288 0.0260014
0.150072 0.208148 0
0.270817 0.205097 0
0.404318 0.208881 0
0.506706 0.231876 0
0.478981 0.285023 0.0394293
0.37847 0.34931 0.313008
0.392233 0.392233 0.392233
0.424826 0.424826 0.424826
0.450828 0.450828 0.450828
0.471321 0.471321 0.471321
0.487739 0.487739 0.487739
0.503136 0.503136 0.503136
0.516503 0.516503 0.516503
0.526757 0.526757 0.526757
0.534951 0.534951 0.534951
0.541192 0.541192 0.541192
0.545678 0.545678 0.545678
0.549187 0.549187 0.549187
0.551766 0.551766 0.551766
0.553689 0.553689 0.553689
0.55494 0.55494 0.55494
0.554833 0.554833 0.554833
0.554742 0.554742 0.554742
0 0.262882 0.120134
0 0.264073 0.120912
0 0.266835 0.123613
0 0.270924 0.12813
0 0.276097 0.132647
0 0.281712 0.135195
0 0.286687 0.133959
0 0.29102 0.127855
0 0.293767 0.112261
0 0.296239 0.0814832
0.0740826 0.284977 0.0766766
0.207813 0.274052 0.0450599
0.343771 0.270817 0
0.482963 0.276371 0
0.547021 0.302602 0
0.478981 0.352605 0.179309
0.403479 0.403479 0.403479
0.435554 0.435554 0.435554
0.461952 0.461952 0.461952
0.483452 0.483452 0.483452
0.500999 0.500999 0.500999
0.515358 0.515358 0.515358
0.528847 0.528847 0.528847
0.539528 0.539528 0.539528
0.547982 0.547982 0.547982
0.554665 0.554665 0.554665
0.559823 0.559823 0.559823
0.56376 0.56376 0.56376
0.566384 0.566384 0.566384
0.568551 0.568551 0.568551
0.569955 0.569955 0.569955
0.569726 0.569726 0.569726
0.569543 0.569543 0.569543
0 0.330983 0.180697
0 0.330983 0.180697
0 0.33257 0.181949
0 0.337179 0.186511
0 0.343771 0.193103
0 0.351675 0.199496
0 0.358923 0.203143
0 0.365118 0.203113
0 0.369238 0.19707
0 0.37174 0.183597
0.00349432 0.373053 0.158633
0.131456 0.362371 0.148684
0.28043 0.350103 0.120577
0.424369 0.348974 0.0260624
0.559869 0.355306 0
0.605066 0.377798 0.0129854
0.549767 0.4177 0.224872
0.492897 0.457527 0.408301
0.487129 0.487129 0.487129
0.508812 0.508812 0.508812
0.527138 0.527138 0.527138
0.542367 0.542367 0.542367
0.554879 0.554879 0.554879
0.566339 0.566339 0.566339
0.575143 0.575143 0.575143
0.5823 0.5823 0.5823
0.587488 0.587488 0.587488
0.591791 0.591791 0.591791
0.595026 0.595026 0.595026
0.597421 0.597421 0.597421
0.599023 0.599023 0.599023
0.598795 0.598795 0.598795
0.598611 0.598611 0.598611
0 0.397894 0.246616
0 0.397894 0.246616
0 0.397879 0.246616
0 0.400153 0.24828
0 0.408774 0.256016
0 0.419913 0.265309
0 0.432059 0.273457
0 0.442542 0.278233
0 0.449912 0.278279
0 0.454292 0.27303
0.0182498 0.456489 0.261479
0.0726635 0.455848 0.23917
0.21236 0.446372 0.22707
0.366064 0.435462 0.203479
0.506981 0.435401 0.132677
0.632868 0.441566 0.0525826
0.701091 0.457755 0.0568856
0.703563 0.48333 0.155032
0.682902 0.51104 0.269734
0.670649 0.535454 0.353552
0.669932 0.555673 0.407126
0.678309 0.571878 0.437537
0.691417 0.58468 0.453361
0.703883 0.595178 0.464225
0.714122 0.60441 0.474434
0.72314 0.611139 0.480186
0.733303 0.616266 0.481071
0.741573 0.620188 0.481346
0.746731 0.622858 0.482109
0.752316 0.624949 0.481163
0.756191 0.626383 0.480461
0.754589 0.626352 0.482124
0.753353 0.626322 0.483391
0 0.462104 0.314168
0 0.462104 0.314153
0 0.462104 0.314153
0 0.462104 0.314153
0 0.465431 0.316381
0 0.480446 0.328252
0 0.498848 0.341329
0 0.515145 0.350622
0 0.527413 0.354986
0 0.535637 0.354955
0.0508888 0.539773 0.350256
0.108675 0.539956 0.338491
0.170916 0.540566 0.314916
0.316701 0.530205 0.308583
0.460502 0.52311 0.284245
0.586435 0.526314 0.237018
0.691585 0.533608 0.200443
0.771221 0.544732 0.178866
0.822797 0.558953 0.184054
0.855436 0.574304 0.203784
0.878431 0.588983 0.226352
0.896422 0.602152 0.246464
0.911757 0.61387 0.263081
0.923644 0.623529 0.276326
0.933089 0.631525 0.286946
0.9411 0.638193 0.295201
0.94728 0.643259 0.301228
0.951904 0.647059 0.305669
0.955703 0.650111 0.309041
0.958587 0.652415 0.311452
0.960555 0.654032 0.3131
0.960327 0.653849 0.313085
0.960159 0.653712 0.313069
0 0.527504 0.380362
0 0.527504 0.380362
0 0.527504 0.380362
0 0.527489 0.380362
0 0.527489 0.380362
0 0.533104 0.383948
0 0.555459 0.399878
0 0.57969 0.415183
0 0.598138 0.424826
0.0473487 0.610224 0.428901
0.10573 0.616999 0.428824
0.153933 0.619058 0.423255
0.207507 0.619562 0.409751
0.275502 0.624292 0.37847
0.435874 0.609613 0.387366
0.558129 0.609262 0.361563
0.659556 0.614878 0.332662
0.739391 0.622721 0.316503
0.800732 0.633188 0.308263
0.845838 0.644465 0.307393
0.878691 0.655695 0.312459
0.902235 0.666468 0.32105
0.92015 0.676234 0.329778
0.933944 0.685054 0.338293
0.943801 0.692027 0.345861
0.951095 0.69807 0.353231
0.956207 0.702541 0.358999
0.960098 0.706386 0.364294
0.962875 0.709377 0.368582
0.964675 0.711345 0.371466
0.966018 0.712932 0.373846
0.966049 0.712764 0.373571
0.966079 0.712642 0.373373
0 0.594934 0.442023
0 0.594919 0.442023
0 0.594919 0.442023
0 0.594919 0.442023
0 0.594919 0.442008
0 0.594919 0.442008
0 0.603983 0.447913
0.0101167 0.634791 0.468818
0.0598001 0.659907 0.484352
0.115267 0.675456 0.492912
0.162295 0.684169 0.49662
0.202045 0.687907 0.495079
0.252171 0.689891 0.486015
0.316716 0.693477 0.464454
0.428779 0.6907 0.454932
0.55378 0.683116 0.456214
0.648844 0.687892 0.429587
0.724437 0.694652 0.415747
0.782025 0.702953 0.411368
0.824216 0.712215 0.411505
0.854978 0.721675 0.415824
0.878553 0.731121 0.422766
0.895964 0.739757 0.431373
0.908568 0.747539 0.441077
0.917449 0.753841 0.449928
0.92372 0.758968 0.457801
0.928222 0.763455 0.465278
0.931472 0.76701 0.471473
0.933669 0.769436 0.475731
0.935286 0.771572 0.479667
0.936431 0.77319 0.482673
0.936477 0.773083 0.482475
0.936507 0.772992 0.482307
0.0334783 0.662531 0.498329
0.0334783 0.662531 0.498329
0.033463 0.662516 0.498329
0.033463 0.662516 0.498329
0.033463 0.662516 0.498329
0.033463 0.662516 0.498329
0.033463 0.662516 0.498329
0.0512703 0.676127 0.507652
0.118517 0.709804 0.531914
0.171389 0.728801 0.545968
0.212497 0.739651 0.553002
0.250004 0.745541 0.554452
0.300252 0.749142 0.547066
0.362295 0.753765 0.5299
0.441947 0.757885 0.509712
0.567681 0.747295 0.519463
0.657633 0.747372 0.511009
0.727596 0.755306 0.487037
0.779568 0.761776 0.489418
0.817777 0.769604 0.495415
0.846708 0.778073 0.503227
0.86807 0.78648 0.513634
0.883635 0.794156 0.525063
0.894926 0.800977 0.536553
0.903014 0.806745 0.54696
0.908736 0.811353 0.555764
0.912993 0.815381 0.563821
0.916091 0.818601 0.570443
0.918212 0.820798 0.575006
0.919799 0.822736 0.57911
0.920943 0.824186 0.582238
0.921004 0.824186 0.582254
0.921019 0.82414 0.582147
0.111391 0.7243 0.548791
0.111391 0.7243 0.548775
0.111391 0.7243 0.548775
0.111391 0.7243 0.548775
0.111391 0.7243 0.548775
0.111391 0.7243 0.548775
0.111376 0.724285 0.548775
0.11136 0.724285 0.548775
0.149355 0.742535 0.56376
0.212711 0.769299 0.586999
0.254337 0.783825 0.59855
0.295079 0.791791 0.60116
0.348272 0.796933 0.594583
0.409857 0.80206 0.578592
0.477821 0.80824 0.556603
0.596902 0.797559 0.569497
0.681544 0.796048 0.570535
0.743603 0.801205 0.565393
0.791791 0.809888 0.560586
0.826368 0.817014 0.571298
0.851942 0.824521 0.583383
0.87097 0.831983 0.596918
0.884947 0.838911 0.610513
0.895308 0.845212 0.623682
0.902663 0.850263 0.634592
0.908049 0.85449 0.644007
0.912032 0.858015 0.652064
0.914992 0.860914 0.658763
0.917067 0.862943 0.663508
0.918624 0.864637 0.667491
0.919768 0.86595 0.670604
0.919875 0.866041 0.670817
0.919875 0.866011 0.670741
0.180743 0.776455 0.594827
0.180743 0.776455 0.594827
0.180743 0.776455 0.594827
0.180728 0.776455 0.594827
0.180728 0.776455 0.594827
0.180743 0.776455 0.594827
0.180743 0.776455 0.594827
0.180728 0.77644 0.594812
0.180713 0.77644 0.594812
0.232074 0.800946 0.617533
0.284886 0.818875 0.634104
0.338186 0.826917 0.636408
0.397635 0.833112 0.631037
0.461799 0.839231 0.618738
0.528084 0.845762 0.602975
0.636942 0.836194 0.619547
0.714443 0.834867 0.628031
0.770596 0.839506 0.632624
0.812543 0.847547 0.636393
0.844022 0.855665 0.643427
0.866316 0.862272 0.658045
0.883192 0.869032 0.67335
0.895872 0.875547 0.688502
0.905058 0.881056 0.70161
0.911788 0.885664 0.712703
0.916915 0.889647 0.722484
0.920501 0.892638 0.729839
0.923323 0.895216 0.736263
0.925414 0.897231 0.741283
0.92694 0.898787 0.74519
0.927886 0.899718 0.747494
0.928069 0.899886 0.747936
0.928054 0.89987 0.747875
0.234257 0.816953 0.632425
0.234257 0.816953 0.632425
0.234257 0.816953 0.632425
0.234257 0.816953 0.632425
0.234257 0.816953 0.632425
0.234257 0.816953 0.632425
0.234241 0.816938 0.632425
0.234241 0.816938 0.632425
0.234241 0.816938 0.63241
0.234241 0.816938 0.63241
0.302159 0.845197 0.660258
0.375143 0.854551 0.667552
0.449042 0.859403 0.666056
0.516915 0.866484 0.659464
0.582086 0.874418 0.65066
0.681086 0.866377 0.670375
0.751766 0.866026 0.68423
0.801419 0.870649 0.693553
0.837751 0.877729 0.702678
0.865858 0.886397 0.710292
0.88571 0.892943 0.72607
0.900389 0.899031 0.741604
0.911452 0.904784 0.756191
0.919738 0.909895 0.769223
0.92607 0.914382 0.780652
0.930571 0.9178 0.789425
0.934051 0.920714 0.796933
0.936645 0.923003 0.802823
0.938399 0.924575 0.806851
0.939818 0.925933 0.810376
0.940856 0.92697 0.813046
0.941115 0.927214 0.813672
0.9411 0.927199 0.813626
0.276936 0.847974 0.662318
0.276936 0.847974 0.662318
0.276936 0.847974 0.662318
0.276936 0.847974 0.662318
0.276936 0.847974 0.662318
0.276936 0.847974 0.662318
0.276936 0.847974 0.662318
0.276936 0.847974 0.662318
0.276921 0.847974 0.662318
0.276921 0.847974 0.662318
0.294575 0.855467 0.670237
0.400488 0.873823 0.693431
0.492607 0.880476 0.699763
0.569909 0.886992 0.699901
0.632547 0.896849 0.6963
0.723186 0.890394 0.718502
0.787442 0.890944 0.735424
0.831907 0.895979 0.748028
0.863737 0.902586 0.759808
0.887984 0.910231 0.771893
0.90602 0.917494 0.784848
0.918868 0.923217 0.800198
0.92845 0.928374 0.813855
0.935729 0.932998 0.825986
0.941482 0.937133 0.836866
0.945586 0.940322 0.845182
0.948791 0.943008 0.852216
0.951095 0.945022 0.857481
0.952758 0.946502 0.861341
0.954055 0.947723 0.864515
0.955001 0.948638 0.866896
0.955322 0.948928 0.867658
0.955306 0.948913 0.867628
0.312642 0.869154 0.684428
0.312642 0.869154 0.684428
0.312642 0.869154 0.684428
0.312642 0.869154 0.684428
0.312642 0.869154 0.684428
0.312642 0.869154 0.684428
0.312642 0.869154 0.684428
0.312642 0.869154 0.684428
0.312642 0.869154 0.684428
0.312642 0.869154 0.684428
0.312627 0.869154 0.684428
0.401816 0.884733 0.709285
0.524651 0.894957 0.727993
0.613275 0.903029 0.73608
0.679072 0.912596 0.738582
0.761471 0.909712 0.7617
0.818769 0.910811 0.779141
0.859434 0.916121 0.794186
0.888029 0.922805 0.80824
0.908537 0.929412 0.821714
0.92462 0.93669 0.833051
0.93608 0.94226 0.848157
0.944564 0.947112 0.861189
0.951049 0.951431 0.872633
0.95584 0.95491 0.881819
0.959503 0.957809 0.889418
0.962417 0.960281 0.895933
0.964614 0.962234 0.901045
0.966094 0.963561 0.904494
0.9673 0.964691 0.907439
0.968185 0.96553 0.909651
0.968551 0.965896 0.910567
0.968551 0.965881 0.910552
0.35404 0.883879 0.703777
0.35404 0.883879 0.703777
0.35404 0.883879 0.703777
0.35404 0.883879 0.703777
0.35404 0.883879 0.703777
0.35404 0.883879 0.703777
0.35404 0.883879 0.703777
0.35404 0.883879 0.703777
0.35404 0.883879 0.703777
0.35404 0.883879 0.703777
0.354025 0.883879 0.703777
0.357031 0.884352 0.704616
0.542 0.904524 0.749081
0.64622 0.914488 0.765606
0.71754 0.924819 0.774685
0.791455 0.924849 0.796384
0.846174 0.926802 0.816312
0.882521 0.931884 0.831662
0.908324 0.938445 0.84654
0.926986 0.945159 0.861265
0.940795 0.951644 0.873198
0.950851 0.957031 0.886046
0.958434 0.961669 0.898512
0.964172 0.965637 0.909072
0.968612 0.969039 0.918013
0.971771 0.971603 0.924743
0.974289 0.97377 0.930404
0.976043 0.975311 0.934447
0.977478 0.976638 0.937896
0.978561 0.977661 0.940536
0.97937 0.978424 0.942535
0.979736 0.978775 0.943435
0.979736 0.978775 0.943435
0.397498 0.893904 0.721019
0.397498 0.893904 0.721019
0.397498 0.893904 0.721019
0.397498 0.893904 0.721019
0.397498 0.893904 0.721019
0.397482 0.893889 0.721019
0.397482 0.893889 0.721019
0.397482 0.893889 0.721019
0.397482 0.893889 0.721019
0.397482 0.893889 0.721019
0.397467 0.893889 0.721019
0.397467 0.893889 0.721019
0.535744 0.909102 0.759396
0.668971 0.922545 0.788357
0.746944 0.93373 0.803082
0.816114 0.936797 0.824781
0.867613 0.938872 0.845106
0.901823 0.94435 0.86186
0.925185 0.95079 0.877012
0.94168 0.957046 0.891157
0.954131 0.963272 0.90399
0.963241 0.968597 0.916045
0.969802 0.972793 0.927275
0.974762 0.976364 0.936721
0.978607 0.9794 0.944686
0.981704 0.98204 0.951553
0.983902 0.983963 0.956588
0.985672 0.98558 0.960784
0.986984 0.986801 0.963943
0.987945 0.987732 0.966308
0.988647 0.988403 0.968078
0.989013 0.988754 0.968948
0.988998 0.988739 0.968948
0.438407 0.90132 0.736507
0.438407 0.90132 0.736507
0.438407 0.90132 0.736507
0.438407 0.90132 0.736507
0.438407 0.90132 0.736507
0.438407 0.90132 0.736507
0.438392 0.90132 0.736507
0.438392 0.90132 0.736507
0.438392 0.90132 0.736507
0.438392 0.90132 0.736507
0.438376 0.901305 0.736492
0.438376 0.901305 0.736492
0.485908 0.906813 0.751171
0.681849 0.927901 0.804532
0.768627 0.940261 0.824826
0.834104 0.945617 0.845823
0.884886 0.948287 0.867933
0.917006 0.953872 0.885145
0.938354 0.960082 0.900038
0.953628 0.966354 0.914549
0.964614 0.972076 0.927001
0.972686 0.97705 0.938033
0.978729 0.98117 0.948974
0.983337 0.98468 0.95819
0.986938 0.98764 0.965927
0.989487 0.989868 0.971695
0.991531 0.991714 0.976471
0.992935 0.993027 0.979858
0.99411 0.994141 0.982712
0.994995 0.994995 0.984909
0.995651 0.995636 0.986557
0.996139 0.996109 0.987762
0.996124 0.996094 0.987762
0.473243 0.906905 0.749691
0.473243 0.906905 0.749691
0.473243 0.906905 0.749691
0.473243 0.906905 0.749691
0.473243 0.906905 0.749691
0.473243 0.906905 0.749691
0.473243 0.906905 0.749691
0.473243 0.906905 0.749691
0.473243 0.906905 0.749691
0.473243 0.906905 0.749691
0.473228 0.906905 0.749691
0.473228 0.906905 0.749691
0.473213 0.906905 0.749676
0.683558 0.930663 0.813626
0.784298 0.945037 0.841093
0.848295 0.952468 0.862272
0.89807 0.955367 0.885191
0.928679 0.961028 0.902678
0.948882 0.967346 0.918029
0.962722 0.973297 0.93193
0.972732 0.978744 0.944244
0.980316 0.983719 0.955367
0.985809 0.987625 0.965713
0.989853 0.990829 0.97406
0.99292 0.993423 0.980819
0.995422 0.995666 0.986603
0.997238 0.99736 0.990951
0.998718 0.998779 0.994705
1 0.999573 0.997726
1 0.99971 1
1 1 1
1 1 1
1 1 1
0.501274 0.911101 0.760433
0.501274 0.911101 0.760433
0.501274 0.911101 0.760433
0.501274 0.911101 0.760433
0.501274 0.911101 0.760433
0.501274 0.911101 0.760433
0.501274 0.911101 0.760433
0.501259 0.911101 0.760418
0.501259 0.911101 0.760418
