public/textures/grade/RED/Gems-Log3G10.cube
TITLE "Generated by Resolve"
LUT_3D_SIZE 9
0.000671397 0.00485237 0.013901
0.0360876 0.00500496 0.0009308
0.191882 0.00740063 0
0.518593 0.142565 0
0.384085 0.384085 0.384085
0.467231 0.467231 0.467231
0.509804 0.509804 0.509804
0.522118 0.522118 0.522118
0.524132 0.524132 0.524132
0 0.0254215 0.00793469
0.0115816 0.0256504 0
0.175799 0.0203098 0
0.516869 0.148425 0
0.385351 0.385351 0.385351
0.474189 0.474189 0.474189
0.515312 0.515312 0.515312
0.524956 0.524956 0.524956
0.52546 0.52546 0.52546
0 0.108125 0.0167544
0 0.116503 0.0122683
0.069398 0.111177 0
0.474067 0.156222 0
0.390005 0.390005 0.390005
0.482048 0.482048 0.482048
0.528847 0.528847 0.528847
0.543496 0.543496 0.543496
0.545953 0.545953 0.545953
0 0.330983 0.180697
0 0.343771 0.193103
0 0.369238 0.19707
0.28043 0.350103 0.120577
0.549767 0.4177 0.224872
0.527138 0.527138 0.527138
0.575143 0.575143 0.575143
0.595026 0.595026 0.595026
0.598611 0.598611 0.598611
0 0.594934 0.442023
0 0.594919 0.442008
0.0598001 0.659907 0.484352
0.252171 0.689891 0.486015
0.648844 0.687892 0.429587
0.854978 0.721675 0.415824
0.917449 0.753841 0.449928
0.933669 0.769436 0.475731
0.936507 0.772992 0.482307
0.234257 0.816953 0.632425
0.234257 0.816953 0.632425
0.234241 0.816938 0.63241
0.449042 0.859403 0.666056
0.751766 0.866026 0.68423
0.88571 0.892943 0.72607
0.92607 0.914382 0.780652
0.938399 0.924575 0.806851
0.9411 0.927199 0.813626
0.397498 0.893904 0.721019
0.397498 0.893904 0.721019
0.397482 0.893889 0.721019
0.535744 0.909102 0.759396
0.867613 0.938872 0.845106
0.954131 0.963272 0.90399
0.978607 0.9794 0.944686
0.986984 0.986801 0.963943
0.988998 0.988739 0.968948
0.524697 0.914488 0.769543
0.524697 0.914488 0.769543
0.524697 0.914488 0.769543
0.524666 0.914488 0.769528
0.915297 0.964492 0.907469
0.983734 0.987594 0.966827
1 1 1
1 1 1
1 1 1
0.549493 0.918074 0.7794
0.549493 0.918074 0.7794
0.549493 0.918074 0.7794
0.549493 0.918074 0.7794
0.919951 0.968139 0.915602
0.988312 0.991257 0.97612
1 1 1
1 1 1
1 1 1
0 0.000610361 0.0724346
0.0180514 0.00570687 0.0706188
0.192782 0.00979629 0
0.528511 0.143206 0
0.383932 0.383932 0.383932
0.466819 0.466819 0.466819
0.509804 0.509804 0.509804
0.522118 0.522118 0.522118
0.524132 0.524132 0.524132
0 0.0227054 0.0670787
0.0167849 0.0254978 0.0428626
0.176745 0.0257725 0
0.523735 0.150576 0
0.385321 0.385321 0.385321
0.473793 0.473793 0.473793
0.514778 0.514778 0.514778
0.524376 0.524376 0.524376
0.524926 0.524926 0.524926
0 0.107774 0.0259403
0 0.115877 0.0198825
0.0708629 0.110338 0
0.474739 0.155871 0
0.389944 0.389944 0.389944
0.481987 0.481987 0.481987
0.528649 0.528649 0.528649
0.543435 0.543435 0.543435
0.545861 0.545861 0.545861
0 0.330251 0.179995
0 0.34287 0.192279
0 0.368368 0.196246
0.280888 0.349187 0.118914
0.547799 0.417426 0.227314
0.526772 0.526772 0.526772
0.574716 0.574716 0.574716
0.594629 0.594629 0.594629
0.598215 0.598215 0.598215
0 0.59469 0.44181
0 0.59469 0.44181
0.0592508 0.659586 0.484092
0.251911 0.689662 0.485801
0.648875 0.687709 0.429267
0.855024 0.721462 0.415488
0.917525 0.753643 0.449577
0.93373 0.769284 0.475441
0.936599 0.772793 0.481956
0.23418 0.816892 0.63238
0.23418 0.816892 0.63238
0.234165 0.816876 0.632364
0.448844 0.859358 0.66601
0.75169 0.86598 0.684138
0.885664 0.892897 0.725978
0.92604 0.914336 0.78056
0.938369 0.924529 0.80676
0.94107 0.927169 0.813535
0.397436 0.893889 0.721004
0.397436 0.893889 0.721004
0.397436 0.893889 0.721004
0.535439 0.909072 0.759304
0.867567 0.938857 0.84506
0.954101 0.963256 0.90396
0.978592 0.979385 0.944656
0.986969 0.986801 0.963912
0.988998 0.988739 0.968917
0.524666 0.914488 0.769528
0.524666 0.914488 0.769528
0.524636 0.914488 0.769528
0.52462 0.914488 0.769512
0.915267 0.964492 0.907439
0.983734 0.987579 0.966812
1 1 1
1 1 1
1 1 1
0.549493 0.918074 0.7794
0.549493 0.918074 0.7794
0.549493 0.918074 0.7794
0.549493 0.918074 0.7794
0.919951 0.968139 0.915602
0.988312 0.991257 0.97612
1 1 1
1 1 1
1 1 1
0 0 0.277958
0.00164797 0 0.273304
0.10045 0.0142977 0.296757
0.568338 0.123903 0
0.388037 0.388037 0.388037
0.46659 0.46659 0.46659
0.509804 0.509804 0.509804
0.522118 0.522118 0.522118
0.524132 0.524132 0.524132
0 0 0.25977
0 0.00917067 0.254994
0.103273 0.0349584 0.271351
0.563317 0.137987 0
0.395941 0.395941 0.395941
0.472587 0.472587 0.472587
0.513222 0.513222 0.513222
0.522545 0.522545 0.522545
0.524132 0.524132 0.524132
0 0.098024 0.2206
0 0.103456 0.225071
0.094316 0.114137 0.151415
0.504097 0.170275 0
0.400824 0.400824 0.400824
0.481666 0.481666 0.481666
0.528374 0.528374 0.528374
0.542931 0.542931 0.542931
0.545144 0.545144 0.545144
0 0.334112 0.204562
0 0.346395 0.214588
0 0.371572 0.214603
0.284566 0.348043 0.118364
0.54078 0.41648 0.235996
0.525444 0.525444 0.525444
0.573343 0.573343 0.573343
0.59321 0.59321 0.59321
0.596796 0.596796 0.596796
0 0.593835 0.441077
0 0.59382 0.441062
0.0573434 0.658473 0.483192
0.250965 0.688838 0.485039
0.648951 0.687083 0.428107
0.855222 0.720684 0.414313
0.917723 0.752941 0.448341
0.934035 0.768734 0.474434
0.936904 0.772091 0.480613
0.233921 0.816709 0.632197
0.233921 0.816693 0.632197
0.233906 0.816693 0.632181
0.448173 0.85919 0.665827
0.751369 0.865827 0.683833
0.885542 0.892744 0.725628
0.925963 0.914199 0.780224
0.938293 0.924407 0.806424
0.940993 0.927031 0.813214
0.397253 0.893858 0.720928
0.397238 0.893843 0.720928
0.397238 0.893843 0.720928
0.534295 0.908934 0.758953
0.867399 0.938796 0.844907
0.95404 0.963211 0.903822
0.978561 0.979355 0.944549
0.986923 0.986755 0.963821
0.988968 0.988708 0.968856
0.524498 0.914473 0.769467
0.524498 0.914473 0.769467
0.524483 0.914458 0.769467
0.524468 0.914458 0.769451
0.915175 0.964462 0.907362
0.983688 0.987564 0.966751
1 1 1
1 1 1
1 1 1
0.549493 0.918074 0.7794
0.549493 0.918074 0.7794
0.549493 0.918074 0.7794
0.549493 0.918074 0.7794
0.919875 0.968124 0.915557
0.988312 0.991241 0.976104
1 1 1
1 1 1
1 1 1
0 0 0.429908
0 0 0.463462
0.0340429 0 0.574746
0.363973 0.174746 0.735729
0.924331 0.367498 0.348638
0.501198 0.501198 0.501198
0.514 0.514 0.514
0.522118 0.522118 0.522118
0.524132 0.524132 0.524132
0 0 0.442969
0 0 0.476341
0.0369879 0.00628672 0.58436
0.368078 0.184329 0.730938
0.924102 0.370306 0.345449
0.501152 0.501152 0.501152
0.513176 0.513176 0.513176
0.522118 0.522118 0.522118
0.524132 0.524132 0.524132
0 0.0245365 0.495445
0 0.0401465 0.525582
0.0238804 0.0806897 0.595331
0.358587 0.222583 0.665599
0.921263 0.387778 0.329137
0.535241 0.535241 0.535241
0.527779 0.527779 0.527779
0.540734 0.540734 0.540734
0.542779 0.542779 0.542779
0.0123598 0.1897 0.242161
0 0.221408 0.29279
0 0.341924 0.505913
0.324987 0.360388 0.425208
0.834516 0.420508 0.213306
0.574563 0.56701 0.559548
0.568917 0.568917 0.568917
0.588617 0.588617 0.588617
0.592081 0.592081 0.592081
0.0083772 0.624384 0.489464
0.00798047 0.624231 0.489036
0.122103 0.679088 0.526879
0.288273 0.707607 0.524041
0.663081 0.698405 0.442679
0.85568 0.717998 0.410269
0.918593 0.750439 0.443885
0.93518 0.766384 0.470085
0.938003 0.769574 0.475883
0.233005 0.816022 0.631556
0.233005 0.816022 0.631556
0.233005 0.816007 0.63154
0.445838 0.858656 0.665324
0.75024 0.865278 0.682719
0.885115 0.892226 0.724392
0.925628 0.91371 0.779004
0.938018 0.923964 0.805325
0.940703 0.926574 0.812085
0.396567 0.893721 0.720668
0.396567 0.893721 0.720668
0.396567 0.893721 0.720668
0.53019 0.908492 0.757824
0.866789 0.938598 0.844388
0.953826 0.963027 0.903365
0.978439 0.979232 0.944259
0.986786 0.986618 0.963455
0.988876 0.988602 0.968597
0.523949 0.914382 0.769253
0.523949 0.914382 0.769253
0.523934 0.914382 0.769238
0.523919 0.914382 0.769238
0.914778 0.964355 0.907042
0.983551 0.987457 0.966491
1 1 1
1 1 1
1 1 1
0.549493 0.918074 0.7794
0.549493 0.918074 0.7794
0.549493 0.918074 0.7794
0.549493 0.918074 0.7794
0.919676 0.968093 0.91545
0.988296 0.991241 0.976074
1 1 1
1 1 1
1 1 1
0 0 0
0 0 0
0.0283818 0.0283818 0.0283818
0.217853 0.164263 0.42945
0.69044 0.459525 1
0.921675 0.634943 0.810239
1 0.60502 0.714672
1 0.562051 0.619547
1 0.547601 0.575174
0 0 0
0 0 0
0.027985 0.027985 0.027985
0.217594 0.163775 0.430213
0.690654 0.459922 1
0.922347 0.634424 0.808698
1 0.603555 0.712215
1 0.560647 0.61622
1 0.546899 0.572641
0.00151064 0.00151064 0.00151064
0.0127871 0.0127871 0.0127871
0.0610666 0.0610666 0.0610666
0.262684 0.192386 0.588708
0.703487 0.48101 1
0.925566 0.642603 0.812116
1 0.610986 0.717418
1 0.56379 0.615793
1 0.549065 0.569589
0.124697 0.128023 0.132753
0.127169 0.138903 0.155673
0.120836 0.227726 0.406851
0.289204 0.322744 0.86392
0.683177 0.520378 0.932738
0.929213 0.668086 0.792462
1 0.648707 0.71664
1 0.616373 0.638437
1 0.608652 0.603464
0.434424 0.434424 0.434424
0.434516 0.434516 0.434516
0.383001 0.547356 0.586511
0.278325 0.713527 0.872999
0.706889 0.727153 0.763073
0.912474 0.76202 0.72047
0.965515 0.789868 0.707439
0.97528 0.801572 0.688472
0.975235 0.802731 0.672679
0.252567 0.828336 0.773419
0.252964 0.828382 0.773175
0.254261 0.828504 0.772366
0.514977 0.881331 0.834928
0.786099 0.902937 0.806531
0.913237 0.918532 0.827604
0.937758 0.927535 0.827573
0.937285 0.922621 0.802075
0.939834 0.925048 0.808331
0.394369 0.893263 0.719829
0.394369 0.893263 0.719829
0.394354 0.893263 0.719829
0.516213 0.90692 0.753872
0.86482 0.937957 0.842634
0.953079 0.962432 0.901823
0.978058 0.978836 0.943236
0.986343 0.986145 0.962264
0.98851 0.98822 0.967605
0.522118 0.914122 0.768536
0.522118 0.914122 0.768536
0.522118 0.914122 0.768536
0.522087 0.914122 0.768521
0.913298 0.963928 0.905806
0.983124 0.987121 0.965652
1 0.999908 1
1 1 1
1 1 1
0.549493 0.918074 0.7794
0.549493 0.918074 0.7794
0.549493 0.918074 0.7794
0.549493 0.918074 0.7794
0.918975 0.968002 0.915053
0.988235 0.991196 0.975998
1 1 1
1 1 1
1 1 1
0 0 0
0 0 0
0.0157473 0.0157473 0.0157473
0.182086 0.180041 0.194278
0.572717 0.401038 0.949416
0.879973 0.632685 1
0.955367 0.712566 1
0.976059 0.732525 1
0.979553 0.735729 1
0 0 0
0 0 0
0.0153201 0.0153201 0.0153201
0.181338 0.179461 0.19263
0.572473 0.400839 0.949081
0.879957 0.6327 1
0.955352 0.712581 1
0.976074 0.732525 1
0.979553 0.735744 1
0 0 0
0 0 0
0.0137636 0.0137636 0.0137636
0.178668 0.177356 0.186679
0.571542 0.400168 0.947906
0.879881 0.632761 1
0.955337 0.712657 1
0.976089 0.73257 1
0.979583 0.735821 1
0.0746777 0.0746777 0.0746777
0.0746319 0.0746319 0.0746319
0.145663 0.145663 0.145663
0.282536 0.269764 0.668147
0.637125 0.453117 1
0.881895 0.664851 1
0.945953 0.730556 1
0.964523 0.747906 1
0.967971 0.75079 1
0.359213 0.359213 0.359213
0.359182 0.359182 0.359182
0.417563 0.417563 0.417563
0.329274 0.648142 0.954086
0.705135 0.713191 0.928405
0.848325 0.786892 0.928145
0.895293 0.830716 0.907134
0.909972 0.845472 0.905547
0.914687 0.846769 0.905699
0.345373 0.813596 0.93138
0.345327 0.813611 0.93138
0.345205 0.813657 0.93138
0.569589 0.888747 0.995056
0.829831 0.912108 0.94995
0.934554 0.936904 0.940963
0.964279 0.954208 0.952422
0.972915 0.96202 0.959197
0.974731 0.963897 0.960754
0.499825 0.917662 0.991241
0.499794 0.917662 0.991226
0.499611 0.917662 0.991135
0.614939 0.929961 0.991333
0.926848 0.971969 0.977279
0.986999 0.990555 0.988235
1 1 1
1 1 1
1 1 1
0.6206 0.939834 0.976593
0.620554 0.939834 0.976562
0.620325 0.939818 0.976455
0.619501 0.939788 0.975952
0.961929 0.987701 0.98674
1 1 1
1 1 1
1 1 1
1 1 1
0.632425 0.943786 0.961364
0.632349 0.943786 0.961303
0.632059 0.943771 0.961044
0.631098 0.943725 0.960143
0.967514 0.988357 0.984512
1 1 1
1 1 1
1 1 1
1 1 1
0 0 0
0 0 0
0.00166323 0.00166323 0.00166323
0.162142 0.162142 0.162142
0.520424 0.406546 0.791363
0.876371 0.616983 1
0.954879 0.701549 1
0.975647 0.723445 1
0.978943 0.72697 1
0 0 0
0 0 0
0.00120546 0.00120546 0.00120546
0.161456 0.161456 0.161456
0.520043 0.406394 0.790555
0.876326 0.616953 1
0.954864 0.701549 1
0.975647 0.723445 1
0.978943 0.72697 1
0 0 0
0 0 0
0 0 0
0.15903 0.15903 0.15903
0.518669 0.405798 0.78764
0.876188 0.616815 1
0.954833 0.701534 1
0.975631 0.72343 1
0.978943 0.726986 1
0 0 0
0 0 0
0 0 0
0.150774 0.150774 0.150774
0.513939 0.403784 0.77763
0.8757 0.616373 1
0.954726 0.701473 1
0.97557 0.72343 1
0.978927 0.727047 1
0.314427 0.314427 0.314427
0.314397 0.314397 0.314397
0.31928 0.31928 0.31928
0.325093 0.590997 0.953307
0.697078 0.671122 0.98471
0.845502 0.759075 0.994095
0.895979 0.808682 0.96791
0.909834 0.825544 0.963104
0.912474 0.828901 0.962676
0.450431 0.76611 0.870954
0.450446 0.76611 0.870939
0.450446 0.766079 0.870909
0.54374 0.882414 1
0.829175 0.91046 0.978424
0.936095 0.937514 0.955352
0.96112 0.957 0.967437
0.969802 0.965728 0.972213
0.971618 0.967636 0.973388
0.560922 0.917922 1
0.560906 0.917922 1
0.560876 0.917922 1
0.580041 0.920256 1
0.942535 0.97496 0.988266
0.993469 0.994217 0.996078
1 1 1
1 1 1
1 1 1
0.707454 0.941756 1
0.707454 0.941756 1
0.707424 0.941756 1
0.707332 0.941741 1
0.979767 0.992401 0.996643
1 1 1
1 1 1
1 1 1
1 1 1
0.74229 0.94786 1
0.742275 0.94786 1
0.742245 0.94786 1
0.742123 0.947845 1
0.987808 0.995987 0.998627
1 1 1
1 1 1
1 1 1
1 1 1
0 0 0
0 0 0
0 0 0
0.145602 0.145602 0.145602
0.503349 0.405295 0.74139
0.874388 0.613413 1
0.954742 0.699062 1
0.975708 0.721187 1
0.979248 0.72488 1
0 0 0
0 0 0
0 0 0
0.14493 0.14493 0.14493
0.502953 0.405142 0.74049
0.874342 0.613382 1
0.954726 0.699062 1
0.975708 0.721187 1
0.979248 0.72488 1
0 0 0
0 0 0
0 0 0
0.142473 0.142473 0.142473
0.501488 0.404562 0.737179
0.874189 0.61323 1
0.954696 0.699031 1
0.975692 0.721172 1
0.979248 0.72488 1
0 0 0
0 0 0
0 0 0
0.134096 0.134096 0.134096
0.496269 0.402502 0.725368
0.873671 0.612711 1
0.954589 0.698909 1
0.975647 0.721126 1
0.979248 0.72488 1
0.270726 0.270726 0.270726
0.27071 0.27071 0.27071
0.270649 0.270649 0.270649
0.3028 0.517281 0.89807
0.666758 0.610376 1
0.846372 0.728771 1
0.901457 0.784756 1
0.91577 0.80235 0.99588
0.918593 0.805997 0.995315
0.50518 0.737041 0.817533
0.505196 0.737041 0.817533
0.505257 0.737011 0.817456
0.505638 0.874266 1
0.822293 0.905531 0.983413
0.933639 0.934127 0.956512
0.959213 0.954391 0.968887
0.968124 0.963363 0.97348
0.970245 0.965637 0.974823
0.5635 0.917967 1
0.563485 0.917967 1
0.563485 0.917967 1
0.563439 0.917967 1
0.942962 0.975387 0.991043
0.99443 0.995117 0.997253
1 1 1
1 1 1
1 1 1
0.716487 0.943099 1
0.716487 0.943099 1
0.716472 0.943099 1
0.716442 0.943084 1
0.982238 0.993439 0.997955
1 1 1
1 1 1
1 1 1
1 1 1
0.757809 0.950225 1
0.757809 0.950225 1
0.757794 0.95021 1
0.757763 0.95021 1
0.992691 0.997909 0.999908
1 1 1
1 1 1
1 1 1
1 1 1
0 0 0
0 0 0
0 0 0
0.137957 0.137957 0.137957
0.498604 0.403418 0.730663
0.873899 0.61294 1
0.954635 0.69897 1
0.975662 0.721141 1
0.979248 0.72488 1
0 0 0
0 0 0
0 0 0
0.13727 0.13727 0.13727
0.498192 0.403265 0.729732
0.873854 0.612894 1
0.954635 0.698955 1
0.975662 0.721141 1
0.979248 0.72488 1
0 0 0
0 0 0
0 0 0
0.134813 0.134813 0.134813
0.496712 0.40267 0.72636
0.873701 0.612757 1
0.954604 0.698924 1
0.975647 0.721126 1
0.979248 0.72488 1
0 0 0
0 0 0
0 0 0
0.126299 0.126299 0.126299
0.491402 0.400549 0.714321
0.873182 0.612222 1
0.954498 0.698802 1
0.975601 0.721065 1
0.979248 0.72488 1
0.247028 0.247028 0.247028
0.247013 0.247013 0.247013
0.246967 0.246967 0.246967
0.291417 0.475395 0.850477
0.651438 0.574395 1
0.848585 0.713497 1
0.90634 0.772686 1
0.921386 0.791012 1
0.924376 0.794751 1
0.528893 0.721569 0.788327
0.528908 0.721553 0.788327
0.528954 0.721523 0.788266
0.482109 0.868864 1
0.815854 0.901808 0.983886
0.931029 0.930983 0.955062
0.957168 0.951827 0.967575
0.966308 0.961059 0.972122
0.96846 0.963363 0.973465
0.557916 0.917067 1
0.557916 0.917067 1
0.5579 0.917067 1
0.557855 0.917067 1
0.94052 0.974441 0.99086
0.993484 0.9944 0.996689
1 1 1
1 1 1
1 1 1
0.71545 0.942901 1
0.715434 0.942885 1
0.715434 0.942885 1
0.715419 0.942885 1
0.981521 0.993179 0.998032
1 1 1
1 1 1
1 1 1
1 1 1
0.760815 0.950713 1
0.760815 0.950713 1
0.760815 0.950713 1
0.760815 0.950713 1
0.993194 0.998123 1
1 1 1
1 1 1
1 1 1
1 1 1
