public/textures/grade/RED/Gems-Log3G10.cube
TITLE "Generated by Resolve"
LUT_3D_SIZE 5
0.000671397 0.00485237 0.013901
0.191882 0.00740063 0
0.384085 0.384085 0.384085
0.509804 0.509804 0.509804
0.524132 0.524132 0.524132
0 0.108125 0.0167544
0.069398 0.111177 0
0.390005 0.390005 0.390005
0.528847 0.528847 0.528847
0.545953 0.545953 0.545953
0 0.594934 0.442023
0.0598001 0.659907 0.484352
0.648844 0.687892 0.429587
0.917449 0.753841 0.449928
0.936507 0.772992 0.482307
0.397498 0.893904 0.721019
0.397482 0.893889 0.721019
0.867613 0.938872 0.845106
0.978607 0.9794 0.944686
0.988998 0.988739 0.968948
0.549493 0.918074 0.7794
0.549493 0.918074 0.7794
0.919951 0.968139 0.915602
1 1 1
1 1 1
0 0 0.277958
0.10045 0.0142977 0.296757
0.388037 0.388037 0.388037
0.509804 0.509804 0.509804
0.524132 0.524132 0.524132
0 0.098024 0.2206
0.094316 0.114137 0.151415
0.400824 0.400824 0.400824
0.528374 0.528374 0.528374
0.545144 0.545144 0.545144
0 0.593835 0.441077
0.0573434 0.658473 0.483192
0.648951 0.687083 0.428107
0.917723 0.752941 0.448341
0.936904 0.772091 0.480613
0.397253 0.893858 0.720928
0.397238 0.893843 0.720928
0.867399 0.938796 0.844907
0.978561 0.979355 0.944549
0.988968 0.988708 0.968856
0.549493 0.918074 0.7794
0.549493 0.918074 0.7794
0.919875 0.968124 0.915557
1 1 1
1 1 1
0 0 0
0.0283818 0.0283818 0.0283818
0.69044 0.459525 1
1 0.60502 0.714672
1 0.547601 0.575174
0.00151064 0.00151064 0.00151064
0.0610666 0.0610666 0.0610666
0.703487 0.48101 1
1 0.610986 0.717418
1 0.549065 0.569589
0.434424 0.434424 0.434424
0.383001 0.547356 0.586511
0.706889 0.727153 0.763073
0.965515 0.789868 0.707439
0.975235 0.802731 0.672679
0.394369 0.893263 0.719829
0.394354 0.893263 0.719829
0.86482 0.937957 0.842634
0.978058 0.978836 0.943236
0.98851 0.98822 0.967605
0.549493 0.918074 0.7794
0.549493 0.918074 0.7794
0.918975 0.968002 0.915053
1 1 1
1 1 1
0 0 0
0.00166323 0.00166323 0.00166323
0.520424 0.406546 0.791363
0.954879 0.701549 1
0.978943 0.72697 1
0 0 0
0 0 0
0.518669 0.405798 0.78764
0.954833 0.701534 1
0.978943 0.726986 1
0.314427 0.314427 0.314427
0.31928 0.31928 0.31928
0.697078 0.671122 0.98471
0.895979 0.808682 0.96791
0.912474 0.828901 0.962676
0.560922 0.917922 1
0.560876 0.917922 1
0.942535 0.97496 0.988266
1 1 1
1 1 1
0.74229 0.94786 1
0.742245 0.94786 1
0.987808 0.995987 0.998627
1 1 1
1 1 1
0 0 0
0 0 0
0.498604 0.403418 0.730663
0.954635 0.69897 1
0.979248 0.72488 1
0 0 0
0 0 0
0.496712 0.40267 0.72636
0.954604 0.698924 1
0.979248 0.72488 1
0.247028 0.247028 0.247028
0.246967 0.246967 0.246967
0.651438 0.574395 1
0.90634 0.772686 1
0.924376 0.794751 1
0.557916 0.917067 1
0.5579 0.917067 1
0.94052 0.974441 0.99086
1 1 1
1 1 1
0.760815 0.950713 1
0.760815 0.950713 1
0.993194 0.998123 1
1 1 1
1 1 1
