public/textures/grade/RED/Guardians-Log3G10.cube
TITLE "Generated by Resolve"
LUT_3D_SIZE 33
0.015259 0.022034 0.0195926
0.0300908 0.0195468 0.0150912
0.0454414 0.0173342 0.0119478
0.063447 0.0150759 0.00915541
0.0873274 0.0119478 0.00537118
0.116594 0.00799573 0.000595102
0.151766 0.00297551 0
0.193637 0 0
0.242267 0 0
0.297642 0 0
0.359808 0 0
0.427573 0 0
0.49984 0 0
0.575433 0 0
0.651438 0 0
0.726207 0 0
0.797757 0 0
0.864607 0 0
0.925124 0 0
0.978759 0 0
1 0 0
1 0 0
1 0 0
1 0 0
1 0 0
1 0 0
1 0 0
1 0 0
1 0 0
1 0 0
1 0 0
1 0 0
1 0 0
0.0144656 0.0276036 0.0148775
0.0242313 0.0264439 0.0130465
0.0408026 0.0240635 0.00982681
0.0607462 0.0214389 0.00657664
0.0852522 0.0182956 0.00294499
0.114748 0.0143282 0
0.149996 0.00929274 0
0.192355 0.00314336 0
0.241398 0 0
0.29662 0 0
0.358755 0 0
0.426642 0 0
0.498955 0 0
0.574517 0 0
0.650553 0 0
0.725353 0 0
0.796719 0 0
0.863508 0 0
0.923858 0 0
0.977447 0 0
1 0 0
1 0 0
1 0 0
1 0 0
1 0 0
1 0 0
1 0 0
1 0 0
1 0 0
1 0 0
1 0 0
1 0 0
1 0 0
0.01149 0.0363928 0.00918593
0.0201877 0.0355688 0.00808728
0.034165 0.0338293 0.00608835
0.0550851 0.0310521 0.00309758
0.0811322 0.0276646 0
0.111452 0.0236515 0
0.147402 0.0188296 0
0.190173 0.0128481 0
0.239551 0.00552377 0
0.295293 0 0
0.357397 0 0
0.425177 0 0
0.4972 0 0
0.572808 0 0
0.648875 0 0
0.723568 0 0
0.794858 0 0
0.861723 0 0
0.922255 0 0
0.975769 0 0
1 0 0
1 0 0
1 0 0
1 0 0
1 0 0
1 0 0
1 0 0
1 0 0
1 0 0
1 0 0
1 0 0
1 0 0
1 0 0
0.00581369 0.0494087 0.00117494
0.0141299 0.0486763 0.000442512
0.0268254 0.047425 0
0.0466926 0.045243 0
0.0737163 0.0418555 0
0.105592 0.0378729 0
0.142657 0.0330816 0
0.185962 0.0272374 0
0.235996 0.0202945 0
0.292332 0.0121614 0
0.355077 0.00259403 0
0.423072 0 0
0.494942 0 0
0.570397 0 0
0.646296 0 0
0.720897 0 0
0.792218 0 0
0.858946 0 0
0.91928 0 0
0.972747 0 0
1 0 0
1 0 0
1 0 0
1 0 0
1 0 0
1 0 0
1 0 0
1 0 0
1 0 0
1 0 0
1 0 0
1 0 0
1 0 0
0 0.0671702 0
0.00573739 0.0665599 0
0.0182498 0.0656596 0
0.0370794 0.0638132 0
0.0633707 0.0608988 0
0.0962539 0.0571756 0
0.135012 0.0525216 0
0.179522 0.0469368 0
0.230289 0.0399939 0
0.287327 0.0322423 0
0.350805 0.0233158 0
0.419364 0.0132601 0
0.491875 0.00242618 0
0.567269 0 0
0.642527 0 0
0.716731 0 0
0.787869 0 0
0.85452 0 0
0.914672 0 0
0.967971 0 0
1 0 0
1 0 0
1 0 0
1 0 0
1 0 0
1 0 0
1 0 0
1 0 0
1 0 0
1 0 0
1 0 0
1 0 0
1 0 0
0 0.0894026 0
0 0.0890059 0
0.00700389 0.0882124 0
0.0256352 0.0868544 0
0.0515755 0.0847334 0
0.0841688 0.0813306 0
0.123812 0.0768597 0
0.169848 0.0715496 0
0.222171 0.0651713 0
0.279957 0.0575875 0
0.344121 0.0491798 0
0.413367 0.0398871 0
0.48632 0.0297398 0
0.562173 0.0190585 0
0.638102 0.00851453 0
0.712016 0 0
0.782345 0 0
0.848447 0 0
0.908507 0 0
0.961532 0 0
1 0 0
1 0 0
1 0 0
1 0 0
1 0 0
1 0 0
1 0 0
1 0 0
1 0 0
1 0 0
1 0 0
1 0 0
1 0 0
0 0.11635 0
0 0.116258 0
0 0.116121 0
0.0109255 0.114961 0
0.0369879 0.113283 0
0.0695506 0.110735 0
0.109483 0.106798 0
0.15668 0.101869 0
0.210391 0.0957351 0
0.269886 0.0888075 0
0.334905 0.0809033 0
0.404868 0.0723125 0
0.478309 0.0631113 0
0.554147 0.0530556 0
0.630304 0.0433814 0
0.704799 0.0341344 0
0.775662 0.0253758 0
0.841703 0.0173495 0
0.901259 0.0103304 0
0.954086 0.00396735 0
0.999695 0 0
1 0 0
1 0 0
1 0 0
1 0 0
1 0 0
1 0 0
1 0 0
1 0 0
1 0 0
1 0 0
1 0 0
1 0 0
0 0.148699 0
0 0.148959 0
0 0.149065 0
0 0.148943 0
0.0196231 0.147524 0
0.0525063 0.145602 0
0.0923323 0.14255 0
0.139925 0.138201 0
0.195087 0.132738 0
0.256474 0.126299 0
0.322499 0.118944 0
0.39321 0.110887 0
0.467369 0.102556 0
0.543832 0.0936751 0
0.620111 0.0849775 0
0.694636 0.0768139 0
0.765362 0.0690166 0
0.83125 0.062211 0
0.890898 0.0564584 0
0.943694 0.0518502 0
0.989456 0.0473945 0
1 0.0432136 0
1 0.0394141 0
1 0.0353552 0
1 0.0315251 0
1 0.0278782 0
1 0.0243687 0
1 0.02121 0
1 0.0184482 0
1 0.0162356 0
1 0.0143282 0
1 0.0123293 0
1 0.0108034 0
0 0.186847 0
0 0.187076 0
0 0.187701 0
0 0.188052 0
0 0.187823 0
0.0323644 0.186313 0
0.0726329 0.184054 0
0.120409 0.180606 0
0.176226 0.175906 0
0.239033 0.170108 0
0.306676 0.163455 0
0.37882 0.156176 0
0.45391 0.148318 0
0.530816 0.140429 0
0.607324 0.132753 0
0.68188 0.125719 0
0.752529 0.119478 0
0.818021 0.113756 0
0.877516 0.109514 0
0.930037 0.106035 0
0.975402 0.103151 0
1 0.100542 0
1 0.0982834 0
1 0.0960555 0
1 0.093904 0
1 0.0918441 0
1 0.0896162 0
1 0.0875257 0
1 0.085893 0
1 0.0845655 0
1 0.08336 0
1 0.0817884 0
1 0.0807813 0
0 0.230549 0
0 0.230915 0
0 0.231769 0
0 0.2327 0
0 0.233692 0
0.00868238 0.233051 0
0.0505531 0.231571 0
0.0988479 0.228977 0
0.154894 0.225132 0
0.218387 0.220249 0
0.287373 0.214343 0
0.360998 0.207721 0
0.437354 0.200717 0
0.514702 0.193683 0
0.591608 0.186984 0
0.66627 0.181018 0
0.737133 0.17583 0
0.802319 0.171313 0
0.861494 0.168261 0
0.913558 0.166155 0
0.958648 0.164752 0
0.99704 0.163546 0
1 0.162585 0
1 0.162066 0
1 0.161074 0
1 0.160357 0
1 0.159594 0
1 0.158831 0
1 0.158083 0
1 0.157351 0
1 0.156603 0
1 0.155612 0
1 0.154681 0
0 0.279316 0
0 0.279881 0
0 0.280781 0
0 0.28249 0
0 0.284123 0
0 0.28513 0
0.0260166 0.284169 0
0.0756085 0.282628 0
0.132265 0.279789 0
0.196262 0.275883 0
0.266178 0.270878 0
0.341192 0.265003 0
0.418387 0.258732 0
0.496651 0.252598 0
0.574044 0.24683 0
0.64889 0.241856 0
0.719661 0.237568 0
0.784558 0.234226 0
0.843305 0.232227 0
0.894896 0.231312 0
0.93962 0.230976 0
0.977813 0.231418 0
1 0.231724 0
1 0.232059 0
1 0.232715 0
1 0.233112 0
1 0.232959 0
1 0.23299 0
1 0.232959 0
1 0.233005 0
1 0.232837 0
1 0.231922 0
1 0.231235 0
0 0.332738 0
0 0.333272 0
0 0.334112 0
0 0.336278 0
0 0.338704 0
0 0.341039 0
0 0.341894 0
0.0510262 0.340764 0
0.108614 0.338933 0
0.173754 0.33611 0
0.24448 0.332113 0
0.320012 0.32723 0
0.398138 0.321706 0
0.477272 0.316365 0
0.55523 0.311437 0
0.630335 0.307332 0
0.700969 0.3037 0
0.765637 0.30161 0
0.823972 0.300649 0
0.87541 0.300618 0
0.919738 0.301289 0
0.957366 0.302373 0
0.988708 0.304112 0
1 0.305455 0
1 0.306798 0
1 0.307942 0
1 0.308995 0
1 0.309575 0
1 0.309834 0
1 0.310246 0
1 0.31043 0
1 0.309758 0
1 0.309255 0
0 0.390646 0
0 0.390646 0
0 0.391318 0
0 0.393103 0
0 0.396323 0
0 0.399985 0
0 0.402564 0
0.0251316 0.402548 0
0.0851606 0.401602 0
0.151247 0.399924 0
0.222904 0.396948 0
0.298955 0.392889 0
0.377981 0.388327 0
0.457771 0.383749 0
0.536278 0.379553 0
0.611322 0.375814 0
0.6822 0.373281 0
0.746746 0.371939 0
0.804746 0.37174 0
0.855711 0.372503 0
0.899626 0.373953 0
0.936828 0.37583 0
0.967575 0.377966 0
0.992844 0.380423 0
1 0.382269 0
1 0.384192 0
1 0.385367 0
1 0.386648 0
1 0.387625 0
1 0.388357 0
1 0.388693 0
1 0.388281 0
1 0.387945 0
0 0.451377 0
0 0.451377 0
0 0.451377 0
0 0.451972 0
0 0.455512 0
0 0.460273 0
0 0.464607 0
0 0.466804 0
0.0621958 0.466346 0
0.130343 0.46569 0
0.203418 0.463691 0
0.280095 0.460426 0
0.359594 0.456901 0
0.439857 0.453056 0
0.518364 0.449165 0
0.594095 0.446281 0
0.664561 0.444404 0
0.728878 0.443656 0
0.786633 0.443961 0
0.837125 0.44506 0
0.880583 0.447028 0
0.917494 0.449638 0
0.947845 0.452277 0
0.972564 0.454841 0
0.992508 0.457557 0
1 0.459525 0
1 0.461494 0
1 0.462928 0
1 0.463874 0
1 0.464836 0
1 0.465476 0
1 0.465126 0
1 0.464851 0
0 0.513313 0
0 0.513313 0
0 0.513313 0
0 0.513313 0
0 0.514443 0
0 0.519814 0
0 0.526375 0
0 0.53077 0
0.0399939 0.531655 0
0.111254 0.531899 0
0.186038 0.530846 0
0.26392 0.528511 0
0.344488 0.525628 0
0.424857 0.522118 0
0.503883 0.519051 0
0.57937 0.516686 0
0.649638 0.515221 0
0.713588 0.514717 0
0.770687 0.515114 0
0.820813 0.516716 0
0.863828 0.51902 0
0.90016 0.521752 0
0.930343 0.525048 0
0.954696 0.527901 0
0.97409 0.530495 0
0.989502 0.53312 0
1 0.534951 0
1 0.53669 0
1 0.538079 0
1 0.539162 0
1 0.53994 0
1 0.539681 0
1 0.539483 0
0 0.57554 0
0 0.57554 0
0 0.57554 0
0 0.57554 0
0 0.575525 0
0 0.577249 0
0 0.585153 0
0 0.59266 0
0.017319 0.595865 0
0.093431 0.596948 0
0.17145 0.596887 0
0.251087 0.59527 0
0.332387 0.593088 0
0.413275 0.590066 0
0.492592 0.587427 0
0.568032 0.585336 0
0.637858 0.583825 0
0.701518 0.583551 0
0.758389 0.584314 0
0.807996 0.586053 0
0.850507 0.588495 0
0.886336 0.591318 0
0.915816 0.594339 0
0.940047 0.597665 0
0.959136 0.600412 0
0.974212 0.603021 0.00172427
0.985794 0.605097 0.00509651
0.994873 0.606958 0.00787366
1 0.608408 0.0102235
1 0.609369 0.011902
1 0.61004 0.0131075
1 0.609857 0.0130617
1 0.60972 0.0130312
0 0.636133 0
0 0.636133 0
0 0.636133 0
0 0.636118 0
0 0.636118 0
0 0.636118 0
0 0.638865 0
0 0.649851 0
0 0.65684 0
0.0763867 0.659068 0
0.158877 0.659937 0
0.241535 0.659007 0
0.324514 0.657359 0
0.406348 0.654734 0
0.48571 0.652445 0
0.56112 0.650538 0
0.630594 0.649088 0
0.694026 0.648875 0
0.750164 0.649683 0
0.799191 0.651408 0
0.841108 0.653819 0
0.876402 0.656596 0
0.905425 0.659586 0.00222782
0.929061 0.662608 0.00775158
0.948028 0.665629 0.0132906
0.962631 0.667979 0.0177615
0.974121 0.670222 0.0218357
0.98294 0.672038 0.0251164
0.989425 0.673213 0.0273899
0.994247 0.67425 0.0292973
0.997864 0.675105 0.0308537
0.997909 0.674998 0.0308232
0.997925 0.674907 0.0307927
0 0.693904 0
0 0.693904 0
0 0.693904 0
0 0.693904 0
0 0.693904 0
0 0.693904 0
0 0.693889 0
0 0.698665 0
0 0.711864 0
0.0561227 0.716762 0
0.146242 0.718822 0
0.233875 0.719036 0
0.319295 0.717464 0
0.40264 0.715312 0
0.482811 0.712963 0
0.558206 0.711131 0
0.627588 0.709667 0
0.690394 0.709407 0
0.745907 0.710109 0
0.794339 0.711742 0.000213626
0.83566 0.714031 0.00715648
0.870344 0.716609 0.0141451
0.898802 0.719402 0.0208743
0.921904 0.722179 0.0270848
0.940505 0.725078 0.0330205
0.954787 0.727306 0.0376593
0.966049 0.729442 0.041825
0.974624 0.731167 0.0451972
0.980896 0.732219 0.0473945
0.985672 0.733303 0.0494392
0.989197 0.734142 0.0510109
0.98938 0.734096 0.0510567
0.98938 0.73402 0.0510262
0 0.747768 0
0 0.747768 0
0 0.747768 0
0 0.747753 0
0 0.747753 0
0 0.747753 0
0 0.747753 0
0 0.747753 0
0 0.756786 0
0.0265202 0.768429 0
0.130648 0.772671 0
0.225406 0.773617 0
0.315343 0.772549 0
0.401297 0.770718 0
0.482521 0.768277 0
0.558358 0.766339 0
0.628031 0.765148 6.10361e-05
0.690181 0.764462 0.00643931
0.745312 0.764828 0.0134432
0.792874 0.766217 0.0209506
0.83357 0.768185 0.0284733
0.867582 0.770504 0.0357061
0.89546 0.773022 0.0425269
0.918288 0.775814 0.049134
0.936294 0.778241 0.0547189
0.950256 0.780316 0.0593423
0.961303 0.7823 0.0634928
0.969635 0.783948 0.0668498
0.975845 0.785061 0.0692149
0.980407 0.785931 0.071046
0.983841 0.786709 0.0725872
0.984207 0.78674 0.0727092
0.984207 0.786694 0.072694
0 0.797086 0
0 0.797086 0
0 0.797086 0
0 0.797086 0
0 0.797086 0
0 0.797086 0
0 0.797086 0
0 0.79707 0
0 0.79707 0
0 0.811582 0
0.106355 0.820203 0
0.213764 0.822675 0
0.310582 0.822187 0
0.400565 0.820218 0.0015259
0.48397 0.818051 0.00926223
0.560861 0.815686 0.0159304
0.630396 0.814145 0.0227359
0.692699 0.813474 0.0298466
0.747463 0.813535 0.0369879
0.794232 0.814237 0.044007
0.834363 0.815885 0.0515145
0.867796 0.818112 0.0589609
0.895262 0.820447 0.0658579
0.917388 0.82269 0.0719463
0.934966 0.824826 0.0773022
0.948913 0.827008 0.0822614
0.959426 0.828565 0.0859083
0.967559 0.830076 0.089189
0.973754 0.831266 0.0917372
0.978317 0.832212 0.0937057
0.981476 0.832715 0.0948653
0.98201 0.832746 0.0950179
0.982025 0.832715 0.0950179
0 0.840711 0
0 0.840711 0
0 0.840711 0
0 0.840711 0
0 0.840711 0
0 0.840711 0
0 0.840711 0
0 0.840696 0
0 0.840696 0
0 0.840696 0
0.0634165 0.859617 0
0.194827 0.865644 0
0.302831 0.865751 0.0141451
0.398428 0.863859 0.0245975
0.485451 0.861555 0.0332036
0.563821 0.8589 0.0401007
0.634485 0.856992 0.0469673
0.696651 0.855726 0.0536049
0.751003 0.855543 0.0607156
0.797696 0.856092 0.0678569
0.837186 0.85742 0.0751659
0.870008 0.85919 0.0822309
0.896895 0.861128 0.0887312
0.918654 0.863142 0.0946975
0.935988 0.865187 0.100069
0.949447 0.86685 0.104402
0.959899 0.868559 0.10837
0.967803 0.869886 0.111437
0.973709 0.870787 0.113588
0.978164 0.871656 0.115511
0.98143 0.872328 0.11696
0.982254 0.872465 0.117296
0.982254 0.872435 0.117296
0 0.878904 0
0 0.878904 0
0 0.878904 0
0 0.878904 0
0 0.878904 0
0 0.878904 0
0 0.878904 0
0 0.878904 0
0 0.878889 0
0 0.878889 0
0 0.885069 0
0.162081 0.901396 0.0138705
0.28893 0.903349 0.035172
0.394034 0.901778 0.0479896
0.48571 0.898802 0.0567025
0.566735 0.895949 0.0639811
0.638712 0.89366 0.0707713
0.701183 0.891981 0.0771344
0.755688 0.891493 0.084123
0.802152 0.891691 0.0909895
0.841169 0.892576 0.0978408
0.873686 0.894026 0.104601
0.900221 0.895705 0.110918
0.921447 0.897429 0.116533
0.938491 0.89929 0.121767
0.951629 0.900725 0.125811
0.961852 0.90222 0.129549
0.969406 0.903243 0.132174
0.975341 0.904234 0.134524
0.979706 0.905043 0.13637
0.98291 0.905653 0.137774
0.983993 0.905852 0.138216
0.983993 0.905837 0.138216
0 0.911345 0
0 0.911345 0
0 0.911345 0
0 0.911345 0
0 0.911345 0
0 0.911345 0
0 0.911345 0
0 0.911345 0
0 0.91133 0
0 0.91133 0
0 0.91133 0
0.103456 0.928145 0.0183871
0.266072 0.934844 0.0530556
0.384771 0.93344 0.0686503
0.483452 0.930541 0.0788434
0.56846 0.927291 0.0863813
0.64213 0.924483 0.0928664
0.70602 0.922576 0.0992905
0.760418 0.92137 0.105409
0.80679 0.92137 0.112169
0.845579 0.92195 0.118715
0.877729 0.922957 0.124956
0.903899 0.924361 0.130938
0.924971 0.92607 0.136629
0.941649 0.927611 0.141451
0.954559 0.928893 0.145312
0.964553 0.930205 0.148806
0.972122 0.931304 0.151614
0.977722 0.931945 0.153414
0.981979 0.932647 0.155123
0.985107 0.933196 0.156451
0.986481 0.933425 0.157
0.986481 0.93341 0.157
0 0.938338 0
0 0.938338 0
0 0.938338 0
0 0.938338 0
0 0.938338 0
0 0.938338 0
0 0.938338 0
0 0.938338 0
0 0.938338 0
0 0.938338 0
0 0.938338 0
0 0.938842 0
0.230625 0.960174 0.0655833
0.370779 0.960281 0.0873274
0.478416 0.956771 0.0982223
0.568734 0.953262 0.106386
0.644633 0.94992 0.112581
0.709575 0.94754 0.118593
0.764782 0.946227 0.124804
0.811383 0.945693 0.130968
0.850126 0.946059 0.137331
0.881987 0.946899 0.143404
0.907851 0.947967 0.148959
0.928466 0.949218 0.154009
0.944915 0.950545 0.158541
0.957824 0.951873 0.16257
0.96762 0.952972 0.165759
0.975021 0.953918 0.168353
0.980743 0.954711 0.170474
0.984924 0.955352 0.172122
0.988052 0.95584 0.173342
0.989639 0.956085 0.173968
0.989639 0.956069 0.173968
0.0153658 0.959976 0.0148775
0.0153658 0.959976 0.0148775
0.0153658 0.959976 0.0148775
0.0153658 0.959976 0.0148775
0.0153658 0.959976 0.0148775
0.0153658 0.959976 0.0148775
0.0153658 0.959976 0.0148775
0.0153506 0.959976 0.0148775
0.0153506 0.95996 0.0148775
0.0153506 0.95996 0.0148775
0.0153506 0.95996 0.0148623
0.0153506 0.95996 0.0148775
0.176684 0.9785 0.069276
0.350408 0.981704 0.101701
0.471061 0.978531 0.115434
0.566766 0.974258 0.1234
0.646113 0.970611 0.129778
0.712596 0.967742 0.135409
0.768566 0.966049 0.141268
0.815396 0.965377 0.147326
0.854078 0.965316 0.15314
0.885756 0.965866 0.158862
0.911543 0.966827 0.164309
0.932128 0.967941 0.169207
0.948394 0.969039 0.173434
0.960983 0.970199 0.177203
0.970596 0.971099 0.180102
0.977874 0.971954 0.182589
0.98352 0.972686 0.184604
0.987655 0.973281 0.186175
0.990677 0.973602 0.187152
0.992477 0.973831 0.187808
0.992477 0.973816 0.187793
0.0353704 0.977447 0.0319066
0.0353704 0.977447 0.0319066
0.0353704 0.977447 0.0319066
0.0353704 0.977447 0.0319066
0.0353704 0.977447 0.0319066
0.0353704 0.977447 0.0319066
0.0353704 0.977447 0.0319066
0.0353704 0.977447 0.0319066
0.0353704 0.977447 0.0318914
0.0353704 0.977447 0.0318914
0.0353704 0.977447 0.0318914
0.0353704 0.977447 0.0318914
0.0888838 0.985138 0.0525978
0.325353 0.998993 0.112581
0.460777 0.995758 0.128832
0.563287 0.991165 0.137514
0.646067 0.986938 0.143633
0.714717 0.983948 0.149477
0.771328 0.981933 0.155032
0.818326 0.980743 0.160403
0.857267 0.980545 0.16611
0.888975 0.980957 0.171679
0.91458 0.981643 0.176745
0.935042 0.982483 0.181262
0.951293 0.983642 0.185626
0.963653 0.984604 0.189075
0.973373 0.985611 0.192203
0.980529 0.986252 0.194354
0.986053 0.986938 0.196307
0.990143 0.987488 0.197818
0.99321 0.987884 0.198947
0.995346 0.988205 0.199786
0.995346 0.988205 0.199786
0.052079 0.991363 0.0466163
0.052079 0.991363 0.0466163
0.052079 0.991363 0.0466163
0.052079 0.991363 0.0466163
0.052079 0.991363 0.0466163
0.052079 0.991363 0.0466163
0.052079 0.991363 0.0466163
0.052079 0.991363 0.0466163
0.0520638 0.991348 0.0466011
0.0520638 0.991348 0.0466011
0.0520638 0.991348 0.0466011
0.0520638 0.991348 0.0466011
0.0520638 0.991348 0.0466011
0.294942 1 0.119051
0.449546 1 0.139818
0.559197 1 0.149126
0.645609 0.999878 0.155306
0.715938 0.996612 0.161074
0.77348 0.994064 0.165972
0.821164 0.992874 0.171527
0.860136 0.992493 0.176989
0.891829 0.992599 0.182132
0.917327 0.993164 0.18703
0.937789 0.993957 0.191531
0.953796 0.994842 0.195453
0.966232 0.99588 0.199069
0.975647 0.996567 0.201663
0.982925 0.997299 0.203998
0.988327 0.997925 0.205844
0.992386 0.998383 0.207218
0.995254 0.998596 0.208011
0.997406 0.998901 0.208835
0.99762 0.998917 0.208927
0.0650645 1 0.0582589
0.0650645 1 0.0582589
0.0650645 1 0.0582589
0.0650645 1 0.0582589
0.0650645 1 0.0582589
0.0650645 1 0.0582589
0.0650645 1 0.0582589
0.0650645 1 0.0582589
0.0650492 1 0.0582589
