public/textures/grade/RED/Guardians-Log3G10.cube
TITLE "Generated by Resolve"
LUT_3D_SIZE 5
0.015259 0.022034 0.0195926
0.242267 0 0
0.797757 0 0
1 0 0
1 0 0
0 0.186847 0
0.176226 0.175906 0
0.752529 0.119478 0
1 0.093904 0
1 0.0807813 0
0 0.636133 0
0 0.65684 0
0.630594 0.649088 0
0.948028 0.665629 0.0132906
0.997925 0.674907 0.0307927
0.0153658 0.959976 0.0148775
0.0153506 0.95996 0.0148775
0.646113 0.970611 0.129778
0.948394 0.969039 0.173434
0.992477 0.973816 0.187793
0.0863508 1 0.0776684
0.0863508 1 0.0776684
0.633844 1 0.179004
0.95874 1 0.21561
1 1 0.228595
0.00318914 0 0.306294
0.218143 0 0.255253
0.795972 0 0.0244144
1 0 0
1 0 0
0 0.175753 0.188907
0.153017 0.17673 0.179355
0.756802 0.115908 0
1 0.0828717 0
1 0.0684215 0
0 0.635187 0
0 0.655818 0
0.630503 0.648096 0
0.94815 0.664637 0.0130007
0.998093 0.673915 0.0304875
0.0152285 0.959869 0.0147707
0.0152285 0.959854 0.0147707
0.645914 0.970504 0.129671
0.948379 0.968963 0.173388
0.992462 0.973724 0.187716
0.0863508 1 0.0776684
0.0863508 1 0.0776684
0.633677 1 0.179004
0.95874 1 0.215625
1 1 0.228595
0 0 1
0.154559 0 1
0.745235 0 0.86981
1 0 0.726375
1 0 0.638666
0 0.0313268 0.999374
0.141314 0.0223087 0.969635
0.737652 0 0.849973
1 0 0.722469
1 0 0.631006
0 0.620874 0.65275
0 0.645426 0.675151
0.618326 0.656306 0.671473
0.954253 0.668345 0.590295
1 0.678111 0.506981
0.0137179 0.958556 0.0135195
0.0137026 0.958541 0.0135195
0.643626 0.96936 0.12842
0.94818 0.968002 0.172702
0.992386 0.972793 0.187091
0.0863508 1 0.0776684
0.0863508 1 0.0776684
0.631647 1 0.178882
0.958618 1 0.215579
1 1 0.228595
0 0 1
0.0532692 0 1
0.716136 0 1
1 0 1
1 0 1
0 0 1
0.0442512 0 1
0.715251 0 1
1 0 1
1 0 1
0 0.544991 1
0 0.546532 1
0.628489 0.582193 1
0.960586 0.598001 1
1 0.607004 1
0.0695354 0.95314 0.971069
0.0695201 0.95314 0.970977
0.635584 0.967239 0.982284
0.938506 0.958907 0.968841
0.985504 0.961105 0.966461
0.136843 1 0.970275
0.136828 1 0.970169
0.622431 1 0.980255
0.948257 1 0.958389
0.992523 1 0.954177
0 0 1
0 0 1
0.708476 0 1
1 0 1
1 0 1
0 0 1
0 0 1
0.707576 0 1
1 0 1
1 0 1
0 0.45832 1
0 0.458228 1
0.631754 0.490806 1
0.978241 0.508034 1
1 0.516365 1
0.0705577 0.949645 1
0.0705425 0.94963 1
0.62945 0.964462 1
0.939376 0.95581 1
0.984863 0.958511 1
0.145357 1 1
0.145357 1 1
0.617655 1 1
0.947982 1 1
0.992615 1 1
