public/textures/grade/RED/Guardians-Log3G10.cube
TITLE "Generated by Resolve"
LUT_3D_SIZE 9
0.015259 0.022034 0.0195926
0.0873274 0.0119478 0.00537118
0.242267 0 0
0.49984 0 0
0.797757 0 0
1 0 0
1 0 0
1 0 0
1 0 0
0 0.0671702 0
0.0633707 0.0608988 0
0.230289 0.0399939 0
0.491875 0.00242618 0
0.787869 0 0
1 0 0
1 0 0
1 0 0
1 0 0
0 0.186847 0
0 0.187823 0
0.176226 0.175906 0
0.45391 0.148318 0
0.752529 0.119478 0
0.975402 0.103151 0
1 0.093904 0
1 0.085893 0
1 0.0807813 0
0 0.390646 0
0 0.396323 0
0.0851606 0.401602 0
0.377981 0.388327 0
0.6822 0.373281 0
0.899626 0.373953 0
1 0.382269 0
1 0.387625 0
1 0.387945 0
0 0.636133 0
0 0.636118 0
0 0.65684 0
0.324514 0.657359 0
0.630594 0.649088 0
0.841108 0.653819 0
0.948028 0.665629 0.0132906
0.989425 0.673213 0.0273899
0.997925 0.674907 0.0307927
0 0.840711 0
0 0.840711 0
0 0.840696 0
0.302831 0.865751 0.0141451
0.634485 0.856992 0.0469673
0.837186 0.85742 0.0751659
0.935988 0.865187 0.100069
0.973709 0.870787 0.113588
0.982254 0.872435 0.117296
0.0153658 0.959976 0.0148775
0.0153658 0.959976 0.0148775
0.0153506 0.95996 0.0148775
0.176684 0.9785 0.069276
0.646113 0.970611 0.129778
0.854078 0.965316 0.15314
0.948394 0.969039 0.173434
0.98352 0.972686 0.184604
0.992477 0.973816 0.187793
0.0753033 1 0.0675517
0.0753033 1 0.0675517
0.0753033 1 0.0675517
0.075288 1 0.0675364
0.643259 1 0.171939
0.863935 1 0.191669
0.957351 1 0.209064
0.991653 1 0.219059
1 1 0.222202
0.0863508 1 0.0776684
0.0863508 1 0.0776684
0.0863508 1 0.0776684
0.0863508 1 0.0776684
0.633844 1 0.179004
0.864393 1 0.198703
0.95874 1 0.21561
0.99321 1 0.225437
1 1 0.228595
0.014023 0.0167391 0.0969253
0.0757458 0.0101625 0.0821698
0.23946 0 0.0408637
0.499382 0 0
0.798062 0 0
1 0 0
1 0 0
1 0 0
1 0 0
0 0.0634775 0.0656748
0.0497444 0.0613565 0.0598764
0.231922 0.0378576 0.0204013
0.492317 0 0
0.78851 0 0
1 0 0
1 0 0
1 0 0
1 0 0
0 0.185397 0
0 0.186679 0
0.176776 0.174411 0
0.454536 0.1467 0
0.753033 0.117494 0
0.975845 0.100999 0
1 0.0914473 0
1 0.0835584 0
1 0.0782483 0
0 0.390005 0
0 0.395621 0
0.0850385 0.400931 0
0.378042 0.38761 0
0.682246 0.372564 0
0.899825 0.373159 0
1 0.381445 0
1 0.386786 0
1 0.387091 0
0 0.63592 0
0 0.63592 0
0 0.656626 0
0.324392 0.657145 0
0.630579 0.648875 0
0.841123 0.653605 0
0.948058 0.665415 0.0132296
0.989487 0.67303 0.0273747
0.997955 0.674678 0.0307164
0 0.84065 0
0 0.84065 0
0 0.840635 0
0.302663 0.86569 0.0140841
0.634424 0.856931 0.0469215
0.837171 0.857359 0.0751202
0.935973 0.865125 0.100038
0.973709 0.870726 0.113558
0.982238 0.872374 0.11725
0.0153353 0.959945 0.014847
0.0153353 0.959945 0.014847
0.0153201 0.959945 0.014847
0.176349 0.978454 0.0691844
0.646067 0.970581 0.129747
0.854078 0.965301 0.153124
0.948394 0.969024 0.173434
0.98352 0.972656 0.184588
0.992462 0.9738 0.187778
0.075288 1 0.0675364
0.075288 1 0.0675364
0.0752728 1 0.0675212
0.0752728 1 0.0675212
0.643229 1 0.171923
0.863935 1 0.191653
0.957351 1 0.209049
0.991653 1 0.219059
1 1 0.222187
0.0863508 1 0.0776684
0.0863508 1 0.0776684
0.0863508 1 0.0776684
0.0863508 1 0.0776684
0.633814 1 0.179004
0.864378 1 0.198688
0.95874 1 0.215625
0.99321 1 0.225437
1 1 0.228595
0.00318914 0 0.306294
0.0598001 0 0.29546
0.218143 0 0.255253
0.488823 0 0.173465
0.795972 0 0.0244144
1 0 0
1 0 0
1 0 0
1 0 0
0 0.0449989 0.281422
0.04654 0.0421302 0.274113
0.211002 0.0245975 0.23888
0.485161 0 0.162753
0.788571 0 0.0199893
1 0 0
1 0 0
1 0 0
1 0 0
0 0.175753 0.188907
0 0.179538 0.190265
0.153017 0.17673 0.179355
0.460395 0.145342 0.109499
0.756802 0.115908 0
0.97789 0.0931411 0
1 0.0828717 0
1 0.0741588 0
1 0.0684215 0
0 0.39057 0
0 0.39646 0
0.0888991 0.402625 0
0.378943 0.386084 0
0.682643 0.369894 0
0.900557 0.370306 0
1 0.378546 0
1 0.383764 0
1 0.384054 0
0 0.635187 0
0 0.635187 0
0 0.655818 0
0.323934 0.656382 0
0.630503 0.648096 0
0.841184 0.652811 0
0.94815 0.664637 0.0130007
0.9897 0.672404 0.0273136
0.998093 0.673915 0.0304875
0 0.840421 0
0 0.840421 0
0 0.840421 0
0.302068 0.865492 0.013901
0.634287 0.856718 0.0467842
0.837125 0.857145 0.0749981
0.935958 0.864927 0.0999161
0.973693 0.870527 0.113436
0.982238 0.87219 0.117144
0.0152285 0.959869 0.0147707
0.0152438 0.959869 0.0147707
0.0152285 0.959854 0.0147707
0.175174 0.978302 0.0688182
0.645914 0.970504 0.129671
0.854032 0.965225 0.153063
0.948379 0.968963 0.173388
0.98349 0.972595 0.184527
0.992462 0.973724 0.187716
0.0752117 1 0.0674754
0.0752117 1 0.0674754
0.0752117 1 0.0674601
0.0752117 1 0.0674601
0.643061 1 0.171862
0.86389 1 0.191592
0.957336 1 0.209003
0.991638 1 0.219013
1 1 0.222141
0.0863508 1 0.0776684
0.0863508 1 0.0776684
0.0863508 1 0.0776684
0.0863508 1 0.0776684
0.633677 1 0.179004
0.864363 1 0.198688
0.95874 1 0.215625
0.993194 1 0.225437
1 1 0.228595
0 0 0.665461
0.0351568 0 0.655833
0.189471 0 0.623453
0.460548 0 0.553109
0.772519 0 0.450416
1 0 0.290074
1 0 0
1 0 0
1 0 0
0 0 0.65185
0.0279088 0 0.643259
0.18468 0 0.612619
0.457832 0 0.54522
0.76994 0 0.444739
1 0 0.28336
1 0 0
1 0 0
1 0 0
0 0.139422 0.56759
0 0.143175 0.566644
0.151171 0.139269 0.55079
0.43505 0.114992 0.50132
0.747631 0.086717 0.423087
0.977722 0.0727703 0.286564
1 0.0515297 0
1 0.038941 0
1 0.0320287 0
0 0.373999 0.401801
0 0.380026 0.406821
0.0805676 0.395468 0.418418
0.355795 0.392782 0.403784
0.694057 0.374304 0.33138
0.90927 0.377752 0.204898
1 0.368322 0
1 0.373358 0
1 0.373159 0
0 0.640024 0.0724651
0 0.640009 0.0704204
0.00788891 0.661891 0.104265
0.336965 0.666194 0.110414
0.639094 0.654307 0.0306401
0.841398 0.650034 0
0.948516 0.66186 0.012192
0.990036 0.669795 0.0264439
0.998337 0.671275 0.0294499
0 0.839643 0
0 0.839643 0
0 0.839643 0
0.300008 0.864729 0.0132143
0.633722 0.85597 0.0462806
0.836942 0.856413 0.0745251
0.935897 0.86421 0.0994888
0.973663 0.869825 0.113024
0.982223 0.871489 0.116732
0.0148775 0.959564 0.0144808
0.0148775 0.959564 0.0144808
0.0148775 0.959548 0.0144808
0.171145 0.977722 0.0674754
0.645396 0.970245 0.129381
0.853864 0.96495 0.152804
0.948348 0.968765 0.173266
0.983429 0.972335 0.184314
0.992416 0.97348 0.187518
0.0749676 1 0.0672465
0.0749676 1 0.0672465
0.0749676 1 0.0672465
0.0749676 1 0.0672313
0.642512 1 0.171649
0.863737 1 0.191424
0.957259 1 0.20885
0.991577 1 0.21886
1 1 0.222004
0.0863508 1 0.0776684
0.0863508 1 0.0776684
0.0863508 1 0.0776684
0.0863508 1 0.0776684
0.633204 1 0.178958
0.864271 1 0.198672
0.958709 1 0.21561
0.993194 1 0.225422
1 1 0.228595
0 0 1
0 0 1
0.154559 0 1
0.429023 0 0.948043
0.745235 0 0.86981
0.980682 0 0.796994
1 0 0.726375
1 0 0.66772
1 0 0.638666
0 0 1
0 0 1
0.153124 0 1
0.428473 0 0.946975
0.745144 0 0.868605
0.980713 0 0.795621
1 0 0.724712
1 0 0.665644
1 0 0.636378
0 0.0313268 0.999374
0 0.0319219 0.994369
0.141314 0.0223087 0.969635
0.421439 0 0.917525
0.737652 0 0.849973
0.972076 0 0.788144
1 0 0.722469
1 0 0.662501
1 0 0.631006
0 0.33196 0.809903
0 0.335073 0.810758
0.0704814 0.353628 0.813291
0.360067 0.350484 0.791272
0.676982 0.338125 0.753719
0.901259 0.340139 0.720195
1 0.349111 0.678706
1 0.353964 0.635126
1 0.353902 0.610117
0 0.620874 0.65275
0 0.620859 0.652506
0 0.645426 0.675151
0.320317 0.659297 0.68481
0.618326 0.656306 0.671473
0.851621 0.655604 0.63238
0.954253 0.668345 0.590295
0.995071 0.676463 0.538979
1 0.678111 0.506981
0 0.841398 0.458778
0 0.841413 0.458213
0 0.841428 0.45623
0.312535 0.872282 0.509422
0.642863 0.863859 0.492058
0.845853 0.8636 0.428809
0.943023 0.871061 0.249882
0.973739 0.86775 0.112047
0.982177 0.869184 0.115389
0.0137179 0.958556 0.0135195
0.0137179 0.958556 0.0135195
0.0137026 0.958541 0.0135195
0.157061 0.975708 0.0628519
0.643626 0.96936 0.12842
0.853315 0.964065 0.152026
0.94818 0.968002 0.172702
0.983215 0.971496 0.183612
0.992386 0.972793 0.187091
0.0741741 1 0.0665293
0.0741741 1 0.0665293
0.0741741 1 0.0665141
0.0741588 1 0.0664988
0.640696 1 0.170962
0.863233 1 0.19086
0.957061 1 0.208469
0.991394 1 0.218372
1 1 0.221546
0.0863508 1 0.0776684
0.0863508 1 0.0776684
0.0863508 1 0.0776684
0.0863508 1 0.0776684
0.631647 1 0.178882
0.863996 1 0.198642
0.958618 1 0.215579
0.993133 1 0.225406
1 1 0.228595
0 0 1
0 0 1
0.112169 0 1
0.40293 0 1
0.727062 0 1
0.965316 0 1
1 0 1
1 0 1
1 0 1
0 0 1
0 0 1
0.110552 0 1
0.402274 0 1
0.726894 0 1
0.965286 0 1
1 0 1
1 0 1
1 0 1
0 0 1
0 0 1
0.104891 0 1
0.399985 0 1
0.726268 0 1
0.965133 0 1
1 0 1
1 0 1
1 0 1
0 0.21767 1
0 0.217609 1
0.0534066 0.232914 1
0.365133 0.225635 1
0.688701 0.209094 1
0.91986 0.205325 1
1 0.207538 0.999847
1 0.206836 0.995209
1 0.204273 0.992737
0 0.59411 0.917357
0 0.594095 0.917311
0 0.613153 0.928573
0.314 0.634318 0.929534
0.625513 0.630976 0.911711
0.844388 0.634073 0.901167
0.951583 0.645106 0.898802
0.992416 0.652293 0.897185
1 0.653544 0.895079
0 0.830716 0.855512
0 0.830701 0.855451
0 0.830686 0.855253
0.299351 0.864393 0.886458
0.627314 0.858427 0.877302
0.828595 0.856748 0.869703
0.937728 0.859968 0.858351
0.972747 0.864881 0.854414
0.980896 0.866407 0.851728
0.0598611 0.955276 0.816861
0.0598611 0.955276 0.81677
0.0598306 0.955276 0.816449
0.152361 0.970413 0.834195
0.639582 0.968917 0.841306
0.848798 0.960189 0.825376
0.944045 0.961593 0.80853
0.978271 0.964904 0.795895
0.987259 0.966171 0.789242
0.110735 1 0.746731
0.110719 1 0.746548
0.110689 1 0.745937
0.110613 1 0.743725
0.637293 1 0.770901
0.860151 1 0.743923
0.953399 1 0.709102
0.987533 1 0.674662
0.99762 1 0.655512
0.121584 1 0.680247
0.121569 1 0.679988
0.121553 1 0.679011
0.121447 1 0.675883
0.630869 1 0.705013
0.863523 1 0.667552
0.957855 1 0.607217
0.993149 1 0.534798
1 1 0.489113
0 0 1
0 0 1
0.0532692 0 1
0.377783 0 1
0.716136 0 1
0.958923 0 1
1 0 1
1 0 1
1 0 1
0 0 1
0 0 1
0.0513008 0 1
0.377081 0 1
0.715938 0 1
0.958877 0 1
1 0 1
1 0 1
1 0 1
0 0 1
0 0 1
0.0442512 0 1
0.374578 0 1
0.715251 0 1
0.958709 0 1
1 0 1
1 0 1
1 0 1
0 0 1
0 0 1
0.0178988 0 1
0.366064 0 1
0.7131 0 1
0.958114 0 1
1 0 1
1 0 1
1 0 1
0 0.544991 1
0 0.544991 1
0 0.546532 1
0.29778 0.585336 1
0.628489 0.582193 1
0.851118 0.586633 1
0.960586 0.598001 1
1 0.605386 1
1 0.607004 1
0 0.821988 0.971725
0 0.821988 0.97171
0 0.821973 0.971649
0.278065 0.856291 0.995041
0.625742 0.850782 0.981094
0.832303 0.848524 0.973114
0.934493 0.853254 0.973739
0.971923 0.857771 0.975433
0.980392 0.858976 0.975662
0.0695354 0.95314 0.971069
0.0695201 0.95314 0.971038
0.0695201 0.95314 0.970977
0.0861067 0.95581 0.973358
0.635584 0.967239 0.982284
0.84361 0.958251 0.97113
0.938506 0.958907 0.968841
0.976577 0.96022 0.966857
0.985504 0.961105 0.966461
0.121981 1 0.972381
0.121981 1 0.972366
0.121981 1 0.97229
0.121935 1 0.972015
0.629908 1 0.982361
0.851591 0.998505 0.967681
0.946044 0.996841 0.962997
0.980713 0.997742 0.960281
0.99057 0.99855 0.95935
0.136843 1 0.970275
0.136843 1 0.97026
0.136828 1 0.970169
0.136797 1 0.969879
0.622431 1 0.980255
0.8533 1 0.964279
0.948257 1 0.958389
0.982574 1 0.955276
0.992523 1 0.954177
0 0 1
0 0 1
0 0 1
0.359243 0 1
0.710765 0 1
0.956878 0 1
1 0 1
1 0 1
1 0 1
0 0 1
0 0 1
0 0 1
0.358679 0 1
0.710567 0 1
0.956832 0 1
1 0 1
1 0 1
1 0 1
0 0 1
0 0 1
0 0 1
0.356176 0 1
0.709865 0 1
0.956649 0 1
1 0 1
1 0 1
1 0 1
0 0 1
0 0 1
0 0 1
0.346914 0 1
0.707362 0 1
0.956085 0 1
1 0 1
1 0 1
1 0 1
0 0.489662 1
0 0.489647 1
0 0.489586 1
0.27921 0.527825 1
0.630533 0.524315 1
0.859846 0.529763 1
0.971832 0.541665 1
1 0.54876 1
1 0.550362 1
0 0.812757 1
0 0.812741 1
0 0.812741 1
0.252872 0.847074 1
0.62179 0.842756 1
0.832593 0.840726 1
0.934981 0.846036 1
0.97258 0.850446 1
0.981582 0.851972 1
0.0723278 0.951492 1
0.072343 0.951492 1
0.0723278 0.951492 1
0.0723125 0.951476 1
0.632456 0.965911 1
0.843809 0.95671 1
0.939681 0.957183 1
0.975311 0.958877 1
0.98497 0.959777 1
0.126497 1 1
0.126497 1 1
0.126482 1 1
0.126452 1 1
0.626566 1 1
0.851392 0.998001 1
0.945495 0.996109 1
0.980026 0.99707 1
0.990158 0.997559 1
0.143832 1 1
0.143816 1 1
0.143816 1 1
0.143786 1 1
0.619852 1 1
0.853407 1 1
0.947906 1 1
0.981994 1 1
0.992508 1 1
0 0 1
0 0 1
0 0 1
0.351019 0 1
0.708476 0 1
0.956298 0 1
1 0 1
1 0 1
1 0 1
0 0 1
0 0 1
0 0 1
0.350286 0 1
0.708278 0 1
0.956268 0 1
1 0 1
1 0 1
1 0 1
0 0 1
0 0 1
0 0 1
0.347631 0 1
0.707576 0 1
0.956115 0 1
1 0 1
1 0 1
1 0 1
0 0 1
0 0 1
0 0 1
0.338293 0 1
0.705043 0 1
0.955627 0 1
1 0 1
1 0 1
1 0 1
0 0.45832 1
0 0.458305 1
0 0.458228 1
0.270283 0.49514 1
0.631754 0.490806 1
0.864622 0.496162 1
0.978241 0.508034 1
1 0.514885 1
1 0.516365 1
0 0.80734 1
0 0.80734 1
0 0.807324 1
0.238468 0.841474 1
0.61854 0.837873 1
0.831861 0.835981 1
0.934874 0.841428 1
0.972763 0.846098 1
0.98175 0.847471 1
0.0705577 0.949645 1
0.0705577 0.949645 1
0.0705425 0.94963 1
0.0705425 0.94963 1
0.62945 0.964462 1
0.842969 0.955261 1
0.939376 0.95581 1
0.975113 0.957595 1
0.984863 0.958511 1
0.126207 1 1
0.126207 1 1
0.126192 1 1
0.126192 1 1
0.623926 1 1
0.850904 0.997375 1
0.945373 0.995468 1
0.980102 0.996506 1
0.990326 0.997009 1
0.145357 1 1
0.145357 1 1
0.145357 1 1
0.145357 1 1
0.617655 1 1
0.853422 1 1
0.947982 1 1
0.982162 1 1
0.992615 1 1
