public/textures/grade/RED/Licorice-Log3G10.cube
TITLE "Generated by Resolve"
LUT_3D_SIZE 33
0 0 0.0563211
0 0 0.0542153
0 0 0.0511025
0 0 0.0465553
0.0216068 0 0.0437476
0.0530861 0 0.0429084
0.0953536 0 0.043183
0.152773 0 0.0432136
0.230106 0 0.038117
0.322454 0 0.0268406
0.416526 0 0.0159762
0.511101 0 0.00564584
0.608377 0 0
0.706752 0 0
0.803586 0 0
0.895888 0 0
0.981933 0 0
1 0 0
1 0 0
1 0 0
1 0 0
1 0 0
1 0 0
1 0 0
1 0 0
1 0 0
1 0 0
1 0 0
1 0 0
1 0 0
1 0 0
1 0 0
1 0 0
0 0.00637827 0.0527199
0 0.00601205 0.0508431
0 0.00531014 0.0482948
0 0.00471504 0.0445563
0.0182193 0.00367742 0.0407416
0.049546 0 0.0404822
0.0918593 0 0.0416266
0.148959 0 0.0423743
0.226398 0 0.0379797
0.319753 0 0.0267796
0.41529 0 0.0167544
0.510216 0 0.00630198
0.608087 0 0
0.707057 0 0
0.803983 0 0
0.896498 0 0
0.983108 0 0
1 0 0
1 0 0
1 0 0
1 0 0
1 0 0
1 0 0
1 0 0
1 0 0
1 0 0
1 0 0
1 0 0
1 0 0
1 0 0
1 0 0
1 0 0
1 0 0
0 0.0163729 0.0478065
0 0.0159915 0.0460059
0 0.0155337 0.0439612
0 0.0145571 0.0412299
0.01355 0.0138094 0.0377508
0.0442969 0.0101625 0.0373541
0.0861372 0.00328069 0.0392767
0.143282 0 0.0412146
0.221164 0 0.0380255
0.315831 0 0.0272068
0.413062 0 0.0177768
0.508843 0 0.00724804
0.607584 0 0
0.706981 0 0
0.804532 0 0
0.89781 0 0
0.984649 0 0
1 0 0
1 0 0
1 0 0
1 0 0
1 0 0
1 0 0
1 0 0
1 0 0
1 0 0
1 0 0
1 0 0
1 0 0
1 0 0
1 0 0
1 0 0
1 0 0
0 0.0316167 0.0428931
0 0.0313726 0.0410468
0 0.0311284 0.0389715
0 0.0301518 0.0363317
0.00727855 0.0283818 0.0340581
0.0349584 0.0263981 0.0333715
0.0760662 0.0204623 0.0355383
0.133257 0.0102846 0.0390021
0.211627 0 0.037583
0.308888 0 0.0289006
0.408774 0 0.0192569
0.50602 0 0.00851453
0.605585 0 0
0.70602 0 0
0.804486 0 0
0.898192 0 0
0.985733 0 0
1 0 0
1 0 0
1 0 0
1 0 0
1 0 0
1 0 0
1 0 0
1 0 0
1 0 0
1 0 0
1 0 0
1 0 0
1 0 0
1 0 0
1 0 0
1 0 0
0 0.0495155 0.0484169
0 0.0494392 0.0470741
0 0.049134 0.0452125
0 0.0486458 0.0428779
0 0.047303 0.0399939
0.021912 0.0454261 0.0374762
0.0604868 0.0426947 0.0324559
0.11722 0.034226 0.035584
0.196612 0.0196994 0.0373999
0.296452 0.000564584 0.0294347
0.400809 0 0.0200809
0.500496 0 0.00885023
0.601267 0 0
0.702159 0 0
0.802762 0 0
0.897948 0 0
0.986587 0 0
1 0 0
1 0 0
1 0 0
1 0 0
1 0 0
1 0 0
1 0 0
1 0 0
1 0 0
1 0 0
1 0 0
1 0 0
1 0 0
1 0 0
1 0 0
1 0 0
0 0.072282 0.0632944
0 0.0723583 0.0619669
0 0.0723735 0.0601968
0 0.0719921 0.0575113
0 0.071107 0.0541848
0.00355535 0.0695659 0.0509194
0.0357671 0.0704509 0.0424201
0.0983902 0.0622873 0.0383154
0.177142 0.0488136 0.038407
0.278431 0.0306706 0.0305486
0.387289 0.0110475 0.0211795
0.491768 0 0.0106813
0.595911 0 3.0518e-05
0.698878 0 0
0.799176 0 0
0.895018 0 0
0.984665 0 0
1 0 0
1 0 0
1 0 0
1 0 0
1 0 0
1 0 0
1 0 0
1 0 0
1 0 0
1 0 0
1 0 0
1 0 0
1 0 0
1 0 0
1 0 0
1 0 0
0 0.104265 0.0910658
0 0.104616 0.0899367
0 0.104952 0.0882429
0 0.104906 0.0852369
0 0.104311 0.0806744
0 0.102785 0.0753185
0.0166323 0.100511 0.0690318
0.0679179 0.0981308 0.0508431
0.150958 0.0856031 0.0429236
0.254536 0.065568 0.0331579
0.367529 0.04477 0.0229648
0.477165 0.0255436 0.0124514
0.584772 0.00700389 0.00175479
0.6916 0 0
0.794903 0 0
0.892699 0 0
0.983429 0 0
1 0 0
1 0 0
1 0 0
1 0 0
1 0 0
1 0 0
1 0 0
1 0 0
1 0 0
1 0 0
1 0 0
1 0 0
1 0 0
1 0 0
1 0 0
1 0 0
0 0.143206 0.124453
0 0.143954 0.124041
0 0.144625 0.123064
0 0.145373 0.121233
0 0.145769 0.117952
0 0.144869 0.112413
0 0.143267 0.104936
0.0383307 0.139315 0.0887465
0.113558 0.132387 0.0557412
0.221897 0.112932 0.0380713
0.338842 0.0886549 0.0243381
0.454734 0.0662852 0.0131228
0.567468 0.0472725 0.00236515
0.678248 0.0290074 0
0.784558 0.0114137 0
0.88513 0 0
0.978439 0 0
1 0 0
1 0 0
1 0 0
1 0 0
1 0 0
1 0 0
1 0 0
1 0 0
1 0 0
1 0 0
1 0 0
1 0 0
1 0 0
1 0 0
1 0 0
1 0 0
0 0.186633 0.152148
0 0.187854 0.15285
0 0.18941 0.153658
0 0.190982 0.154101
0 0.192401 0.153338
0 0.192752 0.150072
0 0.192111 0.143923
0.00883497 0.188922 0.131823
0.0660716 0.187121 0.0880598
0.179126 0.170657 0.0493782
0.302647 0.146685 0.0298924
0.423987 0.121935 0.014313
0.542229 0.0994888 0.00184634
0.657618 0.0779126 0
0.768185 0.0589151 0
0.871626 0.0426184 0
0.967559 0.0285191 0
1 0.0163119 0
1 0.00616464 0
1 0 0
1 0 0
1 0 0
1 0 0
1 0 0
1 0 0
1 0 0
1 0 0
1 0 0
1 0 0
1 0 0
1 0 0
1 0 0
1 0 0
0 0.235843 0.178561
0 0.237079 0.179278
0 0.238926 0.180316
0 0.240879 0.181155
0 0.242527 0.181064
0 0.243717 0.179782
0 0.244053 0.176364
0 0.242481 0.168246
0.0479896 0.242298 0.137575
0.136248 0.230564 0.0965744
0.254994 0.214618 0.0453956
0.384878 0.189166 0.0216983
0.50956 0.16495 0.00402838
0.630411 0.14313 0
0.745541 0.123445 0
0.852766 0.105303 0
0.951492 0.0891127 0
1 0.0747539 0
1 0.0636606 0
1 0.0549477 0
1 0.048249 0
1 0.0435645 0
1 0.039704 0
1 0.0367437 0
1 0.0343786 0
1 0.032578 0
1 0.0310216 0
1 0.0294041 0
1 0.028336 0
1 0.0274357 0
1 0.0266117 0
1 0.0255131 0
1 0.0247196 0
0 0.291249 0.211002
0 0.292592 0.21178
0 0.294392 0.212787
0 0.296468 0.213733
0 0.299001 0.214572
0 0.300832 0.214176
0 0.301885 0.212116
0 0.30132 0.206851
0.0452277 0.302296 0.186709
0.0865797 0.30312 0.137209
0.206653 0.283101 0.103929
0.335744 0.265446 0.0433967
0.469993 0.24007 0.0159304
0.59678 0.216587 0
0.716808 0.196063 0
0.827848 0.17818 0
0.929793 0.16347 0
1 0.151293 0
1 0.141604 0
1 0.134035 0
1 0.12845 0
1 0.124498 0
1 0.122148 0
1 0.120195 0
1 0.119112 0
1 0.117922 0
1 0.117235 0
1 0.116701 0
1 0.116381 0
1 0.115953 0
1 0.115419 0
1 0.114382 0
1 0.113542 0
0 0.351446 0.247868
0 0.352621 0.248631
0 0.35465 0.249897
0 0.357534 0.251621
0 0.360616 0.253147
0 0.363531 0.253925
0 0.365469 0.253162
0.00280766 0.365789 0.249775
0.0463722 0.368719 0.23386
0.067689 0.373526 0.194049
0.160128 0.360708 0.161303
0.282887 0.342306 0.10898
0.420371 0.323018 0.0463722
0.556649 0.298268 0.0150149
0.681804 0.27602 0
0.797345 0.257191 0
0.90312 0.242054 0
0.997757 0.230152 0
1 0.221195 0
1 0.214603 0
1 0.210086 0
1 0.20734 0
1 0.205676 0
1 0.205173 0
1 0.20473 0
1 0.204913 0
1 0.205035 0
1 0.204837 0
1 0.20499 0
1 0.205066 0
1 0.205005 0
1 0.204257 0
1 0.203723 0
0 0.417685 0.290333
0 0.417685 0.290333
0 0.418814 0.291096
0 0.422263 0.2934
0 0.426215 0.295811
0 0.430365 0.297826
0 0.433509 0.298421
0.0206149 0.434897 0.296651
0.051957 0.440131 0.281331
0.0755932 0.445106 0.252995
0.112459 0.444556 0.20853
0.237049 0.421927 0.187137
0.365316 0.406943 0.111818
0.507546 0.385687 0.0565499
0.641886 0.361807 0.0213016
0.762783 0.34168 0
0.872435 0.325216 0
0.969604 0.312642 0
1 0.303304 0
1 0.29688 0
1 0.292607 0
1 0.290227 0
1 0.289067 0
1 0.288609 0
1 0.289052 0
1 0.289448 0
1 0.290089 0
1 0.290684 0
1 0.291173 0
1 0.291127 0
1 0.291295 0
1 0.290761 0
1 0.290333 0
0 0.48716 0.33637
0 0.48716 0.336355
0 0.48716 0.336355
0 0.48864 0.337392
0 0.493538 0.340719
0 0.499107 0.344152
0 0.503975 0.34638
0.0335851 0.50837 0.342916
0.0629282 0.514534 0.329686
0.0890059 0.519707 0.307942
0.106142 0.522652 0.270466
0.189319 0.509758 0.241688
0.320607 0.48629 0.213184
0.451484 0.473991 0.117052
0.5944 0.451194 0.0755322
0.724407 0.429526 0.0379797
0.838239 0.411826 0.0122683
0.937865 0.397696 0
1 0.387488 0
1 0.380407 0
1 0.375784 0
1 0.373281 0
1 0.372503 0
1 0.372152 0
1 0.372412 0
1 0.373236 0
1 0.374105 0
1 0.374563 0
1 0.375219 0
1 0.375723 0
1 0.376028 0
1 0.375631 0
1 0.375341 0
0 0.558724 0.384894
0 0.558709 0.384894
0 0.558709 0.384894
0 0.558709 0.384878
0 0.560662 0.386282
0 0.567742 0.39115
0.0111238 0.574594 0.395193
0.0472877 0.583276 0.389532
0.0793622 0.589899 0.378515
0.106371 0.595392 0.360906
0.124514 0.598703 0.332341
0.151614 0.596475 0.291676
0.274235 0.573587 0.275563
0.408835 0.551492 0.23566
0.540185 0.54078 0.138277
0.679026 0.518502 0.104021
0.800214 0.499001 0.0662852
0.904845 0.483848 0.039704
0.994705 0.472526 0.0224613
1 0.464546 0.0120851
1 0.459205 0.00631724
1 0.456199 0.0039826
1 0.454688 0.00363165
1 0.454505 0.00492866
1 0.454612 0.00642405
1 0.455421 0.00860609
1 0.455863 0.0101625
1 0.456641 0.0119173
1 0.457343 0.0134432
1 0.457679 0.0144198
1 0.457923 0.0150607
1 0.457679 0.0149233
1 0.457481 0.0148318
0 0.630442 0.434363
0 0.630442 0.434363
0 0.630442 0.434363
0 0.630426 0.434363
0 0.630426 0.434363
0 0.633158 0.436316
0.0225681 0.644205 0.439475
0.0633555 0.655833 0.435828
0.0995499 0.663935 0.426825
0.126467 0.670008 0.412146
0.14519 0.673594 0.388968
0.157259 0.674434 0.352987
0.232898 0.66006 0.326986
0.367346 0.634379 0.306889
0.500511 0.616434 0.252293
0.629648 0.605188 0.166155
0.758419 0.584863 0.135561
0.869474 0.568429 0.105226
0.963607 0.555718 0.0800946
1 0.546685 0.0627756
1 0.540475 0.0519112
1 0.536797 0.0460975
1 0.534722 0.0432593
1 0.533776 0.0423285
1 0.533959 0.0431067
1 0.534188 0.043946
1 0.534874 0.0453956
1 0.535592 0.0468147
1 0.535927 0.0476234
1 0.536431 0.0486
1 0.536828 0.0493019
1 0.536645 0.0491798
1 0.536507 0.0490883
0.0202029 0.702876 0.478614
0.0202029 0.702876 0.478614
0.0202029 0.702876 0.478614
0.0202029 0.702876 0.478614
0.0201877 0.702876 0.478614
0.0202029 0.702876 0.478614
0.031693 0.707561 0.479728
0.0780499 0.723415 0.480415
0.119402 0.734737 0.473976
0.147311 0.741558 0.461219
0.167132 0.745861 0.441596
0.179889 0.746822 0.411841
0.204303 0.741253 0.374548
0.327276 0.716838 0.360052
0.464912 0.692363 0.332387
0.591867 0.678889 0.261067
0.715068 0.666438 0.194476
0.832013 0.649042 0.168383
0.931029 0.635187 0.144106
1 0.624811 0.125109
1 0.617655 0.111574
1 0.613169 0.102739
1 0.610529 0.0973068
1 0.609079 0.0942245
1 0.608865 0.0933242
1 0.608789 0.092958
1 0.609293 0.0935531
1 0.609567 0.0938888
1 0.610147 0.0946822
1 0.61059 0.0953231
1 0.610956 0.0958419
1 0.610834 0.0957351
1 0.610727 0.0956588
0.0652476 0.773419 0.518029
0.0652476 0.773419 0.518029
0.0652476 0.773419 0.518029
0.0652476 0.773419 0.518029
0.0652476 0.773419 0.518029
0.0652476 0.773419 0.518013
0.0652323 0.773404 0.518013
0.0853132 0.781231 0.519905
0.134874 0.799008 0.518364
0.167056 0.808652 0.508003
0.188357 0.813352 0.490547
0.202167 0.81471 0.464881
0.2103 0.812253 0.428016
0.292988 0.793942 0.405692
0.430686 0.767269 0.388342
0.562509 0.746609 0.348226
0.680308 0.737652 0.26186
0.795544 0.723613 0.221851
0.89839 0.70898 0.200092
0.984237 0.697566 0.180804
1 0.689418 0.166293
1 0.684031 0.156344
1 0.680613 0.149874
1 0.678599 0.145892
1 0.677958 0.144183
1 0.677623 0.143236
1 0.677928 0.143297
1 0.678065 0.143297
1 0.678538 0.143771
1 0.678904 0.144183
1 0.679194 0.144518
1 0.679103 0.144457
1 0.679026 0.144396
0.112245 0.838865 0.554772
0.112245 0.838865 0.554772
0.112245 0.838865 0.554772
0.112245 0.838865 0.554772
0.112245 0.838865 0.554772
0.11223 0.838849 0.554772
0.11223 0.838849 0.554772
0.11223 0.838849 0.554772
0.13904 0.85153 0.557412
0.18262 0.86862 0.551522
0.207843 0.875349 0.536034
0.223362 0.877119 0.512886
0.232258 0.874876 0.480385
0.267338 0.863798 0.446769
0.399069 0.837095 0.432715
0.5355 0.811902 0.407675
0.656352 0.79646 0.352743
0.764355 0.789944 0.26804
0.868284 0.775433 0.247623
0.956954 0.763119 0.229923
1 0.754086 0.215534
1 0.747906 0.205249
1 0.743847 0.198398
1 0.741344 0.19411
1 0.740246 0.191974
1 0.739544 0.190677
1 0.739574 0.190417
1 0.739559 0.190249
1 0.739864 0.190539
1 0.740124 0.190799
1 0.740337 0.191043
1 0.740307 0.191012
1 0.740246 0.190967
0.151095 0.898283 0.588312
0.151095 0.898283 0.588312
0.151095 0.898283 0.588312
0.151095 0.898283 0.588312
0.151095 0.898268 0.588312
0.151095 0.898268 0.588312
0.15108 0.898268 0.588312
0.15108 0.898268 0.588312
0.15108 0.898268 0.588296
0.188663 0.917998 0.590463
0.223453 0.930282 0.578073
0.242145 0.933242 0.556558
0.252415 0.931365 0.526711
0.257145 0.924437 0.486748
0.371023 0.900236 0.470497
0.510384 0.872145 0.452094
0.635996 0.851698 0.415
0.745342 0.841657 0.346319
0.841688 0.833967 0.286259
0.932265 0.82063 0.27248
1 0.810803 0.259281
1 0.803876 0.249241
1 0.799283 0.242405
1 0.796643 0.238346
1 0.794888 0.235737
1 0.794003 0.234394
1 0.793591 0.233768
1 0.793652 0.233753
1 0.793622 0.233692
1 0.793713 0.233753
1 0.793835 0.233906
1 0.793805 0.23389
1 0.793774 0.23386
0.184131 0.951186 0.618296
0.184131 0.951186 0.618296
0.184131 0.951186 0.618296
0.184131 0.951186 0.618296
0.184131 0.951186 0.618296
0.184131 0.951186 0.618296
0.184131 0.951186 0.618296
0.184131 0.951186 0.618296
0.184131 0.951171 0.618296
0.184115 0.951171 0.618296
0.232242 0.976471 0.616251
0.257527 0.982422 0.596231
0.270085 0.981003 0.567864
0.275792 0.974319 0.530419
0.347311 0.954818 0.502861
0.48835 0.925383 0.487678
0.619745 0.900755 0.460075
0.731395 0.88603 0.408255
0.827253 0.880339 0.329778
0.91284 0.869673 0.30779
0.987167 0.859022 0.296788
1 0.851438 0.287526
1 0.846357 0.280964
1 0.843076 0.276707
1 0.841245 0.274311
1 0.839948 0.272679
1 0.839445 0.272007
1 0.839048 0.271534
1 0.839048 0.271519
1 0.839063 0.271565
1 0.839109 0.271611
1 0.839078 0.271595
1 0.839063 0.271565
0.211963 0.996979 0.644526
0.211963 0.996979 0.644526
0.211963 0.996979 0.644526
0.211963 0.996979 0.644526
0.211963 0.996979 0.644526
0.211963 0.996979 0.644526
0.211963 0.996979 0.644526
0.211963 0.996979 0.644511
0.211963 0.996979 0.644511
0.211948 0.996963 0.644511
0.225254 1 0.646754
0.268162 1 0.632471
0.28513 1 0.604623
0.292165 1 0.568109
0.327688 1 0.530922
0.4692 0.97055 0.516701
0.606302 0.94255 0.494285
0.721218 0.924422 0.453254
0.817899 0.915709 0.3897
0.899504 0.90959 0.337453
0.973281 0.898833 0.32752
1 0.890654 0.31931
1 0.885054 0.313054
1 0.881453 0.308843
1 0.879133 0.306111
1 0.877867 0.30457
1 0.877134 0.30367
1 0.876585 0.303044
1 0.876463 0.302846
1 0.876371 0.302724
1 0.87631 0.302663
1 0.876234 0.302556
1 0.876219 0.302556
0.235233 1 0.66688
0.235233 1 0.66688
0.235233 1 0.66688
0.235233 1 0.66688
0.235233 1 0.66688
0.235233 1 0.66688
0.235233 1 0.666865
0.235233 1 0.666865
0.235233 1 0.666865
0.235218 1 0.666865
0.235218 1 0.666865
0.27126 1 0.66537
0.29659 1 0.637247
0.306386 1 0.6009
0.311849 1 0.554772
0.453407 1 0.540581
0.59501 0.977493 0.521263
0.714549 0.9561 0.48629
0.812848 0.944915 0.431754
0.893828 0.940185 0.363729
0.964157 0.930709 0.351583
1 0.92224 0.344594
1 0.916274 0.338659
1 0.912261 0.33434
1 0.90988 0.33164
1 0.908186 0.329702
1 0.907347 0.328664
1 0.906722 0.327886
1 0.906477 0.327565
1 0.90634 0.327352
1 0.906233 0.327184
1 0.906157 0.327092
1 0.906142 0.327077
0.254749 1 0.685771
0.254749 1 0.685771
0.254749 1 0.685771
0.254749 1 0.685771
0.254749 1 0.685771
0.254749 1 0.685771
0.254749 1 0.685771
0.254749 1 0.685771
0.254749 1 0.685771
0.254749 1 0.685771
0.254749 1 0.685756
0.255711 1 0.685924
0.304219 1 0.666758
0.317845 1 0.629099
0.323232 1 0.584146
0.438682 1 0.559945
0.586221 1 0.542473
0.709422 0.981994 0.511513
0.809766 0.968795 0.462867
0.891234 0.963012 0.400397
0.958099 0.956222 0.370275
1 0.94725 0.36405
1 0.941192 0.358602
1 0.93698 0.354314
1 0.934157 0.351263
1 0.932433 0.349264
1 0.931212 0.347845
1 0.930617 0.347066
1 0.930297 0.346624
1 0.929915 0.346136
1 0.929763 0.345907
1 0.929656 0.345769
1 0.929641 0.345754
0.270268 1 0.700954
0.270268 1 0.700954
0.270268 1 0.700954
0.270268 1 0.700954
0.270268 1 0.700954
0.270268 1 0.700954
0.270268 1 0.700954
0.270268 1 0.700954
0.270268 1 0.700954
0.270268 1 0.700938
0.270268 1 0.700938
0.270268 1 0.700938
0.306355 1 0.693736
0.326635 1 0.653468
0.332952 1 0.608301
0.425376 1 0.575723
0.578027 1 0.558999
0.706035 1 0.530587
0.807782 0.987793 0.485893
0.890227 0.980743 0.427619
0.956115 0.975357 0.386831
1 0.96701 0.378988
1 0.960525 0.373602
1 0.956024 0.369253
1 0.953094 0.366171
1 0.951324 0.364157
1 0.950027 0.362661
1 0.94931 0.361761
1 0.948913 0.361212
1 0.948455 0.360662
1 0.948226 0.360342
1 0.948089 0.360143
1 0.948074 0.360143
0.283268 1 0.713222
0.283268 1 0.713222
0.283268 1 0.713222
0.283268 1 0.713222
0.283268 1 0.713222
0.283268 1 0.713222
0.283268 1 0.713222
0.283268 1 0.713222
0.283268 1 0.713222
0.283253 1 0.713222
0.283253 1 0.713222
0.283253 1 0.713222
0.296666 1 0.714473
0.33286 1 0.674846
0.341115 1 0.628016
0.412741 1 0.588129
0.57055 1 0.571984
0.702983 1 0.545251
0.806714 1 0.502876
0.889799 0.994781 0.447837
0.955962 0.990158 0.399039
1 0.982116 0.390021
1 0.975479 0.384924
1 0.970825 0.380621
1 0.967727 0.377478
1 0.965682 0.375235
1 0.964309 0.373678
1 0.963378 0.372595
1 0.962966 0.372
1 0.962631 0.371572
1 0.962295 0.37113
1 0.962066 0.37084
1 0.962051 0.37084
0.293141 1 0.722454
0.293141 1 0.722454
0.293141 1 0.722454
0.293141 1 0.722454
0.293141 1 0.722454
0.293141 1 0.722454
0.293141 1 0.722454
0.293141 1 0.722454
0.293141 1 0.722454
0.293141 1 0.722454
0.293141 1 0.722454
0.293141 1 0.722454
0.293141 1 0.722454
0.337011 1 0.694011
0.347463 1 0.644312
0.400565 1 0.598093
0.563165 1 0.582132
0.69929 1 0.556527
0.805463 1 0.516121
0.889342 1 0.462989
0.956008 1 0.407919
1 0.993851 0.398398
1 0.986954 0.393423
1 0.982162 0.389151
1 0.978866 0.385885
1 0.97673 0.383597
1 0.975341 0.38204
1 0.974456 0.380972
1 0.973831 0.380224
1 0.973465 0.379751
1 0.973159 0.379355
1 0.972992 0.379095
1 0.972961 0.379065
0.301137 1 0.72961
0.301137 1 0.72961
0.301137 1 0.72961
0.301122 1 0.72961
0.301122 1 0.72961
0.301122 1 0.72961
0.301122 1 0.72961
0.301122 1 0.72961
0.301122 1 0.72961
