public/textures/grade/RED/Licorice-Log3G10.cube
TITLE "Generated by Resolve"
LUT_3D_SIZE 5
0 0 0.0563211
0.230106 0 0.038117
0.981933 0 0
1 0 0
1 0 0
0 0.186633 0.152148
0.0660716 0.187121 0.0880598
0.967559 0.0285191 0
1 0 0
1 0 0
0.0202029 0.702876 0.478614
0.119402 0.734737 0.473976
0.715068 0.666438 0.194476
1 0.608865 0.0933242
1 0.610727 0.0956588
0.270268 1 0.700954
0.270268 1 0.700954
0.578027 1 0.558999
1 0.953094 0.366171
1 0.948074 0.360143
0.313832 1 0.740658
0.313832 1 0.740658
0.528069 1 0.603922
1 1 0.401984
1 0.99353 0.394293
0 0 0.343954
0.212863 0 0.290166
0.978073 0 0.0395819
1 0 0
1 0 0
0 0.175723 0.247089
0.147051 0.173846 0.19501
0.975753 0.0368658 0.0256809
1 0 0
1 0 0
0.0195468 0.701732 0.477974
0.118166 0.73341 0.473518
0.715419 0.665232 0.193698
1 0.607721 0.0925002
1 0.609644 0.0948653
0.270191 1 0.700877
0.270191 1 0.700877
0.577661 1 0.558984
1 0.953002 0.366094
1 0.947982 0.360067
0.313832 1 0.740658
0.313832 1 0.740658
0.527733 1 0.603952
1 1 0.401984
1 0.99353 0.394293
0 0 1
0.160235 0 0.997971
0.917586 0 0.859785
1 0 0.721798
1 0 0.63534
0 0 1
0.150011 0 0.98732
0.933562 0 0.867765
1 0 0.733745
1 0 0.634836
0 0.714748 0.744183
0.0744488 0.734142 0.753994
0.693568 0.685191 0.636515
1 0.636988 0.455375
1 0.632853 0.376699
0.26949 1 0.70013
0.26949 1 0.70013
0.57377 1 0.558648
1 0.951888 0.36524
1 0.946899 0.359228
0.313832 1 0.740658
0.313832 1 0.740658
0.523796 1 0.604364
1 1 0.402014
1 0.99353 0.394293
0 0 1
0.0678111 0 1
0.895689 0 1
1 0 1
1 0 1
0 0 1
0.0567636 0 1
0.89456 0 1
1 0 1
1 0 1
0 0.602869 1
0 0.604929 1
0.714626 0.602975 1
1 0.581399 1
1 0.585351 1
0.134463 1 1
0.13431 1 1
0.615686 1 0.968017
1 0.972442 0.889174
1 0.969421 0.877806
0.155917 1 1
0.155932 1 1
0.59617 1 0.98703
1 1 0.8645
1 1 0.848173
0 0 1
0 0 1
0.887343 0 1
1 0 1
1 0 1
0 0 1
0 0 1
0.886213 0 1
1 0 1
1 0 1
0 0.487221 1
0 0.487098 1
0.747295 0.499733 1
1 0.479286 1
1 0.483177 1
0.231678 1 1
0.231678 1 1
0.605356 1 0.995407
1 0.97229 0.923186
1 0.970443 0.920394
0.182498 1 1
0.182498 1 1
0.57847 1 1
1 1 0.926757
1 1 0.925582
