public/textures/grade/RED/Licorice-Log3G10.cube
TITLE "Generated by Resolve"
LUT_3D_SIZE 9
0 0 0.0563211
0.0216068 0 0.0437476
0.230106 0 0.038117
0.608377 0 0
0.981933 0 0
1 0 0
1 0 0
1 0 0
1 0 0
0 0.0495155 0.0484169
0 0.047303 0.0399939
0.196612 0.0196994 0.0373999
0.601267 0 0
0.986587 0 0
1 0 0
1 0 0
1 0 0
1 0 0
0 0.186633 0.152148
0 0.192401 0.153338
0.0660716 0.187121 0.0880598
0.542229 0.0994888 0.00184634
0.967559 0.0285191 0
1 0 0
1 0 0
1 0 0
1 0 0
0 0.417685 0.290333
0 0.426215 0.295811
0.051957 0.440131 0.281331
0.365316 0.406943 0.111818
0.872435 0.325216 0
1 0.292607 0
1 0.289052 0
1 0.291173 0
1 0.290333 0
0.0202029 0.702876 0.478614
0.0201877 0.702876 0.478614
0.119402 0.734737 0.473976
0.204303 0.741253 0.374548
0.715068 0.666438 0.194476
1 0.617655 0.111574
1 0.608865 0.0933242
1 0.610147 0.0946822
1 0.610727 0.0956588
0.184131 0.951186 0.618296
0.184131 0.951186 0.618296
0.184131 0.951171 0.618296
0.270085 0.981003 0.567864
0.619745 0.900755 0.460075
0.987167 0.859022 0.296788
1 0.841245 0.274311
1 0.839048 0.271519
1 0.839063 0.271565
0.270268 1 0.700954
0.270268 1 0.700954
0.270268 1 0.700954
0.306355 1 0.693736
0.578027 1 0.558999
0.956115 0.975357 0.386831
1 0.953094 0.366171
1 0.948913 0.361212
1 0.948074 0.360143
0.307271 1 0.734966
0.307271 1 0.734966
0.307271 1 0.734951
0.307256 1 0.734951
0.549874 1 0.595865
0.956863 1 0.425681
1 0.993591 0.396887
1 0.988006 0.390829
1 0.986847 0.389395
0.313832 1 0.740658
0.313832 1 0.740658
0.313832 1 0.740658
0.313832 1 0.740658
0.528069 1 0.603922
0.954498 1 0.437705
1 1 0.401984
1 0.99472 0.395758
1 0.99353 0.394293
0 0 0.133532
0.023331 0 0.116136
0.233768 0 0.0746929
0.610285 0 0.0138247
0.981262 0 0
1 0 0
1 0 0
1 0 0
1 0 0
0 0.0436408 0.105928
0.00779736 0.0426032 0.0889754
0.209293 0.0175631 0.0665446
0.60473 0 0.010193
0.986542 0 0
1 0 0
1 0 0
1 0 0
1 0 0
0 0.185779 0.1552
0 0.191012 0.154849
0.0670939 0.185809 0.0895857
0.542885 0.0973373 0.00178531
0.968246 0.0268101 0
1 0 0
1 0 0
1 0 0
1 0 0
0 0.416953 0.28986
0 0.425406 0.295277
0.0517128 0.439307 0.280934
0.365606 0.406165 0.11046
0.87274 0.3243 0
1 0.291722 0
1 0.288182 0
1 0.290257 0
1 0.289418 0
0.0200656 0.702632 0.478477
0.0200504 0.702617 0.478462
0.119127 0.734447 0.473869
0.204196 0.741009 0.374411
0.715145 0.666178 0.194308
1 0.617395 0.111376
1 0.608606 0.0931411
1 0.609918 0.0944991
1 0.610513 0.0954757
0.184085 0.951125 0.618265
0.184085 0.95111 0.61825
0.184085 0.95111 0.61825
0.270039 0.980941 0.567849
0.619699 0.900694 0.460044
0.987137 0.858976 0.296742
1 0.841184 0.274266
1 0.838987 0.271473
1 0.838987 0.271519
0.270253 1 0.700938
0.270253 1 0.700923
0.270253 1 0.700923
0.306294 1 0.693767
0.577951 1 0.558999
0.9561 0.975341 0.386816
1 0.953079 0.366155
1 0.948882 0.361196
1 0.948058 0.360128
0.307256 1 0.734951
0.307256 1 0.734951
0.307256 1 0.734951
0.30724 1 0.734936
0.549813 1 0.595865
0.956847 1 0.425681
1 0.993591 0.396887
1 0.987991 0.390814
1 0.986831 0.389395
0.313832 1 0.740658
0.313832 1 0.740658
0.313832 1 0.740658
0.313832 1 0.740658
0.527993 1 0.603922
0.954467 1 0.437736
1 1 0.401984
1 0.99472 0.395758
1 0.99353 0.394293
0 0 0.343954
0.0132296 0 0.330907
0.212863 0 0.290166
0.596887 0 0.162493
0.978073 0 0.0395819
1 0 0
1 0 0
1 0 0
1 0 0
0 0.00805676 0.323842
0.000976577 0.0135653 0.31342
0.203571 7.62951e-05 0.27509
0.602777 0 0.150927
0.987915 0 0.0394141
1 0 0
1 0 0
1 0 0
1 0 0
0 0.175723 0.247089
0 0.180011 0.237812
0.147051 0.173846 0.19501
0.573571 0.112322 0.107012
0.975753 0.0368658 0.0256809
1 0 0
1 0 0
1 0 0
1 0 0
0 0.416953 0.298878
0 0.425101 0.303731
0.0756542 0.437446 0.293523
0.36846 0.404822 0.111147
0.873854 0.320989 0
1 0.288472 0
1 0.285023 0
1 0.286931 0
1 0.286458 0
0.0195468 0.701732 0.477974
0.0195315 0.701717 0.477974
0.118166 0.73341 0.473518
0.20383 0.740169 0.373922
0.715419 0.665232 0.193698
1 0.616464 0.110658
1 0.607721 0.0925002
1 0.60911 0.093843
1 0.609644 0.0948653
0.183917 0.950851 0.618112
0.183917 0.950851 0.618112
0.183917 0.950835 0.618097
0.269886 0.980682 0.567803
0.619547 0.900481 0.459907
0.987198 0.858732 0.296559
1 0.84097 0.274083
1 0.838758 0.27129
1 0.838758 0.271321
0.270191 1 0.700877
0.270191 1 0.700877
0.270191 1 0.700877
0.306035 1 0.693812
0.577661 1 0.558984
0.956024 0.97528 0.38677
1 0.953002 0.366094
1 0.948821 0.361135
1 0.947982 0.360067
0.30721 1 0.73492
0.30721 1 0.73492
0.30721 1 0.734905
0.30721 1 0.734905
0.549523 1 0.595865
0.956817 1 0.425666
1 0.993545 0.396857
1 0.987961 0.390799
1 0.986801 0.389364
0.313832 1 0.740658
0.313832 1 0.740658
0.313832 1 0.740658
0.313832 1 0.740658
0.527733 1 0.603952
0.954437 1 0.437766
1 1 0.401984
1 0.99472 0.395758
1 0.99353 0.394293
0 0 0.688396
0 0 0.678676
0.185733 0 0.641398
0.543862 0 0.567803
0.947402 0 0.43473
1 0 0.267414
1 0 0
1 0 0
1 0 0
0 0 0.681163
0 0 0.673014
0.18468 0 0.637415
0.547097 0 0.566461
0.953155 0 0.433768
1 0 0.262486
1 0 0
1 0 0
1 0 0
0 0.0940719 0.616388
0 0.105577 0.615595
0.142184 0.117388 0.59176
0.518059 0.0924086 0.531518
0.957046 0.0400092 0.405386
1 0.0146181 0.252537
1 0 0
1 0 0
1 0 0
0 0.416373 0.471717
0 0.424689 0.474434
0.1196 0.432532 0.458259
0.399405 0.414054 0.399954
0.898054 0.347356 0.264179
1 0.31371 0.156344
1 0.273777 0
1 0.275074 0
1 0.274495 0
0.0490578 0.700298 0.513756
0.0496223 0.700282 0.513359
0.201282 0.722225 0.522957
0.248569 0.73843 0.42797
0.727153 0.670268 0.22742
1 0.613336 0.108125
1 0.6047 0.0901503
1 0.605951 0.0916304
1 0.606485 0.0927138
0.183352 0.94992 0.617578
0.183352 0.94992 0.617578
0.183337 0.949905 0.617563
0.269368 0.979858 0.567712
0.618967 0.899763 0.459449
0.987289 0.857939 0.295964
1 0.840208 0.273426
1 0.838041 0.270665
1 0.838071 0.27071
0.270024 1 0.70071
0.270024 1 0.70071
0.270024 1 0.70071
0.305409 1 0.694331
0.576715 1 0.558907
0.955856 0.975067 0.386603
1 0.952743 0.365896
1 0.948562 0.360937
1 0.947738 0.359869
0.307073 1 0.734783
0.307073 1 0.734783
0.307057 1 0.734783
0.307057 1 0.734783
0.548516 1 0.59585
0.956634 1 0.425605
1 0.993408 0.39675
1 0.987854 0.390723
1 0.986664 0.389273
0.313832 1 0.740658
0.313832 1 0.740658
0.313832 1 0.740658
0.313832 1 0.740658
0.526818 1 0.604044
0.954345 1 0.437842
1 1 0.401984
1 0.99472 0.395758
1 0.99353 0.394293
0 0 1
0 0 1
0.160235 0 0.997971
0.514519 0 0.933989
0.917586 0 0.859785
1 0 0.788525
1 0 0.721798
1 0 0.665202
1 0 0.63534
0 0 1
0 0 1
0.158419 0 0.997269
0.513771 0 0.933059
0.917464 0 0.858625
1 0 0.787137
1 0 0.720027
1 0 0.66305
1 0 0.632944
0 0 1
0 0 1
0.150011 0 0.98732
0.516701 0 0.931746
0.933562 0 0.867765
1 0 0.80264
1 0 0.733745
1 0 0.669047
1 0 0.634836
0 0.340444 0.878721
0 0.346136 0.881987
0.0547646 0.362615 0.881605
0.402319 0.361257 0.832563
0.837079 0.328115 0.777996
1 0.30988 0.713115
1 0.312032 0.650507
1 0.315572 0.592767
1 0.315358 0.560754
0 0.714748 0.744183
0 0.714748 0.744015
0.0744488 0.734142 0.753994
0.30808 0.713191 0.710735
0.693568 0.685191 0.636515
1 0.644144 0.518883
1 0.636988 0.455375
1 0.634928 0.404059
1 0.632853 0.376699
0.186831 0.93579 0.761807
0.187137 0.93576 0.761624
0.188434 0.935653 0.760845
0.399664 0.92932 0.740383
0.614664 0.906142 0.581308
0.993317 0.861692 0.421469
1 0.845319 0.328206
1 0.835477 0.268498
1 0.835508 0.268544
0.26949 1 0.70013
0.26949 1 0.70013
0.26949 1 0.70013
0.302403 1 0.695384
0.57377 1 0.558648
0.955535 0.974426 0.38613
1 0.951888 0.36524
1 0.947723 0.360296
1 0.946899 0.359228
0.306569 1 0.734371
0.306569 1 0.734371
0.306569 1 0.734371
0.306569 1 0.734371
0.545129 1 0.595804
0.955932 1 0.425574
1 0.992966 0.396429
1 0.987442 0.390417
1 0.986236 0.388937
0.313832 1 0.740658
0.313832 1 0.740658
0.313832 1 0.740658
0.313832 1 0.740658
0.523796 1 0.604364
0.953964 1 0.438178
1 1 0.402014
1 0.99472 0.395773
1 0.99353 0.394293
0 0 1
0 0 1
0.126345 0 1
0.490257 0 1
0.903593 0 1
1 0 1
1 0 1
1 0 1
1 0 1
0 0 1
0 0 1
0.124498 0 1
0.489403 0 1
0.903349 0 1
1 0 1
1 0 1
1 0 1
1 0 1
0 0 1
0 0 1
0.118105 0 1
0.486381 0 1
0.902525 0 1
1 0 1
1 0 1
1 0 1
1 0 1
0 0.152651 1
0 0.152575 1
0.042237 0.183108 1
0.430488 0.220142 1
0.875532 0.180224 1
1 0.156069 1
1 0.149493 1
1 0.146059 1
1 0.142809 1
0 0.672663 1
0 0.672648 1
0 0.690257 1
0.318364 0.675395 0.99205
0.695018 0.659098 0.922759
1 0.638148 0.894255
1 0.637476 0.872297
1 0.64155 0.862135
1 0.642588 0.857603
0.0404212 0.95845 0.971801
0.040238 0.958434 0.971756
0.0395514 0.958419 0.971618
0.266209 0.952026 0.946532
0.633051 0.896086 0.860182
0.905776 0.879744 0.807645
1 0.866941 0.76202
1 0.863981 0.736782
1 0.863279 0.728511
0.113054 1 0.995956
0.11313 1 0.995895
0.11339 1 0.995697
0.199161 1 0.996094
0.659815 0.989197 0.867216
0.925322 0.972549 0.724178
1 0.953017 0.675624
1 0.94725 0.651057
1 0.946059 0.642664
0.260426 1 0.971939
0.260517 1 0.971862
0.260945 1 0.971527
0.262455 1 0.970382
0.652598 1 0.844434
0.939315 1 0.657465
1 0.986343 0.60267
1 0.981247 0.573587
1 0.980301 0.559884
0.319707 1 0.943145
0.319875 1 0.943023
0.320439 1 0.94258
0.322454 1 0.941039
0.61706 1 0.807462
0.942336 1 0.614923
1 0.995773 0.544091
1 0.99144 0.497398
1 0.991287 0.473243
0 0 1
0 0 1
0.0678111 0 1
0.462654 0 1
0.895689 0 1
1 0 1
1 0 1
1 0 1
1 0 1
0 0 1
0 0 1
0.0656596 0 1
0.461753 0 1
0.89546 0 1
1 0 1
1 0 1
1 0 1
1 0 1
0 0 1
0 0 1
0.0567636 0 1
0.458442 0 1
0.89456 0 1
1 0 1
1 0 1
1 0 1
1 0 1
0 0 1
0 0 1
0.0243992 0 1
0.447105 0 1
0.891447 0 1
1 0 1
1 0 1
1 0 1
1 0 1
0 0.602869 1
0 0.602853 1
0 0.604929 1
0.294759 0.611505 1
0.714626 0.602975 1
1 0.582147 1
1 0.581399 1
1 0.584939 1
1 0.585351 1
0.160967 0.94696 1
0.160967 0.94696 1
0.160967 0.946944 1
0.344411 0.945266 1
0.654704 0.890654 0.961837
0.903334 0.877241 0.918227
1 0.872084 0.906096
1 0.873243 0.897856
1 0.873701 0.89514
0.134463 1 1
0.134447 1 1
0.13431 1 1
0.143725 1 1
0.615686 1 0.968017
0.885359 0.980117 0.903243
1 0.972442 0.889174
1 0.96997 0.881025
1 0.969421 0.877806
0.135714 1 1
0.135714 1 1
0.135698 1 1
0.135683 1 1
0.606073 1 0.982528
0.889693 1 0.895827
1 1 0.875288
1 1 0.864958
1 0.999451 0.86041
0.155917 1 1
0.155917 1 1
0.155932 1 1
0.155978 1 1
0.59617 1 0.98703
0.890623 1 0.8907
1 1 0.8645
1 1 0.853498
1 1 0.848173
0 0 1
0 0 1
0.00225834 0 1
0.439292 0 1
0.89012 0 1
1 0 1
1 0 1
1 0 1
1 0 1
0 0 1
0 0 1
0 0 1
0.438315 0 1
0.889906 0 1
1 0 1
1 0 1
1 0 1
1 0 1
0 0 1
0 0 1
0 0 1
0.434821 0 1
0.889036 0 1
1 0 1
1 0 1
1 0 1
1 0 1
0 0 1
0 0 1
0 0 1
0.422797 0 1
0.885954 0 1
1 0 1
1 0 1
1 0 1
1 0 1
0 0.528878 1
0 0.528862 1
0 0.528786 1
0.278248 0.542748 1
0.735439 0.537621 1
1 0.517235 1
1 0.516976 1
1 0.520363 1
1 0.521004 1
0.139437 0.935347 1
0.139437 0.935347 1
0.139406 0.935332 1
0.322881 0.937667 1
0.647166 0.881346 0.997269
0.906233 0.868177 0.950072
1 0.863233 0.940826
1 0.864897 0.937545
1 0.865415 0.936614
0.229984 1 1
0.229984 1 1
0.229984 1 1
0.229999 1 1
0.608713 1 0.995041
0.891295 0.976089 0.944305
1 0.973251 0.922148
1 0.971527 0.918914
1 0.971206 0.917678
0.176898 1 1
0.176867 1 1
0.176806 1 1
0.176547 1 1
0.593179 1 1
0.894942 1 0.943984
1 1 0.918425
1 1 0.91722
1 1 0.915557
0.16463 1 1
0.164614 1 1
0.164538 1 1
0.164263 1 1
0.582315 1 1
0.892653 1 0.941787
1 1 0.915724
1 1 0.915373
1 1 0.913634
0 0 1
0 0 1
0 0 1
0.428412 0 1
0.887343 0 1
1 0 1
1 0 1
1 0 1
1 0 1
0 0 1
0 0 1
0 0 1
0.42742 0 1
0.887098 0 1
1 0 1
1 0 1
1 0 1
1 0 1
0 0 1
0 0 1
0 0 1
0.423835 0 1
0.886213 0 1
1 0 1
1 0 1
1 0 1
1 0 1
0 0 1
0 0 1
0 0 1
0.411429 0 1
0.883116 0 1
1 0 1
1 0 1
1 0 1
1 0 1
0 0.487221 1
0 0.48719 1
0 0.487098 1
0.270802 0.503746 1
0.747295 0.499733 1
1 0.479423 1
1 0.479286 1
1 0.482673 1
1 0.483177 1
0.131136 0.928985 1
0.131136 0.928969 1
0.131121 0.928969 1
0.313695 0.933593 1
0.643412 0.876432 0.999725
0.906844 0.863172 0.951736
1 0.858488 0.942473
1 0.860029 0.938994
1 0.860792 0.938186
0.231678 1 1
0.231678 1 1
0.231678 1 1
0.231678 1 1
0.605356 1 0.995407
0.890105 0.975036 0.94406
1 0.97229 0.923186
1 0.970626 0.920974
1 0.970443 0.920394
0.188922 1 1
0.188922 1 1
0.188922 1 1
0.188937 1 1
0.589197 1 1
0.897093 1 0.951766
1 1 0.925032
1 1 0.924758
1 1 0.923934
0.182498 1 1
0.182498 1 1
0.182498 1 1
0.182498 1 1
0.57847 1 1
0.896452 1 0.95346
1 1 0.926757
1 1 0.926314
1 1 0.925582
