public/textures/grade/RED/Parasitic-Log3G10.cube
TITLE "Generated by Resolve"
LUT_3D_SIZE 5
0 0.00303655 0
0.3019 0 0
0.882277 0 0
1 0 0
1 0 0
0 0.185534 0
0.128206 0.163348 0
0.81001 0.0737774 0
1 0.0442206 0
1 0.0291447 0
0 0.677836 0
0 0.707424 0
0.611139 0.66688 0
1 0.654994 0
1 0.659724 0
0 1 0
0 1 0
0.462837 1 0
0.97348 1 0
1 1 0
0 1 0
0 1 0
0.387686 1 0
0.962417 1 0
1 1 0
0 0 0.35668
0.240101 0 0.317678
0.88069 0 0
1 0 0
1 0 0
0 0.161196 0.162219
0.105745 0.155627 0.144518
0.829587 0.0649271 0
1 0.0335241 0
1 0.0174563 0
0 0.676707 0
0 0.706142 0
0.611307 0.665721 0
1 0.653834 0
1 0.658579 0
0 1 0
0 1 0
0.462608 1 0
0.973495 1 0
1 1 0
0 1 0
0 1 0
0.387457 1 0
0.962402 1 0
1 1 0
0 0 1
0.122042 0 1
0.820294 0 0.999298
1 0 0.787381
1 0 0.678019
0 0 1
0.0929885 0 1
0.774487 0 0.926101
1 0 0.760678
1 0 0.660456
0 0.656687 0.691203
0 0.684108 0.717128
0.577615 0.655314 0.669886
1 0.616159 0.465919
1 0.632029 0.318929
0 1 0
0 1 0
0.459892 1 0
0.973617 1 0
1 1 0
0 1 0
0 1 0
0.384161 1 0
0.962203 1 0
1 1 0
0 0 1
0 0 1
0.780331 0 1
1 0 1
1 0 1
0 0 1
0 0 1
0.779324 0 1
1 0 1
1 0 1
0 0.560006 1
0 0.561624 1
0.603418 0.553353 1
1 0.514229 1
1 0.515373 1
0 1 1
0 1 1
0.371054 1 1
0.918654 0.962921 0.9823
1 0.951324 0.968948
0 1 1
0 1 1
0.283635 1 1
0.891783 1 0.916213
0.978149 1 0.873777
0 0 1
0 0 1
0.770703 0 1
1 0 1
1 0 1
0 0 1
0 0 1
0.769665 0 1
1 0 1
1 0 1
0 0.457588 1
0 0.457481 1
0.633249 0.448524 1
1 0.419181 1
1 0.42153 1
0 1 1
0 1 1
0.359823 1 1
0.917723 0.955856 1
1 0.945251 1
0 1 1
0 1 1
0.266575 1 1
0.892805 1 1
0.977172 1 1
