public/textures/grade/RED/Parasitic-Log3G10.cube
TITLE "Generated by Resolve"
LUT_3D_SIZE 33
0 0.00303655 0
0 0.002533 0
0 0.00140383 0
0.0297398 0 0
0.0708476 0 0
0.118074 0 0
0.17232 0 0
0.233692 0 0
0.3019 0 0
0.376013 0 0
0.452949 0 0
0.530999 0 0
0.608118 0 0
0.681376 0 0
0.746548 0 0
0.800488 0 0
0.882277 0 0
0.96083 0 0
1 0 0
1 0 0
1 0 0
1 0 0
1 0 0
1 0 0
1 0 0
1 0 0
1 0 0
1 0 0
1 0 0
1 0 0
1 0 0
1 0 0
1 0 0
0 0.0104219 0
0 0.0099031 0
0 0.00875868 0
0.0202945 0.00291447 0
0.0628214 0 0
0.111025 0 0
0.165942 0 0
0.228244 0 0
0.296986 0 0
0.37145 0 0
0.449104 0 0
0.52781 0 0
0.605402 0 0
0.679042 0 0
0.744793 0 0
0.799619 0 0
0.877501 0 0
0.955413 0 0
1 0 0
1 0 0
1 0 0
1 0 0
1 0 0
1 0 0
1 0 0
1 0 0
1 0 0
1 0 0
1 0 0
1 0 0
1 0 0
1 0 0
1 0 0
0 0.0208286 0
0 0.0202029 0
0 0.0189975 0
0.00827039 0.0144961 0
0.050309 0.0068513 0
0.100511 0 0
0.157321 0 0
0.220462 0 0
0.289906 0 0
0.365118 0 0
0.443748 0 0
0.523125 0 0
0.601175 0 0
0.675471 0 0
0.74226 0 0
0.798001 0 0
0.870359 0 0
0.94757 0 0
1 0 0
1 0 0
1 0 0
1 0 0
1 0 0
1 0 0
1 0 0
1 0 0
1 0 0
1 0 0
1 0 0
1 0 0
1 0 0
1 0 0
1 0 0
0 0.0357061 0
0 0.0350347 0
0 0.0340276 0
0 0.0313573 0
0.0323033 0.024506 0
0.082887 0.0155642 0
0.141833 0.00480659 0
0.207523 0 0
0.278874 0 0
0.355322 0 0
0.434897 0 0
0.515343 0 0
0.594476 0 0
0.669673 0 0
0.737606 0 0
0.795239 0 0
0.859815 0 0
0.936049 0 0
1 0 0
1 0 0
1 0 0
1 0 0
1 0 0
1 0 0
1 0 0
1 0 0
1 0 0
1 0 0
1 0 0
1 0 0
1 0 0
1 0 0
1 0 0
0 0.0556954 0
0 0.0551614 0
0 0.0544137 0
0 0.0524758 0
0.011017 0.0469978 0
0.0597238 0.0392767 0
0.119402 0.0290532 0
0.187655 0.0168612 0
0.26186 0.00308232 0
0.341238 0 0
0.422751 0 0
0.504005 0 0
0.584298 0 0
0.660624 0 0
0.730236 0 0
0.789883 0 0
0.844343 0 0
0.919127 0 0
0.985962 0 0
1 0 0
1 0 0
1 0 0
1 0 0
1 0 0
1 0 0
1 0 0
1 0 0
1 0 0
1 0 0
1 0 0
1 0 0
1 0 0
1 0 0
0 0.0807355 0
0 0.0801251 0
0 0.0795911 0
0 0.0782635 0
0 0.0751202 0
0.03299 0.0677806 0
0.0909743 0.0585184 0
0.160784 0.0466621 0
0.237888 0.0331884 0
0.32018 0.0184024 0
0.404746 0.0037995 0
0.489326 0 0
0.571298 0 0
0.648249 0 0
0.719676 0 0
0.781811 0 0
0.833295 0 0
0.899062 0 0
0.964675 0 0
1 0 0
1 0 0
1 0 0
1 0 0
1 0 0
1 0 0
1 0 0
1 0 0
1 0 0
1 0 0
1 0 0
1 0 0
1 0 0
1 0 0
0 0.110109 0
0 0.10959 0
0 0.109331 0
0 0.108629 0
0 0.10692 0
0.00280766 0.101549 0
0.058854 0.0935988 0
0.12726 0.0831006 0
0.205631 0.0701305 0
0.291295 0.0556191 0
0.379263 0.0408026 0
0.467384 0.0265049 0
0.552804 0.0132143 0
0.632868 0.00122072 0
0.706783 0 0
0.771649 0 0
0.826429 0 0
0.878813 0 0
0.944106 0 0
1 0 0
1 0 0
1 0 0
1 0 0
1 0 0
1 0 0
1 0 0
1 0 0
1 0 0
1 0 0
1 0 0
1 0 0
1 0 0
1 0 0
0 0.144961 0
0 0.144656 0
0 0.144518 0
0 0.144442 0
0 0.143679 0
0 0.141054 0
0.0251164 0.134066 0
0.0905623 0.125261 0
0.168261 0.113832 0
0.255375 0.100191 0
0.346624 0.0854353 0
0.438712 0.0707713 0
0.528038 0.0574502 0
0.612207 0.045594 0
0.69012 0.0356603 0
0.759899 0.0280766 0
0.819425 0.0226902 0
0.868772 0.019852 0
0.928527 0.0141146 0
0.987198 0.0081178 0
1 0.00267033 0
1 0 0
1 0 0
1 0 0
1 0 0
1 0 0
1 0 0
1 0 0
1 0 0
1 0 0
1 0 0
1 0 0
1 0 0
0 0.185534 0
0 0.18526 0
0 0.185428 0
0 0.185641 0
0 0.185687 0
0 0.184649 0
0 0.180087 0
0.0534676 0.172747 0
0.128206 0.163348 0
0.214267 0.1514 0
0.307698 0.137514 0
0.40383 0.12314 0
0.497917 0.109361 0
0.587167 0.097261 0
0.670008 0.0870375 0
0.74493 0.0791791 0
0.81001 0.0737774 0
0.864622 0.0704204 0
0.916793 0.0679332 0
0.977249 0.0626535 0
1 0.0580606 0
1 0.0539254 0
1 0.0504921 0
1 0.0471199 0
1 0.0442206 0
1 0.0414282 0
1 0.0386969 0
1 0.036347 0
1 0.0344091 0
1 0.0328374 0
1 0.0315251 0
1 0.0300908 0
1 0.0291447 0
0 0.231037 0
0 0.231083 0
0 0.231281 0
0 0.231952 0
0 0.232944 0
0 0.233112 0
0 0.231464 0
0.0173953 0.225422 0
0.0889296 0.218036 0
0.172091 0.208392 0
0.265766 0.196033 0
0.364218 0.182528 0
0.463264 0.168902 0
0.558175 0.156405 0
0.646815 0.145769 0
0.72726 0.137575 0
0.797848 0.131868 0
0.857801 0.128176 0
0.907439 0.12723 0
0.969665 0.12285 0
1 0.119326 0
1 0.116381 0
1 0.113878 0
1 0.111971 0
1 0.109911 0
1 0.108446 0
1 0.106996 0
1 0.105684 0
1 0.104555 0
1 0.103639 0
1 0.102708 0
1 0.101732 0
1 0.100816 0
0 0.2813 0
0 0.281697 0
0 0.282063 0
0 0.28336 0
0 0.285039 0
0 0.286564 0
0 0.2869 0
0 0.28423 0
0.0504768 0.27808 0
0.130922 0.270665 0
0.222217 0.260639 0
0.321431 0.248631 0
0.424048 0.235462 0
0.524544 0.222934 0
0.619333 0.211902 0
0.70602 0.203189 0
0.782315 0.196826 0
0.847456 0.192844 0
0.901442 0.191623 0
0.960204 0.18912 0
1 0.186511 0
1 0.185016 0
1 0.183673 0
1 0.182574 0
1 0.181964 0
1 0.181415 0
1 0.180606 0
1 0.180072 0
1 0.179583 0
1 0.179187 0
1 0.17879 0
1 0.177859 0
1 0.177157 0
0 0.336416 0
0 0.336904 0
0 0.337713 0
0 0.339345 0
0 0.342 0
0 0.345144 0
0 0.347402 0
0 0.347692 0
0.010956 0.343435 0
0.0897841 0.338201 0
0.178943 0.330449 0
0.27744 0.320348 0
0.381857 0.308278 0
0.486641 0.296101 0
0.586877 0.284886 0
0.679072 0.275731 0
0.760418 0.268666 0
0.830762 0.264454 0
0.889265 0.262898 0
0.947112 0.261402 0
1 0.259617 0
1 0.258686 0
1 0.258595 0
1 0.258381 0
1 0.258457 0
1 0.258518 0
1 0.258686 0
1 0.258656 0
1 0.258503 0
1 0.258595 0
1 0.258534 0
1 0.257832 0
1 0.257298 0
0 0.397284 0
0 0.397284 0
0 0.398062 0
0 0.399969 0
0 0.403342 0
0 0.408331 0
0 0.412665 0
0 0.415381 0
0 0.415015 0
0.0478523 0.410574 0
0.13611 0.404715 0
0.233295 0.396353 0
0.338231 0.385824 0
0.44538 0.37438 0
0.54963 0.363317 0
0.64625 0.353506 0
0.732921 0.346288 0
0.807996 0.341573 0
0.870939 0.339498 0
0.930449 0.338216 0
0.987442 0.337011 0
1 0.336629 0
1 0.33695 0
1 0.337758 0
1 0.338262 0
1 0.339117 0
1 0.339422 0
1 0.339971 0
1 0.340398 0
1 0.340734 0
1 0.34081 0
1 0.340368 0
1 0.340002 0
0 0.463508 0
0 0.463508 0
0 0.463493 0
0 0.464317 0
0 0.468376 0
0 0.474723 0
0 0.481697 0
0 0.486702 0
0 0.488884 0
0.00425727 0.486564 0
0.0940414 0.48191 0
0.191257 0.4748 0
0.296147 0.465843 0
0.403861 0.455528 0
0.510292 0.444541 0
0.610864 0.435019 0
0.7019 0.427314 0
0.780926 0.422141 0
0.84802 0.419409 0
0.910994 0.417685 0
0.968765 0.416785 0
1 0.416999 0
1 0.41767 0
1 0.418509 0
1 0.419806 0
1 0.420645 0
1 0.421698 0
1 0.422446 0
1 0.422858 0
1 0.423407 0
1 0.423774 0
1 0.423392 0
1 0.423087 0
0 0.5337 0
0 0.533684 0
0 0.533684 0
0 0.533684 0
0 0.535256 0
0 0.541924 0
0 0.551492 0
0 0.559091 0
0 0.563653 0
0 0.564736 0
0.053254 0.560311 0
0.151339 0.554498 0
0.256321 0.546746 0
0.364752 0.536934 0
0.472908 0.526787 0
0.575601 0.517388 0
0.669612 0.509422 0
0.751858 0.503609 0
0.822675 0.499886 0
0.889815 0.498039 0
0.948394 0.497215 0
0.997726 0.497353 0
1 0.498482 0
1 0.499565 0
1 0.50071 0
1 0.502144 0
1 0.502983 0
1 0.504036 0
1 0.504845 0
1 0.505516 0
1 0.505989 0
1 0.505699 0
1 0.505486 0
0 0.605325 0
0 0.605325 0
0 0.605325 0
0 0.605325 0
0 0.60531 0
0 0.607691 0
0 0.618036 0
0 0.62974 0
0 0.637446 0
0 0.640848 0
0.0130007 0.638605 0
0.114214 0.633356 0
0.22031 0.626444 0
0.329107 0.61738 0
0.438361 0.607691 0
0.542962 0.598245 0
0.638666 0.589761 0
0.723507 0.583474 0
0.800351 0.579599 0
0.868406 0.577569 0
0.927474 0.576623 0
0.977081 0.576684 0
1 0.577325 0
1 0.578683 0
1 0.579812 0
1 0.58114 0
1 0.582177 0
1 0.583261 0
1 0.584115 0
1 0.584649 0
1 0.585 0
1 0.584802 0
1 0.584634 0
0 0.677836 0
0 0.677836 0
0 0.677836 0
0 0.677836 0
0 0.677836 0
0 0.677821 0
0 0.681331 0
0 0.695354 0
0 0.707424 0
0 0.713939 0
0 0.715099 0
0.0786297 0.70985 0
0.186908 0.703517 0
0.297719 0.694728 0
0.407752 0.685328 0
0.513771 0.675761 0
0.611139 0.66688 0
0.699168 0.660777 0
0.778439 0.656611 0
0.847715 0.654047 0
0.90724 0.652766 0
0.957321 0.652461 0
0.998901 0.652827 0
1 0.653681 0
1 0.654994 0
1 0.656001 0
1 0.657206 0
1 0.658274 0
1 0.658839 0
1 0.659434 0
1 0.659983 0
1 0.659831 0
1 0.659724 0
0 0.75082 0
0 0.75082 0
0 0.75082 0
0 0.750805 0
0 0.750805 0
0 0.750805 0
0 0.750805 0
0 0.75671 0
0 0.774945 0
0 0.784085 0
0 0.786007 0
0.0443732 0.782574 0
0.156435 0.77612 0
0.269566 0.767712 0
0.381888 0.7579 0
0.489097 0.748119 0
0.587732 0.740108 0
0.67776 0.733837 0
0.758267 0.729015 0
0.828443 0.725872 0
0.888518 0.724071 0
0.938903 0.723308 0
0.980621 0.723293 0
1 0.723812 0
1 0.724926 0
1 0.725719 0
1 0.726802 0
1 0.727749 0
1 0.728161 0
1 0.728786 0
1 0.729305 0
1 0.729229 0
1 0.729152 0
0 0.820371 0
0 0.820371 0
0 0.820371 0
0 0.820371 0
0 0.820371 0
0 0.820371 0
0 0.820356 0
0 0.820356 0
0 0.831846 0
0 0.850599 0
0 0.856397 0
0 0.853681 0
0.12343 0.845075 0
0.241459 0.836423 0
0.355856 0.826627 0
0.465202 0.817105 0
0.566812 0.808652 0
0.658412 0.801251 0
0.739895 0.795666 0
0.811002 0.791791 0
0.871611 0.789395 0
0.922316 0.788083 0
0.964233 0.787579 0
0.998413 0.787976 0
1 0.788495 0
1 0.789059 0
1 0.78996 0
1 0.790753 0
1 0.791211 0
1 0.791608 0
1 0.79205 0
1 0.792035 0
1 0.791974 0
0 0.88539 0
0 0.88539 0
0 0.88539 0
0 0.88539 0
0 0.88539 0
0 0.88539 0
0 0.88539 0
0 0.885374 0
0 0.885374 0
0 0.905394 0
0 0.9196 0
0 0.919875 0
0.0827192 0.910979 0
0.209094 0.901061 0
0.32929 0.890639 0
0.442771 0.87985 0
0.546975 0.870283 0
0.641138 0.862272 0
0.724193 0.855833 0
0.795956 0.850797 0
0.85716 0.847745 0
0.908598 0.84596 0
0.950652 0.845106 0
0.984375 0.844831 0
1 0.844953 0
1 0.845563 0
1 0.845945 0
1 0.846586 0
1 0.847089 0
1 0.847532 0
1 0.847669 0
1 0.847623 0
1 0.847593 0
0 0.944335 0
0 0.944335 0
0 0.944335 0
0 0.944335 0
0 0.944335 0
0 0.944335 0
0 0.944335 0
0 0.944335 0
0 0.944335 0
0 0.94432 0
0 0.9729 0
0 0.979019 0
0.0350958 0.97116 0
0.173449 0.959792 0
0.301732 0.948089 0
0.419959 0.936141 0
0.528542 0.925292 0
0.62501 0.915953 0
0.710048 0.908568 0
0.782895 0.903029 0
0.844785 0.899199 0
0.896544 0.896681 0
0.93872 0.895155 0
0.97261 0.894484 0
0.999741 0.894377 0
1 0.894377 0
1 0.89482 0
1 0.895216 0
1 0.895384 0
1 0.895735 0
1 0.896025 0
1 0.896071 0
1 0.89604 0
0 0.996826 0
0 0.996826 0
0 0.996826 0
0 0.996826 0
0 0.996826 0
0 0.996826 0
0 0.996826 0
0 0.996826 0
0 0.996811 0
0 0.996811 0
0 1 0
0 1 0
0 1 0
0.13518 1 0
0.273045 0.998413 0
0.398138 0.985122 0
0.511009 0.973068 0
0.610834 0.962432 0
0.697871 0.954192 0
0.772473 0.947723 0
0.834867 0.943114 0
0.886946 0.940017 0
0.929427 0.938048 0
0.963363 0.936873 0
0.990555 0.936461 0
1 0.936126 0
1 0.936294 0
1 0.936309 0
1 0.936553 0
1 0.936812 0
1 0.937041 0
1 0.937087 0
1 0.937072 0
0 1 0
0 1 0
0 1 0
0 1 0
0 1 0
0 1 0
0 1 0
0 1 0
0 1 0
0 1 0
0 1 0
0 1 0
0 1 0
0.0917983 1 0
0.242649 1 0
0.376013 1 0
0.494347 1 0
0.598199 1 0
0.686854 0.992615 0
0.763165 0.985412 0
0.826719 0.980072 0
0.879026 0.976303 0
0.921782 0.973831 0
0.956161 0.972473 0
0.983352 0.971603 0
1 0.971054 0
1 0.970977 0
1 0.971038 0
1 0.970871 0
1 0.970993 0
1 0.971115 0
1 0.971176 0
1 0.97116 0
0 1 0
0 1 0
0 1 0
0 1 0
0 1 0
0 1 0
0 1 0
0 1 0
0 1 0
0 1 0
0 1 0
0 1 0
0 1 0
0.0428473 1 0
0.209995 1 0
0.353948 1 0
0.478172 1 0
0.585718 1 0
0.677684 1 0
0.755215 1 0
0.819928 1 0
0.872908 1 0
0.915938 1 0
0.950439 1 0
0.97763 1 0
0.998611 0.999725 0
1 0.999359 0
1 0.999222 0
1 0.999207 0
1 0.999252 0
1 0.999283 0
1 0.999313 0
1 0.999298 0
0 1 0
0 1 0
0 1 0
0 1 0
0 1 0
0 1 0
0 1 0
0 1 0
0 1 0
0 1 0
0 1 0
0 1 0
0 1 0
0 1 0
0.176654 1 0
0.331243 1 0
0.462837 1 0
0.574807 1 0
0.669215 1 0
0.748699 1 0
0.814343 1 0
0.868116 1 0
0.911452 1 0
0.946227 1 0
0.97348 1 0
0.99443 1 0
1 1 0
1 1 0
1 1 0
1 1 0
1 1 0
1 1 0
1 1 0
0 1 0
0 1 0
0 1 0
0 1 0
0 1 0
0 1 0
0 1 0
0 1 0
0 1 0
0 1 0
0 1 0
0 1 0
0 1 0
0 1 0
0.14229 1 0
0.308949 1 0
0.447898 1 0
0.564309 1 0
0.662043 1 0
0.742947 1 0
0.80975 1 0
0.864164 1 0
0.90782 1 0
0.942596 1 0
0.970123 1 0
0.991043 1 0
1 1 0
1 1 0
1 1 0
1 1 0
1 1 0
1 1 0
1 1 0
0 1 0
0 1 0
0 1 0
0 1 0
0 1 0
0 1 0
0 1 0
0 1 0
0 1 0
0 1 0
0 1 0
0 1 0
0 1 0
0 1 0
0.108812 1 0
0.288701 1 0
0.434714 1 0
0.555657 1 0
0.655558 1 0
0.738369 1 0
0.806363 1 0
0.861158 1 0
0.905318 1 0
0.940291 1 0
0.967773 1 0
0.988907 1 0
1 1 0
1 1 0
1 1 0
1 1 0
1 1 0
1 1 0
1 1 0
0 1 0
0 1 0
0 1 0
0 1 0
0 1 0
0 1 0
0 1 0
0 1 0
0 1 0
