public/textures/grade/RED/Parasitic-Log3G10.cube
TITLE "Generated by Resolve"
LUT_3D_SIZE 9
0 0.00303655 0
0.0708476 0 0
0.3019 0 0
0.608118 0 0
0.882277 0 0
1 0 0
1 0 0
1 0 0
1 0 0
0 0.0556954 0
0.011017 0.0469978 0
0.26186 0.00308232 0
0.584298 0 0
0.844343 0 0
1 0 0
1 0 0
1 0 0
1 0 0
0 0.185534 0
0 0.185687 0
0.128206 0.163348 0
0.497917 0.109361 0
0.81001 0.0737774 0
1 0.0580606 0
1 0.0442206 0
1 0.0344091 0
1 0.0291447 0
0 0.397284 0
0 0.403342 0
0 0.415015 0
0.338231 0.385824 0
0.732921 0.346288 0
0.987442 0.337011 0
1 0.338262 0
1 0.340398 0
1 0.340002 0
0 0.677836 0
0 0.677836 0
0 0.707424 0
0.186908 0.703517 0
0.611139 0.66688 0
0.90724 0.652766 0
1 0.654994 0
1 0.658839 0
1 0.659724 0
0 0.944335 0
0 0.944335 0
0 0.944335 0
0.0350958 0.97116 0
0.528542 0.925292 0
0.844785 0.899199 0
0.999741 0.894377 0
1 0.895384 0
1 0.89604 0
0 1 0
0 1 0
0 1 0
0 1 0
0.462837 1 0
0.814343 1 0
0.97348 1 0
1 1 0
1 1 0
0 1 0
0 1 0
0 1 0
0 1 0
0.412787 1 0
0.8009 1 0
0.964569 1 0
1 1 0
1 1 0
0 1 0
0 1 0
0 1 0
0 1 0
0.387686 1 0
0.79588 1 0
0.962417 1 0
1 1 0
1 1 0
0 0 0.0877852
0.0482795 0 0.0784466
0.29807 0 0.0137636
0.612497 0 0
0.884153 0 0
1 0 0
1 0 0
1 0 0
1 0 0
0 0.0453956 0.0367742
0.00790417 0.0408789 0.0276036
0.267842 0 0
0.588464 0 0
0.84654 0 0
1 0 0
1 0 0
1 0 0
1 0 0
0 0.182498 0
0 0.1832 0
0.129198 0.161486 0
0.499138 0.1075 0
0.810376 0.0717632 0
1 0.0558785 0
1 0.0418555 0
1 0.0321202 0
1 0.0267185 0
0 0.396597 0
0 0.402579 0
0 0.414252 0
0.338506 0.384985 0
0.733196 0.345434 0
0.98761 0.336156 0
1 0.337392 0
1 0.339498 0
1 0.339147 0
0 0.677607 0
0 0.677592 0
0 0.707164 0
0.186755 0.703288 0
0.611185 0.666636 0
0.907301 0.652506 0
1 0.654749 0
1 0.658625 0
1 0.65948 0
0 0.944259 0
0 0.944259 0
0 0.944244 0
0.0349126 0.971084 0
0.528511 0.925216 0
0.844785 0.899138 0
0.999741 0.894301 0
1 0.895308 0
1 0.895964 0
0 1 0
0 1 0
0 1 0
0 1 0
0.462791 1 0
0.814343 1 0
0.97348 1 0
1 1 0
1 1 0
0 1 0
0 1 0
0 1 0
0 1 0
0.412726 1 0
0.800885 1 0
0.964569 1 0
1 1 0
1 1 0
0 1 0
0 1 0
0 1 0
0 1 0
0.38764 1 0
0.795865 1 0
0.962417 1 0
1 1 0
1 1 0
0 0 0.35668
0.0259098 0 0.350301
0.240101 0 0.317678
0.607034 0 0.186175
0.88069 0 0
1 0 0
1 0 0
1 0 0
1 0 0
0 0.0233616 0.308858
0 0.0175174 0.303487
0.213916 0 0.277729
0.591714 0 0.154345
0.865141 0 0
1 0 0
1 0 0
1 0 0
1 0 0
0 0.161196 0.162219
0 0.162493 0.161151
0.105745 0.155627 0.144518
0.525353 0.0950332 0.0379644
0.829587 0.0649271 0
1 0.048127 0
1 0.0335241 0
1 0.0231479 0
1 0.0174563 0
0 0.395804 0
0 0.402197 0
0 0.415061 0
0.340337 0.382986 0
0.734218 0.342336 0
0.987915 0.333227 0
1 0.334234 0
1 0.3364 0
1 0.335988 0
0 0.676707 0
0 0.676707 0
0 0.706142 0
0.186435 0.702403 0
0.611307 0.665721 0
0.907485 0.651591 0
1 0.653834 0
1 0.657862 0
1 0.658579 0
0 0.943954 0
0 0.943954 0
0 0.943938 0
0.0342412 0.970855 0
0.528405 0.924971 0
0.8448 0.898878 0
0.999786 0.894057 0
1 0.895064 0
1 0.895735 0
0 1 0
0 1 0
0 1 0
0 1 0
0.462608 1 0
0.814313 1 0
0.973495 1 0
1 1 0
1 1 0
0 1 0
0 1 0
0 1 0
0 1 0
0.412512 1 0
0.800839 1 0
0.964569 1 0
1 1 0
1 1 0
0 1 0
0 1 0
0 1 0
0 1 0
0.387457 1 0
0.795819 1 0
0.962402 1 0
1 1 0
1 1 0
0 0 0.80087
0 0 0.794095
0.17467 0 0.763104
0.522301 0 0.675547
0.86569 0 0.49424
1 0 0.283497
1 0 0
1 0 0
1 0 0
0 0 0.78146
0 0 0.773236
0.164828 0 0.743969
0.515831 0 0.661158
0.864652 0 0.486015
1 0 0.274662
1 0 0
1 0 0
1 0 0
0 0.117784 0.629602
0 0.119509 0.62327
0.0988937 0.110582 0.60557
0.457954 0.0633555 0.566964
0.850278 0.0169223 0.443931
1 0.0171054 0.256504
1 0.00306706 0
1 0 0
1 0 0
0 0.368261 0.387655
0 0.373877 0.392096
0 0.390692 0.404791
0.306371 0.379126 0.378958
0.809613 0.320729 0.249546
1 0.324254 0.084062
1 0.323369 0
1 0.3252 0
1 0.324437 0
0 0.684871 0
0 0.684855 0
0 0.715846 0
0.181186 0.715877 0
0.619852 0.672602 0
0.908186 0.648325 0
1 0.650614 0
1 0.654765 0
1 0.65539 0
0 0.942885 0
0 0.942885 0
0 0.942885 0
0.0318608 0.970031 0
0.528008 0.924056 0
0.844831 0.897978 0
0.999939 0.893187 0
1 0.894209 0
1 0.894881 0
0 1 0
0 1 0
0 1 0
0 1 0
0.461982 1 0
0.814206 1 0
0.973541 1 0
1 1 0
1 1 0
0 1 0
0 1 0
0 1 0
0 1 0
0.411734 1 0
0.800702 1 0
0.964523 1 0
1 1 0
1 1 0
0 1 0
0 1 0
0 1 0
0 1 0
0.386816 1 0
0.795666 1 0
0.962356 1 0
1 1 0
1 1 0
0 0 1
0 0 1
0.122042 0 1
0.447044 0 1
0.820294 0 0.999298
1 0 0.885801
1 0 0.787381
1 0 0.713069
1 0 0.678019
0 0 1
0 0 1
0.120531 0 1
0.446403 0 1
0.820172 0 0.997879
1 0 0.884199
1 0 0.785412
1 0 0.710933
1 0 0.675822
0 0 1
0 0 1
0.0929885 0 1
0.415229 0 1
0.774487 0 0.926101
1 0 0.837552
1 0 0.760678
1 0 0.693965
1 0 0.660456
0 0.317937 0.876463
0 0.320882 0.878584
0 0.340063 0.898894
0.30869 0.323949 0.899107
0.750423 0.275364 0.887572
1 0.255055 0.826978
1 0.261036 0.749218
1 0.267796 0.678737
1 0.269383 0.641016
0 0.656687 0.691203
0 0.656687 0.690852
0 0.684108 0.717128
0.15964 0.686748 0.715557
0.577615 0.655314 0.669886
0.986664 0.611704 0.56669
1 0.616159 0.465919
1 0.627253 0.37052
1 0.632029 0.318929
0 0.942351 0.355627
0 0.942382 0.354788
0 0.942443 0.35172
0.00137331 0.971542 0.357229
0.489647 0.93077 0.226352
0.843305 0.89691 0.0678874
1 0.893614 0
1 0.89163 0
1 0.892042 0
0 1 0
0 1 0
0 1 0
0 1 0
0.459892 1 0
0.81387 1 0
0.973617 1 0
1 1 0
1 1 0
0 1 0
0 1 0
0 1 0
0 1 0
0.409201 1 0
0.800244 1 0
0.964477 1 0
1 1 0
1 1 0
0 1 0
0 1 0
0 1 0
0 1 0
0.384161 1 0
0.795254 1 0
0.962203 1 0
1 1 0
1 1 0
0 0 1
0 0 1
0.0691386 0 1
0.41297 0 1
0.796094 0 1
1 0 1
1 0 1
1 0 1
1 0 1
0 0 1
0 0 1
0.0674754 0 1
0.412207 0 1
0.795895 0 1
1 0 1
1 0 1
1 0 1
1 0 1
0 0 1
0 0 1
0.0607462 0 1
0.409461 0 1
0.795209 0 1
1 0 1
1 0 1
1 0 1
1 0 1
0 0.192355 1
0 0.192294 1
0 0.206958 1
0.328252 0.188449 1
0.732113 0.14905 1
1 0.132235 1
1 0.127474 1
1 0.123323 1
1 0.120104 1
0 0.620737 1
0 0.620722 1
0 0.641184 1
0.149584 0.650828 1
0.58407 0.614786 1
0.945006 0.576654 1
1 0.56643 1
1 0.567071 1
1 0.567147 1
0 0.920974 0.955505
0 0.920958 0.955413
0 0.920958 0.955108
0 0.946014 0.979446
0.465019 0.897078 0.927153
0.800443 0.860899 0.881422
1 0.835813 0.836484
1 0.832273 0.809506
1 0.832349 0.798901
0 1 0.855406
0 1 0.855253
0 1 0.854719
0 1 0.867582
0.383856 1 0.797787
0.747326 1 0.702174
0.933364 0.984512 0.606241
1 0.980072 0.559411
1 0.97969 0.54078
0 1 0.70515
0 1 0.704845
0 1 0.703777
0 1 0.699977
0.333486 1 0.625055
0.736446 1 0.478737
0.926543 1 0.362188
0.996719 1 0.286427
1 1 0.251164
0 1 0.581399
0 1 0.580926
0 1 0.579248
0 1 0.573327
0.314961 1 0.487175
0.745022 1 0.316457
0.936767 1 0.177234
1 1 0.0717021
1 1 0
0 0 1
0 0 1
0 0 1
0.380957 0 1
0.780331 0 1
1 0 1
1 0 1
1 0 1
1 0 1
0 0 1
0 0 1
0 0 1
0.380133 0 1
0.780102 0 1
1 0 1
1 0 1
1 0 1
1 0 1
0 0 1
0 0 1
0 0 1
0.377569 0 1
0.779324 0 1
1 0 1
1 0 1
1 0 1
1 0 1
0 0 1
0 0 1
0 0 1
0.367102 0 1
0.776593 0 1
1 0 1
1 0 1
1 0 1
1 0 1
0 0.560006 1
0 0.559991 1
0 0.561624 1
0.148455 0.590524 1
0.603418 0.553353 1
0.951949 0.521538 1
1 0.514229 1
1 0.515084 1
1 0.515373 1
0 0.90695 1
0 0.90695 1
0 0.906935 1
0 0.933623 1
0.458976 0.88275 1
0.802152 0.843381 1
0.993103 0.8215 1
1 0.814267 1
1 0.812848 1
0 1 1
0 1 1
0 1 1
0 1 1
0.371054 1 1
0.746273 0.982666 1
0.918654 0.962921 0.9823
0.994034 0.953841 0.974502
1 0.951324 0.968948
0 1 1
0 1 1
0 1 1
0 1 1
0.310948 1 1
0.722713 1 0.971832
0.898085 1 0.937453
0.962615 1 0.91014
0.983642 1 0.898817
0 1 1
0 1 1
0 1 1
0 1 1
0.283635 1 1
0.715267 1 0.956436
0.891783 1 0.916213
0.956817 1 0.885542
0.978149 1 0.873777
0 0 1
0 0 1
0 0 1
0.358892 0 1
0.772976 0 1
1 0 1
1 0 1
1 0 1
1 0 1
0 0 1
0 0 1
0 0 1
0.358022 0 1
0.772793 0 1
1 0 1
1 0 1
1 0 1
1 0 1
0 0 1
0 0 1
0 0 1
0.354864 0 1
0.772183 0 1
1 0 1
1 0 1
1 0 1
1 0 1
0 0 1
0 0 1
0 0 1
0.34406 0 1
0.769421 0 1
1 0 1
1 0 1
1 0 1
1 0 1
0 0.494163 1
0 0.494133 1
0 0.494072 1
0.149752 0.523568 1
0.623178 0.486259 1
0.97026 0.45832 1
1 0.453986 1
1 0.455665 1
1 0.456046 1
0 0.894179 1
0 0.894163 1
0 0.894148 1
0 0.92256 1
0.456168 0.871885 1
0.80592 0.83154 1
0.994537 0.810788 1
1 0.804074 1
1 0.802991 1
0 1 1
0 1 1
0 1 1
0 1 1
0.363134 1 1
0.744167 0.978256 1
0.917433 0.957702 1
0.985763 0.949676 1
1 0.947219 1
0 1 1
0 1 1
0 1 1
0 1 1
0.300847 1 1
0.721004 1 1
0.899077 1 1
0.963577 1 1
0.982345 0.998749 1
0 1 1
0 1 1
0 1 1
0 1 1
0.271962 1 1
0.712902 1 1
0.893584 1 1
0.958282 1 1
0.977935 1 1
0 0 1
0 0 1
0 0 1
0.348653 0 1
0.770703 0 1
1 0 1
1 0 1
1 0 1
1 0 1
0 0 1
0 0 1
0 0 1
0.347829 0 1
0.770474 0 1
1 0 1
1 0 1
1 0 1
1 0 1
0 0 1
0 0 1
0 0 1
0.344991 0 1
0.769665 0 1
1 0 1
1 0 1
1 0 1
1 0 1
0 0 1
0 0 1
0 0 1
0.333333 0 1
0.766781 0 1
1 0 1
1 0 1
1 0 1
1 0 1
0 0.457588 1
0 0.457557 1
0 0.457481 1
0.1514 0.486259 1
0.633249 0.448524 1
0.979385 0.422126 1
1 0.419181 1
1 0.421012 1
1 0.42153 1
0 0.887175 1
0 0.887175 1
0 0.88716 1
0 0.916411 1
0.454429 0.866209 1
0.807401 0.825742 1
0.997238 0.804944 1
1 0.798505 1
1 0.797253 1
0 1 1
0 1 1
0 1 1
0 1 1
0.359823 1 1
0.743847 0.976547 1
0.917723 0.955856 1
0.986221 0.947707 1
1 0.945251 1
0 1 1
0 1 1
0 1 1
0 1 1
0.296223 1 1
0.720287 1 1
0.898482 1 1
0.962844 0.999069 1
0.981781 0.997116 1
0 1 1
0 1 1
0 1 1
0 1 1
0.266575 1 1
0.711711 1 1
0.892805 1 1
0.957549 1 1
0.977172 1 1
