public/textures/grade/Nikon/Arrakis-NLog.cube
TITLE "Generated by Resolve"
LUT_3D_SIZE 5
0.027985 0.0444038 0.039292
0.172839 0.0521706 0.0459144
0.55996 0.172732 0.0829023
0.885969 0.40734 0.223926
1 0.662623 0.424292
0.143053 0.157977 0.102159
0.198077 0.178866 0.108309
0.550057 0.243259 0.126772
0.8804 0.435172 0.243183
1 0.670466 0.431098
0.429938 0.466011 0.304692
0.455756 0.468666 0.303456
0.576471 0.501289 0.31371
0.86331 0.569253 0.350896
1 0.717357 0.473259
0.738643 0.754833 0.563714
0.743908 0.755718 0.563119
0.774975 0.763378 0.558099
0.874495 0.790188 0.562966
1 0.836164 0.600534
0.946899 0.949004 0.783948
0.94789 0.949218 0.78378
0.95436 0.95079 0.782803
0.978729 0.958465 0.77583
1 0.974563 0.775479
0.0760204 0.142596 0.139635
0.161975 0.143679 0.151446
0.569741 0.191409 0.173678
0.882261 0.420172 0.270115
1 0.666178 0.443305
0.15848 0.205798 0.176837
0.227375 0.21474 0.171633
0.54847 0.268528 0.199054
0.877638 0.445777 0.284733
1 0.673869 0.449332
0.446265 0.471138 0.339437
0.460533 0.47895 0.332738
0.57908 0.508324 0.346716
0.863081 0.574395 0.376303
1 0.719722 0.488136
0.740047 0.757076 0.574456
0.745571 0.757824 0.57409
0.776959 0.764935 0.569009
0.874983 0.791638 0.57377
1 0.837201 0.608225
0.94725 0.949447 0.78706
0.948257 0.949645 0.786908
0.954757 0.951202 0.785763
0.979019 0.958755 0.779202
1 0.974792 0.778317
0.243046 0.385351 0.395529
0.286168 0.388144 0.38938
0.503502 0.391852 0.447959
0.871183 0.48423 0.480888
1 0.690257 0.541695
0.274266 0.40795 0.409201
0.313436 0.411139 0.404181
0.516091 0.418601 0.449165
0.872663 0.502129 0.479545
1 0.696727 0.544717
0.490272 0.540047 0.484596
0.509453 0.542153 0.48249
0.615473 0.559808 0.475303
0.863279 0.610636 0.503624
1 0.736095 0.567315
0.759579 0.767834 0.637324
0.762737 0.769497 0.635996
0.786969 0.777859 0.630014
0.878157 0.802106 0.632746
1 0.844221 0.653208
0.949218 0.952575 0.805615
0.95024 0.952743 0.805539
0.956817 0.954009 0.804868
0.981018 0.960693 0.799374
1 0.97673 0.795972
0.485695 0.650782 0.669886
0.502556 0.652018 0.668086
0.596185 0.661799 0.660929
0.809171 0.672053 0.730526
1 0.755795 0.757153
0.498314 0.658839 0.674723
0.514443 0.659968 0.672999
0.60383 0.6701 0.664256
0.811658 0.679515 0.730663
1 0.760006 0.756725
0.578973 0.706935 0.704402
0.590066 0.707881 0.70309
0.656321 0.714778 0.695949
0.82977 0.724346 0.734829
1 0.786114 0.753887
0.798367 0.821805 0.765118
0.801877 0.822248 0.764736
0.82501 0.825315 0.762524
0.899168 0.840421 0.758236
1 0.871672 0.768963
0.965743 0.961776 0.866178
0.966339 0.962081 0.865904
0.970581 0.964096 0.863844
0.989181 0.970794 0.859037
1 0.98497 0.852155
0.727855 0.862272 0.878462
0.732708 0.862577 0.877867
0.762325 0.864881 0.874571
0.853651 0.870848 0.879667
0.996963 0.884413 0.925658
0.731502 0.864256 0.879545
0.736019 0.864591 0.879011
0.765179 0.866773 0.8757
0.855207 0.87332 0.879881
0.997497 0.886137 0.925795
0.756085 0.877943 0.887358
0.760082 0.878172 0.886854
0.785351 0.880018 0.884169
0.866728 0.888197 0.881254
1 0.897505 0.926223
0.841321 0.922484 0.912856
0.843641 0.922637 0.912596
0.858305 0.923812 0.910842
0.911131 0.930114 0.904982
1 0.936812 0.930312
0.989944 0.995285 0.949126
0.9906 0.995377 0.94905
0.994736 0.995865 0.948455
1 0.998657 0.947082
1 1 0.94316
