public/textures/grade/Nikon/Arrakis-NLog.cube
TITLE "Generated by Resolve"
LUT_3D_SIZE 33
0.027985 0.0444038 0.039292
0.0281987 0.0444343 0.0392767
0.0295567 0.0445716 0.0390478
0.0334478 0.045182 0.0386816
0.0416724 0.0466926 0.038117
0.0576486 0.0467384 0.0406958
0.0870832 0.0457923 0.0461128
0.124193 0.0490578 0.0493782
0.172839 0.0521706 0.0459144
0.217304 0.0632334 0.0467689
0.264439 0.0777142 0.0495003
0.316945 0.0895857 0.0514534
0.368795 0.103304 0.0547494
0.419669 0.118685 0.0599985
0.467826 0.134981 0.0663615
0.513741 0.152819 0.0738079
0.55996 0.172732 0.0829023
0.605722 0.194934 0.0941634
0.650874 0.219547 0.106935
0.694774 0.246525 0.121965
0.73727 0.275547 0.139101
0.777737 0.306523 0.157961
0.816312 0.339101 0.178439
0.852552 0.372915 0.200534
0.885969 0.40734 0.223926
0.917311 0.442435 0.248707
0.946151 0.477516 0.274006
0.972412 0.512123 0.300252
0.99588 0.545541 0.326024
1 0.577844 0.352163
1 0.60856 0.377798
1 0.636774 0.40174
1 0.662623 0.424292
0.0281529 0.0445869 0.0393988
0.0283513 0.0446021 0.0393683
0.0296635 0.0447395 0.0391394
0.0336461 0.0453956 0.038819
0.041886 0.0469062 0.0382544
0.0578927 0.0469825 0.0407263
0.0872053 0.0460975 0.0462043
0.124361 0.0493172 0.0494087
0.172976 0.0524453 0.0459297
0.217182 0.0636149 0.0469215
0.264439 0.0779126 0.0495766
0.31693 0.0897841 0.0515297
0.368765 0.103487 0.0548257
0.419654 0.118883 0.0601816
0.467781 0.135164 0.0664225
0.513695 0.152987 0.0738842
0.55993 0.172869 0.0829786
0.605692 0.195071 0.0942397
0.650843 0.219684 0.107027
0.694743 0.246632 0.122026
0.73724 0.275639 0.139147
0.777722 0.306615 0.158022
0.816297 0.339193 0.178485
0.852522 0.372976 0.200565
0.885954 0.407401 0.223957
0.917296 0.442481 0.248737
0.946136 0.477562 0.274037
0.972396 0.512169 0.300282
0.995865 0.545571 0.32604
1 0.577874 0.352178
1 0.608576 0.377813
1 0.63679 0.401755
1 0.662638 0.424308
0.0293584 0.0458991 0.0401465
0.0295567 0.0459449 0.0401465
0.03093 0.0462043 0.0400549
0.0350805 0.046891 0.0397498
0.043534 0.0483711 0.0393378
0.0596933 0.0487373 0.0411841
0.088304 0.0482032 0.0469062
0.125414 0.0509041 0.0495308
0.17258 0.0551308 0.0468147
0.216297 0.0663005 0.0477913
0.264332 0.0790112 0.049897
0.316838 0.0911879 0.0521248
0.36875 0.104753 0.0555123
0.419562 0.120089 0.0609293
0.467521 0.136355 0.0669413
0.513222 0.153933 0.0743267
0.55964 0.173922 0.0835737
0.605432 0.196033 0.0948043
0.650599 0.220554 0.10753
0.694545 0.247425 0.122469
0.737072 0.276371 0.139513
0.777569 0.30724 0.158434
0.816175 0.339742 0.17879
0.852338 0.373373 0.200793
0.885863 0.407813 0.224247
0.91722 0.442847 0.248981
0.94609 0.477867 0.274266
0.972335 0.512413 0.300465
0.995804 0.545754 0.326177
1 0.578058 0.352331
1 0.608713 0.377905
1 0.636927 0.401862
1 0.662745 0.424399
0.0334478 0.0500649 0.0425574
0.0336614 0.0500954 0.0425422
0.0351873 0.0503395 0.0424353
0.0391241 0.0509499 0.0420233
0.0476997 0.0524605 0.0414435
0.0639506 0.0535897 0.0419776
0.0908217 0.0536202 0.0492103
0.128878 0.0560922 0.0505989
0.170718 0.0623636 0.0495155
0.214084 0.0729839 0.0503853
0.264698 0.0829786 0.0515755
0.316808 0.0950027 0.0539406
0.368383 0.108354 0.0572976
0.418631 0.123278 0.0622416
0.466819 0.13962 0.0686656
0.512352 0.156847 0.0758526
0.559106 0.176669 0.0853895
0.604761 0.198657 0.0962387
0.650065 0.222904 0.109026
0.693996 0.249577 0.123796
0.736629 0.278294 0.140581
0.777188 0.308965 0.159304
0.815854 0.341222 0.179767
0.851881 0.374487 0.201495
0.885618 0.408942 0.224994
0.917037 0.443809 0.249607
0.945907 0.478691 0.274846
0.972198 0.513115 0.300969
0.995697 0.546334 0.326619
1 0.578561 0.352712
1 0.609049 0.378164
1 0.637293 0.402152
1 0.663066 0.424674
0.0424964 0.0583505 0.0465248
0.0427253 0.058381 0.0465095
0.044358 0.0586252 0.0464027
0.0487068 0.0593729 0.046128
0.0578317 0.0607614 0.045716
0.0731518 0.0629587 0.0444953
0.0961318 0.0641184 0.0549325
0.129046 0.0683146 0.0545357
0.169818 0.0739147 0.0538643
0.215976 0.0815442 0.0539559
0.265309 0.0908827 0.054902
0.316609 0.10248 0.0573892
0.367666 0.115328 0.0609598
0.4177 0.129992 0.0659648
0.465537 0.145647 0.0720989
0.511467 0.162676 0.0793774
0.557504 0.181857 0.088304
0.603662 0.203616 0.0991684
0.649058 0.227481 0.11191
0.693202 0.253635 0.126604
0.735744 0.282017 0.142916
0.776471 0.312245 0.161379
0.815122 0.344045 0.181582
0.851347 0.376989 0.203174
0.885176 0.411124 0.226474
0.916671 0.44567 0.25069
0.945571 0.480278 0.275975
0.971801 0.514336 0.301839
0.995499 0.547478 0.327474
1 0.579538 0.35346
1 0.609781 0.378729
1 0.637995 0.402731
1 0.663676 0.425177
0.0583963 0.0736248 0.0539864
0.0586404 0.0736553 0.0539712
0.0601663 0.0738994 0.0539712
0.0645151 0.0745708 0.0537881
0.0732738 0.0757305 0.0532998
0.087892 0.0776379 0.0521859
0.0988937 0.0829023 0.0661173
0.133425 0.0852216 0.0628672
0.173846 0.0896925 0.0613565
0.218677 0.0961166 0.0609293
0.266804 0.104738 0.0618143
0.316854 0.115206 0.0639811
0.367041 0.12726 0.0672007
0.416449 0.140963 0.0719615
0.463996 0.155993 0.0778515
0.509682 0.172152 0.0847639
0.555825 0.190768 0.0935683
0.601968 0.211566 0.104036
0.647288 0.234653 0.116197
0.691569 0.26006 0.130343
0.734325 0.287663 0.146639
0.775357 0.317174 0.164721
0.813977 0.34847 0.184512
0.850614 0.381033 0.206088
0.884657 0.414618 0.228641
0.91606 0.448707 0.252827
0.944823 0.482643 0.277607
0.971374 0.516274 0.303166
0.995239 0.54931 0.328939
1 0.581109 0.354696
1 0.611139 0.379538
1 0.639155 0.403677
1 0.664668 0.426017
0.0801404 0.0961471 0.067216
0.080354 0.0961776 0.0672007
0.0820935 0.0963149 0.0670634
0.0870069 0.0965896 0.0666667
0.0955367 0.0972305 0.0654765
0.105013 0.100481 0.0632944
0.11545 0.105547 0.0705882
0.138827 0.110155 0.0772412
0.177966 0.113222 0.0746471
0.22208 0.118425 0.0734875
0.269093 0.125307 0.0733806
0.317968 0.134218 0.0747082
0.367086 0.145022 0.0775464
0.415671 0.157427 0.081651
0.462684 0.170962 0.0867018
0.50779 0.186282 0.0932479
0.553918 0.203693 0.101366
0.599725 0.223346 0.111192
0.645121 0.245335 0.122835
0.689815 0.269917 0.136782
0.732754 0.296437 0.152346
0.773785 0.325048 0.16965
0.812711 0.355352 0.188952
0.849531 0.387015 0.21001
0.883497 0.419394 0.232074
0.915145 0.452735 0.255863
0.944213 0.486244 0.280507
0.970794 0.519493 0.305592
0.994858 0.551995 0.331197
1 0.583368 0.356603
1 0.613153 0.381125
1 0.640574 0.404776
1 0.666056 0.427466
0.112123 0.123964 0.0831922
0.112276 0.123995 0.0831617
0.113359 0.124224 0.0829023
0.115953 0.124865 0.0822919
0.120851 0.126375 0.0810559
0.127047 0.129641 0.0787518
0.140215 0.133074 0.0809949
0.153307 0.1402 0.0884413
0.184512 0.143648 0.0927443
0.226688 0.147448 0.0914321
0.272526 0.152697 0.0901808
0.320027 0.159854 0.0904097
0.368017 0.168978 0.0922408
0.415366 0.179629 0.095201
0.461845 0.19176 0.0997787
0.505943 0.205188 0.105135
0.551766 0.221027 0.112352
0.597498 0.239353 0.121477
0.642924 0.259815 0.132128
0.68751 0.282979 0.145266
0.730694 0.308019 0.159869
0.771756 0.335271 0.176516
0.811032 0.364248 0.195132
0.847852 0.394751 0.215518
0.882368 0.426368 0.237278
0.914153 0.458793 0.259968
0.943374 0.491432 0.284001
0.970031 0.523888 0.308858
0.99411 0.555764 0.334081
1 0.586603 0.358968
1 0.615808 0.383551
1 0.642924 0.406699
1 0.668086 0.429191
0.143053 0.157977 0.102159
0.14316 0.158007 0.102129
0.143938 0.158236 0.1019
0.145968 0.158923 0.101396
0.149416 0.160555 0.100298
0.154116 0.163638 0.0977493
0.167987 0.165896 0.0973068
0.179782 0.171069 0.105196
0.198077 0.178866 0.108309
0.234272 0.181903 0.113024
0.277363 0.185809 0.111894
0.323369 0.191485 0.111269
0.369741 0.198459 0.111315
0.415885 0.207202 0.113115
0.461387 0.217319 0.116243
0.50547 0.229282 0.120897
0.550057 0.243259 0.126772
0.595529 0.259434 0.13463
0.64065 0.278325 0.144472
0.684947 0.299336 0.156146
0.728191 0.322972 0.169879
0.769589 0.348409 0.185534
0.808865 0.37583 0.203098
0.845975 0.404822 0.222431
0.8804 0.435172 0.243183
0.912535 0.46627 0.265492
0.942031 0.497765 0.28893
0.968872 0.529259 0.312825
0.993088 0.560296 0.337514
1 0.590509 0.36199
1 0.619394 0.386481
1 0.645899 0.409461
1 0.670466 0.431098
0.176226 0.195544 0.124071
0.176318 0.195575 0.124041
0.176883 0.195834 0.123812
0.178424 0.196551 0.123262
0.180896 0.198016 0.122148
0.184695 0.200961 0.119829
0.197574 0.202426 0.119615
0.210575 0.205875 0.123461
0.224704 0.212497 0.129091
0.247944 0.219471 0.131518
0.285618 0.222705 0.13547
0.32842 0.227161 0.135332
0.373129 0.232425 0.134737
0.41799 0.239506 0.135256
0.462058 0.247745 0.136995
0.504921 0.257374 0.140047
0.549233 0.269688 0.144884
0.593851 0.283711 0.151095
0.638422 0.300404 0.159442
0.682765 0.319509 0.169955
0.72575 0.340978 0.182498
0.767239 0.364553 0.196658
0.806561 0.390066 0.213184
0.84387 0.417258 0.231205
0.878767 0.44625 0.251362
0.911055 0.475898 0.272587
0.940749 0.506065 0.295186
0.96762 0.536385 0.318395
0.991913 0.566415 0.34229
1 0.595651 0.3664
1 0.623606 0.38967
1 0.64979 0.412406
1 0.673823 0.433783
0.211078 0.235096 0.147982
0.211154 0.235126 0.147951
0.211612 0.235386 0.147723
0.212619 0.235935 0.147066
0.214618 0.237354 0.145815
0.21767 0.240162 0.143725
0.229831 0.240909 0.143954
0.243458 0.243076 0.144869
0.256229 0.248371 0.150942
0.272908 0.255741 0.153475
0.299001 0.261555 0.156222
0.336797 0.264851 0.159609
0.378332 0.269306 0.160037
0.42118 0.274815 0.159915
0.463676 0.281285 0.160311
0.505669 0.289387 0.162417
0.548791 0.299168 0.165682
0.592599 0.311376 0.170581
0.636912 0.325673 0.177386
0.680476 0.342641 0.186145
0.723491 0.361852 0.197192
0.764935 0.383429 0.210468
0.804273 0.406806 0.225055
0.841459 0.432044 0.241993
0.87686 0.459037 0.260899
0.909026 0.487053 0.280919
0.938933 0.515679 0.302449
0.965927 0.544671 0.324681
0.990463 0.573419 0.347784
1 0.601907 0.371435
1 0.629038 0.394354
1 0.654169 0.41619
1 0.677836 0.437461
0.246281 0.275425 0.172473
0.246326 0.275456 0.172442
0.246616 0.275639 0.172213
0.247486 0.27631 0.17171
0.249165 0.277745 0.170504
0.253452 0.279438 0.169375
0.263951 0.280079 0.169528
0.277134 0.281483 0.168963
0.289418 0.28542 0.173251
0.303258 0.291279 0.177722
0.321553 0.299077 0.177874
0.349813 0.304082 0.181842
0.386923 0.307454 0.185122
0.42681 0.311772 0.185916
0.467277 0.317052 0.186053
0.507256 0.323293 0.18674
0.549477 0.331563 0.189044
0.592187 0.341558 0.192615
0.635569 0.353765 0.197711
0.678828 0.368261 0.205066
0.721202 0.385214 0.214237
0.762387 0.404456 0.225757
0.802075 0.425788 0.239414
0.8392 0.448875 0.254551
0.87451 0.473915 0.272084
0.907073 0.499886 0.290852
0.93698 0.526848 0.31107
0.964141 0.55436 0.332311
0.989197 0.581979 0.354665
1 0.609049 0.376959
1 0.635203 0.399451
1 0.659709 0.420798
1 0.682445 0.441184
0.281758 0.315984 0.197848
0.281788 0.316014 0.197803
0.282002 0.316197 0.197543
0.282628 0.316762 0.196857
0.283955 0.31812 0.195682
0.290211 0.31841 0.195727
0.299306 0.318975 0.195819
0.310842 0.320378 0.195651
0.323033 0.322957 0.196948
0.335393 0.327794 0.201434
0.350622 0.334218 0.203998
0.369909 0.342123 0.202716
0.399527 0.345937 0.207904
0.435172 0.349248 0.211398
0.472541 0.353536 0.212451
0.510872 0.35845 0.212833
0.550988 0.365011 0.213794
0.592767 0.37348 0.216449
0.635111 0.383597 0.220218
0.677546 0.395911 0.225696
0.719448 0.410498 0.233478
0.760235 0.42739 0.243091
0.799542 0.446464 0.255085
0.83711 0.467506 0.269062
0.872023 0.490135 0.28481
0.904891 0.514443 0.302388
0.934905 0.539498 0.32108
0.962585 0.565606 0.341375
0.987488 0.59144 0.362692
1 0.617151 0.384009
1 0.642512 0.405936
1 0.665782 0.426352
1 0.687922 0.44622
0.317113 0.355917 0.223163
0.317143 0.355947 0.223133
0.317372 0.356176 0.222934
0.318334 0.356603 0.222568
0.321645 0.356649 0.222705
0.327031 0.356542 0.222522
0.334737 0.357107 0.222553
0.344747 0.358297 0.222248
0.357183 0.360388 0.221515
0.368078 0.363943 0.225376
0.380774 0.369146 0.228611
0.39736 0.375998 0.229679
0.416815 0.383825 0.22771
0.446876 0.386587 0.234058
0.480827 0.389776 0.237446
0.516045 0.393927 0.23888
0.55436 0.399237 0.240116
0.59411 0.405859 0.241077
0.635523 0.414481 0.244068
0.676966 0.42475 0.24831
0.71812 0.437446 0.254414
0.758755 0.452094 0.262608
0.797559 0.468956 0.272679
0.834653 0.487434 0.284794
0.869932 0.508049 0.299138
0.902571 0.530404 0.315251
0.93286 0.55346 0.332738
0.960708 0.577722 0.351629
0.985565 0.602106 0.371572
1 0.626657 0.392081
1 0.650553 0.412558
1 0.67303 0.4327
1 0.693965 0.451591
0.353796 0.393408 0.249454
0.353872 0.393408 0.249454
0.354467 0.393408 0.249485
0.356039 0.393439 0.249516
0.359075 0.393515 0.249561
0.363622 0.39379 0.249653
0.370336 0.394278 0.249607
0.378775 0.394949 0.248981
0.389532 0.396719 0.248203
0.400519 0.399725 0.249973
0.411841 0.40383 0.253285
0.425528 0.409384 0.255161
0.442191 0.416266 0.254978
0.461875 0.42327 0.254078
0.491783 0.425528 0.260182
0.523568 0.428779 0.263294
0.55935 0.432959 0.265202
0.597238 0.438575 0.266606
0.636973 0.44564 0.268788
0.67718 0.454154 0.27158
0.717418 0.464622 0.27631
0.757168 0.477516 0.283024
0.795712 0.492164 0.291417
0.832639 0.508797 0.302174
0.867628 0.527367 0.314672
0.900145 0.547173 0.328984
0.930587 0.568673 0.345388
0.958495 0.591058 0.362844
0.983536 0.613748 0.381521
1 0.636851 0.400854
1 0.659403 0.420356
1 0.680812 0.439475
1 0.700954 0.458137
0.391333 0.429389 0.276295
0.391394 0.429389 0.276295
0.391791 0.429419 0.276326
0.393011 0.429496 0.276371
0.395468 0.429526 0.27631
0.399298 0.429511 0.276051
0.404883 0.43003 0.276005
0.412345 0.430915 0.275746
0.421775 0.43238 0.275196
0.432441 0.434318 0.27454
0.442649 0.437949 0.277928
0.454551 0.442313 0.2804
0.468879 0.448234 0.281132
0.485237 0.454826 0.280125
0.505302 0.460716 0.2804
0.533974 0.462882 0.286336
0.566247 0.46627 0.289357
0.601724 0.470726 0.291264
0.639414 0.476478 0.293263
0.67837 0.483787 0.295903
0.717357 0.492561 0.299062
0.756268 0.503578 0.304677
0.794247 0.516167 0.311604
0.830701 0.530755 0.320729
0.865309 0.547234 0.331624
0.898146 0.565301 0.344579
0.928603 0.584772 0.359121
0.956313 0.605386 0.375341
0.98146 0.626368 0.392264
1 0.647929 0.410651
1 0.669306 0.429267
1 0.689357 0.447364
1 0.708522 0.464942
0.429938 0.466011 0.304692
0.429999 0.466011 0.304692
0.430411 0.466026 0.304692
0.431525 0.466072 0.304707
0.433387 0.46627 0.304738
0.43682 0.466499 0.304692
0.441764 0.466926 0.304555
0.448066 0.467735 0.304311
0.455756 0.468666 0.303456
0.465461 0.470573 0.302449
0.475242 0.473411 0.304097
0.485542 0.476921 0.306676
0.497704 0.481804 0.308354
0.511788 0.487236 0.308324
0.527626 0.493614 0.306538
0.547539 0.498619 0.308003
0.576471 0.501289 0.31371
0.608972 0.504723 0.317433
0.643854 0.509392 0.319463
0.680598 0.514977 0.321447
0.718196 0.522545 0.3243
0.755901 0.531731 0.328649
0.792981 0.542443 0.333989
0.828946 0.554971 0.341314
0.86331 0.569253 0.350896
0.89601 0.585565 0.36228
0.926024 0.602731 0.375006
0.954009 0.621378 0.389349
0.979461 0.640772 0.405356
1 0.660609 0.422431
1 0.680552 0.43978
1 0.699458 0.457053
1 0.717357 0.473259
0.469352 0.503517 0.334493
0.469398 0.503517 0.334478
0.469718 0.503517 0.334462
0.470588 0.503517 0.334401
0.472267 0.503563 0.334279
0.474891 0.503838 0.33431
0.479103 0.504204 0.334249
0.48455 0.504875 0.334112
0.491539 0.505882 0.333608
0.499809 0.507454 0.332784
0.508949 0.509377 0.331777
0.517968 0.512551 0.334279
0.528298 0.516136 0.336187
0.540322 0.520958 0.337118
0.553948 0.526192 0.336522
0.568841 0.532357 0.33431
0.590082 0.537194 0.337102
0.618692 0.539712 0.342473
0.650477 0.543282 0.346044
0.684703 0.547982 0.348821
0.720272 0.554116 0.351034
0.75639 0.561349 0.354192
0.792599 0.570489 0.358877
0.827756 0.581064 0.364584
0.86186 0.593668 0.372686
0.893736 0.607599 0.382055
0.92401 0.62295 0.393454
0.951659 0.639536 0.40618
0.977264 0.657038 0.420676
1 0.675166 0.435599
1 0.693462 0.451911
1 0.710918 0.467765
1 0.727764 0.483467
0.509483 0.541222 0.365728
0.509529 0.541222 0.365728
0.509804 0.541253 0.365713
0.510552 0.541314 0.365698
0.512016 0.541421 0.365652
0.514351 0.54165 0.36556
0.51754 0.542077 0.365484
0.521965 0.542458 0.364996
0.527489 0.543236 0.364477
0.534676 0.544503 0.363729
0.543236 0.546212 0.36289
0.551461 0.548394 0.363195
0.560372 0.551644 0.365209
0.570413 0.555444 0.366461
0.582025 0.559853 0.366873
0.594827 0.564904 0.365728
0.610376 0.571359 0.36376
0.631754 0.575448 0.367025
0.66006 0.578027 0.372381
0.691096 0.581674 0.376074
0.724285 0.586419 0.379095
0.75845 0.592584 0.381613
0.79295 0.599847 0.385153
0.827222 0.608835 0.390097
0.86038 0.619318 0.39617
0.892073 0.631388 0.404318
0.921569 0.644724 0.413718
0.949203 0.659342 0.424796
0.974594 0.674815 0.4374
0.997528 0.691127 0.451148
1 0.707607 0.465629
1 0.723827 0.48011
1 0.739284 0.494789
0.549615 0.578714 0.397818
0.54963 0.578714 0.397803
0.549859 0.578729 0.397803
0.550469 0.57879 0.397772
0.551644 0.578912 0.397711
0.553567 0.57911 0.39762
0.556344 0.579461 0.397467
0.55996 0.579995 0.397269
0.564874 0.580713 0.396857
0.570489 0.581674 0.396139
0.577279 0.582986 0.395117
0.585504 0.584909 0.393835
0.593591 0.587396 0.395529
0.601892 0.590295 0.396735
0.611627 0.594125 0.397604
0.622553 0.598154 0.397513
0.63563 0.603586 0.396414
0.65095 0.609705 0.393881
0.672404 0.613413 0.397742
0.700252 0.615946 0.403204
0.730144 0.619684 0.407095
0.76199 0.624475 0.410071
0.79472 0.630518 0.413046
0.827619 0.637949 0.417136
0.859358 0.64654 0.421851
0.89044 0.656794 0.428214
0.919646 0.668177 0.436225
0.946975 0.680705 0.445594
0.972519 0.694591 0.456733
0.995285 0.70898 0.46865
1 0.723766 0.481773
1 0.738338 0.494942
1 0.75227 0.507973
0.589227 0.615885 0.430503
0.589258 0.615885 0.430488
0.589441 0.6159 0.430488
0.58996 0.615946 0.430472
0.590936 0.616037 0.430442
0.592523 0.61622 0.430381
0.594888 0.61648 0.430289
0.597803 0.616968 0.430152
0.601846 0.617578 0.429786
0.606699 0.618463 0.429297
0.612589 0.619654 0.42855
0.619043 0.62092 0.427237
0.626535 0.62295 0.426444
0.634165 0.625422 0.427893
0.64213 0.628168 0.428763
0.651347 0.6318 0.429282
0.662257 0.635904 0.428794
0.675242 0.641321 0.427558
0.690501 0.647364 0.424826
0.711757 0.650675 0.42948
0.738552 0.6533 0.434623
0.767697 0.656901 0.438743
0.797894 0.661692 0.441947
0.828962 0.667597 0.445106
0.859602 0.674907 0.449165
0.889693 0.683406 0.454551
0.918135 0.692866 0.460655
0.944945 0.703624 0.468452
0.970001 0.715602 0.477791
0.992721 0.728145 0.48806
1 0.741192 0.49955
1 0.754391 0.511345
1 0.766949 0.523018
0.628611 0.652598 0.463935
0.628641 0.652613 0.463935
0.628794 0.652628 0.46392
0.629191 0.652674 0.463905
0.629969 0.652766 0.463859
0.631251 0.652918 0.463783
0.633097 0.653178 0.463661
0.635447 0.653361 0.46331
0.638392 0.653819 0.463004
0.642496 0.654521 0.462577
0.647379 0.655467 0.462181
0.653223 0.656672 0.461357
0.659663 0.658289 0.460273
0.666194 0.659998 0.459556
0.673289 0.662425 0.460563
0.681178 0.665263 0.461494
0.690089 0.66862 0.461402
0.701015 0.672953 0.460716
0.713787 0.678096 0.45919
0.72871 0.684031 0.456336
0.749813 0.6869 0.461662
0.775799 0.689738 0.466896
0.803586 0.693385 0.471077
0.832074 0.698116 0.474479
0.86099 0.703517 0.477501
0.889509 0.710552 0.481666
0.917311 0.718669 0.487098
0.94342 0.727565 0.493141
0.968093 0.737804 0.500923
0.990478 0.748577 0.509621
1 0.760128 0.519417
1 0.771618 0.52961
1 0.782681 0.539712
0.666743 0.687984 0.497383
0.666773 0.687984 0.497368
0.66688 0.687999 0.497368
0.667201 0.688045 0.497337
0.667826 0.688136 0.497292
0.668833 0.688273 0.4972
0.670329 0.688487 0.497063
0.672419 0.688807 0.49688
0.675013 0.689265 0.49662
0.678203 0.689891 0.496284
0.681987 0.690364 0.49546
0.686519 0.691417 0.494942
0.692042 0.692638 0.49424
0.698222 0.694179 0.493294
0.704356 0.695979 0.492866
0.710811 0.698116 0.493385
0.718471 0.701045 0.493858
0.72755 0.704295 0.493706
0.738262 0.708751 0.492927
0.750835 0.713664 0.491051
0.76495 0.719615 0.487968
0.786374 0.722194 0.494347
0.810925 0.724773 0.499184
0.836988 0.728344 0.503151
0.863874 0.732891 0.506508
0.890745 0.738445 0.510018
0.917037 0.744762 0.514153
0.94255 0.752392 0.519539
0.966369 0.760983 0.52549
0.988418 0.770077 0.53257
1 0.780072 0.540993
1 0.789944 0.549523
1 0.799771 0.558511
0.703487 0.722118 0.530816
0.703502 0.722118 0.530816
0.703609 0.722133 0.5308
0.703853 0.722164 0.53077
0.704356 0.72224 0.530739
0.70518 0.722362 0.530663
0.706416 0.72253 0.530556
0.708049 0.722805 0.530373
0.710231 0.723171 0.530144
0.712764 0.723705 0.52987
0.716045 0.724346 0.529458
0.719951 0.72517 0.528878
0.724071 0.72604 0.528008
0.729122 0.727184 0.52697
0.734676 0.728695 0.52604
0.740627 0.730465 0.525933
0.746944 0.732479 0.526009
0.754528 0.735393 0.526177
0.763592 0.73875 0.525994
0.773907 0.742992 0.524941
0.786068 0.747829 0.522805
0.799939 0.753689 0.520546
0.820493 0.755825 0.526329
0.8439 0.758267 0.531334
0.868299 0.76173 0.535286
0.893294 0.76614 0.538613
0.918196 0.771389 0.542245
0.942458 0.777554 0.546609
0.965225 0.784512 0.551125
0.986999 0.792264 0.557229
1 0.800671 0.564111
1 0.809186 0.571435
1 0.817594 0.578836
0.738643 0.754833 0.563714
0.738643 0.754833 0.563714
0.738705 0.754849 0.563714
0.738857 0.754879 0.563684
0.739193 0.754925 0.563638
0.739818 0.755032 0.563561
0.740795 0.755199 0.563455
0.742123 0.755413 0.563302
0.743908 0.755718 0.563119
0.746075 0.75613 0.562829
0.748684 0.756664 0.562646
0.751934 0.75729 0.56228
0.755642 0.758099 0.561685
0.759655 0.759152 0.560998
0.764355 0.760296 0.560021
0.769223 0.761532 0.558709
0.774975 0.763378 0.558099
0.781659 0.765576 0.558526
0.788846 0.768185 0.558236
0.797665 0.771695 0.557687
0.807752 0.775616 0.556664
0.819425 0.780407 0.554345
0.832776 0.785931 0.552712
0.852705 0.787762 0.558236
0.874495 0.790188 0.562966
0.897307 0.793454 0.567041
0.920378 0.797681 0.570245
0.943313 0.802579 0.573983
0.965087 0.808362 0.578012
0.98613 0.814847 0.582712
1 0.821897 0.58851
1 0.829053 0.59411
1 0.836164 0.600534
0.772305 0.786007 0.596307
0.77232 0.786007 0.596307
0.772381 0.786023 0.596292
0.772549 0.786038 0.596277
0.772854 0.786099 0.596246
0.773358 0.786191 0.596201
0.773983 0.786374 0.596155
0.775051 0.786557 0.596033
0.77644 0.786816 0.595865
0.77821 0.787152 0.595636
0.780285 0.787442 0.595209
0.782605 0.787869 0.59472
0.785534 0.788556 0.594278
0.788998 0.789349 0.593683
0.792691 0.790372 0.593011
0.797238 0.79144 0.592294
0.802243 0.79292 0.59118
0.807645 0.794507 0.590066
0.814069 0.79675 0.590127
0.8215 0.799466 0.590005
0.829862 0.802686 0.588998
0.839536 0.806546 0.587411
0.851041 0.811368 0.585595
0.863478 0.816327 0.584283
0.882704 0.817914 0.5897
0.903151 0.820371 0.594324
0.924193 0.823636 0.598184
0.945449 0.827558 0.601526
0.966094 0.832197 0.605005
0.985885 0.837263 0.608942
1 0.843015 0.613138
1 0.849241 0.618204
1 0.855116 0.623209
0.803525 0.815229 0.627268
0.80354 0.815229 0.627283
0.803586 0.815244 0.627268
0.803723 0.815259 0.627253
0.803983 0.815305 0.627237
0.804425 0.815366 0.627207
0.805066 0.815473 0.627161
0.805951 0.815625 0.62707
0.806989 0.815854 0.627039
0.808392 0.816114 0.626947
0.810162 0.816464 0.626764
0.812253 0.816892 0.62652
0.81471 0.817426 0.626215
0.817319 0.818128 0.625772
0.820401 0.818799 0.625086
0.823636 0.819623 0.624277
0.827924 0.820783 0.623346
0.832792 0.822263 0.622217
0.838666 0.824018 0.621317
0.844633 0.826017 0.620951
0.851774 0.828779 0.620493
0.860014 0.8318 0.619425
0.86949 0.835828 0.617838
0.880293 0.840177 0.615763
0.89218 0.844709 0.615
0.910506 0.846464 0.620325
0.929503 0.84863 0.62475
0.94873 0.851575 0.628107
0.967819 0.855283 0.631373
0.986557 0.85951 0.634974
1 0.864256 0.638621
1 0.869276 0.642481
1 0.874159 0.646601
0.833036 0.842695 0.65771
0.833036 0.842695 0.657694
0.833082 0.84271 0.657694
0.833173 0.842725 0.657679
0.833387 0.842771 0.657649
0.833707 0.842832 0.657603
0.834211 0.842924 0.657542
0.834882 0.843046 0.65745
0.835798 0.843229 0.657328
