public/textures/grade/Nikon/Arrakis-NLog.cube
TITLE "Generated by Resolve"
LUT_3D_SIZE 9
0.027985 0.0444038 0.039292
0.0416724 0.0466926 0.038117
0.172839 0.0521706 0.0459144
0.368795 0.103304 0.0547494
0.55996 0.172732 0.0829023
0.73727 0.275547 0.139101
0.885969 0.40734 0.223926
0.99588 0.545541 0.326024
1 0.662623 0.424292
0.0424964 0.0583505 0.0465248
0.0578317 0.0607614 0.045716
0.169818 0.0739147 0.0538643
0.367666 0.115328 0.0609598
0.557504 0.181857 0.088304
0.735744 0.282017 0.142916
0.885176 0.411124 0.226474
0.995499 0.547478 0.327474
1 0.663676 0.425177
0.143053 0.157977 0.102159
0.149416 0.160555 0.100298
0.198077 0.178866 0.108309
0.369741 0.198459 0.111315
0.550057 0.243259 0.126772
0.728191 0.322972 0.169879
0.8804 0.435172 0.243183
0.993088 0.560296 0.337514
1 0.670466 0.431098
0.281758 0.315984 0.197848
0.283955 0.31812 0.195682
0.323033 0.322957 0.196948
0.399527 0.345937 0.207904
0.550988 0.365011 0.213794
0.719448 0.410498 0.233478
0.872023 0.490135 0.28481
0.987488 0.59144 0.362692
1 0.687922 0.44622
0.429938 0.466011 0.304692
0.433387 0.46627 0.304738
0.455756 0.468666 0.303456
0.497704 0.481804 0.308354
0.576471 0.501289 0.31371
0.718196 0.522545 0.3243
0.86331 0.569253 0.350896
0.979461 0.640772 0.405356
1 0.717357 0.473259
0.589227 0.615885 0.430503
0.590936 0.616037 0.430442
0.601846 0.617578 0.429786
0.626535 0.62295 0.426444
0.662257 0.635904 0.428794
0.738552 0.6533 0.434623
0.859602 0.674907 0.449165
0.970001 0.715602 0.477791
1 0.766949 0.523018
0.738643 0.754833 0.563714
0.739193 0.754925 0.563638
0.743908 0.755718 0.563119
0.755642 0.758099 0.561685
0.774975 0.763378 0.558099
0.807752 0.775616 0.556664
0.874495 0.790188 0.562966
0.965087 0.808362 0.578012
1 0.836164 0.600534
0.860136 0.867933 0.686259
0.86041 0.867994 0.686213
0.862242 0.868391 0.686046
0.86743 0.869398 0.685374
0.876463 0.871717 0.683879
0.893812 0.876921 0.679561
0.922744 0.88809 0.675196
0.975204 0.899153 0.681849
1 0.911116 0.693156
0.946899 0.949004 0.783948
0.947021 0.949035 0.783932
0.94789 0.949218 0.78378
0.950042 0.949752 0.783505
0.95436 0.95079 0.782803
0.962631 0.953124 0.780667
0.978729 0.958465 0.77583
1 0.968368 0.769741
1 0.974563 0.775479
0.0325322 0.0578317 0.0534981
0.0456703 0.060029 0.0524605
0.166796 0.0647288 0.0698558
0.368765 0.109056 0.0716869
0.558495 0.177249 0.0960708
0.736294 0.278355 0.147906
0.885435 0.408911 0.229847
0.995605 0.546319 0.329961
1 0.66305 0.42681
0.0441444 0.0705272 0.060914
0.0586099 0.0725567 0.0598611
0.174823 0.079057 0.0720836
0.366476 0.121859 0.0770581
0.556237 0.186191 0.100603
0.734859 0.284413 0.15169
0.884794 0.412604 0.232273
0.99527 0.548272 0.331411
1 0.664103 0.42768
0.147219 0.161807 0.113146
0.1552 0.163607 0.111147
0.201129 0.1823 0.118639
0.370596 0.201801 0.121645
0.549722 0.245747 0.135943
0.727718 0.324956 0.177295
0.880125 0.436393 0.248615
0.992844 0.561028 0.341238
1 0.670909 0.433295
0.286976 0.316197 0.204913
0.289754 0.318257 0.203143
0.325856 0.324636 0.200595
0.400061 0.347616 0.214405
0.551202 0.366445 0.220005
0.719265 0.411719 0.239002
0.871748 0.491035 0.289113
0.987335 0.592065 0.365667
1 0.688289 0.448463
0.430198 0.467399 0.308293
0.433722 0.467613 0.308385
0.456458 0.469718 0.307439
0.498802 0.48249 0.311894
0.57644 0.501869 0.317815
0.718227 0.523262 0.328237
0.863279 0.569848 0.354101
0.979339 0.641215 0.408042
1 0.717632 0.475257
0.589624 0.616464 0.433021
0.591333 0.616617 0.43299
0.602197 0.618128 0.432319
0.627207 0.623362 0.428595
0.662776 0.63621 0.431464
0.738628 0.653712 0.437232
0.859617 0.675258 0.451469
0.96997 0.715877 0.479713
1 0.767163 0.524544
0.73872 0.755077 0.565087
0.739361 0.755199 0.565042
0.744076 0.755978 0.564553
0.75584 0.758328 0.563165
0.77525 0.763577 0.559411
0.807965 0.775799 0.55787
0.874525 0.790372 0.56437
0.965087 0.808515 0.579248
1 0.836286 0.601556
0.860227 0.868055 0.687007
0.860502 0.868101 0.686976
0.862348 0.868498 0.686809
0.867521 0.869505 0.686107
0.876524 0.871809 0.684642
0.893935 0.876997 0.680308
0.92282 0.888151 0.675944
0.975204 0.899229 0.682551
1 0.911177 0.693782
0.946944 0.949065 0.784344
0.947066 0.949081 0.784329
0.947936 0.949264 0.784176
0.950088 0.949813 0.78381
0.954406 0.950851 0.783169
0.962676 0.95317 0.781079
0.978759 0.958495 0.776257
1 0.968399 0.770169
1 0.974594 0.775845
0.0760204 0.142596 0.139635
0.08748 0.143328 0.138201
0.161975 0.143679 0.151446
0.35639 0.154421 0.179965
0.569741 0.191409 0.173678
0.729946 0.299733 0.208698
0.882261 0.420172 0.270115
0.994171 0.552178 0.355718
1 0.666178 0.443305
0.0836194 0.148608 0.14316
0.0944839 0.149462 0.141909
0.168765 0.151919 0.151659
0.358648 0.1635 0.180255
0.568307 0.200244 0.174365
0.72903 0.305135 0.210666
0.881605 0.423621 0.272007
0.99382 0.55407 0.35697
1 0.667109 0.444007
0.15848 0.205798 0.176837
0.16701 0.206561 0.175921
0.227375 0.21474 0.171633
0.382177 0.226474 0.191363
0.54847 0.268528 0.199054
0.724529 0.340459 0.227436
0.877638 0.445777 0.284733
0.991333 0.56643 0.365225
1 0.673869 0.449332
0.306142 0.329061 0.25272
0.312779 0.329397 0.251713
0.343252 0.337774 0.243397
0.407172 0.360708 0.25951
0.554604 0.37821 0.261906
0.719387 0.421286 0.275822
0.870726 0.497978 0.31873
0.985977 0.596231 0.386816
1 0.690929 0.462898
0.446265 0.471138 0.339437
0.448081 0.472175 0.338506
0.460533 0.47895 0.332738
0.507988 0.48809 0.335729
0.57908 0.508324 0.346716
0.719005 0.528634 0.354055
0.863081 0.574395 0.376303
0.978744 0.64445 0.425391
1 0.719722 0.488136
0.591409 0.621485 0.448478
0.593194 0.621576 0.448508
0.604517 0.622354 0.44828
0.630549 0.626719 0.446296
0.666163 0.638895 0.448295
0.739651 0.656687 0.454459
0.859937 0.677653 0.466545
0.969772 0.717876 0.492042
1 0.768582 0.5346
0.740047 0.757076 0.574456
0.740764 0.757168 0.574426
0.745571 0.757824 0.57409
0.757092 0.760067 0.572885
0.776959 0.764935 0.569009
0.809339 0.776944 0.567651
0.874983 0.791638 0.57377
0.965225 0.809628 0.587366
1 0.837201 0.608225
0.860975 0.868833 0.692241
0.861219 0.868879 0.692226
0.863066 0.869276 0.692027
0.868147 0.870283 0.691295
0.876875 0.872328 0.689509
0.894362 0.877363 0.685283
0.923339 0.88864 0.681056
0.975311 0.899825 0.687114
1 0.911681 0.69778
0.94725 0.949447 0.78706
0.947387 0.949462 0.787045
0.948257 0.949645 0.786908
0.950408 0.950179 0.786557
0.954757 0.951202 0.785763
0.962982 0.95349 0.783703
0.979019 0.958755 0.779202
1 0.968612 0.773053
1 0.974792 0.778317
0.155764 0.264912 0.267857
0.162753 0.264912 0.266361
0.21471 0.269459 0.259831
0.336172 0.263661 0.306462
0.530114 0.276097 0.330816
0.729686 0.334997 0.334676
0.881132 0.443717 0.355474
0.989532 0.56788 0.414054
1 0.674464 0.482155
0.159854 0.268132 0.269429
0.166934 0.268315 0.268116
0.218509 0.273274 0.262333
0.33904 0.268894 0.30634
0.530404 0.282551 0.330037
0.729915 0.33904 0.334218
0.879683 0.448005 0.356741
0.98938 0.569528 0.414878
1 0.675441 0.482597
0.200076 0.299931 0.289357
0.206958 0.300359 0.288426
0.253529 0.305104 0.283635
0.365286 0.308659 0.307301
0.536904 0.323522 0.330053
0.733089 0.3682 0.333257
0.871336 0.47277 0.365057
0.987716 0.580545 0.420706
1 0.681712 0.486564
0.327092 0.382498 0.336278
0.331823 0.38294 0.335729
0.363516 0.386419 0.332372
0.438987 0.398413 0.327352
0.567742 0.410361 0.350561
0.719463 0.449363 0.357992
0.868162 0.517388 0.385473
0.983459 0.608042 0.436271
1 0.697765 0.497795
0.461036 0.494408 0.406958
0.464134 0.494667 0.406668
0.487297 0.495735 0.40415
0.530571 0.506828 0.394018
0.58851 0.526665 0.411475
0.723888 0.544732 0.413092
0.8636 0.586984 0.427741
0.977554 0.653086 0.466453
1 0.725368 0.518532
0.61207 0.627131 0.493751
0.613062 0.627588 0.493324
0.618784 0.630777 0.490013
0.637278 0.637675 0.484993
0.67718 0.646601 0.484581
0.742885 0.665019 0.494652
0.861234 0.684871 0.502388
0.969696 0.723232 0.522454
1 0.772396 0.558465
0.74255 0.763226 0.595926
0.743267 0.763226 0.595895
0.74815 0.763424 0.595789
0.760372 0.764858 0.59559
0.780652 0.768765 0.593133
0.813062 0.779995 0.590906
0.875746 0.795087 0.59617
0.965408 0.812497 0.60705
1 0.839445 0.624949
0.862394 0.871305 0.704326
0.862684 0.871351 0.704311
0.864698 0.871641 0.704143
0.869566 0.872435 0.703563
0.87863 0.874311 0.702464
0.896025 0.879026 0.698726
0.924392 0.889815 0.693904
0.975494 0.901289 0.698955
1 0.913008 0.70837
0.948074 0.950515 0.793744
0.948196 0.950545 0.793729
0.948928 0.950744 0.793652
0.951232 0.951217 0.793332
0.955261 0.952026 0.792462
0.963806 0.954345 0.790967
0.979736 0.959457 0.786465
1 0.969192 0.78024
1 0.975372 0.784466
0.243046 0.385351 0.395529
0.248478 0.385534 0.394553
0.286168 0.388144 0.38938
0.37261 0.391104 0.402945
0.503502 0.391852 0.447959
0.694987 0.411414 0.479179
0.871183 0.48423 0.480888
0.991501 0.586419 0.496574
1 0.690257 0.541695
0.246509 0.388006 0.397009
0.252125 0.388159 0.396017
0.289342 0.39086 0.391058
0.375402 0.394614 0.403006
0.504387 0.39501 0.447639
0.695109 0.415274 0.478218
0.87129 0.486549 0.480583
0.990723 0.58854 0.497078
1 0.691096 0.542092
0.274266 0.40795 0.409201
0.279072 0.408026 0.40824
0.313436 0.411139 0.404181
0.394354 0.419471 0.404242
0.516091 0.418601 0.449165
0.697383 0.439796 0.473198
0.872663 0.502129 0.479545
0.985672 0.602243 0.500679
1 0.696727 0.544717
0.35288 0.461616 0.442725
0.356786 0.461967 0.442267
0.38352 0.464363 0.439078
0.448356 0.472847 0.433463
0.551537 0.475227 0.458824
0.709514 0.494057 0.475731
0.877424 0.539956 0.479362
0.97818 0.630655 0.510292
1 0.710994 0.552209
0.490272 0.540047 0.484596
0.49276 0.540215 0.484215
0.509453 0.542153 0.48249
0.54992 0.547723 0.47921
0.615473 0.559808 0.475303
0.730861 0.574334 0.495277
0.863279 0.610636 0.503624
0.975158 0.669673 0.529183
1 0.736095 0.567315
0.622309 0.648432 0.557076
0.62385 0.648539 0.556939
0.634226 0.649409 0.555856
0.662272 0.651392 0.551598
0.692515 0.664195 0.541619
0.75021 0.680797 0.554894
0.864729 0.698253 0.556893
0.969955 0.733761 0.57026
1 0.780026 0.59794
0.759579 0.767834 0.637324
0.760006 0.768032 0.637171
0.762737 0.769497 0.635996
0.768933 0.773877 0.632273
0.786969 0.777859 0.630014
0.821225 0.786496 0.626459
0.878157 0.802106 0.632746
0.966552 0.818402 0.639735
1 0.844221 0.653208
0.864652 0.876341 0.724132
0.864973 0.876356 0.724147
0.867155 0.876493 0.724193
0.872511 0.877028 0.724269
0.881773 0.878264 0.723583
0.899107 0.88246 0.721325
0.927489 0.892515 0.716167
0.97615 0.904219 0.719448
1 0.915557 0.726833
0.949218 0.952575 0.805615
0.94934 0.95259 0.805615
0.95024 0.952743 0.805539
0.952575 0.953124 0.805325
0.956817 0.954009 0.804868
0.965377 0.955856 0.803433
0.981018 0.960693 0.799374
1 0.97026 0.792844
1 0.97673 0.795972
0.354314 0.517067 0.53315
0.357763 0.517067 0.532387
0.383307 0.518761 0.529076
0.442756 0.525475 0.523186
0.530694 0.524773 0.551461
0.665766 0.532174 0.593713
0.837018 0.558618 0.627298
0.974517 0.630854 0.62562
1 0.704982 0.629252
0.356573 0.518593 0.53402
0.360433 0.518746 0.533486
0.385534 0.520607 0.530373
0.444602 0.527214 0.524422
0.532296 0.52697 0.551507
0.666163 0.533867 0.593408
0.837293 0.56051 0.627054
0.974578 0.632013 0.625513
1 0.706035 0.62945
0.375341 0.531106 0.541756
0.378912 0.531304 0.541253
0.40206 0.532815 0.538216
0.457679 0.539254 0.533043
0.542382 0.542077 0.551568
0.671412 0.546868 0.593896
0.837827 0.573449 0.624063
0.975265 0.639826 0.624872
1 0.712856 0.630838
0.425055 0.563409 0.561929
0.427848 0.563653 0.561578
0.447089 0.565011 0.559197
0.494499 0.570169 0.554665
0.569848 0.578561 0.555901
0.686534 0.579461 0.597269
0.841291 0.603784 0.61883
0.977005 0.658778 0.623301
1 0.730266 0.634836
0.511009 0.615274 0.593103
0.513146 0.615442 0.592844
0.527337 0.616724 0.591211
0.561868 0.62034 0.587793
0.619562 0.628565 0.582589
0.716197 0.631357 0.606256
0.852964 0.650874 0.620188
0.98088 0.691737 0.623026
1 0.758328 0.643336
0.652934 0.69015 0.631403
0.654093 0.690272 0.631266
0.661784 0.691173 0.630426
0.680949 0.693446 0.628397
0.713954 0.698741 0.626032
0.77142 0.710491 0.623148
0.869886 0.724514 0.636851
0.969436 0.754803 0.644068
1 0.795636 0.661601
0.770031 0.786664 0.699275
0.770687 0.786725 0.699199
0.77496 0.787137 0.698741
0.786877 0.78793 0.697307
0.807782 0.790555 0.693324
0.833066 0.801877 0.684276
0.884367 0.815991 0.6907
0.969345 0.830365 0.692348
1 0.853468 0.700328
0.879408 0.881148 0.764584
0.879591 0.881239 0.764492
0.880766 0.881849 0.763912
0.883528 0.883421 0.762356
0.888151 0.887022 0.758785
0.904845 0.889967 0.757656
0.933639 0.898161 0.752865
0.978149 0.910353 0.755047
1 0.920729 0.759091
0.951522 0.957641 0.826108
0.951659 0.957656 0.826123
0.952621 0.957702 0.826139
0.955032 0.957931 0.826246
0.95964 0.958404 0.826246
0.968414 0.959899 0.825788
0.983932 0.963867 0.823178
1 0.972854 0.816678
1 0.979385 0.817197
0.485695 0.650782 0.669886
0.487922 0.650919 0.669581
0.502556 0.652018 0.668086
0.538399 0.655283 0.663966
0.596185 0.661799 0.660929
0.685084 0.660288 0.694728
0.809171 0.672053 0.730526
0.944854 0.696834 0.763699
1 0.755795 0.757153
0.487358 0.651835 0.670527
0.489387 0.652018 0.670283
0.504112 0.653086 0.668589
0.539467 0.656367 0.664714
0.597208 0.663035 0.661051
0.685756 0.661494 0.694667
0.809476 0.67303 0.730526
0.944823 0.697749 0.763439
1 0.756344 0.757076
0.498314 0.658839 0.674723
0.500206 0.659022 0.674556
0.514443 0.659968 0.672999
0.548379 0.663005 0.669047
0.60383 0.6701 0.664256
0.690532 0.669306 0.694316
0.811658 0.679515 0.730663
0.944778 0.703868 0.761868
1 0.760006 0.756725
0.527199 0.676616 0.685679
0.529046 0.676722 0.68542
0.541161 0.677714 0.684016
0.571481 0.680308 0.68072
0.622095 0.686656 0.676493
0.703166 0.689021 0.694911
0.817578 0.696025 0.731685
0.945602 0.719509 0.75903
1 0.769329 0.755505
0.578973 0.706935 0.704402
0.580285 0.707073 0.70425
0.590066 0.707881 0.70309
0.614404 0.709941 0.700084
0.656321 0.714778 0.695949
0.727138 0.721752 0.698787
0.82977 0.724346 0.734829
0.948287 0.745632 0.754772
1 0.786114 0.753887
0.668055 0.756329 0.73257
0.669017 0.756405 0.732448
0.67538 0.75671 0.731579
0.691814 0.758328 0.730022
0.720577 0.761593 0.726894
0.772259 0.769284 0.721798
0.854932 0.772625 0.74313
0.958434 0.788647 0.752438
1 0.816861 0.752911
0.798367 0.821805 0.765118
0.79881 0.821866 0.765087
0.801877 0.822248 0.764736
0.81001 0.823102 0.76376
0.82501 0.825315 0.762524
0.85272 0.829938 0.760159
0.899168 0.840421 0.758236
0.973236 0.85211 0.765164
1 0.871672 0.768963
0.887938 0.897383 0.82031
0.888197 0.897398 0.820279
0.889876 0.897612 0.820111
0.894621 0.898054 0.819593
0.90367 0.898955 0.818647
0.921614 0.901305 0.815061
0.943267 0.910658 0.807706
0.982971 0.922087 0.80798
1 0.930831 0.807874
0.965743 0.961776 0.866178
0.965805 0.961822 0.866148
0.966339 0.962081 0.865904
0.967849 0.962737 0.865217
0.970581 0.964096 0.863844
0.975189 0.967239 0.860838
0.989181 0.970794 0.859037
1 0.977935 0.85417
1 0.98497 0.852155
0.617517 0.770214 0.7888
0.618692 0.770275 0.788647
0.626459 0.770855 0.787732
0.646082 0.772488 0.785779
0.679393 0.775677 0.782025
0.737209 0.780621 0.78439
0.820035 0.779599 0.816922
0.920638 0.793179 0.843763
1 0.813184 0.869932
0.618418 0.770764 0.78912
0.619577 0.770825 0.788968
0.627314 0.771389 0.788067
0.646708 0.772885 0.785916
0.680079 0.776104 0.782422
0.737545 0.781094 0.784298
0.82034 0.780179 0.816892
0.92076 0.793637 0.843778
1 0.813504 0.869871
0.624414 0.774533 0.791409
0.625544 0.774609 0.791272
0.633036 0.775143 0.790372
0.651698 0.776471 0.787991
0.68455 0.779614 0.784802
0.74078 0.785153 0.784848
0.82266 0.784115 0.816876
0.921645 0.796796 0.843839
1 0.816037 0.869856
0.64033 0.783734 0.796811
0.64126 0.783825 0.796704
0.647944 0.784039 0.795605
0.665492 0.785504 0.79379
0.696025 0.788464 0.790799
0.749447 0.795483 0.78613
0.828153 0.794079 0.816632
0.923949 0.80473 0.844129
1 0.822385 0.869932
0.668818 0.799878 0.806577
0.669627 0.799969 0.8065
0.675746 0.800366 0.805753
0.690913 0.801663 0.804089
0.717632 0.804105 0.801144
0.765438 0.810101 0.796551
0.838544 0.811505 0.816892
0.928985 0.81915 0.845273
1 0.833097 0.869963
0.722255 0.82887 0.823651
0.722927 0.828916 0.823575
0.727291 0.829297 0.823072
0.738903 0.830274 0.821714
0.759274 0.832151 0.819272
0.797574 0.836759 0.815518
0.859922 0.842481 0.82002
0.9393 0.845594 0.847929
1 0.858793 0.865461
0.80679 0.872816 0.847944
0.807202 0.872847 0.847898
0.809766 0.873121 0.847684
0.816709 0.873701 0.846769
0.829602 0.875044 0.845273
0.85449 0.878126 0.842771
0.897688 0.884886 0.838285
0.96022 0.8878 0.8551
1 0.898024 0.861601
0.911727 0.924193 0.872541
0.91191 0.924224 0.872511
0.913222 0.924392 0.872374
0.91664 0.924849 0.872023
0.923018 0.925811 0.871412
0.935546 0.927733 0.870146
0.958526 0.932067 0.86862
0.992737 0.940398 0.867735
1 0.947143 0.867994
0.97113 0.976715 0.911681
0.971222 0.97673 0.911665
0.971939 0.976822 0.911589
0.973953 0.977035 0.911421
0.977722 0.977478 0.911131
0.985611 0.978439 0.910399
1 0.98024 0.907866
1 0.987655 0.901762
1 0.994263 0.897337
0.727855 0.862272 0.878462
0.728481 0.862318 0.878386
0.732708 0.862577 0.877867
0.742977 0.863203 0.876463
0.762325 0.864881 0.874571
0.797253 0.868528 0.870634
0.853651 0.870848 0.879667
0.924376 0.871 0.909682
0.996963 0.884413 0.925658
0.728344 0.862562 0.87863
0.728969 0.862593 0.878553
0.733196 0.862852 0.87805
0.74342 0.863478 0.876631
0.762722 0.865156 0.874739
0.797574 0.868788 0.870802
0.853864 0.871168 0.879683
0.924514 0.87129 0.909651
0.997055 0.884611 0.925704
0.731502 0.864256 0.879545
0.732082 0.864286 0.879454
0.736019 0.864591 0.879011
0.746654 0.865309 0.877958
0.765179 0.866773 0.8757
0.799893 0.870497 0.87219
0.855207 0.87332 0.879881
0.925444 0.873274 0.909483
0.997497 0.886137 0.925795
0.740337 0.869245 0.88246
0.740902 0.869276 0.882399
0.74461 0.869566 0.881971
0.754269 0.870069 0.880568
0.772305 0.87158 0.87892
0.805219 0.874937 0.875227
0.859327 0.878614 0.880369
0.927886 0.878202 0.909056
0.998352 0.889998 0.925719
0.756085 0.877943 0.887358
0.756573 0.877958 0.887282
0.760082 0.878172 0.886854
0.768887 0.878889 0.886015
0.785351 0.880018 0.884169
0.816068 0.883268 0.880903
0.866728 0.888197 0.881254
0.932494 0.887495 0.908629
1 0.897505 0.926223
0.787579 0.894789 0.897505
0.788006 0.89482 0.897459
0.79089 0.895003 0.897093
0.798108 0.895415 0.89604
0.811643 0.896529 0.894392
0.837736 0.899046 0.891508
0.882185 0.90515 0.887175
0.942107 0.904906 0.908583
1 0.911727 0.927382
0.841321 0.922484 0.912856
0.841627 0.922499 0.912825
0.843641 0.922637 0.912596
0.848768 0.923049 0.912077
0.858305 0.923812 0.910842
0.87744 0.925719 0.908766
0.911131 0.930114 0.904982
0.960555 0.934066 0.910536
1 0.936812 0.930312
0.914382 0.958862 0.932174
0.914534 0.958877 0.932158
0.915694 0.958984 0.932021
0.918578 0.959304 0.931701
0.924208 0.959915 0.931075
0.935622 0.961013 0.929946
0.956725 0.963912 0.927626
0.989914 0.969757 0.924117
1 0.970901 0.935332
0.989944 0.995285 0.949126
0.990021 0.9953 0.949111
0.9906 0.995377 0.94905
0.99202 0.995499 0.948791
0.994736 0.995865 0.948455
1 0.996826 0.947921
1 0.998657 0.947082
1 1 0.945068
1 1 0.94316
