public/textures/grade/Nikon/Bat-NLog.cube
TITLE "Generated by Resolve"
LUT_3D_SIZE 9
0.0348669 0.0393378 0.0305028
0.0399329 0.0404212 0.0298924
0.10074 0.0475929 0.0204623
0.247257 0.0751659 0
0.396353 0.141329 0
0.53846 0.221759 0
0.659098 0.310002 0
0.772686 0.411948 0.0629892
0.882261 0.521767 0.227955
0.0370031 0.0465705 0.0345006
0.0450904 0.0473793 0.0330816
0.114702 0.0520943 0.0149996
0.250401 0.0789197 0
0.39501 0.143267 0
0.536324 0.222919 0
0.658137 0.311315 0
0.773114 0.413489 0.0659648
0.882826 0.52282 0.22916
0.101122 0.0998398 0.0415351
0.109483 0.100877 0.0380865
0.16228 0.104768 0.0146029
0.270588 0.114763 0
0.392615 0.16257 0
0.527672 0.23563 0
0.655726 0.322972 0
0.775708 0.423682 0.0843977
0.886046 0.529824 0.237873
0.226658 0.217288 0.106371
0.229633 0.217853 0.105013
0.250889 0.221073 0.0928664
0.31426 0.228626 0.0603037
0.417655 0.242298 0.00163272
0.534722 0.286351 0
0.661463 0.358083 0.0187381
0.784146 0.449866 0.131655
0.894591 0.547906 0.259739
0.350988 0.338018 0.211765
0.352956 0.338415 0.21117
0.366201 0.341024 0.206928
0.401633 0.347768 0.195773
0.464988 0.358633 0.178912
0.570047 0.378576 0.130129
0.685863 0.424949 0.13518
0.803754 0.496895 0.203815
0.910643 0.580194 0.298528
0.501518 0.47451 0.328069
0.502678 0.4748 0.327886
0.510292 0.476509 0.326329
0.529992 0.481346 0.323507
0.565194 0.490013 0.320165
0.62916 0.504662 0.316045
0.732586 0.530327 0.29482
0.840909 0.576761 0.313771
0.939162 0.637613 0.3682
0.664683 0.625711 0.467613
0.665293 0.625879 0.467567
0.669352 0.627024 0.467399
0.680064 0.629953 0.466804
0.699245 0.635004 0.466072
0.735088 0.644663 0.46685
0.799634 0.661585 0.468482
0.893874 0.687694 0.459434
0.980255 0.725887 0.479881
0.8215 0.773144 0.609628
0.82179 0.77322 0.609613
0.823804 0.7738 0.609659
0.829084 0.775021 0.609323
0.839216 0.777768 0.609384
0.859388 0.783093 0.609796
0.895766 0.793332 0.614008
0.954589 0.809262 0.617975
1 0.830991 0.616968
0.948867 0.893797 0.73344
0.94902 0.893843 0.73344
0.950118 0.894102 0.73344
0.953033 0.894789 0.733455
0.958526 0.896147 0.733593
0.969512 0.898695 0.733761
0.990662 0.904158 0.735836
1 0.91368 0.742962
1 0.926162 0.74725
0.0358129 0.0426947 0.0388037
0.0405127 0.043946 0.0386511
0.101869 0.0507057 0.0332341
0.239841 0.0853132 0.0110323
0.391165 0.148791 0
0.53492 0.225895 0
0.657145 0.312154 0
0.771496 0.413596 0.0777447
0.881468 0.522911 0.234592
0.0369879 0.0501564 0.0465705
0.044419 0.0512551 0.0445869
0.103899 0.059617 0.0363928
0.24358 0.0888685 0.00637827
0.390219 0.150637 0
0.532876 0.227024 0
0.65626 0.313466 0
0.771923 0.415137 0.0806897
0.882017 0.523995 0.236011
0.0954604 0.103731 0.0608072
0.103334 0.10576 0.0565957
0.154131 0.111696 0.0390936
0.265782 0.123232 0
0.388983 0.168765 0
0.524758 0.239155 0
0.654231 0.324926 0
0.774594 0.425284 0.0993973
0.885283 0.530938 0.244205
0.224186 0.219745 0.120668
0.226932 0.220096 0.119265
0.248203 0.223697 0.109667
0.310933 0.231815 0.0805982
0.415427 0.245686 0.0204776
0.533104 0.28896 0.00479133
0.660243 0.359976 0.032929
0.783093 0.451392 0.143343
0.893889 0.548928 0.265339
0.35021 0.339284 0.217578
0.352163 0.339681 0.217029
0.365393 0.342321 0.212985
0.400824 0.349096 0.202213
0.463706 0.360159 0.187289
0.568917 0.380255 0.141344
0.684855 0.426505 0.146365
0.80293 0.498131 0.21146
0.910033 0.581094 0.303243
0.500908 0.475425 0.332082
0.501976 0.475639 0.331823
0.509621 0.47744 0.33048
0.52932 0.482292 0.327733
0.564462 0.49099 0.324636
0.628244 0.505669 0.32105
0.731731 0.531365 0.300252
0.840223 0.577676 0.318502
0.938628 0.638331 0.371725
0.664256 0.626276 0.469993
0.664866 0.626444 0.469963
0.66891 0.627604 0.469795
0.679576 0.630533 0.469306
0.698711 0.635584 0.468666
0.734539 0.645243 0.469459
0.799023 0.662181 0.471199
0.893339 0.688243 0.462089
0.979828 0.726284 0.481926
0.821164 0.773465 0.611048
0.821469 0.773556 0.611032
0.823453 0.774136 0.611093
0.828702 0.775296 0.610681
0.838956 0.778073 0.610651
0.859052 0.783413 0.611215
0.895369 0.793606 0.615351
0.954208 0.809567 0.61941
1 0.831266 0.618265
0.948638 0.89398 0.734249
0.948791 0.894026 0.734249
0.949889 0.894286 0.734264
0.952834 0.894957 0.734218
0.958358 0.896315 0.734279
0.969299 0.898894 0.734569
0.990433 0.904341 0.736645
1 0.913863 0.74374
1 0.926299 0.748012
0.0455482 0.0731975 0.105852
0.0511177 0.0749523 0.106035
0.0859388 0.087129 0.124056
0.225605 0.117113 0.115846
0.372183 0.173022 0.0857557
0.51223 0.247669 0.0746929
0.643671 0.32607 0.0766308
0.763149 0.424826 0.164309
0.875975 0.530678 0.276387
0.0482643 0.0797131 0.111482
0.0540322 0.0814527 0.111482
0.0910811 0.0938125 0.124971
0.228855 0.121492 0.115282
0.368933 0.177295 0.090013
0.510872 0.248539 0.0739605
0.643168 0.327428 0.0780194
0.763317 0.425986 0.16553
0.876493 0.531701 0.277455
0.0623178 0.135027 0.155184
0.0712444 0.135988 0.153704
0.126726 0.14107 0.141146
0.231113 0.161288 0.128069
0.363867 0.199283 0.100252
0.507469 0.259297 0.0742504
0.642466 0.338766 0.0907912
0.766506 0.435813 0.17705
0.879896 0.53843 0.284031
0.208957 0.231907 0.190646
0.212192 0.232456 0.189837
0.234287 0.237766 0.17847
0.294209 0.248142 0.167865
0.401511 0.263813 0.125551
0.521813 0.30454 0.106554
0.650797 0.372702 0.131716
0.77615 0.46128 0.206729
0.888838 0.555901 0.301717
0.344106 0.347372 0.253986
0.345953 0.347829 0.253803
0.358892 0.350652 0.251545
0.393469 0.357992 0.244877
0.453803 0.370245 0.238972
0.560433 0.391073 0.205081
0.67744 0.43653 0.209354
0.797131 0.506462 0.258412
0.905547 0.587228 0.334279
0.496208 0.481239 0.358144
0.497337 0.481544 0.358007
0.505119 0.483604 0.357229
0.524559 0.488579 0.355367
0.559091 0.497124 0.353109
0.622187 0.512413 0.352499
0.72636 0.538109 0.333471
0.835248 0.583322 0.347997
0.934722 0.643153 0.395285
0.661143 0.630152 0.486244
0.661738 0.63032 0.486213
0.665766 0.631479 0.486107
0.676051 0.634089 0.485359
0.69514 0.6392 0.484901
0.731136 0.649134 0.486076
0.794736 0.665751 0.488365
0.889845 0.691966 0.479271
0.976699 0.729564 0.497292
0.819089 0.775662 0.620295
0.819394 0.775753 0.620295
0.821317 0.776272 0.620279
0.82652 0.777493 0.619974
0.836774 0.780285 0.620081
0.85687 0.785611 0.620539
0.893004 0.795651 0.624491
0.95169 0.811688 0.628855
1 0.833204 0.626993
0.947219 0.895232 0.739681
0.947372 0.895262 0.739681
0.94847 0.895537 0.739696
0.951385 0.896223 0.739696
0.956847 0.897581 0.739849
0.967849 0.90013 0.73994
0.988983 0.905562 0.741939
1 0.915038 0.748852
1 0.927291 0.752987
0.0817731 0.157427 0.231693
0.0874495 0.158648 0.231647
0.123049 0.167071 0.232837
0.193805 0.192523 0.270787
0.318791 0.236469 0.270237
0.496361 0.271351 0.228153
0.613916 0.357397 0.250065
0.740673 0.450675 0.292287
0.861677 0.548577 0.357931
0.0842603 0.160662 0.232685
0.0898909 0.161715 0.232441
0.125078 0.169772 0.233249
0.195254 0.194507 0.268788
0.319219 0.237705 0.268894
0.494316 0.273716 0.229526
0.612696 0.35964 0.25275
0.741314 0.452018 0.293248
0.862272 0.549508 0.358541
0.106737 0.186282 0.244587
0.112581 0.187243 0.244266
0.1449 0.193835 0.243137
0.211002 0.21416 0.262776
0.327993 0.250278 0.264271
0.484108 0.292668 0.241794
0.608606 0.373846 0.266651
0.745602 0.460868 0.299031
0.866026 0.555779 0.363119
0.163012 0.272297 0.305486
0.167529 0.272709 0.304952
0.197559 0.275578 0.300847
0.26775 0.283986 0.287572
0.360922 0.304662 0.283055
0.485573 0.34287 0.274739
0.624475 0.403342 0.279591
0.757961 0.484047 0.31519
0.875837 0.572152 0.375906
0.31986 0.369314 0.342763
0.322271 0.36965 0.34255
0.336416 0.372473 0.340993
0.374563 0.380545 0.334386
0.431418 0.394064 0.33341
0.538293 0.41622 0.315511
0.658228 0.459846 0.317601
0.781918 0.525399 0.34699
0.893797 0.601495 0.399496
0.485374 0.495399 0.415839
0.486503 0.495842 0.415412
0.494057 0.498131 0.414618
0.512978 0.503197 0.414038
0.546715 0.511986 0.413169
0.606867 0.527825 0.417304
0.712947 0.553399 0.401221
0.823651 0.597452 0.411505
0.925002 0.654765 0.44744
0.653437 0.63917 0.523095
0.654017 0.639323 0.523079
0.657984 0.640482 0.523079
0.668345 0.643458 0.523033
0.687129 0.648569 0.522713
0.722698 0.658198 0.523598
0.785229 0.675151 0.528099
0.88101 0.700633 0.518212
0.96907 0.737591 0.532921
0.81355 0.78088 0.642771
0.81384 0.780957 0.642771
0.815808 0.781552 0.642832
0.821225 0.783017 0.642741
0.831388 0.785641 0.642557
0.851514 0.791089 0.643183
0.887617 0.801038 0.646693
0.945541 0.816983 0.651759
1 0.838148 0.648936
0.943542 0.898451 0.753491
0.943694 0.898482 0.753491
0.944808 0.898741 0.753491
0.947662 0.899443 0.753506
0.953109 0.900755 0.753552
0.964141 0.903334 0.753613
0.98526 0.908736 0.755444
1 0.917967 0.761761
1 0.930205 0.766262
0.142107 0.243351 0.347951
0.145861 0.243931 0.347677
0.169619 0.24831 0.346746
0.224125 0.263691 0.355856
0.303105 0.29189 0.399115
0.430121 0.342733 0.395102
0.607507 0.386816 0.367224
0.722332 0.48101 0.405447
0.837156 0.57705 0.461158
0.143816 0.244755 0.347509
0.147509 0.245365 0.347295
0.171283 0.249775 0.346334
0.225879 0.264988 0.354314
0.303578 0.293095 0.397406
0.430121 0.34432 0.394659
0.606836 0.388602 0.368139
0.72224 0.482612 0.406882
0.837766 0.577829 0.461509
0.158572 0.25948 0.350912
0.16199 0.259953 0.35053
0.185916 0.264546 0.349386
0.241428 0.279088 0.351019
0.31223 0.305745 0.39118
0.433738 0.355657 0.393454
0.604929 0.402411 0.37673
0.721798 0.493355 0.416464
0.842191 0.583474 0.464439
0.210193 0.313771 0.382345
0.213809 0.314214 0.381643
0.236728 0.317464 0.377813
0.284657 0.328725 0.375982
0.347463 0.350225 0.3944
0.458137 0.389487 0.402564
0.605676 0.438224 0.400977
0.725643 0.518791 0.4374
0.853529 0.598047 0.472251
0.291218 0.40795 0.445853
0.293675 0.408179 0.445518
0.310567 0.410727 0.444358
0.350072 0.416876 0.440894
0.413596 0.428672 0.43331
0.504143 0.45362 0.436164
0.624506 0.495155 0.439185
0.755779 0.55491 0.455146
0.873823 0.624552 0.487907
0.461173 0.5196 0.499458
0.462593 0.519814 0.499428
0.471977 0.521355 0.499214
0.492607 0.525994 0.498253
0.529503 0.535363 0.494148
0.586938 0.551522 0.497887
0.691875 0.577295 0.488899
0.804334 0.619379 0.496345
0.908202 0.67332 0.521477
0.641886 0.653651 0.580072
0.642496 0.653864 0.579843
0.646555 0.655482 0.578302
0.656687 0.658503 0.578149
0.674907 0.6636 0.578317
0.710231 0.673411 0.5794
0.770077 0.690166 0.586099
0.867109 0.71545 0.576898
0.955871 0.750729 0.587472
0.805035 0.790433 0.679683
0.805325 0.790494 0.679667
0.80737 0.791043 0.679637
0.81236 0.792203 0.679362
0.822385 0.794995 0.6795
0.842237 0.800305 0.679973
0.878569 0.810391 0.68304
0.93489 0.825849 0.688792
1 0.846448 0.684596
0.937224 0.904234 0.77731
0.937377 0.904265 0.777295
0.938445 0.904509 0.777279
0.940932 0.904952 0.77705
0.946365 0.906294 0.777111
0.957641 0.909102 0.777432
0.978821 0.914427 0.778759
1 0.923293 0.784375
1 0.9355 0.789075
0.214054 0.332982 0.459052
0.216678 0.33341 0.458808
0.234485 0.336553 0.457435
0.276402 0.346151 0.456565
0.332448 0.365621 0.474937
0.422202 0.401724 0.518807
0.551095 0.461433 0.524071
0.720577 0.520485 0.519768
0.831235 0.60824 0.560967
0.215885 0.334432 0.459083
0.218601 0.334859 0.458808
0.236179 0.337911 0.457359
0.278035 0.347662 0.456657
0.333898 0.367071 0.474296
0.422919 0.40296 0.518441
0.551553 0.462928 0.524392
0.721035 0.521706 0.5205
0.831205 0.608942 0.56141
0.22945 0.345403 0.460685
0.232029 0.345922 0.460563
0.249287 0.349325 0.459556
0.28954 0.359014 0.459052
0.345693 0.378302 0.472541
0.429831 0.413291 0.518425
0.554986 0.473075 0.52697
0.723064 0.530495 0.525994
0.832761 0.615488 0.566323
0.27126 0.381659 0.476539
0.27335 0.381949 0.476249
0.289158 0.385626 0.475944
0.325078 0.394903 0.476066
0.379644 0.412573 0.480186
0.452445 0.443824 0.523354
0.567788 0.499245 0.536248
0.728832 0.552529 0.540017
0.83624 0.631647 0.578637
0.343328 0.451118 0.522362
0.345464 0.451423 0.521965
0.359228 0.453758 0.519875
0.389563 0.460212 0.516915
0.433951 0.473671 0.518578
0.4972 0.498802 0.541039
0.602106 0.542123 0.55697
0.740719 0.590906 0.565728
0.842435 0.660471 0.601556
0.44564 0.559304 0.598474
0.446891 0.559533 0.598459
0.455238 0.56109 0.598276
0.475944 0.56524 0.597787
0.510979 0.572641 0.596765
0.573068 0.587076 0.593011
0.66096 0.614435 0.600427
0.770382 0.65481 0.608911
0.87863 0.70399 0.625055
0.616678 0.68069 0.665324
0.617395 0.680797 0.665324
0.622171 0.68162 0.665354
0.634211 0.683421 0.664942
0.654307 0.687861 0.664485
0.692195 0.6981 0.660716
0.749569 0.715343 0.666392
0.844419 0.739528 0.661021
0.933989 0.773281 0.669322
0.791302 0.805737 0.742275
0.791608 0.805844 0.742168
0.793576 0.806592 0.741482
0.798825 0.808377 0.738964
0.808743 0.811414 0.738094
0.828046 0.816617 0.738506
0.863905 0.826551 0.740673
0.917479 0.841733 0.74818
0.992401 0.86154 0.743206
0.926009 0.914687 0.818631
0.926162 0.914717 0.818631
0.927184 0.914977 0.818631
0.929946 0.915694 0.818662
0.935225 0.916945 0.818616
0.946059 0.919554 0.818631
0.967208 0.924727 0.819303
1 0.933516 0.823926
1 0.945159 0.829313
0.31249 0.432135 0.563363
0.314321 0.432547 0.563302
0.326284 0.435477 0.563241
0.354528 0.442863 0.563348
0.40029 0.457816 0.567132
0.461219 0.484733 0.597436
0.557488 0.532006 0.6439
0.679866 0.598291 0.665537
0.815305 0.662852 0.681651
0.314366 0.433616 0.563973
0.316167 0.434028 0.563928
0.327733 0.436744 0.563622
0.356085 0.444373 0.564095
0.401328 0.458961 0.567529
0.462211 0.485847 0.597421
0.558389 0.533196 0.64448
0.680461 0.599191 0.666041
0.815808 0.663508 0.682033
0.326146 0.443519 0.568002
0.327871 0.443946 0.568002
0.339132 0.446677 0.567849
0.366567 0.454322 0.568643
0.410452 0.468681 0.572259
0.470802 0.494972 0.599313
0.563836 0.54081 0.647349
0.684504 0.605219 0.669383
0.819104 0.667796 0.684596
0.357809 0.470802 0.581979
0.359228 0.471061 0.581888
0.369589 0.473884 0.582208
0.394369 0.481086 0.583276
0.434348 0.49424 0.586694
0.493355 0.519005 0.606714
0.578912 0.560784 0.65594
0.69543 0.620813 0.678508
0.828443 0.679255 0.691524
0.413123 0.519921 0.612039
0.414435 0.520241 0.612024
0.422919 0.522576 0.612161
0.443595 0.52874 0.613245
0.47744 0.539773 0.616068
0.533791 0.56144 0.624903
0.606455 0.596033 0.67274
0.713695 0.649973 0.693996
0.845212 0.699626 0.703761
0.498253 0.604715 0.675792
0.499214 0.604944 0.675715
0.506279 0.606134 0.674632
0.5234 0.60972 0.672801
0.551156 0.616876 0.671519
0.595544 0.632074 0.675425
0.658351 0.659297 0.700725
0.749767 0.70135 0.720607
0.867384 0.740627 0.73019
0.608087 0.719783 0.760647
0.608682 0.719905 0.760647
0.612604 0.72079 0.760678
0.623011 0.723095 0.760678
0.641459 0.727108 0.760449
0.676844 0.735454 0.760464
0.737285 0.750683 0.758251
0.815229 0.775784 0.766491
0.898955 0.808255 0.776059
0.762921 0.834607 0.826093
0.763287 0.834653 0.826078
0.765789 0.835004 0.826001
0.772198 0.835966 0.82591
0.783978 0.837476 0.825345
0.806806 0.841657 0.825162
0.844633 0.851255 0.822187
0.896376 0.866896 0.826612
0.968414 0.885756 0.824231
0.909163 0.930037 0.888289
0.909331 0.930083 0.888243
0.91046 0.930388 0.887938
0.913283 0.931304 0.88716
0.918578 0.932845 0.884978
0.929976 0.936889 0.88043
0.950301 0.941863 0.880613
0.983139 0.950347 0.882887
1 0.961639 0.889906
0.435187 0.546288 0.672496
0.436225 0.546609 0.672572
0.443351 0.548882 0.673213
0.460609 0.554452 0.674754
0.490288 0.564996 0.678447
0.54052 0.58526 0.688334
0.605371 0.618936 0.730846
0.699886 0.671214 0.77789
0.801205 0.73283 0.803418
0.436515 0.547448 0.673259
0.437568 0.547768 0.673335
0.444572 0.550011 0.67393
0.461723 0.555566 0.675441
0.491279 0.566079 0.679194
0.541527 0.586267 0.688792
0.60621 0.619852 0.731319
0.700328 0.671839 0.77821
0.801602 0.733379 0.803738
0.444724 0.554971 0.677897
0.445655 0.555306 0.678019
0.452491 0.557488 0.67863
0.46923 0.562905 0.68011
0.497993 0.573114 0.683757
0.547524 0.592828 0.692561
0.611154 0.625589 0.733349
0.704021 0.676677 0.780926
0.80415 0.73698 0.80592
0.465782 0.574456 0.690471
0.466728 0.574746 0.690547
0.47274 0.576516 0.690883
0.488502 0.581857 0.692607
0.515221 0.591104 0.69572
0.562127 0.609628 0.703929
0.624308 0.640604 0.739483
0.712932 0.688518 0.787411
0.810498 0.74612 0.811353
0.502617 0.608682 0.713527
0.503334 0.60885 0.713512
0.508751 0.610574 0.713985
0.52256 0.61529 0.715572
0.546532 0.62359 0.718364
0.588647 0.639735 0.725109
0.648371 0.667552 0.751568
0.729625 0.710292 0.799466
0.822309 0.763027 0.821469
0.566781 0.669551 0.757458
0.567452 0.669749 0.757458
0.571862 0.671046 0.75761
0.582925 0.674174 0.757824
0.602289 0.680476 0.759503
0.637232 0.693278 0.764263
0.693156 0.716274 0.776333
0.760861 0.749981 0.821576
0.845655 0.795087 0.841184
0.655543 0.762081 0.832166
0.656031 0.762188 0.83212
0.659541 0.76286 0.831662
0.668757 0.76463 0.830427
0.685023 0.767987 0.828458
0.713756 0.775113 0.826413
0.757992 0.790539 0.830335
0.814801 0.815641 0.853727
0.884504 0.848402 0.873442
0.762524 0.868849 0.909361
0.762798 0.86891 0.909361
0.76463 0.8692 0.909224
0.769406 0.8701 0.909026
0.778958 0.872206 0.90898
0.797574 0.87628 0.908721
0.832364 0.884459 0.908492
0.885771 0.897917 0.90631
0.943709 0.916869 0.913451
0.882628 0.958175 0.959625
0.88278 0.958206 0.959625
0.883711 0.958419 0.959655
0.886488 0.958953 0.959594
0.891707 0.959991 0.959533
0.903212 0.961685 0.958892
0.928283 0.964981 0.957794
0.964324 0.972015 0.956359
1 0.983261 0.957397
0.557412 0.659937 0.778622
0.558022 0.660136 0.778698
0.562127 0.661601 0.779263
0.572427 0.665232 0.780606
0.59115 0.672267 0.783581
0.625437 0.685847 0.789853
0.677699 0.710231 0.810147
0.745174 0.746929 0.856703
0.826337 0.795087 0.89247
0.55816 0.66067 0.779141
0.55877 0.660868 0.779217
0.562814 0.662333 0.779797
0.573022 0.665843 0.781003
0.591684 0.672847 0.783963
0.626017 0.686503 0.790326
0.678309 0.710857 0.810559
0.745602 0.747433 0.856916
0.826627 0.795483 0.892699
0.563226 0.665644 0.782666
0.563745 0.665782 0.782681
0.567605 0.667079 0.783139
0.577996 0.670817 0.784665
0.59617 0.677485 0.787335
0.629847 0.690745 0.793393
0.682185 0.715007 0.812665
0.748501 0.750973 0.858518
0.828733 0.798245 0.894362
0.57615 0.678264 0.791745
0.576715 0.678462 0.791806
0.580484 0.67982 0.792355
0.590036 0.68304 0.793408
0.607782 0.689662 0.796262
0.640024 0.70219 0.801755
0.691661 0.7252 0.817807
0.755673 0.759747 0.86215
0.83386 0.805142 0.898344
0.599756 0.701289 0.808469
0.600214 0.701411 0.808469
0.603479 0.702464 0.808789
0.612528 0.705653 0.809979
0.62855 0.711345 0.812131
0.658961 0.722942 0.817014
0.709545 0.744259 0.827832
0.769253 0.775967 0.869169
0.843229 0.817884 0.905867
0.643732 0.743664 0.839384
0.64416 0.743801 0.839414
0.647211 0.744762 0.839673
0.654643 0.747051 0.840223
0.668589 0.75198 0.842008
0.69482 0.761547 0.845563
0.739773 0.779477 0.853574
0.795605 0.806745 0.883207
0.862242 0.843046 0.920638
0.714565 0.812787 0.892363
0.714916 0.812879 0.892332
0.717357 0.813474 0.892195
0.723201 0.814801 0.891691
0.734462 0.818006 0.891676
0.755459 0.824475 0.8925
0.791379 0.837446 0.896941
0.842298 0.859052 0.909895
0.895628 0.886046 0.945449
0.797421 0.901808 0.965972
0.797665 0.901823 0.965896
0.799374 0.901991 0.965499
0.804044 0.9028 0.964843
0.813046 0.904326 0.963455
0.830686 0.907271 0.960433
0.861585 0.914031 0.956741
0.901793 0.927169 0.958511
0.944335 0.945953 0.975052
0.888823 0.982345 1
0.88896 0.982361 1
0.88983 0.982559 1
0.892332 0.983032 1
0.897108 0.983963 1
0.906889 0.985611 1
0.926085 0.989487 1
0.956619 0.995697 1
0.995193 1 1
