public/textures/grade/Nikon/Bat-NLog.cube
TITLE "Generated by Resolve"
LUT_3D_SIZE 5
0.0348669 0.0393378 0.0305028
0.10074 0.0475929 0.0204623
0.396353 0.141329 0
0.659098 0.310002 0
0.882261 0.521767 0.227955
0.101122 0.0998398 0.0415351
0.16228 0.104768 0.0146029
0.392615 0.16257 0
0.655726 0.322972 0
0.886046 0.529824 0.237873
0.350988 0.338018 0.211765
0.366201 0.341024 0.206928
0.464988 0.358633 0.178912
0.685863 0.424949 0.13518
0.910643 0.580194 0.298528
0.664683 0.625711 0.467613
0.669352 0.627024 0.467399
0.699245 0.635004 0.466072
0.799634 0.661585 0.468482
0.980255 0.725887 0.479881
0.948867 0.893797 0.73344
0.950118 0.894102 0.73344
0.958526 0.896147 0.733593
0.990662 0.904158 0.735836
1 0.926162 0.74725
0.0455482 0.0731975 0.105852
0.0859388 0.087129 0.124056
0.372183 0.173022 0.0857557
0.643671 0.32607 0.0766308
0.875975 0.530678 0.276387
0.0623178 0.135027 0.155184
0.126726 0.14107 0.141146
0.363867 0.199283 0.100252
0.642466 0.338766 0.0907912
0.879896 0.53843 0.284031
0.344106 0.347372 0.253986
0.358892 0.350652 0.251545
0.453803 0.370245 0.238972
0.67744 0.43653 0.209354
0.905547 0.587228 0.334279
0.661143 0.630152 0.486244
0.665766 0.631479 0.486107
0.69514 0.6392 0.484901
0.794736 0.665751 0.488365
0.976699 0.729564 0.497292
0.947219 0.895232 0.739681
0.94847 0.895537 0.739696
0.956847 0.897581 0.739849
0.988983 0.905562 0.741939
1 0.927291 0.752987
0.142107 0.243351 0.347951
0.169619 0.24831 0.346746
0.303105 0.29189 0.399115
0.607507 0.386816 0.367224
0.837156 0.57705 0.461158
0.158572 0.25948 0.350912
0.185916 0.264546 0.349386
0.31223 0.305745 0.39118
0.604929 0.402411 0.37673
0.842191 0.583474 0.464439
0.291218 0.40795 0.445853
0.310567 0.410727 0.444358
0.413596 0.428672 0.43331
0.624506 0.495155 0.439185
0.873823 0.624552 0.487907
0.641886 0.653651 0.580072
0.646555 0.655482 0.578302
0.674907 0.6636 0.578317
0.770077 0.690166 0.586099
0.955871 0.750729 0.587472
0.937224 0.904234 0.77731
0.938445 0.904509 0.777279
0.946365 0.906294 0.777111
0.978821 0.914427 0.778759
1 0.9355 0.789075
0.31249 0.432135 0.563363
0.326284 0.435477 0.563241
0.40029 0.457816 0.567132
0.557488 0.532006 0.6439
0.815305 0.662852 0.681651
0.326146 0.443519 0.568002
0.339132 0.446677 0.567849
0.410452 0.468681 0.572259
0.563836 0.54081 0.647349
0.819104 0.667796 0.684596
0.413123 0.519921 0.612039
0.422919 0.522576 0.612161
0.47744 0.539773 0.616068
0.606455 0.596033 0.67274
0.845212 0.699626 0.703761
0.608087 0.719783 0.760647
0.612604 0.72079 0.760678
0.641459 0.727108 0.760449
0.737285 0.750683 0.758251
0.898955 0.808255 0.776059
0.909163 0.930037 0.888289
0.91046 0.930388 0.887938
0.918578 0.932845 0.884978
0.950301 0.941863 0.880613
1 0.961639 0.889906
0.557412 0.659937 0.778622
0.562127 0.661601 0.779263
0.59115 0.672267 0.783581
0.677699 0.710231 0.810147
0.826337 0.795087 0.89247
0.563226 0.665644 0.782666
0.567605 0.667079 0.783139
0.59617 0.677485 0.787335
0.682185 0.715007 0.812665
0.828733 0.798245 0.894362
0.599756 0.701289 0.808469
0.603479 0.702464 0.808789
0.62855 0.711345 0.812131
0.709545 0.744259 0.827832
0.843229 0.817884 0.905867
0.714565 0.812787 0.892363
0.717357 0.813474 0.892195
0.734462 0.818006 0.891676
0.791379 0.837446 0.896941
0.895628 0.886046 0.945449
0.888823 0.982345 1
0.88983 0.982559 1
0.897108 0.983963 1
0.926085 0.989487 1
0.995193 1 1
