public/textures/grade/Nikon/Bat-NLog.cube
TITLE "Generated by Resolve"
LUT_3D_SIZE 33
0.0348669 0.0393378 0.0305028
0.0349279 0.039353 0.0304875
0.035462 0.0394598 0.0303807
0.0369726 0.0397345 0.0301061
0.0399329 0.0404212 0.0298924
0.0461128 0.0416571 0.0303044
0.0608682 0.042298 0.0272374
0.0785382 0.0445563 0.0242008
0.10074 0.0475929 0.0204623
0.134279 0.0511482 0.0132753
0.170672 0.0567483 0.00488289
0.208881 0.0646525 0
0.247257 0.0751659 0
0.285893 0.0886397 0
0.323384 0.104555 0
0.359365 0.122377 0
0.396353 0.141329 0
0.433387 0.160754 0
0.46978 0.180926 0
0.504891 0.20116 0
0.53846 0.221759 0
0.570581 0.242908 0
0.601236 0.264652 0
0.630457 0.286854 0
0.659098 0.310002 0
0.687495 0.3337 0
0.715999 0.358618 0
0.744305 0.384878 0.0251011
0.772686 0.411948 0.0629892
0.801129 0.439872 0.109926
0.829099 0.467826 0.153765
0.856352 0.495277 0.192615
0.882261 0.521767 0.227955
0.0348974 0.0394446 0.0305943
0.0349584 0.0394598 0.0305943
0.035523 0.0395514 0.0304723
0.0370031 0.0397955 0.0301518
0.0399939 0.0405127 0.0299382
0.0462348 0.0417334 0.0303197
0.0609293 0.0424048 0.0272679
0.0785382 0.0446937 0.0242466
0.100938 0.0476387 0.0203708
0.134447 0.0512093 0.0131838
0.170779 0.0567941 0.00477607
0.208911 0.0646677 0
0.247288 0.075227 0
0.285908 0.0886854 0
0.323384 0.104616 0
0.35935 0.122423 0
0.396338 0.141375 0
0.433356 0.160784 0
0.469734 0.180941 0
0.504845 0.201175 0
0.53843 0.22179 0
0.57055 0.242924 0
0.601205 0.264668 0
0.630426 0.28687 0
0.659083 0.310033 0
0.687495 0.333715 0
0.715999 0.358633 0
0.744305 0.384909 0.0251316
0.772686 0.411978 0.063035
0.801129 0.439902 0.109972
0.829114 0.467857 0.153796
0.856367 0.495293 0.19263
0.882261 0.521767 0.227955
0.0349126 0.0401312 0.0313573
0.0350042 0.0401312 0.0313268
0.0356451 0.0402075 0.0311284
0.0373083 0.0404669 0.0307012
0.0404212 0.0411536 0.0303502
0.0471504 0.0423285 0.030457
0.061387 0.0432288 0.027512
0.0786603 0.0455787 0.0246433
0.102449 0.0480507 0.0197604
0.135546 0.051606 0.0126192
0.171496 0.0570993 0.00402838
0.209339 0.0650797 0
0.2477 0.0757305 0
0.285969 0.0890364 0
0.323461 0.105013 0
0.359289 0.122728 0
0.396201 0.141619 0
0.433143 0.160952 0
0.469459 0.181064 0
0.504585 0.201266 0
0.538155 0.221912 0
0.570321 0.243061 0
0.600931 0.264698 0
0.630381 0.287083 0
0.658991 0.310201 0
0.687449 0.333883 0
0.715984 0.358816 0
0.74432 0.385077 0.0254063
0.772717 0.412131 0.0633249
0.801205 0.440055 0.110277
0.82916 0.467979 0.153994
0.856413 0.495415 0.192798
0.882322 0.521889 0.228092
0.0346075 0.0422827 0.0335546
0.034699 0.042298 0.0335241
0.0353857 0.0423285 0.0333104
0.0373693 0.0425727 0.0328374
0.0415503 0.043122 0.0317235
0.0497444 0.0440375 0.0305943
0.0621805 0.0455787 0.0282292
0.0814527 0.0471351 0.0238346
0.106584 0.0491951 0.0179904
0.138598 0.0527962 0.0109712
0.173709 0.0582895 0.00238041
0.210727 0.0662852 0
0.248631 0.0766918 0
0.28632 0.0899672 0
0.323552 0.105959 0
0.359167 0.123568 0
0.395697 0.142061 0
0.432639 0.161578 0
0.468742 0.181399 0
0.503853 0.201572 0
0.537484 0.222278 0
0.569757 0.243397 0
0.600381 0.265034 0
0.63006 0.287541 0
0.658747 0.310643 0
0.687419 0.334386 0
0.715953 0.359289 0
0.744289 0.385443 0.0259709
0.772808 0.412573 0.0640726
0.801373 0.440482 0.111009
0.829297 0.468376 0.154574
0.856565 0.495766 0.193256
0.882475 0.522194 0.228397
0.0370031 0.0465705 0.0345006
0.0371099 0.0465858 0.0344854
0.0378882 0.0466926 0.0343633
0.0399481 0.0470436 0.0340887
0.0450904 0.0473793 0.0330816
0.054078 0.0482185 0.0306401
0.0696117 0.0487984 0.0259709
0.0895857 0.0500801 0.0209049
0.114702 0.0520943 0.0149996
0.144152 0.0552377 0.00761425
0.177737 0.0606851 0
0.213428 0.0684215 0
0.250401 0.0789197 0
0.287343 0.0921035 0
0.323491 0.107805 0
0.358907 0.125109 0
0.39501 0.143267 0
0.431495 0.162448 0
0.467445 0.182055 0
0.502525 0.202167 0
0.536324 0.222919 0
0.568704 0.244114 0
0.599588 0.265934 0
0.629343 0.28838 0
0.658137 0.311315 0
0.687282 0.335286 0
0.715923 0.360204 0
0.744244 0.386191 0.0271
0.773114 0.413489 0.0659648
0.801617 0.44126 0.1122
0.829557 0.469108 0.155657
0.85684 0.496437 0.194171
0.882826 0.52282 0.22916
0.0457771 0.0533303 0.0357061
0.0458686 0.0533455 0.0356909
0.04654 0.0535439 0.035462
0.0491646 0.0536355 0.0352331
0.054139 0.0546731 0.0327764
0.062501 0.055787 0.030396
0.0788891 0.0562142 0.0249485
0.101061 0.0563973 0.0175784
0.125505 0.0574502 0.010605
0.153231 0.0602731 0.00296025
0.184222 0.0650797 0
0.218097 0.0726024 0
0.253285 0.0828412 0
0.288975 0.0958419 0
0.324041 0.11133 0
0.35877 0.127855 0
0.394064 0.145281 0
0.429877 0.16408 0
0.465568 0.183337 0
0.500557 0.203433 0
0.534585 0.224353 0
0.567208 0.245624 0
0.598352 0.26743 0
0.628321 0.289723 0
0.657633 0.312871 0
0.687037 0.336767 0
0.71574 0.361517 0
0.744549 0.387747 0.0298161
0.773404 0.414908 0.068513
0.801984 0.442573 0.114504
0.83003 0.470298 0.157275
0.857298 0.497536 0.195636
0.88336 0.523827 0.230411
0.0593423 0.0641794 0.0375982
0.0594797 0.06421 0.0375219
0.0603647 0.0644236 0.0369879
0.0625772 0.0649729 0.0354467
0.067155 0.0658427 0.0336919
0.0758831 0.0669566 0.0304723
0.0901503 0.0679484 0.0254826
0.114061 0.067689 0.0164797
0.138323 0.0673686 0.00682078
0.164263 0.0690166 0
0.193133 0.0730602 0
0.224247 0.0795911 0
0.257313 0.089189 0
0.291051 0.101335 0
0.325109 0.116426 0
0.358236 0.131777 0
0.392996 0.14876 0
0.427893 0.166522 0
0.463142 0.185748 0
0.498314 0.205707 0
0.532174 0.226474 0
0.565103 0.247822 0
0.596719 0.269688 0
0.627222 0.292103 0
0.65684 0.315038 0
0.686641 0.338903 0
0.715892 0.363836 0.00273136
0.744854 0.389975 0.0334173
0.773877 0.417014 0.0722972
0.802289 0.444251 0.117342
0.830472 0.471778 0.159106
0.857984 0.499184 0.197818
0.884031 0.525322 0.232242
0.0774548 0.0798199 0.037995
0.0775921 0.0798352 0.0379492
0.0783703 0.0800031 0.037705
0.0807813 0.080354 0.0367895
0.0854353 0.0809491 0.0348363
0.093843 0.0820478 0.0315404
0.107546 0.0831311 0.0260929
0.126879 0.083772 0.0187228
0.150805 0.0829786 0.00729381
0.176272 0.0830396 0
0.203387 0.0855421 0
0.232181 0.0907759 0
0.262913 0.0990463 0
0.294713 0.110552 0
0.326482 0.123491 0
0.358633 0.137926 0
0.391989 0.153964 0
0.426429 0.171405 0
0.461021 0.189761 0
0.495598 0.209583 0
0.529824 0.229999 0
0.562799 0.251148 0
0.594873 0.273045 0
0.625879 0.295445 0
0.65626 0.318441 0
0.68629 0.342107 0
0.715999 0.366888 0.00717174
0.745327 0.392889 0.0379187
0.774517 0.419745 0.0773175
0.803204 0.447013 0.122362
0.83151 0.474327 0.163058
0.858778 0.501198 0.200565
0.884978 0.527382 0.234775
0.101122 0.0998398 0.0415351
0.101244 0.0998703 0.041474
0.102129 0.0999924 0.0411383
0.104402 0.100191 0.0399939
0.109483 0.100877 0.0380865
0.117311 0.101961 0.0349737
0.12871 0.10312 0.0298619
0.143832 0.104265 0.0230564
0.16228 0.104768 0.0146029
0.187854 0.103822 0.00030518
0.214481 0.104585 0
0.241978 0.108446 0
0.270588 0.114763 0
0.30016 0.12401 0
0.330373 0.135332 0
0.360479 0.147921 0
0.392615 0.16257 0
0.425696 0.178759 0
0.459846 0.196597 0
0.493858 0.215625 0
0.527672 0.23563 0
0.560922 0.256336 0
0.59321 0.277775 0
0.624735 0.30013 0
0.655726 0.322972 0
0.686259 0.346487 0
0.716533 0.371298 0.0138399
0.746197 0.397086 0.0449683
0.775708 0.423682 0.0843977
0.804379 0.450614 0.128389
0.832761 0.477607 0.167819
0.860136 0.504173 0.20415
0.886046 0.529824 0.237873
0.131533 0.126665 0.0491798
0.13164 0.12668 0.049134
0.132357 0.126802 0.0488289
0.134264 0.127153 0.0480659
0.13814 0.127703 0.0462959
0.144305 0.128634 0.0435035
0.153063 0.129686 0.0390478
0.164965 0.130816 0.0326696
0.179797 0.132128 0.0252689
0.199298 0.132952 0.0158389
0.226307 0.132494 0
0.253422 0.1337 0
0.280812 0.137423 0
0.308339 0.143847 0
0.33669 0.152667 0
0.365133 0.162951 0
0.395407 0.175708 0
0.427344 0.190448 0
0.459953 0.206729 0
0.493462 0.224659 0
0.526696 0.243656 0
0.559548 0.263706 0
0.59234 0.284749 0
0.624186 0.306371 0
0.655695 0.328984 0
0.686702 0.352285 0
0.717357 0.37673 0.0218357
0.74728 0.402197 0.0537881
0.776944 0.428382 0.0930648
0.80589 0.454932 0.135225
0.834226 0.481529 0.173541
0.861692 0.507851 0.208972
0.887648 0.533272 0.242069
0.163394 0.156039 0.0620127
0.16347 0.156054 0.0619669
0.16405 0.156146 0.0616922
0.165576 0.15639 0.0609445
0.168475 0.156893 0.0596017
0.173114 0.157458 0.0570382
0.17998 0.158404 0.0534981
0.188983 0.159457 0.0484321
0.200961 0.160922 0.0419928
0.217029 0.162264 0.0331884
0.237644 0.163439 0.0230564
0.26479 0.163775 0.00508125
0.291859 0.165637 0
0.318669 0.169467 0
0.345418 0.17554 0
0.372198 0.183383 0
0.400946 0.193774 0
0.4309 0.206165 0
0.462623 0.220905 0
0.494591 0.237018 0
0.527489 0.254856 0
0.560113 0.273854 0
0.59234 0.293782 0
0.624781 0.3149 0
0.656443 0.336553 0
0.687938 0.359686 0.00822461
0.718761 0.383688 0.0328069
0.748974 0.408621 0.0647898
0.778759 0.434287 0.104295
0.807797 0.460349 0.144015
0.836469 0.486686 0.180789
0.863645 0.512352 0.214862
0.889601 0.537331 0.246967
0.195331 0.186496 0.081178
0.195392 0.186511 0.0811475
0.195834 0.186572 0.0809186
0.196948 0.186816 0.0804456
0.199222 0.187182 0.0792554
0.20267 0.187594 0.0771191
0.207935 0.188449 0.0743725
0.214969 0.189471 0.0703441
0.224979 0.190784 0.064622
0.238132 0.192325 0.0572061
0.255177 0.193973 0.0478828
0.276173 0.19585 0.0379492
0.303243 0.19678 0.0190127
0.329625 0.198901 0.00315862
0.355459 0.202594 0
0.38114 0.208331 0
0.408469 0.216327 0
0.437308 0.226535 0
0.467109 0.238727 0
0.498238 0.252964 0
0.529992 0.269139 0
0.562219 0.286687 0
0.594293 0.305516 0
0.626291 0.325307 0
0.658442 0.346441 0.00294499
0.689723 0.368536 0.020798
0.720836 0.392187 0.0468147
0.751263 0.416464 0.0790875
0.781155 0.441444 0.11725
0.810513 0.467155 0.154528
0.83888 0.492592 0.189181
0.866011 0.517632 0.221561
0.891951 0.54226 0.252796
0.226658 0.217288 0.106371
0.226703 0.217304 0.106355
0.227039 0.21735 0.106188
0.227955 0.217502 0.10573
0.229633 0.217853 0.105013
0.23212 0.218143 0.103456
0.236362 0.218891 0.10135
0.242634 0.219867 0.0979477
0.250889 0.221073 0.0928664
0.262135 0.22269 0.0864576
0.276341 0.224582 0.0786603
0.293584 0.226596 0.0699474
0.31426 0.228626 0.0603037
0.340673 0.23003 0.0401312
0.366308 0.232547 0.024033
0.391302 0.236439 0.0112459
0.417655 0.242298 0.00163272
0.44538 0.250294 0
0.474159 0.260288 0
0.503975 0.272389 0
0.534722 0.286351 0
0.566064 0.302296 0
0.598032 0.3196 0
0.629602 0.338079 0.00590524
0.661463 0.358083 0.0187381
0.692882 0.379568 0.0378882
0.723629 0.401953 0.0631571
0.754376 0.425727 0.0966354
0.784146 0.449866 0.131655
0.813504 0.474784 0.166018
0.841779 0.499519 0.198672
0.869108 0.524193 0.230076
0.894591 0.547906 0.259739
0.256992 0.2477 0.133181
0.257023 0.2477 0.133165
0.257298 0.247761 0.133074
0.258015 0.247929 0.132845
0.25951 0.248188 0.132219
0.261952 0.248661 0.131289
0.265492 0.249119 0.129458
0.270924 0.250095 0.127062
0.278187 0.251331 0.12369
0.287816 0.252857 0.118914
0.299763 0.254643 0.112795
0.314626 0.256931 0.105943
0.331868 0.259174 0.098436
0.352148 0.261479 0.0885939
0.377478 0.26331 0.0684367
0.402121 0.266087 0.0517891
0.427741 0.270344 0.0380255
0.454658 0.276402 0.0272068
0.482704 0.284474 0.0196231
0.511635 0.294408 0.0148928
0.541314 0.306447 0.0135958
0.571908 0.320211 0.0144198
0.603052 0.335927 0.0184482
0.634607 0.353216 0.0265812
0.665736 0.372015 0.0399329
0.69688 0.392081 0.0585794
0.727703 0.413703 0.0845808
0.758297 0.436393 0.116213
0.787854 0.459617 0.147723
0.817243 0.483604 0.178973
0.845304 0.507485 0.209522
0.872404 0.531411 0.239399
0.898054 0.554696 0.267796
0.287251 0.277607 0.159701
0.287282 0.277623 0.159686
0.287541 0.277668 0.159594
0.288243 0.27779 0.159319
0.289601 0.27805 0.158831
0.291829 0.278492 0.158068
0.295186 0.279149 0.156909
0.299733 0.27982 0.154879
0.306279 0.281041 0.152346
0.314672 0.282582 0.148959
0.325032 0.284337 0.144656
0.337606 0.286305 0.139376
0.352636 0.288808 0.133989
0.369528 0.291264 0.12845
0.389212 0.293751 0.120546
0.413489 0.295933 0.10193
0.438865 0.29926 0.0841688
0.464942 0.303792 0.068925
0.492241 0.31014 0.0573434
0.520562 0.318395 0.0492103
0.549752 0.328542 0.0442969
0.579324 0.340383 0.0425727
0.609659 0.354238 0.0452735
0.640467 0.370138 0.0529641
0.671351 0.38761 0.0661936
0.702052 0.406546 0.0848096
0.732631 0.426871 0.109926
0.762661 0.448157 0.136614
0.792416 0.470603 0.164965
0.8215 0.493584 0.193561
0.849363 0.516457 0.221393
0.876265 0.539528 0.249531
0.901625 0.562066 0.276753
0.31809 0.30721 0.185504
0.31812 0.30721 0.185489
0.318318 0.307225 0.185367
0.318883 0.307256 0.185046
0.319951 0.307424 0.184588
0.322042 0.307805 0.183841
0.325078 0.308446 0.182895
0.329351 0.309331 0.181506
0.335119 0.310491 0.179599
0.342321 0.311681 0.176791
0.351614 0.313466 0.173693
0.362524 0.315358 0.169711
0.375677 0.317784 0.165484
0.390295 0.320195 0.161028
0.406516 0.322805 0.157244
0.426078 0.325689 0.150393
0.450767 0.328328 0.134066
0.476585 0.332006 0.118166
0.503166 0.337072 0.103593
0.5308 0.343709 0.0909743
0.558984 0.35198 0.082414
0.588052 0.362448 0.0786755
0.617533 0.374578 0.0795911
0.647669 0.388998 0.0867781
0.677867 0.404822 0.0985275
0.708049 0.422385 0.115312
0.738338 0.441352 0.135531
0.7682 0.461631 0.158709
0.797604 0.482795 0.1832
0.826276 0.50454 0.208865
0.853941 0.526528 0.234882
0.880629 0.548638 0.260853
0.90576 0.570321 0.286503
0.350988 0.338018 0.211765
0.351019 0.338033 0.211749
0.351232 0.338079 0.211688
0.351812 0.338186 0.211505
0.352956 0.338415 0.21117
0.354742 0.338827 0.210697
0.357382 0.339239 0.209674
0.361089 0.33994 0.208438
0.366201 0.341024 0.206928
0.372793 0.342382 0.204852
0.380591 0.343816 0.202213
0.390478 0.345754 0.199252
0.401633 0.347768 0.195773
0.41471 0.350317 0.192325
0.428885 0.352834 0.188876
0.444404 0.355596 0.186038
0.464988 0.358633 0.178912
0.489662 0.361776 0.16463
0.515663 0.365927 0.150958
0.542397 0.371466 0.139147
0.570047 0.378576 0.130129
0.598062 0.387335 0.124575
0.626978 0.398047 0.123476
0.656458 0.410712 0.127199
0.685863 0.424949 0.13518
0.715602 0.440848 0.147692
0.745235 0.45832 0.163577
0.774701 0.477073 0.182742
0.803754 0.496895 0.203815
0.832151 0.517464 0.22678
0.859556 0.53846 0.25066
0.885908 0.559487 0.274769
0.910643 0.580194 0.298528
0.386343 0.370031 0.237903
0.386374 0.370031 0.237903
0.386557 0.370077 0.237858
0.386999 0.370214 0.237812
0.388022 0.370428 0.237537
0.389685 0.370779 0.237064
0.392111 0.371328 0.236439
0.39556 0.372061 0.235477
0.399771 0.372793 0.234028
0.405509 0.374044 0.232502
0.412634 0.37557 0.230579
0.420844 0.377172 0.228138
0.430777 0.379278 0.225681
0.441993 0.38143 0.222919
0.454536 0.384024 0.220401
0.468132 0.386664 0.21799
0.484092 0.390036 0.216754
0.504891 0.393164 0.209873
0.52961 0.396796 0.197589
0.555505 0.40148 0.186328
0.582437 0.407416 0.176928
0.609979 0.414954 0.170504
0.63801 0.424277 0.167681
0.666453 0.435004 0.16817
0.695537 0.447791 0.173266
0.724498 0.462043 0.181765
0.753628 0.477791 0.193988
0.782818 0.495262 0.209842
0.811261 0.513573 0.227756
0.839139 0.532723 0.2477
0.866194 0.552377 0.268879
0.891966 0.572168 0.290578
0.916518 0.59176 0.312444
0.423407 0.403418 0.265675
0.423423 0.403433 0.26566
0.423606 0.403464 0.265629
0.424063 0.403571 0.265522
0.424949 0.403769 0.265309
0.426337 0.404135 0.26508
0.428504 0.404623 0.264561
0.431449 0.405341 0.263966
0.435462 0.406226 0.262989
0.440223 0.407172 0.261692
0.446296 0.408515 0.260304
0.453635 0.410224 0.258747
0.462181 0.412116 0.256931
0.471733 0.414145 0.254963
0.482811 0.416602 0.253208
0.494652 0.419074 0.251347
0.508446 0.422034 0.250004
0.524453 0.425696 0.249866
0.545617 0.429175 0.243519
0.570352 0.433219 0.232944
0.596155 0.438361 0.223667
0.623133 0.444694 0.216159
0.650446 0.452583 0.211658
0.678218 0.46215 0.21059
0.706325 0.472999 0.212314
0.735012 0.485786 0.217914
0.763439 0.49987 0.226749
0.791943 0.515618 0.239002
0.819928 0.532311 0.253773
0.847196 0.549905 0.270695
0.873701 0.568093 0.289174
0.899001 0.586542 0.308431
0.923247 0.605249 0.328801
0.461997 0.438422 0.295933
0.462013 0.438422 0.295918
0.462135 0.438437 0.295872
0.462486 0.438483 0.29575
0.463172 0.438575 0.295506
0.464393 0.438834 0.295201
0.466194 0.439323 0.294957
0.468818 0.439933 0.294453
0.47219 0.440787 0.293889
0.47657 0.441825 0.29305
0.481849 0.443015 0.29192
0.487892 0.444389 0.290761
0.495293 0.446174 0.289601
0.503822 0.448203 0.288334
0.513008 0.450217 0.286839
0.523568 0.45275 0.285817
0.535668 0.455421 0.284642
0.549859 0.458915 0.284474
0.565682 0.462623 0.284886
0.58706 0.466438 0.279149
0.611811 0.470848 0.269947
0.637537 0.476341 0.262226
0.664271 0.483009 0.256428
0.691325 0.491142 0.2533
0.718868 0.500832 0.253315
0.746593 0.511788 0.255833
0.774517 0.524361 0.261906
0.802396 0.538308 0.270787
0.829786 0.553399 0.282475
0.856504 0.569345 0.296193
0.882597 0.58613 0.312016
0.907423 0.603326 0.329274
0.930755 0.620386 0.347082
0.501518 0.47451 0.328069
0.501534 0.474525 0.328054
0.501656 0.47454 0.328038
0.502007 0.474632 0.327977
0.502678 0.4748 0.327886
0.503777 0.475059 0.327688
0.505226 0.475288 0.327214
0.507301 0.475776 0.326833
0.510292 0.476509 0.326329
0.51397 0.47747 0.325856
0.518517 0.478645 0.325277
0.523964 0.480018 0.324559
0.529992 0.481346 0.323507
0.537316 0.483192 0.322683
0.545556 0.485252 0.321843
0.554498 0.487251 0.320638
0.565194 0.490013 0.320165
0.577417 0.492882 0.319753
0.591699 0.496605 0.320287
0.607507 0.500587 0.321553
0.62916 0.504662 0.316045
0.653773 0.509361 0.308186
0.679438 0.515114 0.301534
0.705867 0.522042 0.296925
0.732586 0.530327 0.29482
0.759777 0.540002 0.295476
0.787106 0.55108 0.298955
0.814008 0.563149 0.30486
0.840909 0.576761 0.313771
0.866911 0.591058 0.32459
0.89247 0.606424 0.337942
0.916579 0.621912 0.35227
0.939162 0.637613 0.3682
0.541909 0.511498 0.361456
0.541939 0.511513 0.361456
0.542031 0.511528 0.36144
0.542321 0.51162 0.361425
0.542809 0.511788 0.361456
0.543755 0.512032 0.361349
0.545159 0.512383 0.361166
0.547066 0.512871 0.360922
0.549218 0.513268 0.360418
0.552438 0.514092 0.360037
0.556313 0.515129 0.35967
0.560967 0.516365 0.359228
0.5664 0.517815 0.358755
0.572335 0.519158 0.357916
0.579477 0.521004 0.357259
0.587427 0.523064 0.356786
0.59649 0.525216 0.356069
0.607355 0.52813 0.356039
0.619745 0.531182 0.355993
0.634089 0.535088 0.357168
0.64979 0.539284 0.359197
0.671733 0.543542 0.353735
0.696315 0.548638 0.34699
0.721752 0.55465 0.341558
0.747555 0.561563 0.337774
0.773785 0.569848 0.336355
0.800336 0.579431 0.33756
0.826917 0.590234 0.3411
0.852857 0.601907 0.346975
0.878462 0.614878 0.355642
0.903273 0.628641 0.366293
0.926436 0.64268 0.378729
0.94873 0.657221 0.392523
0.582681 0.549264 0.396262
0.582696 0.549279 0.396262
0.582788 0.549294 0.396246
0.583032 0.549371 0.396216
0.58352 0.549493 0.39617
0.584283 0.549706 0.396124
0.585412 0.550042 0.396094
0.58706 0.550469 0.395941
0.589227 0.551034 0.395743
0.59176 0.551675 0.395483
0.594965 0.552361 0.394949
0.598962 0.553445 0.394598
0.603616 0.554711 0.394278
0.608957 0.556176 0.393973
0.61474 0.557549 0.393393
0.621546 0.559335 0.393042
0.629648 0.561517 0.392844
0.639094 0.563958 0.392569
0.649943 0.566812 0.39263
0.662409 0.570123 0.393256
0.676799 0.57406 0.394705
0.692378 0.578408 0.397238
0.714473 0.582818 0.391913
0.738933 0.588266 0.386252
0.763973 0.594324 0.381384
0.789456 0.60145 0.378515
0.814817 0.609415 0.377356
0.840482 0.618738 0.378836
0.865904 0.629191 0.382803
0.890822 0.64062 0.388952
0.914672 0.652735 0.397147
0.937163 0.66537 0.407492
0.958602 0.678508 0.419226
0.623758 0.587442 0.431693
0.623758 0.587442 0.431693
0.62385 0.587472 0.431678
0.624048 0.587518 0.431662
0.624475 0.587625 0.431632
0.625147 0.587808 0.431571
0.626154 0.588083 0.431495
0.627436 0.588495 0.431495
0.629282 0.588983 0.431357
0.631601 0.589609 0.431174
0.634379 0.590402 0.431083
0.637583 0.591058 0.430594
0.641474 0.592096 0.430365
0.646052 0.593362 0.430213
0.651286 0.594781 0.429999
0.657191 0.596384 0.429801
0.663935 0.597971 0.429191
0.672084 0.600275 0.429297
0.681788 0.602945 0.429496
0.692561 0.605783 0.429801
0.705394 0.609384 0.430793
0.719524 0.613199 0.432547
0.734936 0.617685 0.435416
0.757259 0.622278 0.430182
0.781323 0.627665 0.424903
0.805692 0.633783 0.42092
0.830411 0.640879 0.41883
0.855116 0.648981 0.418647
0.879835 0.658015 0.420523
0.903395 0.667689 0.424262
0.926543 0.678477 0.43064
0.948592 0.689845 0.438911
0.969253 0.701579 0.448737
0.664683 0.625711 0.467613
0.664698 0.625711 0.467613
0.664759 0.625727 0.467597
0.664942 0.625788 0.467582
0.665293 0.625879 0.467567
0.665858 0.626032 0.467521
0.666712 0.626261 0.467475
0.667903 0.626581 0.467399
0.669352 0.627024 0.467399
0.671321 0.627558 0.467277
0.673747 0.628214 0.467124
0.676585 0.629038 0.467079
0.680064 0.629953 0.466804
0.683665 0.630762 0.466346
0.688075 0.631983 0.466224
0.693202 0.633341 0.466072
0.699245 0.635004 0.466072
0.706111 0.636728 0.465843
0.714351 0.639048 0.466041
0.724224 0.641764 0.4663
0.735088 0.644663 0.46685
0.747921 0.648325 0.468269
0.761868 0.652247 0.470192
0.777081 0.656764 0.473686
0.799634 0.661585 0.468482
0.822828 0.666835 0.463813
0.846418 0.672908 0.460655
0.870283 0.67985 0.458976
0.893874 0.687694 0.459434
0.916823 0.696391 0.461891
0.939315 0.70576 0.466148
0.96051 0.71577 0.47245
0.980255 0.725887 0.479881
0.705669 0.663996 0.503594
0.705684 0.663996 0.503594
0.705715 0.664012 0.503594
0.705837 0.664027 0.503578
0.70605 0.664088 0.503578
0.706477 0.664179 0.503502
0.707103 0.664286 0.50338
0.707988 0.664454 0.503212
0.7093 0.664805 0.503136
0.710979 0.665248 0.503044
0.712932 0.665843 0.503059
0.715419 0.666499 0.502937
0.718227 0.667323 0.502922
0.72163 0.668238 0.5028
0.725383 0.669306 0.502785
0.729564 0.670283 0.502449
0.734569 0.671611 0.502358
0.740734 0.673335 0.502403
0.748058 0.675364 0.502449
0.756298 0.677409 0.502541
0.766064 0.680232 0.503319
0.777264 0.683375 0.504341
0.789715 0.68687 0.505806
0.803388 0.690837 0.508278
0.819028 0.695628 0.511727
0.840635 0.700175 0.506935
0.863127 0.705379 0.502815
0.885863 0.71133 0.500221
0.908309 0.71809 0.499458
0.930465 0.725597 0.500389
0.95201 0.733761 0.502861
0.972488 0.742458 0.50721
0.991669 0.751537 0.512947
0.745434 0.701396 0.539452
0.745449 0.701396 0.539452
0.745495 0.701411 0.539452
0.745617 0.701442 0.539437
0.745861 0.701503 0.539422
0.746273 0.701625 0.539406
0.746868 0.701778 0.539376
0.747662 0.702022 0.539406
0.748714 0.702327 0.539406
0.750118 0.702708 0.539361
0.751873 0.703182 0.539284
0.75375 0.703609 0.539101
0.756069 0.704112 0.538811
0.758968 0.704875 0.538674
0.762158 0.705791 0.53872
0.765896 0.706798 0.538659
0.770275 0.708034 0.538735
0.775509 0.709499 0.538827
0.781445 0.710964 0.53872
0.78883 0.713039 0.539055
0.797421 0.71548 0.53962
0.806943 0.717998 0.540108
0.81825 0.721233 0.541588
0.830365 0.724681 0.543435
0.844144 0.728939 0.54638
0.859297 0.733364 0.549233
0.880537 0.737804 0.544656
0.901793 0.742992 0.541573
0.923644 0.749081 0.539818
0.944839 0.755505 0.539361
0.965423 0.762524 0.540383
0.985306 0.770062 0.542947
1 0.778012 0.547127
0.784024 0.737804 0.574731
0.784024 0.737804 0.574731
0.78407 0.737819 0.574731
0.784176 0.737835 0.574731
0.78439 0.737896 0.574731
0.784726 0.737987 0.574716
0.785229 0.738125 0.574701
0.785931 0.738308 0.57467
0.786862 0.738567 0.574639
