public/textures/grade/Nikon/Cliff-NLog.cube
TITLE "Generated by Resolve"
LUT_3D_SIZE 5
0 0 0.0160372
0.102464 0 0
0.426825 0.0446326 0
0.771008 0.280964 0
0.983139 0.63856 0.298695
0.029633 0.1019 0
0.124392 0.102159 0
0.448463 0.128237 0
0.78436 0.32813 0
0.983673 0.651606 0.311986
0.271107 0.452735 0.0796521
0.31545 0.453666 0.0809644
0.532464 0.460914 0.0593881
0.823789 0.541405 0.0374304
0.982177 0.723095 0.401282
0.721721 0.801709 0.40798
0.729747 0.801968 0.409461
0.77467 0.803677 0.427283
0.880186 0.814954 0.507652
0.969741 0.866072 0.678218
0.958709 0.968429 0.898054
0.959304 0.968612 0.89868
0.962905 0.969833 0.903319
0.975326 0.974258 0.922377
1 0.990738 0.957
0.00195315 0.0102693 0.161852
0.103426 0.0128939 0.152331
0.463493 0.0606394 0.00863661
0.794171 0.29427 0
0.985412 0.642741 0.339651
0.0322423 0.118288 0.127108
0.122332 0.121599 0.120531
0.476829 0.148562 0.0132906
0.804227 0.339712 0
0.985275 0.655589 0.351553
0.271534 0.466484 0.140093
0.317281 0.466941 0.141131
0.540642 0.471031 0.127871
0.83122 0.54757 0.127382
0.982498 0.725734 0.431418
0.721294 0.803784 0.436255
0.729168 0.804028 0.438041
0.774243 0.805615 0.45185
0.879255 0.816449 0.529305
0.969253 0.867353 0.689296
0.959075 0.968811 0.900465
0.95967 0.969009 0.901076
0.963241 0.970306 0.905211
0.975601 0.974731 0.924056
1 0.991089 0.958129
0.075761 0.112566 0.512581
0.148775 0.117281 0.522423
0.483604 0.146899 0.480934
0.853361 0.330404 0.376944
0.984024 0.666285 0.515358
0.106874 0.19382 0.506706
0.174121 0.198123 0.512581
0.496391 0.220691 0.475685
0.848493 0.38471 0.384649
0.983841 0.678096 0.521996
0.287419 0.509636 0.439796
0.327764 0.510979 0.437888
0.550927 0.512383 0.424491
0.839323 0.579965 0.418585
0.978851 0.741543 0.567712
0.720104 0.81323 0.571054
0.727825 0.813413 0.572152
0.77261 0.815 0.579324
0.876356 0.825299 0.631815
0.966644 0.874388 0.744274
0.960937 0.971313 0.913497
0.961425 0.97145 0.913924
0.965087 0.972824 0.917082
0.977386 0.977661 0.9337
1 0.993423 0.964782
0.338216 0.408957 0.797116
0.374792 0.411353 0.798962
0.561349 0.428305 0.797925
0.833265 0.525582 0.775097
0.980804 0.725811 0.755962
0.357137 0.445579 0.795193
0.391424 0.447608 0.796353
0.568551 0.461845 0.794781
0.832563 0.548989 0.771939
0.979568 0.734279 0.757046
0.470512 0.612558 0.776425
0.493462 0.612955 0.775906
0.616342 0.618769 0.772885
0.833524 0.664881 0.756436
0.957855 0.789837 0.774548
0.744686 0.839658 0.779355
0.75021 0.840009 0.779706
0.786511 0.840909 0.782589
0.876967 0.851606 0.79736
0.962615 0.895094 0.846281
0.96849 0.979461 0.946151
0.968948 0.97966 0.946517
0.972229 0.980789 0.948699
0.983871 0.985931 0.958923
1 1 0.982864
0.69688 0.736675 0.925734
0.704952 0.737316 0.925643
0.749798 0.74255 0.923903
0.858991 0.76939 0.919081
0.956588 0.846586 0.913542
0.702434 0.744106 0.924468
0.709804 0.7449 0.924331
0.753902 0.750011 0.92311
0.859861 0.775616 0.918135
0.956497 0.850141 0.913771
0.738369 0.788022 0.918959
0.74435 0.788571 0.918776
0.779065 0.792676 0.917723
0.868391 0.812634 0.915145
0.957122 0.872938 0.916716
0.849577 0.890715 0.917815
0.851987 0.891051 0.917983
0.866377 0.89366 0.91899
0.910277 0.904448 0.923888
0.969833 0.93611 0.939834
0.988144 0.996536 0.987259
0.988495 0.996689 0.987457
0.990723 0.997665 0.988724
0.999405 1 0.994324
1 1 1
