public/textures/grade/Nikon/Cliff-NLog.cube
TITLE "Generated by Resolve"
LUT_3D_SIZE 33
0 0 0.0160372
0 0 0.016022
0 0 0.0158694
0.000732433 0 0.0156405
0.00839246 0 0.0150454
0.0217899 0 0.0131838
0.0437781 0 0.00787366
0.0723278 0 0
0.102464 0 0
0.136141 0.00030518 0
0.173754 0.00488289 0
0.214633 0.00985733 0
0.256443 0.0153506 0
0.299184 0.0213779 0
0.341207 0.0280919 0
0.383169 0.0352941 0
0.426825 0.0446326 0
0.469795 0.0606699 0
0.513329 0.0807813 0
0.557244 0.104402 0
0.60119 0.131624 0
0.644968 0.162936 0
0.687694 0.198199 0
0.730098 0.237736 0
0.771008 0.280964 0
0.809079 0.326818 0
0.844984 0.374975 0
0.876905 0.423606 0
0.905684 0.471733 0.037705
0.930556 0.518135 0.114443
0.951308 0.561807 0.182345
0.968963 0.602014 0.242878
0.983139 0.63856 0.298695
0 0 0.0159609
0 0 0.0159304
0 0 0.0158236
0.00077821 0 0.0155947
0.0084535 0 0.0149996
0.0218662 0 0.0131228
0.0439002 0 0.00779736
0.0724651 0 0
0.102388 0 0
0.136294 0.000457771 0
0.173831 0.005066 0
0.214786 0.00999466 0
0.256535 0.0155184 0
0.29926 0.0215305 0
0.341238 0.0282292 0
0.383261 0.0354314 0
0.426902 0.044831 0
0.469841 0.060853 0
0.513405 0.0809491 0
0.557305 0.104555 0
0.601236 0.131777 0
0.645029 0.163073 0
0.687755 0.198322 0
0.730144 0.237842 0
0.771038 0.281056 0
0.80911 0.326909 0
0.844999 0.375051 0
0.876905 0.423667 0
0.905699 0.471794 0.0377661
0.930571 0.518181 0.114488
0.951308 0.561837 0.182376
0.968978 0.602045 0.242924
0.983139 0.638575 0.298726
0 0 0.0157015
0 0 0.0156863
0 0 0.0155947
0.0011902 0 0.0153658
0.00881972 0 0.0146334
0.0225071 0 0.012726
0.0447395 0 0.00726329
0.0732128 0 0
0.101701 0 0
0.13698 0.0018616 0
0.174456 0.00636301 0
0.215442 0.0111543 0
0.257237 0.0165866 0
0.299992 0.0225071 0
0.341772 0.02916 0
0.383856 0.036408 0
0.427237 0.0460059 0
0.470268 0.0621042 0
0.513832 0.0823529 0
0.557733 0.105638 0
0.601633 0.132799 0
0.645365 0.164019 0
0.688167 0.199145 0
0.730388 0.238621 0
0.771237 0.281758 0
0.809277 0.327535 0
0.845136 0.375601 0
0.876936 0.424063 0
0.90576 0.47219 0.0381018
0.930617 0.518517 0.114794
0.951354 0.562127 0.18262
0.969024 0.602258 0.243168
0.983139 0.638773 0.298878
0 0.00326543 0.014725
0 0.00326543 0.0147097
0 0.00332647 0.0146181
0.00195315 0.00349432 0.0143893
0.00987259 0.00370794 0.0137484
0.024155 0.00386053 0.0113527
0.0468605 0.00268559 0.00556954
0.0711681 0.00390631 0.000610361
0.101915 0.00514229 0
0.138552 0.00563058 0
0.176135 0.00965896 0
0.216785 0.0142672 0
0.25861 0.0196231 0
0.301228 0.0254215 0
0.34345 0.0319677 0
0.385183 0.0390784 0
0.428534 0.0494392 0
0.471199 0.0653391 0
0.514946 0.0852674 0
0.558862 0.108537 0
0.602686 0.135546 0
0.646128 0.166354 0
0.688991 0.20148 0
0.73109 0.240742 0
0.771435 0.283299 0
0.809766 0.329244 0
0.845518 0.377081 0
0.877211 0.425345 0
0.905928 0.473274 0.0390021
0.930755 0.519417 0.115633
0.951431 0.562875 0.183291
0.969177 0.602838 0.243839
0.98323 0.639277 0.299351
0 0.0122072 0.012604
0 0.0122225 0.0125887
0 0.0122835 0.0124666
0.00332647 0.0123751 0.0120546
0.0115816 0.0125887 0.0113222
0.0262455 0.012665 0.00848402
0.0468605 0.0127108 0.00440986
0.0738689 0.012726 0
0.105425 0.0127108 0
0.141512 0.0131838 0
0.179263 0.0163119 0
0.219455 0.0204318 0
0.261585 0.025391 0
0.303944 0.0309453 0
0.346578 0.0371252 0
0.388296 0.0441138 0
0.430655 0.0558785 0
0.473472 0.0717937 0
0.516915 0.0909438 0
0.560784 0.113802 0
0.604547 0.140505 0
0.647929 0.171145 0
0.690532 0.205997 0
0.732433 0.244602 0
0.772549 0.287007 0
0.810925 0.332464 0
0.846021 0.379767 0
0.878004 0.427726 0
0.906279 0.475364 0.0407416
0.930999 0.521172 0.117266
0.95172 0.564294 0.184741
0.969284 0.604059 0.244785
0.983474 0.640238 0.300313
0 0.0270085 0.00819409
6.10361e-05 0.0270085 0.00816358
0.00149538 0.0271153 0.00807202
0.00621042 0.0270848 0.00793469
0.0154269 0.0268254 0.00732433
0.0301366 0.0266423 0.00607309
0.0517739 0.0265202 0.0012665
0.0787366 0.0259556 0
0.109972 0.0257877 0
0.145312 0.026154 0
0.183825 0.0271153 0
0.223789 0.0306249 0
0.265538 0.0348363 0
0.308293 0.0399176 0
0.350423 0.045716 0
0.391608 0.0545663 0
0.433692 0.066392 0
0.47689 0.0819562 0
0.520088 0.100435 0
0.563729 0.122545 0
0.607477 0.148669 0
0.650553 0.17882 0
0.692866 0.212985 0
0.73434 0.251118 0
0.774533 0.292958 0
0.812161 0.337636 0
0.847135 0.384176 0
0.878828 0.431724 0
0.906844 0.478767 0.0436103
0.931411 0.523781 0.119966
0.951904 0.5664 0.18677
0.969467 0.606027 0.246174
0.983551 0.641886 0.301808
0.00634775 0.0467384 0.00361639
0.00654612 0.0467384 0.00361639
0.00827039 0.0466773 0.00355535
0.0128786 0.0466468 0.0034638
0.0214694 0.0466926 0.00311284
0.0351873 0.0466621 0.00183108
0.0557412 0.0462196 0.00015259
0.0835737 0.0458534 0
0.114305 0.0452735 0
0.14934 0.0451514 0
0.187778 0.0455024 0
0.228367 0.0472419 0
0.270436 0.0504463 0
0.312642 0.0550698 0
0.354421 0.0617838 0
0.395422 0.0702678 0
0.438056 0.0817121 0
0.480812 0.0961929 0
0.524727 0.114321 0
0.568017 0.135561 0
0.611276 0.160708 0
0.654444 0.190326 0
0.696681 0.223682 0
0.737346 0.260609 0
0.776608 0.301396 0
0.814237 0.34519 0
0.848844 0.391012 0
0.880018 0.437598 0
0.90753 0.483268 0.047715
0.931853 0.527764 0.123735
0.952163 0.569757 0.189624
0.969314 0.608576 0.248386
0.983627 0.644327 0.304234
0.016495 0.0717632 0.000228885
0.0167086 0.0717632 0.000228885
0.0182193 0.0716869 0.000137331
0.0223392 0.0716716 7.62951e-05
0.0304723 0.0717479 0
0.0434882 0.071931 0
0.0619974 0.0720989 0
0.088365 0.0713817 0
0.118791 0.0709697 0
0.153811 0.0704051 0
0.192035 0.0702373 0
0.232517 0.0711833 0
0.274327 0.0734417 0
0.317006 0.0775311 0
0.358785 0.0836194 0
0.400122 0.0916457 0
0.442664 0.102068 0
0.486091 0.115785 0
0.529702 0.13254 0
0.573602 0.153216 0
0.616403 0.177234 0
0.658915 0.205264 0
0.700938 0.237659 0
0.741512 0.273732 0
0.780118 0.313268 0
0.816571 0.355398 0
0.850782 0.399847 0
0.881422 0.445121 0
0.908598 0.490059 0.0537575
0.932647 0.533501 0.128771
0.952743 0.574578 0.193561
0.969619 0.612558 0.25211
0.98352 0.647501 0.307408
0.029633 0.1019 0
0.0298466 0.101915 0
0.031342 0.10193 0
0.0352026 0.102052 0
0.042771 0.102251 0
0.0550851 0.102495 0
0.0725414 0.102739 0
0.0951095 0.102861 0
0.124392 0.102159 0
0.158938 0.101884 0
0.197101 0.101747 0
0.237613 0.102251 0
0.279301 0.103532 0
0.321935 0.10695 0
0.363897 0.111849 0
0.405554 0.11873 0
0.448463 0.128237 0
0.491981 0.140383 0
0.536126 0.156085 0
0.57937 0.175204 0
0.622568 0.198169 0
0.66482 0.224903 0
0.705974 0.255406 0
0.746014 0.289876 0
0.78436 0.32813 0
0.820218 0.368933 0
0.853376 0.411536 0
0.883391 0.4551 0
0.910018 0.498482 0.0612955
0.933761 0.540734 0.13576
0.953628 0.580682 0.199634
0.970275 0.61767 0.257328
0.983673 0.651606 0.311986
0.0468757 0.137087 0
0.0470741 0.137087 0
0.0484779 0.137118 0
0.0521096 0.13727 0
0.0591592 0.13753 0
0.0703441 0.137697 0
0.087068 0.138186 0
0.107073 0.138567 0
0.132784 0.138445 0
0.165942 0.137926 0
0.203494 0.138079 0
0.244038 0.138384 0
0.28574 0.139376 0
0.328252 0.141619 0
0.370214 0.145495 0
0.411933 0.151202 0
0.454856 0.159442 0
0.49897 0.170459 0
0.542931 0.184375 0
0.586542 0.202228 0
0.629465 0.223484 0
0.671305 0.248447 0
0.712245 0.277501 0
0.750927 0.310079 0
0.788235 0.346075 0
0.823804 0.385199 0
0.856413 0.42591 0
0.885771 0.467567 0.00512703
0.911742 0.509071 0.0724804
0.934646 0.549477 0.144549
0.954192 0.588006 0.206729
0.970382 0.623774 0.263233
0.983764 0.657023 0.317479
0.0685588 0.176272 0.0015259
0.0687419 0.176272 0.0015259
0.0700542 0.176318 0.00158694
0.0735637 0.176455 0.00177005
0.0801404 0.17673 0.002121
0.0903639 0.176944 0.00241093
0.104356 0.177478 0.00291447
0.12285 0.17789 0.00289921
0.146746 0.178424 0.002121
0.175967 0.178195 0.00418097
0.212329 0.178134 0
0.251987 0.178775 0
0.293675 0.179599 0
0.335698 0.181109 0
0.377798 0.183795 0
0.419562 0.18854 0
0.46247 0.195422 0
0.506294 0.204761 0
0.550256 0.217548 0
0.593988 0.233539 0
0.636774 0.253223 0
0.678386 0.276265 0
0.718257 0.303181 0
0.756909 0.333898 0
0.793317 0.367544 0
0.827268 0.404059 0
0.859327 0.442741 0
0.888075 0.482094 0.0173648
0.913527 0.521477 0.085832
0.93547 0.560006 0.15404
0.955093 0.597177 0.215076
0.971206 0.631495 0.270832
0.983734 0.663142 0.324254
0.0946517 0.218738 0.0069276
0.0948043 0.218738 0.00694286
0.0959029 0.218784 0.00700389
0.0988479 0.218921 0.007187
0.103731 0.218936 0.00729381
0.112444 0.219379 0.00787366
0.125307 0.219944 0.00860609
0.142535 0.22031 0.00891127
0.16495 0.220996 0.00892653
0.191882 0.2215 0.00724804
0.224033 0.220661 0.0126802
0.262379 0.221378 0.000717174
0.303014 0.222477 0
0.344884 0.223835 0
0.386648 0.226017 0
0.427863 0.229786 0
0.471092 0.235538 0
0.514504 0.243442 0
0.558312 0.254597 0
0.601907 0.268635 0
0.644373 0.286397 0
0.685298 0.307515 0
0.724743 0.332174 0
0.762798 0.36051 0
0.798764 0.392004 0
0.8318 0.425895 0
0.862608 0.461799 0
0.890394 0.498802 0.0327459
0.915373 0.535836 0.102098
0.936843 0.572229 0.166705
0.955795 0.607355 0.225437
0.971527 0.640162 0.280217
0.983719 0.670832 0.333089
0.122133 0.263508 0.0150454
0.12224 0.263523 0.0150759
0.123171 0.263584 0.0151522
0.125811 0.263691 0.0153506
0.130465 0.263661 0.0154574
0.138521 0.264057 0.016083
0.150439 0.264576 0.0168765
0.166491 0.264973 0.0174105
0.187106 0.265614 0.0177615
0.21207 0.266072 0.0169528
0.24184 0.267048 0.0146487
0.276265 0.266026 0.0224002
0.315114 0.26743 0.0069276
0.355917 0.268971 0
0.397177 0.270863 0
0.437797 0.273808 0
0.480156 0.278599 0
0.523598 0.285573 0
0.566857 0.294621 0
0.610269 0.30721 0
0.651987 0.32282 0
0.692439 0.341711 0
0.73167 0.36408 0
0.768887 0.389746 0
0.803845 0.418631 0
0.836378 0.450019 0
0.865919 0.482994 0
0.893294 0.517342 0.0525368
0.917235 0.551858 0.119753
0.93872 0.586175 0.181262
0.95668 0.618921 0.237034
0.97203 0.650401 0.291203
0.983658 0.679255 0.34287
0.153323 0.309758 0.0261387
0.153429 0.309758 0.026154
0.154162 0.30985 0.026276
0.156573 0.309957 0.0264591
0.161288 0.31014 0.0268101
0.168399 0.31014 0.0270695
0.17908 0.310704 0.027924
0.194171 0.311254 0.0287175
0.21294 0.31162 0.0289464
0.236439 0.312413 0.0288243
0.263539 0.313024 0.0271763
0.294484 0.313771 0.0252995
0.330602 0.313237 0.0326696
0.369451 0.314916 0.0150912
0.409094 0.316945 0
0.448997 0.319448 0
0.490471 0.323339 0
0.533333 0.329091 0
0.576318 0.337285 0
0.618326 0.347707 0
0.660136 0.361532 0
0.700099 0.37821 0
0.738506 0.398047 0
0.774762 0.42121 0
0.80885 0.447166 0
0.840467 0.475639 0
0.869566 0.506004 0.0179446
0.895628 0.537331 0.0759442
0.918975 0.569406 0.139742
0.940017 0.601297 0.197299
0.957443 0.631861 0.25066
0.972168 0.661326 0.303731
0.983444 0.688701 0.354681
0.188128 0.356558 0.0402075
0.188235 0.356558 0.0402075
0.189059 0.356603 0.0402686
0.191073 0.356741 0.0404974
0.195361 0.356878 0.0407721
0.202152 0.357183 0.0412909
0.212009 0.357488 0.0419013
0.225391 0.357748 0.0424201
0.242969 0.358373 0.0430762
0.264027 0.358785 0.0429541
0.289616 0.359625 0.0420996
0.317968 0.360433 0.0393072
0.349706 0.360861 0.0441749
0.386099 0.360845 0.0449226
0.423667 0.362844 0.0260166
0.461707 0.365332 0.00805676
0.50219 0.368643 0
0.543587 0.373526 0
0.585687 0.380346 0
0.627512 0.389609 0
0.668162 0.401175 0
0.707546 0.415991 0
0.744808 0.43357 0
0.78088 0.454307 0
0.813901 0.477485 0
0.844678 0.502998 0.000915541
0.872755 0.529946 0.0451514
0.898436 0.558709 0.104173
0.921141 0.588144 0.161563
0.941222 0.617395 0.215396
0.958251 0.645838 0.266926
0.972259 0.673243 0.318227
0.983398 0.699321 0.368292
0.226246 0.403388 0.0573281
0.226352 0.403403 0.0573281
0.2271 0.403418 0.0573892
0.229099 0.403479 0.0575265
0.232746 0.403662 0.057847
0.239109 0.40383 0.0582284
0.248157 0.40415 0.0588083
0.260426 0.404593 0.0594492
0.275944 0.404807 0.0595254
0.295506 0.405417 0.0596628
0.318639 0.406256 0.0591287
0.344869 0.406851 0.0569009
0.373922 0.407752 0.0527962
0.405737 0.407614 0.0678569
0.44123 0.408286 0.0597086
0.477012 0.410574 0.0401312
0.51577 0.414069 0.0208133
0.555611 0.418341 0.00224308
0.596292 0.423911 0
0.636484 0.431571 0
0.676448 0.441688 0
0.715084 0.454536 0
0.751507 0.469642 0
0.786267 0.487739 0
0.81883 0.508202 0
0.848569 0.530846 0.0314794
0.876081 0.555398 0.0801404
0.901106 0.581109 0.133303
0.923262 0.607858 0.184771
0.942336 0.63418 0.234943
0.958862 0.66067 0.28481
0.972244 0.686213 0.334493
0.982895 0.710399 0.383215
0.271107 0.452735 0.0796521
0.271199 0.452735 0.0796521
0.271855 0.45275 0.0796826
0.27364 0.452796 0.0797894
0.27686 0.452949 0.0800641
0.282338 0.452873 0.0801099
0.290196 0.452918 0.0803235
0.301198 0.453254 0.080766
0.31545 0.453666 0.0809644
0.333043 0.454185 0.0809186
0.353521 0.454429 0.0798657
0.377401 0.455299 0.078294
0.403571 0.456046 0.0747845
0.43212 0.457298 0.0739757
0.46276 0.456214 0.0963607
0.496117 0.457893 0.0796216
0.532464 0.460914 0.0593881
0.570062 0.464561 0.0395209
0.608804 0.469505 0.0217746
0.647822 0.476036 0.00808728
0.686107 0.484627 0
0.723018 0.494972 0
0.758755 0.508202 0.000335698
0.792157 0.523445 0.0133822
0.823789 0.541405 0.0374304
0.852735 0.561242 0.0736553
0.879194 0.582666 0.118654
0.903365 0.605631 0.165331
0.924743 0.629297 0.210941
0.943404 0.653605 0.257969
0.959152 0.677409 0.306218
0.972015 0.700954 0.354238
0.982177 0.723095 0.401282
0.321508 0.5028 0.104387
0.321599 0.5028 0.104387
0.322164 0.5028 0.104417
0.323735 0.502831 0.104463
0.326497 0.502968 0.104616
0.331487 0.503044 0.104677
0.338521 0.503243 0.104845
0.348135 0.503151 0.104738
0.360327 0.503365 0.104784
0.375692 0.503777 0.104662
0.394217 0.504234 0.104021
0.41471 0.504585 0.102388
0.438224 0.505516 0.100282
0.46334 0.506355 0.0967727
0.490379 0.506935 0.106126
0.519692 0.506172 0.12256
0.55256 0.508629 0.106004
0.58732 0.512016 0.0886549
0.623774 0.515953 0.0704967
0.660121 0.521462 0.0564584
0.696681 0.528511 0.047776
0.732143 0.53753 0.0449989
0.76611 0.548226 0.049958
0.798566 0.561303 0.0648814
0.829145 0.576623 0.0906386
0.85687 0.593423 0.122988
0.882612 0.61207 0.159884
0.905806 0.631861 0.199207
0.926375 0.652995 0.241733
0.944457 0.674556 0.28603
0.959564 0.696117 0.331441
0.971756 0.717128 0.377478
0.98146 0.737484 0.423163
0.376898 0.552865 0.131319
0.376974 0.552865 0.131319
0.377462 0.55288 0.131334
0.378622 0.552941 0.131426
0.381109 0.553002 0.131502
0.385367 0.553048 0.131579
0.391302 0.553201 0.131746
0.399817 0.553307 0.131777
0.410468 0.553567 0.131868
0.423301 0.553475 0.131197
0.4392 0.553841 0.130816
0.457221 0.554421 0.130159
0.477348 0.554696 0.128466
0.49955 0.555688 0.126436
0.523033 0.556558 0.123888
0.547997 0.556237 0.142763
0.576761 0.556283 0.151385
0.608454 0.559258 0.138888
0.641108 0.562707 0.126635
0.675074 0.567041 0.115877
0.708766 0.572854 0.108904
0.742199 0.580255 0.107485
0.774639 0.589364 0.11313
0.805753 0.600107 0.125765
0.834607 0.612482 0.145449
0.861769 0.627039 0.171847
0.885985 0.642741 0.202747
0.908385 0.659876 0.237537
0.928267 0.678203 0.276783
0.944915 0.697047 0.317998
0.959289 0.715923 0.361425
0.970764 0.734737 0.404974
0.980102 0.753155 0.448157
0.435752 0.601617 0.16286
0.435813 0.601617 0.16286
0.436225 0.601633 0.16286
0.437339 0.601633 0.162875
0.439506 0.601648 0.16289
0.443046 0.601663 0.162921
0.447959 0.601801 0.163073
0.45507 0.601862 0.163073
0.463951 0.602045 0.163149
0.475013 0.602289 0.163149
0.487922 0.602197 0.162402
0.503365 0.602594 0.162036
0.520775 0.603128 0.161379
0.539269 0.603677 0.160189
0.559594 0.604517 0.158755
0.580804 0.605051 0.166903
0.60473 0.604349 0.184771
0.632441 0.605219 0.186679
0.662028 0.608408 0.178775
0.692439 0.612039 0.171679
0.723171 0.616724 0.167285
0.753933 0.622583 0.167178
0.784283 0.629953 0.172
0.813382 0.638895 0.182666
0.840772 0.649271 0.19971
0.866407 0.660838 0.22121
0.889998 0.674418 0.248875
0.910521 0.688792 0.28043
0.929412 0.704585 0.316747
0.945388 0.720684 0.355108
0.958556 0.737194 0.39556
0.970016 0.754055 0.437125
0.978561 0.770184 0.477394
0.497078 0.648371 0.199451
0.497124 0.648371 0.199435
0.497429 0.648341 0.199435
0.498283 0.648295 0.19939
0.499947 0.648188 0.199313
0.502571 0.648112 0.199252
0.506615 0.648188 0.199359
0.512413 0.648234 0.19939
0.519631 0.648386 0.199542
0.528679 0.6486 0.19942
0.539849 0.648783 0.19939
0.552087 0.648753 0.199054
0.566293 0.649226 0.199039
0.581994 0.649882 0.198749
0.599054 0.65066 0.198535
0.616663 0.651164 0.199969
0.636957 0.650904 0.215686
0.659602 0.650156 0.233326
0.685313 0.65243 0.229892
0.712337 0.655375 0.225849
0.740047 0.659129 0.223545
0.767559 0.663905 0.224674
0.79527 0.669627 0.229755
0.821927 0.67689 0.239231
0.847456 0.685466 0.254322
0.871489 0.695155 0.274311
0.893309 0.706142 0.299168
0.912947 0.718334 0.32871
0.930434 0.731548 0.361227
0.945037 0.745342 0.397299
0.957992 0.759884 0.434867
0.968246 0.774075 0.473274
0.976837 0.788342 0.510903
0.557809 0.692042 0.24094
0.557855 0.692042 0.24094
0.558068 0.692042 0.24094
0.558648 0.692103 0.241001
0.559899 0.692149 0.241093
0.562173 0.692164 0.241154
0.565393 0.692058 0.241108
0.569741 0.691844 0.24097
0.575418 0.691997 0.24123
0.582727 0.692134 0.241459
0.591485 0.692332 0.241733
0.601587 0.692653 0.24213
0.61297 0.692912 0.242115
0.62562 0.693202 0.242359
0.639689 0.693797 0.242969
0.65478 0.694591 0.243656
0.670832 0.694255 0.255024
0.689998 0.693858 0.270634
0.710918 0.693889 0.282032
0.734279 0.696529 0.280232
0.758206 0.699565 0.280034
0.783139 0.703258 0.282307
0.807355 0.707988 0.288319
0.831586 0.713542 0.298146
0.854582 0.72047 0.31194
0.876463 0.728511 0.33109
0.896788 0.737514 0.353887
0.914717 0.747692 0.381094
0.930938 0.758556 0.410895
0.944991 0.770352 0.443976
0.956786 0.782498 0.47866
0.966781 0.795056 0.513664
0.97496 0.807492 0.548623
0.616144 0.732326 0.288869
0.616175 0.732326 0.288869
0.616373 0.732326 0.288884
0.616922 0.732341 0.288899
0.618006 0.732341 0.28896
0.61976 0.732357 0.289052
0.622354 0.732387 0.289189
0.62562 0.732509 0.289509
0.630152 0.732448 0.289601
0.635615 0.732387 0.289509
0.642481 0.732555 0.289998
0.650355 0.732845 0.2907
0.659678 0.733135 0.291417
0.669825 0.733577 0.292424
0.680705 0.733791 0.292927
0.692775 0.734462 0.294392
0.706111 0.734615 0.303166
0.721019 0.734066 0.315908
0.738613 0.733608 0.331563
0.757549 0.734569 0.337545
0.778241 0.737209 0.339467
0.799207 0.740276 0.34342
0.820813 0.743969 0.350179
0.842054 0.748623 0.360525
0.862516 0.754177 0.373877
0.881941 0.760479 0.391562
0.900267 0.767895 0.412711
0.916793 0.776272 0.437201
0.931624 0.785367 0.464942
0.944793 0.795361 0.494957
0.955688 0.805539 0.526085
0.965087 0.816175 0.557733
0.973053 0.827024 0.589731
0.671275 0.768917 0.343816
0.67129 0.768917 0.343816
0.671443 0.768917 0.343832
0.67187 0.768917 0.343893
0.672694 0.768933 0.343984
0.673823 0.768994 0.344244
0.675731 0.769039 0.344549
0.678462 0.76907 0.344915
0.682033 0.769131 0.345357
0.686229 0.769299 0.345953
0.691478 0.769268 0.346334
0.697398 0.769329 0.347204
0.704494 0.769619 0.348409
0.712306 0.770016 0.349966
0.720989 0.770489 0.351766
0.730312 0.770855 0.353292
0.740948 0.770809 0.360922
0.752926 0.770657 0.372396
0.766735 0.770275 0.385473
0.78201 0.769924 0.399573
0.798642 0.771878 0.40322
0.816632 0.774334 0.40853
0.834577 0.777386 0.416144
0.852857 0.781094 0.426368
0.871122 0.785794 0.439704
0.888228 0.790951 0.456031
0.904387 0.796994 0.475441
0.919524 0.803937 0.497627
0.932723 0.811551 0.522255
0.944503 0.819532 0.548699
0.954833 0.828367 0.576791
0.963821 0.837522 0.605142
0.971008 0.846708 0.633234
0.721721 0.801709 0.40798
0.721752 0.801709 0.40798
0.721859 0.801724 0.407996
0.722164 0.801724 0.408072
0.722774 0.80174 0.408194
0.723766 0.801755 0.408408
0.725216 0.801785 0.408728
0.72726 0.801846 0.408988
0.729747 0.801968 0.409461
0.732937 0.80209 0.410285
0.736934 0.802228 0.411261
0.741451 0.802457 0.412558
0.746654 0.802579 0.413947
0.752346 0.802777 0.415656
0.759213 0.803159 0.417319
0.766476 0.803662 0.419837
0.77467 0.803677 0.427283
0.783764 0.803265 0.436469
0.794553 0.803082 0.448173
0.806821 0.802899 0.461265
0.819837 0.803494 0.471122
0.834379 0.805676 0.47715
0.849241 0.808072 0.484871
0.864485 0.811078 0.495033
0.880186 0.814954 0.507652
0.894987 0.819348 0.522377
0.909133 0.824231 0.540093
0.922332 0.829877 0.559762
0.934279 0.836362 0.581506
0.945129 0.843336 0.604913
0.954681 0.850645 0.629175
0.96286 0.858274 0.65388
0.969741 0.866072 0.678218
0.767102 0.830991 0.479011
0.767117 0.830991 0.479026
0.767193 0.830991 0.479057
0.767407 0.830991 0.479118
0.767849 0.831006 0.479255
0.768566 0.831037 0.4795
0.769528 0.831098 0.479912
0.770825 0.831189 0.480476
0.772732 0.831266 0.481147
0.775143 0.831373 0.482017
0.778073 0.83151 0.483024
0.781323 0.831769 0.484138
0.785321 0.831998 0.485725
0.789776 0.832303 0.487678
0.794781 0.832654 0.489982
0.799985 0.832776 0.492592
0.806378 0.832624 0.499336
0.813489 0.832578 0.507546
0.821622 0.832578 0.517174
0.830594 0.832364 0.52781
0.841031 0.832425 0.540429
0.852186 0.83389 0.547524
0.864561 0.836103 0.555398
0.876921 0.83859 0.564691
0.88983 0.84184 0.576135
0.90248 0.845518 0.589395
0.914595 0.849729 0.60499
0.926238 0.854414 0.621958
0.93669 0.859709 0.640925
0.946303 0.865614 0.66096
0.955154 0.871916 0.681727
0.962554 0.878508 0.702724
0.969055 0.885176 0.723491
0.807019 0.857481 0.554269
0.807034 0.857466 0.554269
0.807095 0.857481 0.554299
0.807248 0.857481 0.554376
0.807568 0.857496 0.554528
0.808087 0.857527 0.554772
0.80885 0.857572 0.555138
0.809918 0.857618 0.555642
0.811307 0.857694 0.556329
0.813046 0.857801 0.557198
0.815015 0.857771 0.558114
0.817182 0.857908 0.559411
0.820142 0.858137 0.560632
0.823484 0.858412 0.562356
0.826978 0.858793 0.564538
0.831052 0.858961 0.567987
0.835554 0.858976 0.573648
0.84065 0.858793 0.579828
0.846952 0.858763 0.587854
0.853925 0.858946 0.596811
0.86157 0.859068 0.607385
0.870436 0.859663 0.617472
0.880339 0.861631 0.624582
0.890074 0.863798 0.632944
0.900572 0.866484 0.642908
0.910979 0.869566 0.654734
0.921187 0.873167 0.667872
0.931167 0.877241 0.682383
0.940551 0.881926 0.698558
0.949142 0.8869 0.715251
0.95697 0.892195 0.732677
0.963729 0.897932 0.750439
0.969863 0.903716 0.767865
0.841825 0.880903 0.628733
0.841825 0.880903 0.628748
0.841871 0.880919 0.628763
0.841978 0.880919 0.628824
0.842206 0.880949 0.628977
0.842573 0.88098 0.629191
0.843107 0.88101 0.629511
0.843839 0.881086 0.629984
0.844816 0.881178 0.630579
