public/textures/grade/Nikon/Cliff-NLog.cube
TITLE "Generated by Resolve"
LUT_3D_SIZE 9
0 0 0.0160372
0.00839246 0 0.0150454
0.102464 0 0
0.256443 0.0153506 0
0.426825 0.0446326 0
0.60119 0.131624 0
0.771008 0.280964 0
0.905684 0.471733 0.037705
0.983139 0.63856 0.298695
0 0.0122072 0.012604
0.0115816 0.0125887 0.0113222
0.105425 0.0127108 0
0.261585 0.025391 0
0.430655 0.0558785 0
0.604547 0.140505 0
0.772549 0.287007 0
0.906279 0.475364 0.0407416
0.983474 0.640238 0.300313
0.029633 0.1019 0
0.042771 0.102251 0
0.124392 0.102159 0
0.279301 0.103532 0
0.448463 0.128237 0
0.622568 0.198169 0
0.78436 0.32813 0
0.910018 0.498482 0.0612955
0.983673 0.651606 0.311986
0.122133 0.263508 0.0150454
0.130465 0.263661 0.0154574
0.187106 0.265614 0.0177615
0.315114 0.26743 0.0069276
0.480156 0.278599 0
0.651987 0.32282 0
0.803845 0.418631 0
0.917235 0.551858 0.119753
0.983658 0.679255 0.34287
0.271107 0.452735 0.0796521
0.27686 0.452949 0.0800641
0.31545 0.453666 0.0809644
0.403571 0.456046 0.0747845
0.532464 0.460914 0.0593881
0.686107 0.484627 0
0.823789 0.541405 0.0374304
0.924743 0.629297 0.210941
0.982177 0.723095 0.401282
0.497078 0.648371 0.199451
0.499947 0.648188 0.199313
0.519631 0.648386 0.199542
0.566293 0.649226 0.199039
0.636957 0.650904 0.215686
0.740047 0.659129 0.223545
0.847456 0.685466 0.254322
0.930434 0.731548 0.361227
0.976837 0.788342 0.510903
0.721721 0.801709 0.40798
0.722774 0.80174 0.408194
0.729747 0.801968 0.409461
0.746654 0.802579 0.413947
0.77467 0.803677 0.427283
0.819837 0.803494 0.471122
0.880186 0.814954 0.507652
0.934279 0.836362 0.581506
0.969741 0.866072 0.678218
0.872206 0.902251 0.699138
0.872465 0.902281 0.699336
0.874311 0.90251 0.700694
0.87866 0.902998 0.703838
0.886687 0.903761 0.713161
0.901076 0.904601 0.734051
0.924376 0.909514 0.763394
0.952163 0.921126 0.801007
0.975433 0.937453 0.84741
0.958709 0.968429 0.898054
0.958785 0.96846 0.898131
0.959304 0.968612 0.89868
0.960693 0.969055 0.90013
0.962905 0.969833 0.903319
0.967193 0.971206 0.909926
0.975326 0.974258 0.922377
0.987518 0.981262 0.938277
1 0.990738 0.957
0 0 0.0365148
0.00927749 0 0.0358282
0.106737 0 0.0137636
0.26479 0.0125582 0
0.434119 0.0483253 0
0.608072 0.134478 0
0.774792 0.282353 0
0.907179 0.472816 0.0519417
0.98352 0.639109 0.303853
0 0.0140536 0.0336919
0.0125124 0.0144503 0.0326238
0.108232 0.0148165 0.0124514
0.26833 0.0252995 0
0.437903 0.0596475 0
0.611261 0.143206 0
0.776654 0.288746 0
0.907774 0.476417 0.0548714
0.983825 0.640772 0.305821
0.0282292 0.105257 0.0151675
0.0414893 0.10544 0.0153811
0.124651 0.105211 0.0115206
0.282902 0.106859 0
0.454612 0.13106 0
0.628244 0.200122 0
0.787305 0.329366 0
0.911192 0.499306 0.0750591
0.983963 0.65211 0.317174
0.121355 0.2663 0.0265202
0.130037 0.266758 0.0272374
0.187442 0.268528 0.0292058
0.317082 0.269947 0.0180819
0.483543 0.280705 0
0.655787 0.324392 0
0.806348 0.419883 0
0.918029 0.552712 0.131075
0.983841 0.679713 0.34786
0.271138 0.454948 0.0883497
0.276555 0.45478 0.0882887
0.31574 0.455787 0.089601
0.404364 0.457923 0.0834974
0.533684 0.462257 0.0677195
0.687694 0.485679 0.00793469
0.825086 0.542275 0.0493782
0.925322 0.629847 0.218418
0.982238 0.723461 0.405417
0.496834 0.649058 0.20502
0.49987 0.649042 0.205035
0.519722 0.649348 0.205386
0.566461 0.650126 0.204868
0.637232 0.651713 0.221134
0.740398 0.659739 0.229618
0.847761 0.685954 0.260014
0.93048 0.731899 0.365881
0.976776 0.788602 0.513817
0.721706 0.801999 0.411475
0.722744 0.802014 0.411688
0.729625 0.802243 0.413352
0.746471 0.802731 0.41767
0.774639 0.803983 0.430488
0.819745 0.803738 0.474174
0.880034 0.815122 0.510231
0.934203 0.836561 0.58381
0.969665 0.866224 0.679713
0.872206 0.902342 0.700465
0.872465 0.902373 0.700664
0.874311 0.902617 0.702007
0.87866 0.903105 0.705119
0.886732 0.903899 0.714092
0.901076 0.904723 0.735088
0.924376 0.909621 0.764324
0.952148 0.921233 0.80174
0.975433 0.937545 0.847913
0.958755 0.968475 0.89836
0.958831 0.968505 0.898451
0.95935 0.968658 0.898985
0.960739 0.9691 0.90042
0.962951 0.969894 0.903517
0.967224 0.971267 0.910155
0.975357 0.974319 0.922591
0.987549 0.981323 0.938476
1 0.990768 0.957137
0.00195315 0.0102693 0.161852
0.0149233 0.0109407 0.162814
0.103426 0.0128939 0.152331
0.28661 0.0133211 0.0828107
0.463493 0.0606394 0.00863661
0.636744 0.151904 0
0.794171 0.29427 0
0.9149 0.479606 0.138125
0.985412 0.642741 0.339651
0.00584421 0.0259556 0.159335
0.0189364 0.0267185 0.159762
0.106676 0.0287022 0.14876
0.290669 0.0272068 0.079118
0.46334 0.0812543 0.0154879
0.639323 0.15993 0
0.795712 0.30045 0
0.915358 0.483101 0.140215
0.985428 0.64445 0.341146
0.0322423 0.118288 0.127108
0.0437476 0.119173 0.126787
0.122332 0.121599 0.120531
0.292866 0.126619 0.076997
0.476829 0.148562 0.0132906
0.653162 0.214008 0
0.804227 0.339712 0
0.918318 0.505837 0.154788
0.985275 0.655589 0.351553
0.118257 0.281727 0.102708
0.127489 0.28188 0.102846
0.18822 0.282856 0.103578
0.325277 0.282704 0.0921492
0.499397 0.29218 0.0238041
0.673075 0.33434 0
0.818112 0.427787 0.020325
0.923415 0.557931 0.193118
0.984833 0.682795 0.378882
0.271534 0.466484 0.140093
0.27744 0.466621 0.140368
0.317281 0.466941 0.141131
0.408194 0.468025 0.136736
0.540642 0.471031 0.127871
0.696284 0.492638 0.0801556
0.83122 0.54757 0.127382
0.928298 0.633677 0.263294
0.982498 0.725734 0.431418
0.497063 0.654887 0.243793
0.50016 0.654887 0.243824
0.519844 0.654643 0.243839
0.567269 0.655421 0.24387
0.638468 0.656321 0.255497
0.742031 0.663722 0.268208
0.849378 0.689021 0.297551
0.930343 0.733959 0.394842
0.976364 0.790356 0.53254
0.721294 0.803784 0.436255
0.722347 0.8038 0.436454
0.729168 0.804028 0.438041
0.746059 0.80441 0.441962
0.774243 0.805615 0.45185
0.819165 0.80528 0.495735
0.879255 0.816449 0.529305
0.933745 0.837858 0.598566
0.969253 0.867353 0.689296
0.872206 0.902983 0.708858
0.872465 0.902998 0.709026
0.874006 0.90312 0.710216
0.878706 0.903807 0.713344
0.886839 0.904784 0.72137
0.901167 0.905623 0.741695
0.924346 0.910369 0.770626
0.952056 0.921965 0.806455
0.975448 0.938155 0.851316
0.959075 0.968811 0.900465
0.959152 0.968841 0.900542
0.95967 0.969009 0.901076
0.960922 0.969482 0.902449
0.963241 0.970306 0.905211
0.967498 0.971679 0.911742
0.975601 0.974731 0.924056
0.987793 0.981674 0.939574
1 0.991089 0.958129
0.025452 0.0459602 0.343587
0.0370031 0.046891 0.346014
0.112932 0.05037 0.347387
0.279408 0.0578012 0.317235
0.486931 0.0771344 0.244144
0.684535 0.134905 0.149111
0.813336 0.325582 0.197147
0.924453 0.496681 0.278065
0.986542 0.651423 0.415122
0.0299382 0.059678 0.342443
0.0413214 0.0605173 0.344335
0.116564 0.0641794 0.345464
0.282475 0.0709239 0.316045
0.490227 0.0889143 0.242634
0.683864 0.151995 0.154513
0.814755 0.33106 0.197787
0.924758 0.499962 0.279118
0.986481 0.653071 0.416266
0.0583963 0.143114 0.322698
0.0686351 0.144045 0.323705
0.13785 0.147753 0.323781
0.297337 0.152148 0.301564
0.505516 0.161379 0.229618
0.673899 0.247944 0.191165
0.821561 0.366552 0.200168
0.926375 0.520958 0.286732
0.986099 0.663767 0.423865
0.12697 0.304311 0.273884
0.135134 0.305043 0.273762
0.189975 0.307881 0.271061
0.329747 0.308522 0.259953
0.510353 0.318486 0.221042
0.688655 0.359136 0.191257
0.831434 0.44712 0.214145
0.929046 0.569863 0.308095
0.985092 0.689906 0.446067
0.270085 0.486549 0.262135
0.276631 0.486549 0.262196
0.317983 0.486397 0.26215
0.412726 0.485924 0.258473
0.548058 0.487419 0.253651
0.705562 0.50724 0.229831
0.838972 0.559808 0.261494
0.931167 0.642466 0.355322
0.981796 0.731655 0.488548
0.497246 0.665385 0.33228
0.50016 0.6654 0.332341
0.520378 0.66479 0.332021
0.56817 0.66479 0.331884
0.640421 0.666163 0.334569
0.743923 0.671397 0.352438
0.85066 0.695506 0.377523
0.930114 0.739513 0.458289
0.975082 0.794568 0.574212
0.720424 0.807401 0.491875
0.721477 0.807416 0.492073
0.728344 0.807614 0.493462
0.74519 0.808148 0.496849
0.773709 0.809537 0.503746
0.81767 0.808606 0.542992
0.878111 0.819928 0.571878
0.93257 0.840757 0.631296
0.9682 0.870115 0.711345
0.872145 0.90457 0.728786
0.872374 0.904616 0.728954
0.874189 0.904845 0.730144
0.878859 0.905486 0.733196
0.886793 0.90663 0.738827
0.90135 0.907729 0.757549
0.924605 0.9122 0.785122
0.952071 0.92372 0.817929
0.975647 0.93959 0.859312
0.959838 0.969726 0.905364
0.959915 0.969757 0.905425
0.960388 0.969924 0.905913
0.961532 0.970428 0.907225
0.96379 0.971176 0.909468
0.968215 0.972732 0.915709
0.976165 0.97583 0.927535
0.988159 0.982422 0.942611
1 0.991928 0.960555
0.075761 0.112566 0.512581
0.0852064 0.1131 0.514672
0.148775 0.117281 0.522423
0.294041 0.125017 0.513527
0.483604 0.146899 0.480934
0.6869 0.213565 0.420233
0.853361 0.330404 0.376944
0.924636 0.526406 0.435676
0.984024 0.666285 0.515358
0.0800641 0.12372 0.512734
0.08925 0.124346 0.514748
0.152224 0.128313 0.522148
0.296559 0.135805 0.512963
0.485634 0.156756 0.480644
0.688685 0.221744 0.419867
0.853971 0.336538 0.376791
0.92491 0.529244 0.436027
0.983978 0.667811 0.516136
0.106874 0.19382 0.506706
0.11574 0.194537 0.508064
0.174121 0.198123 0.512581
0.311879 0.20412 0.504891
0.496391 0.220691 0.475685
0.697185 0.273213 0.415061
0.848493 0.38471 0.384649
0.926528 0.547692 0.439017
0.983841 0.678096 0.521996
0.17203 0.336873 0.475959
0.17911 0.337209 0.476081
0.227665 0.339864 0.476844
0.344869 0.343816 0.471351
0.512688 0.354818 0.447684
0.708736 0.38378 0.398215
0.830549 0.480781 0.40528
0.928954 0.591211 0.448554
0.982254 0.702266 0.536889
0.287419 0.509636 0.439796
0.292622 0.509896 0.439582
0.327764 0.510979 0.437888
0.413504 0.512657 0.432593
0.550927 0.512383 0.424491
0.707347 0.53106 0.406165
0.839323 0.579965 0.418585
0.929686 0.656977 0.474052
0.978851 0.741543 0.567712
0.49781 0.679332 0.459449
0.500954 0.67924 0.459434
0.521599 0.678752 0.459373
0.569314 0.678004 0.45861
0.6421 0.679179 0.456321
0.743465 0.683116 0.469139
0.849393 0.70605 0.486259
0.927504 0.748241 0.544717
0.972045 0.80145 0.632517
0.720104 0.81323 0.571054
0.721126 0.813245 0.571176
0.727825 0.813413 0.572152
0.744747 0.813901 0.574701
0.77261 0.815 0.579324
0.816419 0.815274 0.606271
0.876356 0.825299 0.631815
0.930449 0.845823 0.678721
0.966644 0.874388 0.744274
0.87303 0.907423 0.759243
0.873259 0.907423 0.759365
0.874907 0.907515 0.760189
0.879362 0.908202 0.76289
0.8878 0.909468 0.767834
0.90219 0.911299 0.781521
0.924712 0.915267 0.807385
0.952361 0.926528 0.835599
0.975677 0.942168 0.872099
0.960937 0.971313 0.913497
0.960998 0.971328 0.913558
0.961425 0.97145 0.913924
0.962692 0.971908 0.915068
0.965087 0.972824 0.917082
0.969619 0.974533 0.922667
0.977386 0.977661 0.9337
0.989242 0.984009 0.947982
1 0.993423 0.964782
0.174838 0.231876 0.671183
0.182223 0.232547 0.67248
0.231342 0.236301 0.67776
0.3458 0.243641 0.679332
0.505943 0.260655 0.667109
0.685908 0.310597 0.644633
0.840848 0.41828 0.60679
0.945739 0.551965 0.593515
0.974197 0.693858 0.640421
0.178317 0.239872 0.671183
0.185687 0.240513 0.672465
0.234363 0.244282 0.677577
0.347372 0.25153 0.678721
0.50753 0.268238 0.667063
0.686824 0.317098 0.644617
0.84097 0.422751 0.606302
0.945678 0.554711 0.5935
0.974182 0.69514 0.640787
0.201221 0.292714 0.669276
0.208011 0.293019 0.669886
0.25388 0.296071 0.673777
0.361639 0.302373 0.674784
0.515633 0.316243 0.663783
0.690303 0.358572 0.6421
0.842268 0.452003 0.603616
0.945312 0.572366 0.593759
0.974044 0.703655 0.643107
0.257557 0.404013 0.65594
0.263569 0.404349 0.656275
0.302296 0.406394 0.657816
0.395651 0.410834 0.657557
0.532433 0.419242 0.648875
0.694667 0.450767 0.628092
0.843961 0.517082 0.596658
0.923705 0.624994 0.605829
0.973342 0.724788 0.651194
0.35581 0.546197 0.632486
0.36025 0.546319 0.632456
0.388708 0.547036 0.631952
0.458274 0.548867 0.629618
0.564904 0.552728 0.623652
0.708003 0.569345 0.605951
0.82768 0.617441 0.598718
0.920607 0.683925 0.617807
0.971008 0.759304 0.668696
0.51957 0.700221 0.619196
0.521843 0.700236 0.619058
0.537758 0.700145 0.618051
0.577127 0.700587 0.61619
0.646311 0.699763 0.615366
0.743557 0.704265 0.616312
0.845548 0.725521 0.621912
0.921889 0.764523 0.654429
0.966659 0.813779 0.710597
0.724712 0.823102 0.674128
0.725658 0.823087 0.674189
0.731716 0.822919 0.67454
0.747723 0.823285 0.676127
0.774472 0.824262 0.678981
0.817731 0.827085 0.689769
0.874708 0.835081 0.711345
0.928252 0.854765 0.743191
0.964446 0.88217 0.790906
0.875929 0.912245 0.803326
0.876158 0.912261 0.803403
0.877882 0.912459 0.804135
0.882216 0.913146 0.806195
0.890196 0.914488 0.810056
0.90457 0.917174 0.817792
0.926207 0.920607 0.840192
0.953124 0.931701 0.862348
0.976516 0.946746 0.892119
0.963638 0.974289 0.927062
0.963714 0.974319 0.927123
0.964202 0.974487 0.927535
0.965286 0.974975 0.928618
0.967453 0.975738 0.930236
0.971878 0.977707 0.934356
0.979675 0.980758 0.943893
0.990936 0.986847 0.957
1 0.996048 0.971984
0.338216 0.408957 0.797116
0.342809 0.409384 0.797513
0.374792 0.411353 0.798962
0.450126 0.416983 0.800702
0.561349 0.428305 0.797925
0.703227 0.458457 0.789105
0.833265 0.525582 0.775097
0.927337 0.62681 0.753368
0.980804 0.725811 0.755962
0.340352 0.413993 0.796902
0.344884 0.413993 0.796887
0.377035 0.416266 0.798688
0.45153 0.421332 0.800031
0.562402 0.432822 0.797864
0.703792 0.462394 0.789059
0.832975 0.528557 0.774441
0.927291 0.628717 0.753292
0.980667 0.726955 0.7561
0.357137 0.445579 0.795193
0.3617 0.445777 0.795316
0.391424 0.447608 0.796353
0.46247 0.452171 0.797116
0.568551 0.461845 0.794781
0.705928 0.488487 0.786465
0.832563 0.548989 0.771939
0.926482 0.641306 0.752209
0.979568 0.734279 0.757046
0.398474 0.515816 0.788174
0.402472 0.515999 0.788281
0.428733 0.517403 0.788922
0.490318 0.520272 0.78851
0.584955 0.527382 0.786252
0.710552 0.547097 0.778531
0.831876 0.596124 0.765103
0.924895 0.671672 0.750408
0.977096 0.752911 0.760311
0.470512 0.612558 0.776425
0.473503 0.612573 0.776333
0.493462 0.612955 0.775906
0.541222 0.614588 0.775006
0.616342 0.618769 0.772885
0.722698 0.630823 0.76759
0.833524 0.664881 0.756436
0.922881 0.719081 0.750668
0.957855 0.789837 0.774548
0.589624 0.729763 0.763821
0.591348 0.729717 0.763684
0.603311 0.730007 0.763363
0.632609 0.730846 0.762524
0.679805 0.732692 0.760983
0.754406 0.739055 0.760159
0.843946 0.757031 0.755703
0.913161 0.792187 0.767712
0.959182 0.835019 0.796262
0.744686 0.839658 0.779355
0.745434 0.839704 0.779385
0.75021 0.840009 0.779706
0.762524 0.840604 0.780346
0.786511 0.840909 0.782589
0.825345 0.843717 0.786038
0.876967 0.851606 0.79736
0.927245 0.869886 0.815747
0.962615 0.895094 0.846281
0.884367 0.92076 0.856214
0.884596 0.92079 0.856275
0.886152 0.921019 0.856779
0.889982 0.921675 0.858167
0.896971 0.922683 0.860685
0.910002 0.925246 0.865553
0.930419 0.929717 0.880003
0.955962 0.940002 0.896635
0.978576 0.954391 0.918746
0.96849 0.979461 0.946151
0.968536 0.979492 0.946197
0.968948 0.97966 0.946517
0.969985 0.979965 0.947219
0.972229 0.980789 0.948699
0.97641 0.982666 0.95201
0.983871 0.985931 0.958923
0.994385 0.991684 0.970214
1 1 0.982864
0.534188 0.595132 0.878782
0.536553 0.595315 0.878813
0.552377 0.596521 0.879011
0.590555 0.599374 0.878706
0.651301 0.605402 0.877638
0.740398 0.621027 0.874769
0.839246 0.655619 0.868589
0.915633 0.71548 0.858518
0.963638 0.784985 0.853025
0.535592 0.597452 0.878538
0.537682 0.597681 0.878645
0.553353 0.598505 0.878447
0.591882 0.601511 0.878706
0.652033 0.607584 0.877394
0.740719 0.623011 0.87454
0.839277 0.657282 0.868376
0.915557 0.716701 0.858396
0.963546 0.785763 0.853071
0.544884 0.61239 0.876921
0.547189 0.612528 0.876921
0.562173 0.613138 0.876738
0.599145 0.616068 0.876936
0.657084 0.621698 0.875685
0.743008 0.635935 0.872831
0.839506 0.66807 0.866957
0.915022 0.724681 0.857542
0.962783 0.790799 0.853147
0.568887 0.647547 0.87303
0.570962 0.647654 0.873045
0.584695 0.648432 0.873228
0.617243 0.650462 0.87274
0.670008 0.655161 0.871595
0.749493 0.66714 0.869383
0.84062 0.694575 0.86392
0.914 0.744656 0.855726
0.961959 0.803754 0.854749
0.611597 0.701289 0.867308
0.613001 0.701442 0.867353
0.623926 0.702052 0.867231
0.650538 0.703395 0.866453
0.694423 0.706691 0.865461
0.762676 0.715496 0.863325
0.844327 0.73666 0.859785
0.913344 0.77702 0.854109
0.960769 0.825833 0.858167
0.686564 0.777005 0.859541
0.687572 0.776989 0.859449
0.694636 0.777371 0.859297
0.712673 0.778561 0.859052
0.742702 0.78085 0.858427
0.791867 0.786358 0.857755
0.856138 0.800397 0.858076
0.917128 0.827771 0.857908
0.9608 0.86273 0.869154
0.793545 0.861357 0.863722
0.793957 0.861433 0.863767
0.797482 0.861708 0.863996
0.806119 0.862593 0.864454
0.820981 0.864118 0.865187
0.847578 0.867796 0.867308
0.887724 0.876112 0.871717
0.930083 0.891981 0.881117
0.962783 0.914107 0.899031
0.900557 0.933623 0.905119
0.900755 0.933654 0.90518
0.902052 0.933837 0.905562
0.905241 0.934417 0.906584
0.91136 0.935485 0.908446
0.922255 0.937819 0.911971
0.940154 0.943023 0.918608
0.962341 0.95201 0.931441
0.982956 0.965087 0.947066
0.976959 0.986831 0.967575
0.976989 0.986862 0.967605
0.977295 0.98703 0.967865
0.978271 0.987457 0.968475
0.980133 0.988266 0.96965
0.983612 0.989868 0.971878
0.990295 0.993255 0.976623
1 0.99884 0.985916
1 1 0.996094
0.69688 0.736675 0.925734
0.697917 0.736767 0.925719
0.704952 0.737316 0.925643
0.721416 0.738979 0.925017
0.749798 0.74255 0.923903
0.796933 0.751049 0.922255
0.858991 0.76939 0.919081
0.917113 0.802396 0.915358
0.956588 0.846586 0.913542
0.697765 0.737621 0.92575
0.698787 0.737713 0.925734
0.705364 0.738125 0.925307
0.722026 0.739971 0.92488
0.750301 0.743511 0.923781
0.797116 0.751827 0.921996
0.859129 0.77023 0.918975
0.917128 0.803067 0.915328
0.956573 0.847074 0.913573
0.702434 0.744106 0.924468
0.70341 0.744198 0.924437
0.709804 0.7449 0.924331
0.72578 0.74641 0.923644
0.753902 0.750011 0.92311
0.799603 0.758053 0.921447
0.859861 0.775616 0.918135
0.917266 0.80734 0.915053
0.956497 0.850141 0.913771
0.715328 0.760601 0.922469
0.716045 0.760739 0.922499
0.721859 0.761028 0.922042
0.736919 0.762768 0.921752
0.762585 0.765927 0.920913
0.805142 0.773373 0.919402
0.862684 0.789425 0.91696
0.917891 0.818631 0.914656
0.956771 0.858579 0.914809
0.738369 0.788022 0.918959
0.739132 0.788083 0.918929
0.74435 0.788571 0.918776
0.756893 0.78999 0.918486
0.779065 0.792676 0.917723
0.816587 0.79881 0.91664
0.868391 0.812634 0.915145
0.919585 0.837842 0.914763
0.957122 0.872938 0.916716
0.781842 0.832395 0.914839
0.782361 0.83241 0.914794
0.785687 0.8327 0.914626
0.794995 0.833875 0.91458
0.811246 0.835981 0.914275
0.840116 0.840955 0.914366
0.881636 0.851469 0.914733
0.925566 0.871015 0.917952
0.960143 0.898512 0.922988
0.849577 0.890715 0.917815
0.849882 0.890761 0.917845
0.851987 0.891051 0.917983
0.857053 0.891951 0.918273
0.866377 0.89366 0.91899
0.883406 0.897139 0.920485
0.910277 0.904448 0.923888
0.941665 0.917845 0.92987
0.969833 0.93611 0.939834
0.926589 0.949294 0.943511
0.926711 0.949325 0.943542
0.927535 0.949554 0.943771
0.929686 0.950164 0.944366
0.933547 0.951385 0.945556
0.941009 0.953765 0.947951
0.954238 0.958572 0.952941
0.97232 0.966751 0.960998
0.990143 0.978622 0.972396
0.988144 0.996536 0.987259
0.98819 0.996551 0.987274
0.988495 0.996689 0.987457
0.989319 0.99707 0.987945
0.990723 0.997665 0.988724
0.993744 0.999268 0.990631
0.999405 1 0.994324
1 1 1
1 1 1
