public/textures/grade/Nikon/Gems-NLog.cube
TITLE "Generated by Resolve"
LUT_3D_SIZE 9
0.00230411 0.00726329 0.0174411
0.0087129 0.00833143 0.0145113
0.0775616 0.0105898 0
0.259174 0.0395514 0
0.500145 0.139818 0
0.408667 0.324102 0.237491
0.460273 0.460273 0.460273
0.826505 0.569558 0.323079
0.975296 0.716457 0.468009
0 0.0152132 0.0177157
0.00775158 0.0155795 0.0145724
0.078294 0.0178683 0
0.258793 0.0451057 0
0.4981 0.143359 0
0.417395 0.324208 0.228229
0.461769 0.461769 0.461769
0.838819 0.570367 0.314458
0.974319 0.718288 0.471229
0 0.0753643 0.0233768
0 0.0775769 0.0189212
0.0625925 0.0793469 0.00415045
0.243366 0.0973373 0
0.484794 0.168002 0
0.477333 0.32459 0.160891
0.481056 0.475486 0.469184
0.897154 0.579126 0.280201
0.967437 0.730175 0.49247
0 0.238071 0.112657
0 0.2392 0.110231
0.0312505 0.245304 0.0905623
0.214145 0.243061 0.0687266
0.448951 0.269535 0
0.634897 0.359823 0.0187991
0.723491 0.494179 0.233341
0.940902 0.617777 0.296925
0.952132 0.75903 0.544137
0.112581 0.45127 0.299275
0.116335 0.451637 0.298558
0.141939 0.454307 0.292409
0.23209 0.461479 0.276097
0.435767 0.46598 0.260792
0.666407 0.505013 0.223484
0.8392 0.586465 0.26743
0.918105 0.69572 0.419623
0.934798 0.803922 0.626429
0.351354 0.681956 0.490349
0.353826 0.682368 0.48957
0.369512 0.685161 0.483497
0.424201 0.689342 0.47657
0.544808 0.68574 0.488258
0.685985 0.704219 0.470985
0.813962 0.74229 0.508827
0.890455 0.802274 0.613016
0.927794 0.867369 0.747875
0.697139 0.84303 0.696239
0.698528 0.843015 0.696574
0.707683 0.84303 0.698817
0.729885 0.843595 0.704204
0.76376 0.846326 0.712627
0.812696 0.855314 0.726879
0.870283 0.875502 0.755718
0.917479 0.903487 0.815564
0.950011 0.935729 0.882765
0.920546 0.946166 0.908263
0.920745 0.946227 0.90837
0.922042 0.946654 0.909178
0.925261 0.947616 0.910979
0.931136 0.949722 0.914702
0.941329 0.954025 0.921904
0.956832 0.962448 0.935836
0.974121 0.974731 0.956298
0.989425 0.988708 0.980743
1 1 1
1 1 1
1 1 1
1 1 1
1 1 1
1 1 1
1 1 1
1 1 1
1 1 1
0.00151064 0.007187 0.0321965
0.00819409 0.00869764 0.0293889
0.0755932 0.0142367 0.0106661
0.262669 0.0388952 0
0.502556 0.13579 0
0.424887 0.324437 0.223758
0.462593 0.462593 0.462593
0.83653 0.569375 0.318059
0.975677 0.717021 0.471778
0 0.0145113 0.0364233
0.00920119 0.016022 0.0301366
0.0769665 0.0206455 0.00973526
0.261418 0.0458686 0
0.500877 0.140337 0
0.433677 0.324498 0.214466
0.464088 0.464088 0.464088
0.847974 0.570291 0.31043
0.974792 0.718837 0.475044
0 0.0762188 0.0404974
0 0.0780346 0.0368658
0.0644236 0.0823529 0.0197757
0.244587 0.10042 0
0.487282 0.169955 0
0.492866 0.32459 0.148165
0.491218 0.476509 0.460136
0.902312 0.579446 0.280491
0.967803 0.730724 0.49601
0 0.239322 0.127062
0.00296025 0.240116 0.124498
0.0361181 0.247211 0.10457
0.215763 0.245136 0.0843977
0.450355 0.271458 0
0.643412 0.360739 0.0180972
0.733394 0.494499 0.227451
0.942702 0.618402 0.300389
0.952499 0.759518 0.547219
0.117876 0.452293 0.304936
0.121431 0.452644 0.304234
0.146853 0.455299 0.298253
0.23241 0.463355 0.280278
0.436652 0.467338 0.266499
0.66746 0.506233 0.228412
0.840208 0.58732 0.270756
0.918669 0.69633 0.423255
0.935149 0.804334 0.628916
0.353033 0.68246 0.492622
0.355352 0.68275 0.491768
0.371267 0.685618 0.485985
0.42446 0.690227 0.47834
0.545281 0.686458 0.490394
0.686534 0.704814 0.473716
0.81445 0.742794 0.511864
0.890837 0.802686 0.615579
0.928069 0.867674 0.749523
0.697444 0.843519 0.698085
0.698848 0.843503 0.698421
0.707988 0.843503 0.70071
0.73022 0.844038 0.706157
0.764126 0.846708 0.714672
0.813016 0.855619 0.728862
0.870573 0.875776 0.757443
0.917693 0.903716 0.816815
0.950134 0.935851 0.883406
0.920699 0.946319 0.908827
0.920897 0.94638 0.908934
0.922194 0.946792 0.909728
0.925368 0.947723 0.911467
0.931289 0.949859 0.915175
0.941466 0.954131 0.922393
0.956924 0.962524 0.936202
0.974197 0.974807 0.956573
0.989471 0.988769 0.980896
1 1 1
1 1 1
1 1 1
1 1 1
1 1 1
1 1 1
1 1 1
1 1 1
1 1 1
0 0.00758373 0.153292
0.00151064 0.0104219 0.151476
0.0471962 0.0235447 0.157839
0.243183 0.0761273 0.0903029
0.512123 0.149416 0
0.542138 0.320745 0.132998
0.476127 0.476127 0.476127
0.896391 0.568292 0.299367
0.978271 0.720821 0.497826
0 0.0156405 0.153063
0.00215152 0.0183719 0.150927
0.0517586 0.0319982 0.152682
0.247166 0.0777295 0.0846113
0.509682 0.154406 0
0.549157 0.320607 0.125582
0.485267 0.476432 0.467674
0.902205 0.569345 0.296208
0.977234 0.722622 0.500847
0 0.0826276 0.170993
0 0.0847028 0.166491
0.076463 0.0946517 0.128054
0.243961 0.116442 0.0746624
0.491402 0.181918 0
0.595605 0.322393 0.0793317
0.564401 0.4795 0.394766
0.934478 0.581201 0.288487
0.970092 0.73431 0.520287
0.0410925 0.242786 0.195071
0.0471656 0.243702 0.193774
0.0882429 0.248249 0.182605
0.222477 0.254627 0.15938
0.456886 0.281407 0.0731212
0.687617 0.365118 0.033402
0.792279 0.495064 0.201877
0.953429 0.622644 0.326162
0.954803 0.76286 0.568734
0.146502 0.457069 0.338399
0.149599 0.457481 0.337957
0.17351 0.459937 0.332738
0.239643 0.471397 0.308995
0.441032 0.474464 0.299168
0.672847 0.512581 0.257404
0.846159 0.592126 0.296056
0.922423 0.700236 0.448768
0.937392 0.80708 0.646036
0.365423 0.684535 0.510796
0.36791 0.684916 0.510094
0.384421 0.687861 0.505226
0.424872 0.696086 0.491814
0.547906 0.690501 0.505959
0.690074 0.708537 0.493355
0.817716 0.746105 0.532403
0.893111 0.805035 0.632212
0.929824 0.869673 0.760784
0.699245 0.846922 0.710811
0.700679 0.846876 0.711177
0.709987 0.846769 0.713542
0.732021 0.846738 0.718761
0.766262 0.849027 0.727535
0.81529 0.85771 0.741756
0.872206 0.877409 0.768231
0.919188 0.905272 0.824979
0.951125 0.93695 0.888319
0.921798 0.947295 0.912459
0.921996 0.947356 0.912581
0.923232 0.947738 0.913283
0.926375 0.948653 0.915007
0.932296 0.950729 0.918639
0.942412 0.95494 0.925566
0.957641 0.963165 0.93872
0.974777 0.975357 0.958389
0.989853 0.989166 0.981872
1 1 1
1 1 1
1 1 1
1 1 1
1 1 1
1 1 1
1 1 1
1 1 1
1 1 1
0 0.0198215 0.397467
0 0.0230411 0.397116
0.0454719 0.0434424 0.394446
0.171069 0.088014 0.43061
0.41239 0.268925 0.337469
0.772961 0.308629 0.174472
0.815702 0.451041 0.258289
0.984527 0.57026 0.34168
0.981659 0.730022 0.561593
0 0.0281987 0.394903
0 0.0313573 0.394232
0.0473945 0.0518196 0.391135
0.17351 0.096437 0.424567
0.414405 0.269154 0.334462
0.77142 0.309895 0.174182
0.823682 0.451301 0.254994
0.985153 0.572534 0.343481
0.980575 0.731746 0.563943
0 0.0875715 0.380224
0 0.0906996 0.3794
0.0615396 0.108553 0.372198
0.190356 0.144442 0.386603
0.42742 0.266331 0.309728
0.759915 0.321294 0.174578
0.862348 0.457206 0.240726
0.985245 0.588739 0.357748
0.973678 0.742977 0.579843
0 0.257435 0.413596
0 0.258442 0.411765
0.0627146 0.263691 0.397375
0.244129 0.276539 0.335958
0.459617 0.308202 0.275776
0.726497 0.380545 0.210468
0.892241 0.497566 0.25594
0.968963 0.633371 0.408621
0.959136 0.770657 0.620706
0.17583 0.468574 0.425849
0.182452 0.468544 0.425071
0.227451 0.467979 0.419257
0.294331 0.476158 0.401923
0.450431 0.488258 0.379553
0.682292 0.525597 0.341329
0.854902 0.603906 0.38085
0.928649 0.709438 0.514946
0.941695 0.813535 0.68658
0.403922 0.68748 0.571023
0.406271 0.687816 0.570581
0.422797 0.690105 0.566903
0.462486 0.696986 0.555993
0.552941 0.702022 0.553368
0.696345 0.716457 0.55024
0.824399 0.753399 0.58471
0.898589 0.811597 0.674296
0.933654 0.874464 0.786892
0.704753 0.854536 0.741619
0.705531 0.854795 0.741543
0.713375 0.855344 0.74284
0.736873 0.854749 0.749172
0.771847 0.855604 0.758404
0.820493 0.862531 0.771588
0.876753 0.881926 0.794522
0.922454 0.908705 0.843351
0.953445 0.93959 0.899565
0.924163 0.949599 0.920501
0.924361 0.949645 0.920592
0.925628 0.950011 0.921309
0.928923 0.950988 0.923125
0.934691 0.952834 0.92636
0.944747 0.956954 0.932906
0.959579 0.964889 0.944823
0.976181 0.976745 0.962661
0.990799 0.990143 0.984207
1 1 1
1 1 1
1 1 1
1 1 1
1 1 1
1 1 1
1 1 1
1 1 1
1 1 1
0 0.0642252 0.575601
0 0.0673533 0.5823
0.0259861 0.0873121 0.617884
0.186908 0.139239 0.663172
0.356863 0.229206 0.719936
0.626703 0.460945 0.588693
0.944732 0.481117 0.475349
1 0.600626 0.518791
0.979461 0.748211 0.662394
0 0.0717479 0.581201
0 0.0747845 0.587457
0.0287022 0.0945144 0.620401
0.188968 0.144991 0.660014
0.356954 0.232258 0.715267
0.626291 0.461433 0.58645
0.942306 0.48246 0.474861
1 0.60296 0.52047
0.978592 0.749706 0.663813
0 0.127581 0.606241
0 0.129885 0.609705
0.0469062 0.145663 0.627924
0.203662 0.187594 0.638697
0.365209 0.261524 0.686061
0.624109 0.465202 0.571603
0.928298 0.495689 0.476432
0.990631 0.618647 0.532006
0.973068 0.760098 0.674235
0.0300298 0.264332 0.629725
0.0393225 0.266163 0.630137
0.110582 0.277577 0.626245
0.247898 0.304997 0.609995
0.400977 0.351492 0.622202
0.63856 0.483818 0.542535
0.8963 0.538354 0.489982
0.964981 0.659266 0.565423
0.96083 0.785092 0.700938
0.112535 0.489982 0.677546
0.120439 0.490333 0.67689
0.175433 0.493614 0.670558
0.299382 0.50074 0.645823
0.483635 0.518044 0.580026
0.688777 0.559106 0.537621
0.858579 0.628687 0.542794
0.932387 0.727184 0.625299
0.946136 0.82501 0.748241
0.390585 0.708232 0.693172
0.395407 0.708186 0.692531
0.427436 0.708003 0.688136
0.504021 0.707027 0.676387
0.591241 0.714443 0.659846
0.709514 0.730694 0.654963
0.834531 0.767056 0.671595
0.906188 0.82266 0.738064
0.93872 0.882002 0.824491
0.740185 0.855131 0.802762
0.741009 0.855314 0.802716
0.746578 0.856641 0.802487
0.760098 0.860212 0.802075
0.780713 0.867216 0.80145
0.83003 0.871458 0.815015
0.883803 0.888869 0.832212
0.927779 0.914595 0.870512
0.956863 0.943618 0.915602
0.928206 0.953948 0.932158
0.928405 0.953979 0.93225
0.929732 0.954253 0.932906
0.932799 0.954879 0.934386
0.938628 0.956512 0.93753
0.948455 0.960189 0.943389
0.962768 0.967712 0.953765
0.978408 0.978912 0.968902
0.992279 0.991699 0.987594
1 1 1
1 1 1
1 1 1
1 1 1
1 1 1
1 1 1
1 1 1
1 1 1
1 1 1
0.0760052 0.171435 0.536339
0.0788739 0.174014 0.54931
0.107713 0.191104 0.641413
0.22002 0.229297 0.790585
0.375097 0.285435 0.87361
0.587594 0.436759 0.917021
0.767666 0.625818 0.786603
0.910002 0.695125 0.746639
0.959243 0.785626 0.782696
0.0776226 0.178012 0.550576
0.0807202 0.180621 0.56408
0.110399 0.197238 0.6542
0.22298 0.23508 0.795468
0.377859 0.290654 0.873533
0.587671 0.439078 0.913985
0.767132 0.626825 0.785138
0.910033 0.696208 0.746502
0.958755 0.786496 0.783078
0.0885481 0.2224 0.636133
0.0923934 0.224857 0.64802
0.129961 0.240497 0.725261
0.241321 0.274434 0.817578
0.398428 0.327855 0.865003
0.590265 0.457435 0.894789
0.764508 0.634287 0.776394
0.910521 0.703655 0.746227
0.956237 0.7944 0.788037
0.138125 0.337194 0.776745
0.143633 0.338628 0.781918
0.186618 0.35053 0.809827
0.291554 0.376883 0.830442
0.448157 0.422431 0.818631
0.603967 0.51104 0.850919
0.76376 0.658351 0.760784
0.912886 0.72372 0.747875
0.950591 0.813748 0.801205
0.246036 0.513481 0.857649
0.25272 0.514519 0.857298
0.297139 0.521141 0.850187
0.394064 0.536416 0.821546
0.516121 0.562997 0.792401
0.648814 0.612055 0.797635
0.787976 0.706813 0.756024
0.916472 0.765484 0.764172
0.944213 0.845823 0.826978
0.475212 0.727855 0.859571
0.478355 0.728038 0.85893
0.499016 0.729229 0.854643
0.548684 0.732754 0.843153
0.626749 0.740139 0.823468
0.741268 0.758572 0.789105
0.845502 0.793957 0.787213
0.912306 0.842161 0.819867
0.944137 0.894926 0.872892
0.754162 0.871992 0.874647
0.755108 0.872099 0.874556
0.761257 0.872862 0.874022
0.776425 0.874556 0.872465
0.808133 0.876707 0.869535
0.850599 0.884596 0.868864
0.895155 0.900114 0.880644
0.935409 0.923629 0.904112
0.962142 0.950378 0.93666
0.939681 0.958053 0.950118
0.939803 0.958114 0.950164
0.940703 0.958541 0.9505
0.94287 0.959564 0.951217
0.947143 0.961807 0.953017
0.954559 0.966033 0.956756
0.967849 0.972244 0.965377
0.9823 0.982727 0.977646
0.996246 0.993744 0.99353
1 1 1
1 1 1
1 1 1
1 1 1
1 1 1
1 1 1
1 1 1
1 1 1
1 1 1
0.240665 0.362829 0.836637
0.244831 0.364523 0.843381
0.273915 0.375433 0.880552
0.351797 0.400702 0.933379
0.484825 0.445548 0.957183
0.609995 0.513161 0.997986
0.762264 0.650706 0.950957
0.849729 0.765637 0.883909
0.90518 0.844831 0.881086
0.24361 0.368093 0.843885
0.247745 0.369757 0.850233
0.27602 0.380118 0.88481
0.354314 0.405478 0.93518
0.485954 0.449271 0.955703
0.610925 0.516136 0.995132
0.762737 0.652537 0.950027
0.849882 0.766751 0.883513
0.90544 0.845579 0.881285
0.261112 0.40264 0.88188
0.265309 0.40415 0.886351
0.294347 0.413657 0.910719
0.371664 0.437217 0.94255
0.497688 0.477592 0.946593
0.620493 0.538918 0.978256
0.764706 0.664195 0.941711
0.85098 0.774105 0.881132
0.907149 0.85037 0.882612
0.315373 0.486976 0.932998
0.319356 0.487861 0.934051
0.348333 0.495384 0.940383
0.419745 0.513909 0.941329
0.529915 0.54551 0.926162
0.647684 0.594644 0.94197
0.773388 0.695506 0.923796
0.855467 0.79324 0.877363
0.912352 0.862669 0.886961
0.422705 0.610452 0.948821
0.42681 0.611154 0.947631
0.452796 0.615946 0.94023
0.511391 0.627756 0.924422
0.593851 0.647639 0.906996
0.702449 0.684016 0.893751
0.794507 0.748882 0.901427
0.867704 0.826444 0.877806
0.923217 0.883558 0.897215
0.591516 0.761532 0.952529
0.593774 0.761807 0.951736
0.610559 0.763317 0.944976
0.649943 0.767849 0.928359
0.707698 0.777249 0.902983
0.777935 0.796826 0.883085
0.842908 0.830549 0.890654
0.897154 0.878325 0.894697
0.943694 0.916899 0.919631
0.814099 0.88716 0.927855
0.81474 0.887282 0.927749
0.819013 0.888121 0.927169
0.829786 0.890288 0.925689
0.84715 0.894148 0.923568
0.875898 0.902083 0.921752
0.913359 0.916884 0.922988
0.945586 0.937819 0.937087
0.969223 0.96083 0.958511
0.950942 0.966903 0.968215
0.951064 0.966949 0.968246
0.951904 0.9673 0.96846
0.954055 0.968231 0.96907
0.957702 0.969802 0.970123
0.964981 0.973098 0.972641
0.975967 0.978851 0.978408
0.987137 0.98851 0.988159
0.999222 0.999054 0.999435
1 1 1
1 1 1
1 1 1
1 1 1
1 1 1
1 1 1
1 1 1
1 1 1
1 1 1
0.493935 0.607569 0.988418
0.496834 0.608286 0.987945
0.51603 0.613184 0.984985
0.560571 0.625086 0.977127
0.630243 0.646403 0.964981
0.714199 0.681926 0.964889
0.798688 0.746715 0.964477
0.869062 0.823941 0.936263
0.915282 0.88922 0.931411
0.496773 0.610346 0.988052
0.499641 0.611063 0.987594
0.518441 0.61593 0.984497
0.562524 0.62771 0.976577
0.631647 0.648798 0.964538
0.715541 0.684031 0.963623
0.79942 0.748135 0.963851
0.869383 0.824765 0.936034
0.915557 0.889754 0.931533
0.513588 0.628733 0.98436
0.515969 0.629419 0.984009
0.533684 0.633875 0.980941
0.575677 0.644739 0.972992
0.64155 0.664561 0.960708
0.724346 0.697749 0.955581
0.803433 0.757259 0.958358
0.872145 0.830915 0.935012
0.917479 0.893278 0.932372
0.556085 0.672358 0.976883
0.558465 0.672908 0.976272
0.573571 0.676188 0.972381
0.6103 0.685649 0.964416
0.666865 0.701366 0.951583
0.747219 0.731106 0.938643
0.815335 0.780499 0.947158
0.879011 0.845411 0.933104
0.922438 0.902113 0.934798
0.627161 0.737331 0.966049
0.628885 0.737606 0.965331
0.641352 0.740185 0.960815
0.670634 0.747097 0.951278
0.714519 0.758907 0.939605
0.778408 0.781338 0.92668
0.837842 0.818021 0.933593
0.892546 0.869978 0.932952
0.931991 0.917464 0.94052
0.738247 0.82475 0.956237
0.739467 0.824964 0.955703
0.747494 0.826459 0.952209
0.766384 0.830091 0.943984
0.795026 0.837308 0.933501
0.834699 0.851286 0.92549
0.879973 0.874784 0.927825
0.918349 0.908476 0.940414
0.949828 0.942611 0.953552
0.870253 0.912886 0.957015
0.870634 0.912993 0.956954
0.873396 0.91371 0.956405
0.880461 0.915557 0.954971
0.892226 0.918944 0.95259
0.911238 0.92546 0.949172
0.934783 0.937911 0.951339
0.957122 0.95552 0.963317
0.976608 0.97499 0.976989
0.969589 0.977432 0.981811
0.96968 0.977478 0.981826
0.970184 0.977737 0.981964
0.971527 0.978454 0.982391
0.974227 0.979995 0.983368
0.979004 0.98291 0.985367
0.987228 0.987823 0.989807
0.996139 0.996124 0.996399
1 1 1
1 1 1
1 1 1
1 1 1
1 1 1
1 1 1
1 1 1
1 1 1
1 1 1
1 1 1
0.734371 0.791577 0.958633
0.735378 0.791867 0.958343
0.742092 0.79379 0.956512
0.7579 0.798535 0.952483
0.7841 0.807446 0.946395
0.824994 0.824247 0.93933
0.866667 0.852613 0.94583
0.909285 0.893248 0.949538
0.943572 0.932982 0.95758
0.735592 0.792691 0.958404
0.736584 0.792966 0.958114
0.74316 0.794888 0.956329
0.758755 0.799451 0.952239
0.784802 0.808301 0.946212
0.825635 0.825147 0.939254
0.867216 0.853315 0.9458
0.909621 0.893751 0.949584
0.943801 0.933318 0.957717
0.743648 0.8 0.956909
0.744503 0.800183 0.956603
0.750591 0.801816 0.954833
0.765911 0.806485 0.951049
0.790661 0.814786 0.945296
0.829801 0.83093 0.938811
0.870756 0.858213 0.945037
0.91194 0.897169 0.949981
0.945418 0.935561 0.958633
0.7635 0.81738 0.954147
0.764355 0.817609 0.953872
0.769955 0.819272 0.952209
0.783413 0.823224 0.94844
0.806073 0.831174 0.943877
0.840726 0.845487 0.938323
0.879469 0.869917 0.943725
0.917754 0.905562 0.951095
0.949386 0.940978 0.960967
0.798047 0.846433 0.951995
0.798672 0.846571 0.951736
0.803037 0.84773 0.950179
0.814343 0.851148 0.946807
0.831998 0.857221 0.942916
0.860838 0.86949 0.939498
0.895201 0.889815 0.943038
0.928069 0.919692 0.953918
0.956313 0.950179 0.965316
0.853864 0.890608 0.954482
0.854322 0.890745 0.95433
0.857466 0.89163 0.953292
0.864805 0.893736 0.950896
0.877134 0.898268 0.948241
0.896574 0.907057 0.94696
0.922438 0.92195 0.949874
0.947066 0.943343 0.962066
0.969757 0.966674 0.974853
0.925597 0.94432 0.96846
0.925795 0.944396 0.968429
0.927169 0.944884 0.968246
0.930327 0.946014 0.967788
0.936263 0.948486 0.967315
0.946136 0.953277 0.967376
0.960067 0.962188 0.971084
0.975494 0.974945 0.979934
0.989837 0.989425 0.991257
0.987518 0.990265 0.992981
0.987564 0.99028 0.992996
0.987915 0.990433 0.993149
0.988937 0.990936 0.993622
0.990738 0.991958 0.994507
0.99382 0.994156 0.996109
0.998672 0.998642 0.999222
1 1 1
1 1 1
1 1 1
1 1 1
1 1 1
1 1 1
1 1 1
1 1 1
1 1 1
1 1 1
1 1 1
