public/textures/grade/Nikon/Gems-NLog.cube
TITLE "Generated by Resolve"
LUT_3D_SIZE 5
0.00230411 0.00726329 0.0174411
0.0775616 0.0105898 0
0.500145 0.139818 0
0.460273 0.460273 0.460273
0.975296 0.716457 0.468009
0 0.0753643 0.0233768
0.0625925 0.0793469 0.00415045
0.484794 0.168002 0
0.481056 0.475486 0.469184
0.967437 0.730175 0.49247
0.112581 0.45127 0.299275
0.141939 0.454307 0.292409
0.435767 0.46598 0.260792
0.8392 0.586465 0.26743
0.934798 0.803922 0.626429
0.697139 0.84303 0.696239
0.707683 0.84303 0.698817
0.76376 0.846326 0.712627
0.870283 0.875502 0.755718
0.950011 0.935729 0.882765
1 1 1
1 1 1
1 1 1
1 1 1
1 1 1
0 0.00758373 0.153292
0.0471962 0.0235447 0.157839
0.512123 0.149416 0
0.476127 0.476127 0.476127
0.978271 0.720821 0.497826
0 0.0826276 0.170993
0.076463 0.0946517 0.128054
0.491402 0.181918 0
0.564401 0.4795 0.394766
0.970092 0.73431 0.520287
0.146502 0.457069 0.338399
0.17351 0.459937 0.332738
0.441032 0.474464 0.299168
0.846159 0.592126 0.296056
0.937392 0.80708 0.646036
0.699245 0.846922 0.710811
0.709987 0.846769 0.713542
0.766262 0.849027 0.727535
0.872206 0.877409 0.768231
0.951125 0.93695 0.888319
1 1 1
1 1 1
1 1 1
1 1 1
1 1 1
0 0.0642252 0.575601
0.0259861 0.0873121 0.617884
0.356863 0.229206 0.719936
0.944732 0.481117 0.475349
0.979461 0.748211 0.662394
0 0.127581 0.606241
0.0469062 0.145663 0.627924
0.365209 0.261524 0.686061
0.928298 0.495689 0.476432
0.973068 0.760098 0.674235
0.112535 0.489982 0.677546
0.175433 0.493614 0.670558
0.483635 0.518044 0.580026
0.858579 0.628687 0.542794
0.946136 0.82501 0.748241
0.740185 0.855131 0.802762
0.746578 0.856641 0.802487
0.780713 0.867216 0.80145
0.883803 0.888869 0.832212
0.956863 0.943618 0.915602
1 1 1
1 1 1
1 1 1
1 1 1
1 1 1
0.240665 0.362829 0.836637
0.273915 0.375433 0.880552
0.484825 0.445548 0.957183
0.762264 0.650706 0.950957
0.90518 0.844831 0.881086
0.261112 0.40264 0.88188
0.294347 0.413657 0.910719
0.497688 0.477592 0.946593
0.764706 0.664195 0.941711
0.907149 0.85037 0.882612
0.422705 0.610452 0.948821
0.452796 0.615946 0.94023
0.593851 0.647639 0.906996
0.794507 0.748882 0.901427
0.923217 0.883558 0.897215
0.814099 0.88716 0.927855
0.819013 0.888121 0.927169
0.84715 0.894148 0.923568
0.913359 0.916884 0.922988
0.969223 0.96083 0.958511
1 1 1
1 1 1
1 1 1
1 1 1
1 1 1
0.734371 0.791577 0.958633
0.742092 0.79379 0.956512
0.7841 0.807446 0.946395
0.866667 0.852613 0.94583
0.943572 0.932982 0.95758
0.743648 0.8 0.956909
0.750591 0.801816 0.954833
0.790661 0.814786 0.945296
0.870756 0.858213 0.945037
0.945418 0.935561 0.958633
0.798047 0.846433 0.951995
0.803037 0.84773 0.950179
0.831998 0.857221 0.942916
0.895201 0.889815 0.943038
0.956313 0.950179 0.965316
0.925597 0.94432 0.96846
0.927169 0.944884 0.968246
0.936263 0.948486 0.967315
0.960067 0.962188 0.971084
0.989837 0.989425 0.991257
1 1 1
1 1 1
1 1 1
1 1 1
1 1 1
