public/textures/grade/Nikon/Gems-NLog.cube
TITLE "Generated by Resolve"
LUT_3D_SIZE 33
0.00230411 0.00726329 0.0174411
0.00239567 0.00727855 0.01738
0.00315862 0.00741588 0.0169528
0.00517281 0.00770581 0.0158694
0.0087129 0.00833143 0.0145113
0.0140688 0.0102998 0.012604
0.0302739 0.00970474 0.00830091
0.0507057 0.010071 0.00291447
0.0775616 0.0105898 0
0.114382 0.0128786 0
0.155764 0.0191501 0
0.20502 0.0270542 0
0.259174 0.0395514 0
0.318029 0.0583047 0
0.379477 0.083711 0
0.442451 0.111131 0
0.500145 0.139818 0
0.528099 0.175631 0
0.508049 0.221836 0
0.458747 0.274357 0.0949416
0.408667 0.324102 0.237491
0.377508 0.367666 0.357183
0.399741 0.399741 0.399741
0.42945 0.42945 0.42945
0.460273 0.460273 0.460273
0.492393 0.492393 0.492393
0.532952 0.526482 0.519387
0.658076 0.550729 0.43769
0.826505 0.569558 0.323079
0.934447 0.597406 0.293385
0.975296 0.635218 0.329168
0.983383 0.676219 0.393042
0.975296 0.716457 0.468009
0.00228885 0.00735485 0.0175021
0.00238041 0.00737011 0.0174411
0.00317388 0.00749218 0.0169985
0.00515755 0.0077821 0.0158694
0.00875868 0.00842298 0.0144808
0.0141604 0.0103609 0.0125734
0.0303349 0.00978103 0.00827039
0.0506905 0.0101625 0.00291447
0.0775769 0.0106813 0
0.114397 0.0129854 0
0.155764 0.0192264 0
0.204959 0.0271 0
0.259144 0.0396429 0
0.317983 0.058381 0
0.379461 0.0838026 0
0.44239 0.111192 0
0.50013 0.139879 0
0.528099 0.175677 0
0.508156 0.221851 0
0.458869 0.274357 0.0948043
0.40882 0.324102 0.237324
0.37763 0.367651 0.357046
0.399741 0.399741 0.399741
0.429465 0.429465 0.429465
0.460304 0.460304 0.460304
0.492424 0.492424 0.492424
0.53315 0.526497 0.519188
0.658335 0.550729 0.43743
0.826703 0.569558 0.322927
0.934508 0.597436 0.293385
0.975311 0.635248 0.329213
0.983368 0.676234 0.393088
0.975265 0.716472 0.46804
0.00190738 0.00799573 0.0180667
0.00202945 0.00799573 0.0179751
0.00296025 0.0081178 0.01738
0.00520333 0.00843824 0.0159915
0.00891127 0.00907912 0.014374
0.0148775 0.0107881 0.0124208
0.0307164 0.0103456 0.00813306
0.0507057 0.0108186 0.00294499
0.0777752 0.011368 0
0.114519 0.0136721 0
0.155764 0.0196841 0
0.204883 0.0276799 0
0.259251 0.0403296 0
0.317678 0.0589456 0
0.379324 0.0844434 0
0.442145 0.111711 0
0.499947 0.140276 0
0.528054 0.175937 0
0.508797 0.222004 0
0.4598 0.274418 0.0938277
0.409842 0.324117 0.236255
0.3785 0.367651 0.3561
0.399695 0.399695 0.399695
0.429694 0.429694 0.429694
0.460502 0.460502 0.460502
0.492653 0.492653 0.492653
0.534539 0.526589 0.517876
0.660014 0.55079 0.435798
0.828138 0.569635 0.321859
0.93492 0.59765 0.2934
0.975341 0.635477 0.329473
0.983261 0.676478 0.393469
0.975143 0.716686 0.468406
0.00015259 0.0101472 0.0194705
0.00030518 0.0101472 0.0193942
0.00131228 0.0102083 0.0188296
0.00401312 0.0104677 0.0174258
0.00918593 0.011017 0.014435
0.0175479 0.0117494 0.0115663
0.0312657 0.0120546 0.00781262
0.0510262 0.0125734 0.00233463
0.0781109 0.0133822 0
0.114641 0.0157015 0
0.156085 0.0212711 0
0.204868 0.0293278 0
0.259052 0.041886 0
0.317235 0.0604105 0
0.378882 0.0859846 0
0.441535 0.113085 0
0.49926 0.141299 0
0.527932 0.176654 0
0.510506 0.222416 0
0.462394 0.274571 0.0910811
0.412604 0.324163 0.233371
0.380819 0.367605 0.353536
0.399878 0.399878 0.399878
0.430152 0.430152 0.430152
0.461036 0.461036 0.461036
0.493385 0.493385 0.493385
0.538308 0.526833 0.51426
0.664103 0.550835 0.431678
0.831968 0.569833 0.319005
0.936019 0.59823 0.293416
0.975448 0.636133 0.330236
0.982986 0.677089 0.394461
0.974823 0.717235 0.469352
0 0.0152132 0.0177157
0 0.0152285 0.0176699
0 0.0153048 0.0173495
0.00166323 0.0155337 0.016556
0.00775158 0.0155795 0.0145724
0.0169375 0.0159152 0.01149
0.0312657 0.016144 0.00714122
0.0513924 0.0168154 0.0016022
0.078294 0.0178683 0
0.114244 0.0198062 0
0.156588 0.0243687 0
0.204959 0.0322728 0
0.258793 0.0451057 0
0.316808 0.0635691 0
0.377356 0.0887617 0
0.44036 0.115663 0
0.4981 0.143359 0
0.527626 0.177905 0
0.513588 0.223255 0
0.467048 0.274739 0.085893
0.417395 0.324208 0.228229
0.385168 0.367559 0.34876
0.40058 0.40058 0.40058
0.430945 0.430945 0.430945
0.461769 0.461769 0.461769
0.494682 0.494682 0.494682
0.545739 0.527321 0.507118
0.672099 0.550942 0.423636
0.838819 0.570367 0.314458
0.938018 0.599359 0.293309
0.975616 0.637415 0.331731
0.982437 0.678294 0.396414
0.974319 0.718288 0.471229
0 0.0223239 0.0182498
0 0.0223239 0.0182193
0 0.0222934 0.0178531
0.00291447 0.0222477 0.0167849
0.00650034 0.0231632 0.014786
0.0140688 0.0240024 0.0125734
0.0288853 0.0244907 0.00810254
0.0498512 0.0249638 0.00192264
0.0769665 0.0257572 0
0.112947 0.0277104 0
0.15555 0.0313726 0
0.204822 0.0383612 0
0.258457 0.0503548 0
0.315755 0.0688792 0
0.375769 0.0933547 0
0.438422 0.119997 0
0.49633 0.146578 0
0.527062 0.180133 0
0.518502 0.224887 0
0.474891 0.275105 0.0772564
0.425925 0.3243 0.219089
0.39292 0.367697 0.340688
0.401801 0.401801 0.401801
0.432212 0.432212 0.432212
0.463661 0.463661 0.463661
0.496773 0.496773 0.496773
0.557198 0.52784 0.495659
0.686229 0.551553 0.41059
0.849668 0.571206 0.306859
0.9411 0.601251 0.293446
0.975769 0.639551 0.334234
0.981476 0.680278 0.399649
0.973449 0.720012 0.474296
0 0.0343175 0.0195468
0 0.0343328 0.0194858
0 0.0345006 0.019089
0 0.0349126 0.0180056
0.00238041 0.0359503 0.0158846
0.00920119 0.0374304 0.0127108
0.0251774 0.0369726 0.0106966
0.0461891 0.0378424 0.00387579
0.0733654 0.0383612 0
0.109697 0.0399786 0
0.152468 0.0436561 0
0.200992 0.0500649 0
0.255299 0.0608682 0
0.313527 0.0763867 0
0.37351 0.100008 0
0.434623 0.125704 0
0.493828 0.1514 0
0.527672 0.184085 0
0.525505 0.227054 0
0.485771 0.275959 0.0657206
0.437995 0.324056 0.205127
0.404166 0.367407 0.327855
0.403738 0.403738 0.403738
0.434714 0.434714 0.434714
0.466224 0.466224 0.466224
0.499702 0.499702 0.499702
0.576104 0.529046 0.477577
0.708125 0.552239 0.389914
0.863722 0.572717 0.297734
0.944533 0.603738 0.293782
0.975509 0.642313 0.337514
0.980011 0.683238 0.404532
0.971939 0.722576 0.478859
0 0.0519875 0.0209812
0 0.052018 0.0209201
0 0.0522164 0.0205692
0 0.052781 0.0193027
0 0.0539406 0.0167849
0.00137331 0.0564584 0.0124666
0.019791 0.0546731 0.0128023
0.0413977 0.0552071 0.00712596
0.0685893 0.0562753 0
0.10454 0.0576181 0
0.147539 0.0609751 0
0.196002 0.0668803 0
0.250141 0.0769665 0
0.308385 0.0919966 0
0.368734 0.109972 0
0.430823 0.132876 0
0.489921 0.157534 0
0.528923 0.190234 0
0.533089 0.230182 0
0.501213 0.276722 0.0480812
0.453758 0.324056 0.187243
0.420661 0.367239 0.30927
0.409781 0.406073 0.401984
0.4383 0.4383 0.4383
0.470451 0.470451 0.470451
0.510811 0.503151 0.494575
0.602533 0.530327 0.451545
0.736263 0.55314 0.363806
0.879423 0.575021 0.288411
0.949248 0.607889 0.295872
0.975586 0.646708 0.343389
0.978103 0.686824 0.410605
0.969879 0.726101 0.48513
0 0.0753643 0.0233768
0 0.0753948 0.0233158
0 0.0756237 0.0228733
0 0.0761425 0.0214542
0 0.0775769 0.0189212
0 0.080354 0.0145266
0.0121004 0.0791333 0.0146334
0.035172 0.0780652 0.0131075
0.0625925 0.0793469 0.00415045
0.0977493 0.0806897 0
0.140948 0.0837873 0
0.189654 0.0891737 0
0.243366 0.0973373 0
0.300862 0.109789 0
0.361578 0.125704 0
0.423697 0.14435 0
0.484794 0.168002 0
0.528679 0.197436 0
0.541726 0.234699 0
0.518273 0.278477 0.0289921
0.477333 0.32459 0.160891
0.444633 0.368215 0.284321
0.433707 0.407248 0.377676
0.446387 0.442878 0.438926
0.481056 0.475486 0.469184
0.543084 0.505348 0.463127
0.640681 0.532189 0.414435
0.775174 0.554665 0.329671
0.897154 0.579126 0.280201
0.953719 0.613535 0.299748
0.974777 0.652567 0.351522
0.975204 0.69221 0.419669
0.967437 0.730175 0.49247
0 0.108019 0.0307622
0 0.108049 0.0307012
0 0.108278 0.0302892
0 0.108904 0.0292515
0 0.11014 0.0267643
0 0.112398 0.0225071
0.00288396 0.113161 0.0200504
0.027924 0.111086 0.020737
0.0563058 0.110597 0.0174868
0.0904402 0.111955 0.00613413
0.133089 0.113924 0
0.181994 0.117388 0
0.235782 0.123308 0
0.292363 0.132494 0
0.352712 0.14548 0
0.414618 0.16141 0
0.477501 0.181949 0
0.528206 0.208606 0
0.551461 0.242008 0
0.540536 0.283009 0.00634775
0.507469 0.327108 0.129259
0.479179 0.370062 0.248219
0.468772 0.409888 0.343252
0.481758 0.445533 0.404273
0.520699 0.478447 0.430411
0.587503 0.508125 0.419394
0.689494 0.534218 0.366995
0.820035 0.556848 0.29369
0.913329 0.584833 0.275044
0.957076 0.620554 0.30602
0.973037 0.659556 0.361807
0.971511 0.698787 0.431205
0.964172 0.735851 0.502571
0 0.146715 0.0463264
0 0.146746 0.0462654
0 0.146929 0.0458534
0 0.147448 0.0447547
0 0.148486 0.0426642
0 0.150057 0.0384833
0 0.152789 0.0319982
0.0191348 0.151003 0.0337682
0.0494698 0.149371 0.034287
0.0842145 0.148501 0.0296788
0.126223 0.150256 0.0150759
0.173632 0.152941 0
0.227008 0.157107 0
0.283787 0.163653 0
0.343343 0.173327 0
0.404562 0.186221 0
0.469596 0.20325 0
0.525948 0.225544 0
0.561913 0.255375 0
0.566461 0.291386 0
0.546593 0.332998 0.0910811
0.523735 0.374624 0.204181
0.51664 0.413642 0.295171
0.531945 0.449805 0.355245
0.573404 0.482078 0.377844
0.646403 0.511543 0.361349
0.749477 0.537041 0.311498
0.861128 0.561654 0.267124
0.926894 0.593072 0.275471
0.95906 0.629557 0.315953
0.970169 0.668635 0.375875
0.96701 0.706737 0.445472
0.960601 0.742382 0.514214
0 0.190265 0.0737163
0 0.190295 0.0736706
0 0.190448 0.0732738
0 0.19089 0.0724651
0 0.191699 0.0704204
0 0.192828 0.0666209
0 0.194949 0.0609903
0.00888075 0.197009 0.0546883
0.0413062 0.194766 0.0576791
0.0774395 0.192737 0.0582437
0.121187 0.19176 0.0528573
0.167559 0.194476 0.0350958
0.219455 0.197696 0.0170596
0.27512 0.202258 0
0.333989 0.208957 0
0.394263 0.218936 0
0.459358 0.232639 0
0.522408 0.250828 0
0.570031 0.27509 0
0.592966 0.306325 0
0.591608 0.342992 0.0493782
0.580179 0.382223 0.149081
0.57879 0.419974 0.233661
0.597772 0.455024 0.288899
0.643503 0.487205 0.308659
0.717372 0.515618 0.292836
0.814191 0.541802 0.259434
0.891585 0.57026 0.254932
0.936416 0.604059 0.282689
0.959197 0.641154 0.330968
0.965576 0.678904 0.392767
0.961868 0.715892 0.461799
0.95639 0.750256 0.528267
0 0.238071 0.112657
0 0.238087 0.112627
0 0.238193 0.112322
0 0.238529 0.111513
0 0.2392 0.110231
0 0.240009 0.107362
0.00596628 0.241596 0.103258
0.0153811 0.243732 0.0965744
0.0312505 0.245304 0.0905623
0.0701305 0.242939 0.0941024
0.11696 0.240803 0.0958419
0.164385 0.240085 0.0907149
0.214145 0.243061 0.0687266
0.268345 0.246815 0.0473945
0.32578 0.251804 0.0251621
0.384802 0.258991 0
0.448951 0.269535 0
0.515816 0.284092 0
0.574472 0.30338 0
0.615335 0.328817 0
0.634897 0.359823 0.0187991
0.642344 0.394354 0.0925307
0.651011 0.429816 0.165133
0.67628 0.463035 0.212909
0.723491 0.494179 0.233341
0.792721 0.522713 0.230655
0.86302 0.550927 0.233234
0.910887 0.583047 0.257145
0.940902 0.617777 0.296925
0.95642 0.654505 0.350423
0.959411 0.690837 0.413336
0.956237 0.72668 0.481163
0.952132 0.75903 0.544137
0.00598154 0.288853 0.155886
0.00607309 0.288869 0.155856
0.00663767 0.288975 0.155688
0.00817884 0.289265 0.155261
0.011368 0.289708 0.154131
0.0163729 0.290517 0.152514
0.0230411 0.291386 0.149416
0.0323644 0.29308 0.145205
0.0433356 0.295216 0.139162
0.0611124 0.297185 0.132418
0.112001 0.294453 0.13669
0.16289 0.292348 0.139452
0.213336 0.291798 0.134768
0.264775 0.295354 0.114412
0.320073 0.299474 0.0933089
0.377417 0.304875 0.0699321
0.439551 0.312932 0.0422675
0.505592 0.324392 0.0147097
0.571908 0.339803 0
0.627558 0.35967 0
0.66772 0.384771 0.0156252
0.694896 0.413809 0.0607767
0.71986 0.444999 0.111116
0.751949 0.476249 0.153628
0.79733 0.50605 0.181079
0.847898 0.535286 0.205493
0.888777 0.566552 0.234836
0.920195 0.599817 0.272221
0.940658 0.634028 0.318196
0.951034 0.669718 0.37467
0.952285 0.704417 0.437613
0.950195 0.738094 0.501747
0.947768 0.769268 0.562631
0.0312352 0.341009 0.201358
0.0313115 0.341009 0.201328
0.0319066 0.341085 0.201175
0.0334478 0.341253 0.200732
0.0364233 0.341634 0.199924
0.0411536 0.342275 0.198734
0.0481575 0.343175 0.196933
0.0570077 0.34406 0.19379
0.068513 0.345708 0.189807
0.0835889 0.34815 0.183948
0.108003 0.350515 0.177142
0.162325 0.347448 0.182254
0.214954 0.345495 0.185275
0.266361 0.345602 0.180468
0.318135 0.349783 0.161959
0.373175 0.354574 0.143862
0.433494 0.360998 0.125887
0.496773 0.369894 0.102663
0.562448 0.382177 0.0779736
0.626673 0.398215 0.0595102
0.681788 0.418265 0.0594186
0.725704 0.441855 0.078584
0.763684 0.468421 0.110506
0.80116 0.496727 0.147387
0.837324 0.52575 0.183352
0.870192 0.555856 0.218311
0.898482 0.586969 0.254841
0.92105 0.619242 0.296849
0.9364 0.652674 0.346273
0.943328 0.686381 0.403326
0.944656 0.719265 0.464164
0.944198 0.750484 0.524117
0.943206 0.779904 0.58204
0.0668498 0.394522 0.248554
0.0669261 0.394522 0.248539
0.0673838 0.394537 0.248356
0.0686503 0.394553 0.247883
0.0710613 0.394736 0.247242
0.0757 0.395178 0.246189
0.0825208 0.395911 0.244877
0.0909133 0.396918 0.243061
0.101961 0.398322 0.24033
0.115953 0.399908 0.235325
0.133516 0.403021 0.228595
0.165957 0.404425 0.224445
0.220417 0.401846 0.230335
0.272099 0.400061 0.232578
0.322896 0.4009 0.227405
0.374289 0.406134 0.210788
0.431281 0.411749 0.194934
0.492287 0.418967 0.180667
0.554559 0.429084 0.164981
0.617105 0.442191 0.151385
0.676555 0.458244 0.143023
0.729305 0.478172 0.146914
0.774014 0.500587 0.162493
0.812589 0.526024 0.187854
0.845487 0.552911 0.217395
0.873442 0.581247 0.249882
0.897734 0.611017 0.287266
0.916442 0.641596 0.329992
0.928359 0.673198 0.380163
0.93434 0.704326 0.435279
0.937118 0.734905 0.492348
0.938384 0.764004 0.548699
0.938827 0.791196 0.602686
0.112581 0.45127 0.299275
0.112642 0.451286 0.299275
0.113054 0.451316 0.299199
0.114168 0.451423 0.298985
0.116335 0.451637 0.298558
0.119615 0.452033 0.298009
0.124681 0.452323 0.296559
0.131899 0.45301 0.294743
0.141939 0.454307 0.292409
0.15491 0.456153 0.288792
0.170275 0.458427 0.283101
0.189044 0.462303 0.275044
0.23209 0.461479 0.276097
0.284337 0.459236 0.281743
0.333761 0.458228 0.283314
0.382132 0.460014 0.278172
0.435767 0.46598 0.260792
0.491768 0.472297 0.248905
0.550637 0.4804 0.239033
0.609262 0.491341 0.229618
0.666407 0.505013 0.223484
0.718486 0.52137 0.223224
0.765652 0.540749 0.230442
0.805997 0.562753 0.245838
0.8392 0.586465 0.26743
0.867597 0.612055 0.295644
0.889952 0.638972 0.330205
0.907088 0.667185 0.372168
0.918105 0.69572 0.419623
0.925353 0.724559 0.471458
0.929854 0.75227 0.523888
0.932769 0.779217 0.576776
0.934798 0.803922 0.626429
0.161227 0.509789 0.351385
0.161273 0.509789 0.351385
0.161654 0.509834 0.351324
0.162539 0.510018 0.351278
0.164553 0.510231 0.350881
0.167926 0.510567 0.350195
0.172854 0.511147 0.349187
0.179965 0.51191 0.347555
0.188708 0.512657 0.344884
0.200488 0.514366 0.341802
0.214984 0.516732 0.337301
0.231205 0.519753 0.330587
0.255299 0.523125 0.324575
0.305699 0.519966 0.330739
0.353582 0.518318 0.335363
0.39939 0.518242 0.336034
0.447929 0.521508 0.330678
0.499962 0.528038 0.312963
0.552956 0.534752 0.305211
0.606806 0.543511 0.299535
0.660136 0.554757 0.295018
0.710216 0.568566 0.294316
0.755001 0.58497 0.299062
0.794491 0.603296 0.308873
0.828473 0.624247 0.326345
0.856367 0.646433 0.350362
0.87924 0.670314 0.382086
0.896132 0.69543 0.420706
0.908202 0.721141 0.4645
0.916915 0.746532 0.511086
0.922988 0.77174 0.55964
0.927443 0.795743 0.607446
0.931273 0.818402 0.653574
0.21767 0.56875 0.40235
0.217716 0.56875 0.40235
0.218082 0.568795 0.402274
0.219059 0.568902 0.402075
0.220966 0.5691 0.401648
0.223911 0.569558 0.401129
0.228595 0.570092 0.400031
0.234928 0.570947 0.398596
0.24358 0.572045 0.396231
0.253758 0.573312 0.39295
0.266407 0.575463 0.388876
0.281071 0.578592 0.383505
0.297383 0.582742 0.375708
0.340215 0.580179 0.380957
0.38471 0.578058 0.386191
0.42681 0.576989 0.388922
0.470283 0.578119 0.388251
0.516045 0.582452 0.382086
0.564614 0.589883 0.364828
0.612696 0.596674 0.361532
0.660044 0.605707 0.359365
0.706508 0.616953 0.358679
0.748959 0.630503 0.361929
0.786648 0.646097 0.37084
0.819364 0.663325 0.385794
0.846906 0.682887 0.40856
0.868849 0.703151 0.436896
0.886442 0.725261 0.472313
0.899733 0.747372 0.51136
0.909468 0.769863 0.55375
0.917327 0.792035 0.597543
0.923247 0.813352 0.640696
0.928695 0.834043 0.68333
0.282094 0.626657 0.449607
0.282139 0.626657 0.449592
0.282429 0.626657 0.449485
0.283207 0.626719 0.449195
0.284718 0.626795 0.448615
0.287419 0.6271 0.447822
0.291356 0.627741 0.446921
0.297078 0.628565 0.445289
0.304326 0.62977 0.443229
0.313603 0.631357 0.440192
0.324376 0.633433 0.436103
0.336339 0.636118 0.430991
0.353765 0.638941 0.426368
0.391379 0.636576 0.431556
0.427985 0.634394 0.435721
0.464897 0.633524 0.439094
0.50309 0.633631 0.439948
0.542947 0.636423 0.437949
0.583963 0.641337 0.430884
0.627253 0.649226 0.415534
0.669184 0.655955 0.416159
0.709667 0.664897 0.417746
0.748608 0.675822 0.422385
0.783581 0.688823 0.432044
0.814206 0.703349 0.447059
0.840116 0.719326 0.467597
0.86183 0.737057 0.49456
0.879271 0.755444 0.52575
0.8934 0.774762 0.561318
0.904433 0.794156 0.599145
0.913329 0.813489 0.638117
0.920943 0.832578 0.677607
0.927306 0.850111 0.71429
0.351354 0.681956 0.490349
0.3514 0.681971 0.490333
0.351659 0.682002 0.490242
0.352407 0.682124 0.490013
0.353826 0.682368 0.48957
0.35613 0.68278 0.488762
0.359197 0.683131 0.487388
0.363455 0.683925 0.485817
0.369512 0.685161 0.483497
0.376822 0.68687 0.48069
0.385519 0.689113 0.476951
0.397162 0.691524 0.472999
0.424201 0.689342 0.47657
0.453468 0.687648 0.480552
0.483421 0.686336 0.484123
0.513176 0.685267 0.486473
0.544808 0.68574 0.488258
0.578073 0.687144 0.487694
0.613092 0.690974 0.485267
0.648768 0.696529 0.480034
0.685985 0.704219 0.470985
0.721325 0.711025 0.475853
0.754681 0.719661 0.48278
0.786023 0.730098 0.493431
0.813962 0.74229 0.508827
0.838331 0.755627 0.528634
0.859007 0.770291 0.553079
0.876219 0.785901 0.58143
0.890455 0.802274 0.613016
0.902144 0.818799 0.64625
0.912215 0.835798 0.681468
0.920363 0.851743 0.714916
0.927794 0.867369 0.747875
0.424094 0.73402 0.527276
0.42414 0.73402 0.52726
0.424338 0.734066 0.527169
0.424887 0.734203 0.52697
0.425849 0.734478 0.526741
0.427695 0.734905 0.526024
0.430426 0.735531 0.524987
0.434028 0.736446 0.52343
0.438025 0.737331 0.521294
0.445579 0.73843 0.519631
0.462013 0.737316 0.522271
0.480705 0.73611 0.525216
0.50132 0.73492 0.528374
0.522744 0.733516 0.531075
0.545754 0.732799 0.53402
0.56936 0.73257 0.536614
0.594568 0.732601 0.538216
0.621454 0.734173 0.53959
0.649577 0.736629 0.539361
0.679301 0.741085 0.538781
0.709148 0.746868 0.537453
0.73994 0.754238 0.535225
0.768673 0.761212 0.54464
0.7953 0.769558 0.55639
0.819791 0.779156 0.57116
0.841764 0.790402 0.590158
0.860975 0.802548 0.612467
0.877455 0.815564 0.637644
0.891539 0.829297 0.665354
0.903502 0.843458 0.694774
0.91371 0.857664 0.724651
0.922637 0.871626 0.754284
0.930449 0.884962 0.782498
0.506889 0.779477 0.570962
0.50695 0.779461 0.570962
0.507317 0.779431 0.571038
0.508339 0.779355 0.571206
0.510307 0.779187 0.571557
0.513344 0.778973 0.572122
0.517662 0.778698 0.572931
0.524056 0.77821 0.574029
0.532265 0.777584 0.575448
0.541588 0.776883 0.57702
0.553079 0.775937 0.578729
0.566171 0.775326 0.581003
0.580774 0.774792 0.58349
0.596735 0.774395 0.586114
0.613153 0.773953 0.588266
0.630823 0.774121 0.590692
0.65008 0.774914 0.593194
0.671016 0.776196 0.595193
0.692836 0.778454 0.596979
0.715801 0.78175 0.598703
0.740108 0.786389 0.600717
0.764462 0.792569 0.601678
0.788556 0.799222 0.607294
0.811322 0.806317 0.620142
0.831998 0.814176 0.634546
0.851179 0.82324 0.651774
0.868208 0.833234 0.671489
0.88336 0.844083 0.693675
0.896605 0.855421 0.717449
0.908354 0.86746 0.74287
0.918395 0.879438 0.768246
0.927047 0.890929 0.792798
0.935103 0.902495 0.817151
0.608637 0.812299 0.632868
0.608682 0.812299 0.632883
0.608911 0.812284 0.632929
0.609567 0.812238 0.633066
0.610849 0.812161 0.63331
0.612909 0.812055 0.633707
0.615976 0.811887 0.634318
0.61976 0.81178 0.635172
0.625177 0.811521 0.636225
0.631861 0.811246 0.637552
0.639475 0.811078 0.639155
0.648249 0.81062 0.640558
0.658137 0.810544 0.642512
0.669154 0.810681 0.644785
0.681163 0.811002 0.647105
0.694026 0.811566 0.6495
0.707683 0.812268 0.65156
0.722866 0.813901 0.654582
0.739742 0.816083 0.657649
0.756924 0.818769 0.660655
0.775357 0.82266 0.664622
0.794202 0.827176 0.669078
0.813443 0.833524 0.672068
0.831968 0.839612 0.68275
0.849515 0.846342 0.696635
0.8654 0.853681 0.711864
0.880186 0.861891 0.729046
0.893675 0.871046 0.748272
0.905776 0.880583 0.768566
0.916136 0.889998 0.788663
0.925734 0.900038 0.809979
0.934264 0.910048 0.831113
0.941711 0.919478 0.850828
0.697139 0.84303 0.696239
0.697154 0.843046 0.696239
0.697307 0.84303 0.696284
0.697734 0.84303 0.696376
0.698528 0.843015 0.696574
0.69984 0.843 0.69688
0.701793 0.842985 0.697337
0.704463 0.842969 0.697963
0.707683 0.84303 0.698817
0.711971 0.843061 0.69984
0.717189 0.843137 0.701076
0.723003 0.843336 0.702586
0.729885 0.843595 0.704204
0.736751 0.843809 0.705623
0.744762 0.844419 0.707713
0.753735 0.845197 0.709987
0.76376 0.846326 0.712627
0.774472 0.847639 0.715267
0.786267 0.849699 0.718776
0.79939 0.852323 0.722683
0.812696 0.855314 0.726879
0.826932 0.859266 0.732433
0.841276 0.863844 0.738033
0.856077 0.86978 0.743267
0.870283 0.875502 0.755718
0.883452 0.881636 0.769009
0.895644 0.888319 0.783352
0.906966 0.895567 0.798764
0.917479 0.903487 0.815564
0.926955 0.911681 0.832868
0.935485 0.919753 0.849836
0.94313 0.92784 0.866636
0.950011 0.935729 0.882765
0.772259 0.872435 0.758526
0.772274 0.872435 0.758526
0.772335 0.872435 0.758556
0.772534 0.87245 0.758602
0.7729 0.872465 0.758724
0.773632 0.872465 0.758892
0.774716 0.872465 0.759121
0.776226 0.872465 0.759457
0.778393 0.872602 0.760082
0.78114 0.87277 0.760891
0.784253 0.87306 0.761913
0.788159 0.873381 0.763088
0.792432 0.873838 0.764492
0.797421 0.874372 0.766064
0.802716 0.875105 0.767895
0.808362 0.875792 0.769589
0.814878 0.876844 0.771832
0.822538 0.878294 0.774655
0.831067 0.88014 0.77792
0.839963 0.88217 0.781384
0.849836 0.884962 0.785992
0.860258 0.888182 0.791119
0.87068 0.891859 0.796933
0.881651 0.896345 0.802396
0.892851 0.901625 0.810101
0.903273 0.906676 0.821073
0.913252 0.912276 0.832959
0.922545 0.918196 0.845441
0.931136 0.924422 0.858488
0.939178 0.93106 0.87216
0.946654 0.937881 0.886061
0.953368 0.944518 0.899428
0.959335 0.950881 0.912062
0.833219 0.899687 0.815885
0.833234 0.899687 0.815885
0.83328 0.899702 0.8159
0.833432 0.899718 0.815961
0.833753 0.899763 0.816083
0.834241 0.899825 0.816266
0.834989 0.899916 0.816541
0.83595 0.900053 0.816938
0.837217 0.900252 0.817456
0.838895 0.900481 0.818097
0.840955 0.900771 0.818875
0.843107 0.901061 0.819593
0.845716 0.901381 0.820432
0.84892 0.90193 0.821653
0.852338 0.902617 0.823133
0.856199 0.903395 0.824765
0.860563 0.904418 0.82678
0.865553 0.905684 0.829175
0.871 0.907027 0.831617
0.877424 0.908965 0.834989
0.884398 0.911284 0.839002
0.891508 0.913817 0.843168
0.899458 0.91696 0.848463
0.907134 0.920333 0.854154
0.915618 0.924712 0.859541
0.923537 0.928939 0.867063
0.93135 0.933425 0.876371
0.938827 0.938354 0.886458
0.946059 0.943694 0.897139
0.95256 0.948913 0.907515
0.958618 0.954284 0.918059
0.964385 0.959777 0.928679
0.969589 0.965118 0.938796
0.881926 0.924361 0.866026
0.881926 0.924361 0.866026
0.881956 0.924376 0.866056
0.882048 0.924392 0.866087
0.882246 0.924437 0.866178
0.882551 0.924498 0.866316
0.882994 0.92459 0.866529
0.883619 0.924727 0.866819
0.884443 0.924895 0.867201
