public/textures/grade/Nikon/Guardians-NLog.cube
TITLE "Generated by Resolve"
LUT_3D_SIZE 5
0.019852 0.0272984 0.024918
0.140581 0.0230411 0.00834669
0.461082 0.0694285 0
0.783902 0.286381 0.0759747
0.951553 0.611246 0.343374
0.0526894 0.135424 0.00688182
0.150362 0.135866 0.0037232
0.453986 0.165438 0.00228885
0.775479 0.334646 0.0907454
0.949554 0.624949 0.350896
0.252628 0.457938 0.0729839
0.293111 0.459052 0.0761425
0.478019 0.469352 0.0952468
0.755322 0.535317 0.182986
0.941512 0.699886 0.400397
0.61677 0.792538 0.394842
0.625284 0.792859 0.396231
0.675608 0.795087 0.40502
0.803128 0.808927 0.444495
0.943526 0.85658 0.555642
0.886748 0.986969 0.744274
0.88806 0.98703 0.744549
0.896513 0.987549 0.746593
0.92723 0.989639 0.755016
0.985855 0.998917 0.784848
0.0258946 0.0396735 0.179126
0.130495 0.0430152 0.162493
0.459876 0.0873426 0.12285
0.782681 0.29601 0.171405
0.950805 0.613626 0.387472
0.0529641 0.148959 0.158556
0.132769 0.154238 0.155962
0.456367 0.178836 0.124971
0.774838 0.342748 0.181674
0.948898 0.627176 0.393805
0.256641 0.463676 0.17438
0.2963 0.464759 0.175708
0.48101 0.474342 0.185351
0.755764 0.538781 0.251301
0.9411 0.701198 0.436362
0.617472 0.79321 0.432303
0.625925 0.793561 0.433265
0.675914 0.795499 0.440513
0.803159 0.808988 0.474784
0.943252 0.856641 0.575677
0.886763 0.986908 0.752605
0.888075 0.986969 0.75288
0.896529 0.987488 0.754788
0.927214 0.989563 0.762753
0.985672 0.998734 0.791333
0.0864424 0.13814 0.599084
0.159655 0.143694 0.589258
0.436973 0.180667 0.542901
0.767651 0.34522 0.505577
0.946181 0.627665 0.578149
0.115404 0.217166 0.571069
0.179217 0.221805 0.564492
0.438178 0.24976 0.529717
0.763577 0.384543 0.504387
0.944625 0.64004 0.580667
0.278935 0.490135 0.518639
0.310796 0.492332 0.518761
0.465522 0.504601 0.518212
0.75758 0.55697 0.513939
0.938567 0.708965 0.599466
0.620157 0.79762 0.60061
0.628534 0.797848 0.600824
0.677516 0.799741 0.603387
0.804257 0.811994 0.617853
0.94258 0.858183 0.677638
0.887068 0.986816 0.800305
0.888182 0.986816 0.800412
0.896605 0.987228 0.801663
0.927245 0.989319 0.807614
0.98526 0.998383 0.82884
0.302739 0.399649 0.902235
0.334157 0.40267 0.898787
0.487984 0.421042 0.879652
0.750546 0.502388 0.845731
0.936934 0.684123 0.84123
0.318929 0.432166 0.890623
0.348318 0.434333 0.887572
0.493828 0.450996 0.871214
0.750164 0.523598 0.8421
0.936339 0.693111 0.840925
0.416678 0.582666 0.848814
0.435966 0.584054 0.847776
0.539727 0.592477 0.841016
0.754681 0.6327 0.829801
0.934905 0.745342 0.841337
0.653193 0.819043 0.842176
0.659388 0.819364 0.842283
0.697154 0.821515 0.842435
0.803113 0.832776 0.846128
0.944961 0.869795 0.858351
0.890547 0.98909 0.910048
0.891646 0.989166 0.910124
0.899489 0.989319 0.910323
0.928908 0.99118 0.912169
0.985763 0.999405 0.921035
0.612482 0.705821 1
0.620829 0.706569 1
0.669413 0.711696 1
0.796872 0.735851 0.995331
0.941009 0.806775 0.99556
0.617838 0.713634 1
0.625681 0.714412 1
0.673121 0.719463 1
0.798444 0.742596 0.994705
0.941192 0.810987 0.995331
0.651682 0.760433 0.997131
0.658167 0.761013 0.996887
0.6981 0.76466 0.994842
0.808423 0.781933 0.991165
0.942962 0.836469 0.994415
0.759075 0.876814 0.992264
0.762234 0.877012 0.992203
0.783627 0.87837 0.991714
0.851438 0.885267 0.991379
0.954772 0.911162 0.99736
0.913436 1 1
0.914351 1 1
0.920501 1 1
0.943709 1 1
0.992615 1 1
