public/textures/grade/Nikon/Guardians-NLog.cube
TITLE "Generated by Resolve"
LUT_3D_SIZE 9
0.019852 0.0272984 0.024918
0.0450294 0.024506 0.0182345
0.140581 0.0230411 0.00834669
0.295583 0.0339818 0
0.461082 0.0694285 0
0.634272 0.149645 0.0106966
0.783902 0.286381 0.0759747
0.88777 0.456016 0.197528
0.951553 0.611246 0.343374
0.0251011 0.0414893 0.0208286
0.0431373 0.0407721 0.0181888
0.142657 0.0398108 0.00756847
0.295613 0.0502785 0
0.460182 0.0835279 0
0.632624 0.160052 0.0123293
0.782742 0.292653 0.0777905
0.887129 0.459617 0.199054
0.951278 0.613062 0.344381
0.0526894 0.135424 0.00688182
0.0662852 0.135592 0.00657664
0.150362 0.135866 0.0037232
0.296391 0.142275 0
0.453986 0.165438 0.00228885
0.623941 0.224216 0.0247807
0.775479 0.334646 0.0907454
0.88336 0.48278 0.209155
0.949554 0.624949 0.350896
0.129778 0.291157 0.0151522
0.138903 0.291386 0.0154726
0.196185 0.292531 0.0168307
0.311696 0.296712 0.020737
0.452323 0.309682 0.0303807
0.612497 0.345663 0.0581369
0.763104 0.421683 0.123217
0.875395 0.534966 0.234592
0.945953 0.653727 0.36846
0.252628 0.457938 0.0729839
0.257893 0.458183 0.0734875
0.293111 0.459052 0.0761425
0.370306 0.461845 0.082475
0.478019 0.469352 0.0952468
0.614816 0.489494 0.123583
0.755322 0.535317 0.182986
0.867658 0.611322 0.280797
0.941512 0.699886 0.400397
0.42591 0.634363 0.203815
0.428626 0.63444 0.204105
0.446189 0.634714 0.205859
0.488045 0.636286 0.211093
0.554192 0.640009 0.221927
0.650507 0.649439 0.243885
0.763958 0.672557 0.289052
0.866026 0.715053 0.364431
0.93843 0.769848 0.459525
0.61677 0.792538 0.394842
0.617868 0.792569 0.39501
0.625284 0.792859 0.396231
0.644022 0.793637 0.399435
0.675608 0.795087 0.40502
0.728923 0.798871 0.417731
0.803128 0.808927 0.444495
0.881102 0.828367 0.491768
0.943526 0.85658 0.555642
0.777295 0.911009 0.591318
0.777707 0.911025 0.591394
0.780591 0.911147 0.591928
0.787594 0.911284 0.592966
0.800992 0.912016 0.595926
0.825589 0.913558 0.602121
0.865476 0.917403 0.615015
0.915053 0.925551 0.639231
0.961166 0.938338 0.674708
0.886748 0.986969 0.744274
0.886915 0.986969 0.744305
0.88806 0.98703 0.744549
0.890929 0.987213 0.745251
0.896513 0.987549 0.746593
0.907576 0.988067 0.749218
0.92723 0.989639 0.755016
0.955612 0.993072 0.766659
0.985855 0.998917 0.784848
0.0209812 0.0287175 0.045716
0.0361028 0.0286259 0.043122
0.141436 0.0254826 0.0273594
0.296193 0.0368963 0.0143282
0.461265 0.0720531 0.00959792
0.634363 0.151919 0.0268101
0.783841 0.287816 0.0894942
0.887663 0.456748 0.206806
0.951461 0.611551 0.349172
0.0222324 0.0442359 0.0437934
0.0353552 0.0449989 0.0428626
0.143969 0.0421302 0.0263218
0.296345 0.0530861 0.014725
0.460533 0.0861372 0.0111086
0.632761 0.162264 0.0284123
0.782681 0.294057 0.0911727
0.887022 0.460334 0.208255
0.951186 0.613382 0.350149
0.0528573 0.13753 0.028275
0.0664836 0.137911 0.027924
0.151293 0.13814 0.0235447
0.297688 0.144366 0.0180056
0.454643 0.167666 0.0192264
0.624063 0.225818 0.0403449
0.775357 0.335668 0.103288
0.883101 0.483131 0.217746
0.949462 0.625223 0.356817
0.130587 0.292546 0.033463
0.13959 0.292714 0.0336309
0.197024 0.294102 0.0348516
0.312657 0.298207 0.0375219
0.453178 0.311055 0.046128
0.612955 0.346883 0.0723888
0.763256 0.422553 0.134859
0.875364 0.53547 0.242817
0.945891 0.653971 0.373693
0.253407 0.458869 0.0871748
0.258686 0.459083 0.0876478
0.293736 0.459953 0.0903334
0.370886 0.46273 0.0959793
0.478569 0.47013 0.108141
0.615183 0.490181 0.135134
0.755459 0.535851 0.192554
0.867643 0.611643 0.288106
0.941466 0.700053 0.405066
0.426276 0.63473 0.213031
0.428977 0.634806 0.213321
0.446448 0.635096 0.215015
0.488319 0.636622 0.220233
0.554452 0.640345 0.230549
0.650706 0.649729 0.251698
0.764065 0.672786 0.295781
0.866011 0.71519 0.369909
0.938369 0.769879 0.463249
0.616861 0.79263 0.399741
0.61799 0.792676 0.399878
0.62536 0.792966 0.401038
0.644129 0.793729 0.40415
0.675669 0.795148 0.409903
0.728969 0.798932 0.422354
0.803159 0.808957 0.448676
0.881086 0.828397 0.495247
0.943481 0.856565 0.558022
0.777325 0.91104 0.593423
0.777752 0.911055 0.5935
0.780621 0.911162 0.594034
0.787625 0.911284 0.595209
0.801007 0.912016 0.59826
0.825589 0.913558 0.604379
0.865446 0.917357 0.61706
0.915038 0.925536 0.641123
0.961135 0.938323 0.67628
0.886748 0.986954 0.745373
0.886915 0.986969 0.745403
0.88806 0.987015 0.745647
0.890929 0.987198 0.746349
0.896513 0.987533 0.747677
0.907561 0.988067 0.750286
0.92723 0.989624 0.756039
0.955612 0.993072 0.76762
0.985824 0.998901 0.785687
0.0258946 0.0396735 0.179126
0.0401007 0.0405432 0.177478
0.130495 0.0430152 0.162493
0.293019 0.0532235 0.136782
0.459876 0.0873426 0.12285
0.6327 0.164126 0.127184
0.782681 0.29601 0.171405
0.886656 0.461173 0.265019
0.950805 0.613626 0.387472
0.0288701 0.05626 0.175921
0.0433051 0.0569009 0.174441
0.132204 0.0595102 0.160281
0.294453 0.0686351 0.135256
0.459129 0.10074 0.123079
0.63151 0.174136 0.128222
0.781369 0.302159 0.172396
0.885908 0.464469 0.265949
0.950545 0.615427 0.388312
0.0529641 0.148959 0.158556
0.0644846 0.149828 0.158373
0.132769 0.154238 0.155962
0.302892 0.155093 0.128969
0.456367 0.178836 0.124971
0.624231 0.235721 0.135515
0.774838 0.342748 0.181674
0.882322 0.487129 0.274266
0.948898 0.627176 0.393805
0.132799 0.300801 0.144411
0.141558 0.301167 0.144396
0.197574 0.302586 0.143008
0.316045 0.305959 0.138857
0.457374 0.318135 0.140124
0.614939 0.353475 0.157122
0.763455 0.427466 0.205341
0.875029 0.538674 0.294835
0.945388 0.655543 0.408774
0.256641 0.463676 0.17438
0.262074 0.463828 0.174578
0.2963 0.464759 0.175708
0.373129 0.467369 0.178439
0.48101 0.474342 0.185351
0.616953 0.493874 0.204913
0.755764 0.538781 0.251301
0.867552 0.613764 0.332967
0.9411 0.701198 0.436362
0.427848 0.636622 0.271214
0.430549 0.636698 0.271427
0.448035 0.637354 0.273106
0.490211 0.638697 0.27689
0.555474 0.642008 0.284367
0.65185 0.651514 0.30161
0.764645 0.67422 0.339284
0.865797 0.715892 0.404013
0.93814 0.770459 0.488777
0.617472 0.79321 0.432303
0.618585 0.79324 0.43241
0.625925 0.793561 0.433265
0.644327 0.793988 0.435431
0.675914 0.795499 0.440513
0.72932 0.79942 0.451652
0.803159 0.808988 0.474784
0.88101 0.828626 0.517708
0.943252 0.856641 0.575677
0.777417 0.911055 0.609079
0.777798 0.91104 0.609125
0.780484 0.910979 0.609384
0.787747 0.911315 0.610758
0.801099 0.912032 0.613581
0.82565 0.913588 0.618891
0.865293 0.917205 0.630457
0.914977 0.925505 0.653452
0.961044 0.938293 0.686717
0.886763 0.986908 0.752605
0.886931 0.986923 0.752636
0.888075 0.986969 0.75288
0.890944 0.987167 0.753536
0.896529 0.987488 0.754788
0.907561 0.988022 0.757259
0.927214 0.989563 0.762753
0.955566 0.993011 0.773861
0.985672 0.998734 0.791333
0.0443732 0.074815 0.392309
0.0571756 0.0755322 0.390814
0.133913 0.080354 0.380118
0.279484 0.0923018 0.35523
0.448447 0.121828 0.327382
0.62475 0.191119 0.311955
0.777081 0.313664 0.325994
0.883635 0.470985 0.382483
0.948913 0.618479 0.469032
0.0485084 0.0890516 0.388037
0.0607004 0.0898451 0.386603
0.135683 0.0944839 0.376501
0.280324 0.105959 0.353033
0.44831 0.133608 0.326085
0.62388 0.200183 0.311635
0.776364 0.319707 0.326619
0.883101 0.474357 0.383169
0.948775 0.620188 0.469627
0.0747997 0.172045 0.364996
0.08542 0.172869 0.36434
0.150942 0.176791 0.358618
0.285145 0.18497 0.340581
0.449882 0.204242 0.3187
0.619867 0.256718 0.310918
0.771206 0.357931 0.33048
0.879973 0.49604 0.38819
0.947356 0.631525 0.473625
0.142367 0.316976 0.33875
0.149676 0.31754 0.338766
0.196612 0.320638 0.338323
0.293767 0.327962 0.336583
0.464759 0.332021 0.309468
0.615915 0.367071 0.315419
0.762478 0.43856 0.342153
0.873533 0.545632 0.401205
0.943893 0.659175 0.484215
0.260334 0.474037 0.337957
0.26508 0.474296 0.338155
0.29749 0.475319 0.338231
0.371984 0.478386 0.33695
0.483711 0.483146 0.333013
0.620798 0.501534 0.33991
0.75668 0.545373 0.369528
0.866758 0.618326 0.426749
0.939941 0.703746 0.504891
0.430777 0.641413 0.389425
0.433402 0.641489 0.389517
0.450629 0.641901 0.390082
0.491997 0.643381 0.391745
0.556832 0.646372 0.394583
0.653635 0.655177 0.404181
0.765576 0.677211 0.43003
0.866041 0.718273 0.479332
0.937652 0.772076 0.545647
0.618509 0.794507 0.502815
0.619608 0.794537 0.502892
0.626825 0.794797 0.503594
0.645212 0.795514 0.505394
0.676677 0.796796 0.508644
0.729549 0.800458 0.516365
0.80351 0.809979 0.53434
0.880873 0.829038 0.568322
0.942962 0.85716 0.61648
0.777584 0.911086 0.645365
0.777996 0.911101 0.645426
0.78088 0.911192 0.645823
0.788159 0.911528 0.646998
0.801114 0.912001 0.64889
0.825788 0.91371 0.653681
0.865324 0.917281 0.663172
0.914885 0.925551 0.682521
0.960815 0.938277 0.711635
0.886854 0.986847 0.770642
0.887022 0.986847 0.770672
0.888151 0.986908 0.770871
0.89102 0.987076 0.77145
0.896422 0.987243 0.772366
0.907546 0.987915 0.774716
0.927199 0.989425 0.779568
0.955322 0.992706 0.789258
0.985458 0.998535 0.805142
0.0864424 0.13814 0.599084
0.0967269 0.13901 0.597879
0.159655 0.143694 0.589258
0.283345 0.15555 0.569512
0.436973 0.180667 0.542901
0.611841 0.238102 0.515404
0.767651 0.34522 0.505577
0.878141 0.488762 0.527413
0.946181 0.627665 0.578149
0.090135 0.149523 0.594751
0.0999619 0.150393 0.593637
0.161929 0.154864 0.585443
0.284504 0.166323 0.566735
0.437049 0.19028 0.541009
0.610986 0.245991 0.514275
0.767239 0.350439 0.505577
0.877974 0.491768 0.527932
0.945983 0.629328 0.57847
0.115404 0.217166 0.571069
0.123857 0.217639 0.570108
0.179217 0.221805 0.564492
0.292119 0.231128 0.550744
0.438178 0.24976 0.529717
0.609079 0.294667 0.508782
0.763577 0.384543 0.504387
0.87538 0.51194 0.529595
0.944625 0.64004 0.580667
0.177554 0.34374 0.536294
0.183932 0.344244 0.536034
0.225803 0.347021 0.533639
0.316793 0.35346 0.527306
0.446464 0.364584 0.514763
0.610147 0.392706 0.49987
0.75845 0.458091 0.504982
0.870466 0.558007 0.535164
0.941985 0.666346 0.586831
0.278935 0.490135 0.518639
0.282979 0.490471 0.5187
0.310796 0.492332 0.518761
0.373571 0.496269 0.518425
0.465522 0.504601 0.518212
0.627527 0.514717 0.49868
0.75758 0.55697 0.513939
0.865629 0.626657 0.54815
0.938567 0.708965 0.599466
0.436271 0.65008 0.534783
0.438666 0.650172 0.534829
0.45452 0.650843 0.53518
0.492851 0.652216 0.535805
0.555718 0.655268 0.535988
0.655238 0.661952 0.535012
0.768139 0.682811 0.547509
0.866148 0.722667 0.579782
0.937072 0.775051 0.626871
0.620157 0.79762 0.60061
0.621225 0.79765 0.600641
0.628534 0.797848 0.600824
0.646479 0.79855 0.601709
0.677516 0.799741 0.603387
0.730465 0.803204 0.607385
0.804257 0.811994 0.617853
0.881193 0.830655 0.641642
0.94258 0.858183 0.677638
0.778485 0.911849 0.701579
0.778897 0.911864 0.70161
0.781369 0.911894 0.701701
0.788464 0.912108 0.70219
0.801724 0.912734 0.703609
0.825956 0.914061 0.7066
0.865644 0.917678 0.713619
0.914763 0.925612 0.728222
0.960449 0.938323 0.751461
0.887068 0.986816 0.800305
0.887221 0.986801 0.80032
0.888182 0.986816 0.800412
0.891081 0.986923 0.800809
0.896605 0.987228 0.801663
0.907576 0.987915 0.803571
0.927245 0.989319 0.807614
0.955276 0.992615 0.815564
0.98526 0.998383 0.82884
0.169757 0.24654 0.780316
0.176791 0.247181 0.779477
0.221744 0.251026 0.77348
0.317128 0.260517 0.759731
0.444678 0.279591 0.739895
0.602213 0.322179 0.713893
0.755428 0.405158 0.693599
0.8701 0.524346 0.691768
0.941695 0.646571 0.71162
0.17258 0.254429 0.777188
0.179644 0.254902 0.776242
0.224033 0.258289 0.770565
0.318746 0.267887 0.757488
0.444953 0.286427 0.73785
0.601846 0.327688 0.712505
0.754879 0.409186 0.692805
0.869932 0.52694 0.691768
0.941512 0.648005 0.71165
0.193301 0.3019 0.758862
0.199557 0.302464 0.758236
0.240284 0.305608 0.753597
0.328328 0.313664 0.742992
0.448554 0.329305 0.726848
0.601724 0.364752 0.705684
0.753323 0.436622 0.689876
0.868391 0.54406 0.691264
0.940826 0.65803 0.712612
0.244739 0.399313 0.726879
0.24976 0.399405 0.726375
0.282734 0.401907 0.723918
0.356085 0.40766 0.717266
0.46186 0.418647 0.707256
0.603464 0.443793 0.693294
0.751049 0.497444 0.683848
0.865187 0.584131 0.69041
0.938857 0.681758 0.714473
0.329137 0.522026 0.700267
0.332753 0.52224 0.700114
0.356069 0.523857 0.69926
0.410651 0.527474 0.696986
0.493034 0.534524 0.692576
0.614969 0.549126 0.684871
0.754101 0.583337 0.680873
0.8636 0.64506 0.693034
0.936767 0.72076 0.719646
0.461769 0.666423 0.694774
0.463813 0.666529 0.694774
0.476875 0.666987 0.694514
0.509682 0.669123 0.694759
0.562203 0.672755 0.694865
0.644266 0.681453 0.696315
0.774426 0.695018 0.687373
0.86746 0.732708 0.705287
0.936629 0.782132 0.732982
0.627588 0.805127 0.723232
0.628565 0.805173 0.723262
0.634836 0.805386 0.723384
0.651087 0.80589 0.723629
0.679423 0.807233 0.724346
0.729946 0.810178 0.725658
0.80621 0.817609 0.727718
0.882918 0.834867 0.739635
0.942977 0.861509 0.763043
0.780316 0.914214 0.781567
0.780713 0.914229 0.781582
0.783459 0.914305 0.781689
0.790127 0.914336 0.781781
0.802808 0.9149 0.782498
0.826642 0.916091 0.783612
0.86627 0.919524 0.787625
0.915251 0.926772 0.796063
0.960433 0.939223 0.81181
0.887694 0.987243 0.848142
0.887846 0.987259 0.848157
0.88896 0.987305 0.848234
0.891936 0.987411 0.848478
0.897383 0.987671 0.848997
0.908064 0.988098 0.850065
0.927504 0.989456 0.852567
0.955337 0.992828 0.858213
0.985077 0.998322 0.867796
0.302739 0.399649 0.902235
0.306737 0.400076 0.901823
0.334157 0.40267 0.898787
0.396384 0.408698 0.89131
0.487984 0.421042 0.879652
0.613504 0.447929 0.862882
0.750546 0.502388 0.845731
0.862898 0.587869 0.837171
0.936934 0.684123 0.84123
0.304646 0.40412 0.900664
0.308827 0.404471 0.900206
0.335653 0.406683 0.896986
0.397742 0.412955 0.889921
0.488396 0.42475 0.878218
0.61384 0.45124 0.862165
0.750484 0.505287 0.845243
0.862806 0.589822 0.837003
0.936996 0.685267 0.841352
0.318929 0.432166 0.890623
0.322957 0.432441 0.890288
0.348318 0.434333 0.887572
0.406638 0.440055 0.881148
0.493828 0.450996 0.871214
0.615656 0.474586 0.85687
0.750164 0.523598 0.8421
0.862074 0.602609 0.835676
0.936339 0.693111 0.840925
0.355093 0.494438 0.870726
0.358007 0.494652 0.870436
0.380163 0.496391 0.868589
0.431159 0.500786 0.863966
0.509224 0.509148 0.856779
0.62179 0.527916 0.84622
0.750561 0.567437 0.836042
0.861128 0.633356 0.833326
0.935637 0.712886 0.84094
0.416678 0.582666 0.848814
0.418952 0.58291 0.848737
0.435966 0.584054 0.847776
0.476295 0.586847 0.84535
0.539727 0.592477 0.841016
0.636408 0.605066 0.835126
0.754681 0.6327 0.829801
0.861295 0.682322 0.831067
0.934905 0.745342 0.841337
0.51841 0.697826 0.835081
0.519783 0.697978 0.835111
0.530236 0.698268 0.834501
0.556603 0.700084 0.83389
0.600336 0.703288 0.832609
0.671885 0.710292 0.830854
0.769894 0.725811 0.829526
0.867185 0.75552 0.832822
0.936584 0.798703 0.84535
0.653193 0.819043 0.842176
0.654017 0.819074 0.842176
0.659388 0.819364 0.842283
0.673259 0.820127 0.842359
0.697154 0.821515 0.842435
0.739773 0.824979 0.843275
0.803113 0.832776 0.846128
0.888426 0.845029 0.844892
0.944961 0.869795 0.858351
0.78819 0.91989 0.87129
0.78854 0.91989 0.871305
0.790829 0.920027 0.871397
0.797208 0.920287 0.87158
0.808316 0.920714 0.871839
0.830503 0.922057 0.872755
0.867536 0.92491 0.874571
0.917021 0.931304 0.877592
0.961868 0.942565 0.886091
0.890547 0.98909 0.910048
0.8907 0.989105 0.910048
0.891646 0.989166 0.910124
0.894453 0.989258 0.910246
0.899489 0.989319 0.910323
0.909972 0.989868 0.910964
0.928908 0.99118 0.912169
0.956588 0.994232 0.915465
0.985763 0.999405 0.921035
0.464363 0.566186 0.968658
0.466514 0.566369 0.968475
0.480842 0.567727 0.967208
0.515068 0.571069 0.963912
0.571099 0.577798 0.958938
0.656626 0.592401 0.950851
0.763973 0.62324 0.942092
0.864027 0.675975 0.936385
0.935973 0.741588 0.937346
0.465614 0.568368 0.968048
0.467765 0.568551 0.967849
0.482017 0.569894 0.966613
0.516045 0.573205 0.963363
0.571786 0.579858 0.95845
0.657023 0.594324 0.950454
0.764111 0.624887 0.941833
0.863905 0.677058 0.93611
0.935973 0.742443 0.937285
0.473899 0.582635 0.964096
0.475959 0.582803 0.963928
0.489647 0.58407 0.962814
0.522835 0.586984 0.960052
0.576303 0.593332 0.955261
0.659709 0.606806 0.947906
0.764981 0.635569 0.940078
0.864012 0.68542 0.935409
0.935668 0.747951 0.936721
0.495857 0.616648 0.955596
0.49749 0.616846 0.95552
0.509361 0.617578 0.954376
0.539803 0.620386 0.952239
0.588952 0.625345 0.948318
0.667048 0.636988 0.94255
0.767514 0.661753 0.936202
0.864439 0.70547 0.933349
0.935653 0.762097 0.936248
0.534173 0.669825 0.944595
0.535332 0.669902 0.944488
0.545571 0.670451 0.943694
0.570825 0.672663 0.94226
0.613291 0.676371 0.939696
0.682338 0.685267 0.935821
0.774151 0.704356 0.93164
0.86659 0.739437 0.93109
0.936141 0.786374 0.935607
0.601709 0.748943 0.93434
0.602808 0.749004 0.934295
0.61001 0.749508 0.934035
0.628199 0.750454 0.933028
0.659541 0.752758 0.931655
0.713695 0.75845 0.930159
0.790387 0.770626 0.928618
0.873045 0.794049 0.93019
0.938857 0.828077 0.936339
0.700389 0.84361 0.933562
0.700984 0.843595 0.933532
0.705043 0.843854 0.933501
0.715801 0.844495 0.933364
0.734874 0.845533 0.933043
0.769741 0.848371 0.932921
0.824109 0.854612 0.933303
0.88986 0.867506 0.936034
0.94757 0.887098 0.941924
0.809308 0.930785 0.94757
0.809613 0.9308 0.94757
0.81146 0.930922 0.947616
0.816617 0.930953 0.947448
0.826261 0.931517 0.947601
0.844907 0.932525 0.947921
0.876814 0.9355 0.949157
0.919539 0.941512 0.952148
0.965896 0.950484 0.955139
0.89865 0.993606 0.969314
0.898787 0.993622 0.969314
0.899748 0.993652 0.969345
0.902281 0.993759 0.96939
0.906935 0.994018 0.969573
0.916152 0.994446 0.969772
0.933608 0.995727 0.970703
0.959304 0.998123 0.972366
0.988113 1 0.975692
0.612482 0.705821 1
0.61355 0.705928 1
0.620829 0.706569 1
0.638315 0.708156 1
0.669413 0.711696 1
0.721889 0.719387 0.998718
0.796872 0.735851 0.995331
0.877073 0.765835 0.993881
0.941009 0.806775 0.99556
0.613169 0.706874 1
0.614237 0.706966 1
0.621485 0.707607 1
0.638911 0.709194 1
0.669734 0.712535 1
0.722286 0.720333 0.998642
0.79704 0.736721 0.995224
0.87715 0.766537 0.993805
0.941054 0.807294 0.99556
0.617838 0.713634 1
0.618875 0.713726 1
0.625681 0.714412 1
0.64329 0.716182 1
0.673121 0.719463 1
0.724453 0.726528 0.997604
0.798444 0.742596 0.994705
0.877623 0.77145 0.993378
0.941192 0.810987 0.995331
0.63003 0.731182 1
0.630991 0.731258 1
0.637324 0.731884 1
0.653498 0.733104 0.999756
0.681788 0.736278 0.998291
0.730709 0.742657 0.995804
0.801617 0.756786 0.993011
0.879026 0.783444 0.992447
0.941634 0.820142 0.994827
0.651682 0.760433 0.997131
0.652552 0.760494 0.997101
0.658167 0.761013 0.996887
0.672786 0.762325 0.996201
0.6981 0.76466 0.994842
0.742641 0.770123 0.993118
0.808423 0.781933 0.991165
0.882155 0.804532 0.991302
0.942962 0.836469 0.994415
0.692897 0.809659 0.992874
0.693431 0.80975 0.992874
0.697978 0.810071 0.992706
0.709239 0.810697 0.992081
0.729717 0.812543 0.99147
0.766522 0.816266 0.990494
0.822995 0.82472 0.989624
0.88896 0.841245 0.990402
0.946273 0.865858 0.994522
0.759075 0.876814 0.992264
0.759503 0.876844 0.992248
0.762234 0.877012 0.992203
0.769574 0.877363 0.991928
0.783627 0.87837 0.991714
0.809522 0.880461 0.991501
0.851438 0.885267 0.991379
0.905074 0.895445 0.993301
0.954772 0.911162 0.99736
0.84004 0.946181 0.999832
0.840269 0.946197 0.999832
0.841901 0.946258 0.999832
0.846098 0.946487 0.999878
0.853834 0.94699 0.999908
0.86891 0.94786 0.999802
0.895415 0.950195 1
0.932494 0.955245 1
0.970687 0.963531 1
0.913436 1 1
0.913542 1 1
0.914351 1 1
0.916518 1 1
0.920501 1 1
0.928573 1 1
0.943709 1 1
0.966766 1 1
0.992615 1 1
