public/textures/grade/Nikon/Guardians-NLog.cube
TITLE "Generated by Resolve"
LUT_3D_SIZE 33
0.019852 0.0272984 0.024918
0.0200504 0.0273136 0.024918
0.021561 0.0273136 0.0247807
0.0269474 0.0270237 0.0236362
0.0450294 0.024506 0.0182345
0.060502 0.0240024 0.0164492
0.0820935 0.0233921 0.0142672
0.108843 0.0230106 0.011368
0.140581 0.0230411 0.00834669
0.176028 0.0239109 0.00497444
0.214374 0.0261082 0.0015259
0.254505 0.0291447 0
0.295583 0.0339818 0
0.337041 0.0400854 0
0.37818 0.0480507 0
0.418708 0.0572671 0
0.461082 0.0694285 0
0.504295 0.0844129 0
0.547921 0.10251 0
0.591638 0.124163 0.00262455
0.634272 0.149645 0.0106966
0.675288 0.178882 0.0217746
0.714076 0.211704 0.0361334
0.750423 0.247364 0.0540627
0.783902 0.286381 0.0759747
0.814282 0.327214 0.101717
0.841627 0.370001 0.130922
0.866163 0.413275 0.162997
0.88777 0.456016 0.197528
0.906966 0.4981 0.2336
0.923949 0.538399 0.270466
0.938766 0.576257 0.307286
0.951553 0.611246 0.343374
0.0199893 0.0274968 0.024918
0.0201877 0.0274968 0.0248875
0.0216983 0.027512 0.0247044
0.0271153 0.0271611 0.0234836
0.0449226 0.0247654 0.018265
0.0605631 0.0242313 0.016434
0.0821546 0.023621 0.0142367
0.108949 0.0232395 0.0113832
0.140642 0.0233005 0.00833143
0.176059 0.0241093 0.00497444
0.214405 0.0263828 0.0015259
0.25449 0.0294041 0
0.295598 0.0342565 0
0.337041 0.0403449 0
0.378164 0.0483101 0
0.418738 0.057496 0
0.461067 0.0696727 0
0.504265 0.0846265 0
0.54789 0.102724 0
0.591623 0.124346 0.00263981
0.634256 0.149813 0.0107271
0.675273 0.179034 0.0218051
0.714076 0.211826 0.0361944
0.750393 0.247486 0.0540932
0.783886 0.286488 0.0760052
0.814282 0.327291 0.101762
0.841611 0.370077 0.130938
0.866148 0.413321 0.163012
0.887755 0.456077 0.197559
0.906966 0.498146 0.233631
0.923934 0.53843 0.270481
0.938766 0.576288 0.307301
0.951537 0.611276 0.343389
0.0206607 0.0289311 0.0243229
0.0208743 0.0289311 0.0242771
0.0223545 0.0289006 0.0240177
0.0281834 0.0285496 0.0227817
0.0442054 0.0266728 0.0185855
0.0610971 0.0258183 0.0163729
0.0825666 0.0252689 0.014023
0.109483 0.0249485 0.011368
0.141115 0.0250858 0.00836194
0.176242 0.0259861 0.00488289
0.214405 0.0282139 0.00138857
0.254566 0.0313268 0
0.295766 0.0361181 0
0.337209 0.0421454 0
0.378164 0.0499275 0
0.418708 0.059205 0
0.460929 0.0712902 0
0.504112 0.086183 0
0.547723 0.104173 0
0.59144 0.125658 0.00282292
0.634058 0.151019 0.0109102
0.67509 0.180117 0.0220035
0.714031 0.212619 0.0364691
0.75024 0.248356 0.0543221
0.783749 0.287236 0.0762188
0.814176 0.327947 0.10193
0.841505 0.370626 0.131136
0.866011 0.413703 0.163088
0.887678 0.456474 0.197726
0.906905 0.498482 0.233783
0.923888 0.53872 0.270619
0.93872 0.576532 0.307424
0.951507 0.611475 0.343496
0.0223697 0.0331121 0.0231022
0.0226291 0.0331121 0.0230716
0.0243687 0.0330205 0.0227512
0.0297704 0.0327153 0.0217288
0.0432136 0.0315099 0.0189212
0.061738 0.0302434 0.0160678
0.0833753 0.0297704 0.0136568
0.110506 0.0296483 0.0111086
0.141741 0.029984 0.00802625
0.176761 0.0311589 0.00463874
0.214908 0.033341 0.00144961
0.254643 0.0365759 0
0.295567 0.041001 0
0.336996 0.0469215 0
0.377859 0.0545815 0
0.418326 0.0639048 0
0.460563 0.075349 0
0.503883 0.0902419 0
0.547555 0.107973 0
0.590997 0.129213 0.00334173
0.633539 0.154253 0.011429
0.674662 0.183017 0.0225528
0.713481 0.214984 0.0368811
0.749828 0.25066 0.0549325
0.783398 0.28925 0.0767834
0.813855 0.329686 0.102358
0.84123 0.372107 0.13164
0.865644 0.414755 0.163363
0.887495 0.457542 0.198184
0.906752 0.499382 0.23418
0.923766 0.539483 0.270985
0.938628 0.577173 0.307759
0.951431 0.612009 0.343801
0.0251011 0.0414893 0.0208286
0.0252995 0.0415045 0.020798
0.0270085 0.0414893 0.0205997
0.0321202 0.0413062 0.0198367
0.0431373 0.0407721 0.0181888
0.0617838 0.0397192 0.0155795
0.0844282 0.0393072 0.0129854
0.111345 0.0393072 0.0103761
0.142657 0.0398108 0.00756847
0.177691 0.0409857 0.00448615
0.215183 0.0428931 0.0012665
0.254963 0.0460365 0
0.295613 0.0502785 0
0.336706 0.0561685 0
0.377752 0.0632334 0
0.417762 0.0724041 0
0.460182 0.0835279 0
0.503029 0.0977493 0
0.546532 0.115084 0
0.590188 0.135653 0.00416571
0.632624 0.160052 0.0123293
0.673716 0.188235 0.023331
0.712642 0.220005 0.0380255
0.74905 0.255116 0.0561379
0.782742 0.292653 0.0777905
0.813245 0.333043 0.10338
0.840696 0.37499 0.132647
0.865461 0.417105 0.164553
0.887129 0.459617 0.199054
0.906447 0.501137 0.234974
0.923522 0.540948 0.271702
0.93843 0.578424 0.308415
0.951278 0.613062 0.344381
0.0282597 0.0564431 0.0178073
0.0285191 0.0564431 0.017792
0.030396 0.0564279 0.0176699
0.0353552 0.0564279 0.017319
0.0454871 0.0561074 0.0161898
0.062211 0.0556344 0.014435
0.0851301 0.0549783 0.0119478
0.112581 0.0548867 0.00939956
0.143999 0.0551003 0.0065919
0.17879 0.0561379 0.00386053
0.216327 0.0580453 0.00109865
0.255375 0.0608225 0
0.295811 0.0651713 0
0.336583 0.0704356 0
0.377249 0.0773632 0
0.416983 0.0855726 0
0.459022 0.0963455 0
0.5019 0.10985 0
0.545327 0.12636 0.000503548
0.58883 0.146471 0.00605783
0.631479 0.169894 0.0142214
0.67245 0.197101 0.0252537
0.711299 0.227649 0.0397498
0.747784 0.26186 0.0578012
0.781659 0.298924 0.0796368
0.81236 0.33843 0.105257
0.839872 0.379187 0.133898
0.864759 0.421103 0.165881
0.886534 0.463004 0.200473
0.905959 0.503975 0.236286
0.923125 0.543359 0.272877
0.938125 0.580453 0.309483
0.951019 0.614786 0.345342
0.0337377 0.0773632 0.0141299
0.0339971 0.0773785 0.0141146
0.0358587 0.0773785 0.0140078
0.0406195 0.0773327 0.0136568
0.0501106 0.0772564 0.0130159
0.0650797 0.0770733 0.0118715
0.0865949 0.0767529 0.0101625
0.113954 0.0764019 0.0080415
0.145266 0.076585 0.00538643
0.179843 0.0774395 0.0030518
0.21706 0.0791333 0.000854505
0.25594 0.0817731 0
0.295735 0.0853285 0
0.336278 0.0903182 0
0.376287 0.0967117 0
0.416205 0.104463 0
0.457465 0.114488 0
0.500282 0.126879 0
0.543587 0.142458 0.002533
0.586709 0.161257 0.0083772
0.629587 0.183749 0.0168307
0.670542 0.209598 0.0279393
0.709575 0.239155 0.0425116
0.746258 0.272099 0.0607156
0.780118 0.307561 0.0821851
0.810895 0.345892 0.107652
0.838651 0.385992 0.13637
0.863737 0.426932 0.168093
0.885863 0.46772 0.202457
0.905272 0.507683 0.238071
0.922576 0.546456 0.27451
0.937667 0.583139 0.310948
0.950668 0.617334 0.3467
0.0416876 0.103914 0.0100404
0.0419318 0.103914 0.0100404
0.0436255 0.103944 0.0099794
0.0480507 0.104067 0.00987259
0.056611 0.104005 0.0093843
0.0708476 0.104036 0.00877394
0.0905776 0.103838 0.00776684
0.116075 0.1037 0.00619516
0.147036 0.103807 0.00440986
0.181399 0.10454 0.00254826
0.217945 0.105684 0.000808728
0.256504 0.108034 0
0.296086 0.11136 0
0.335561 0.115785 0
0.375418 0.121447 0
0.414389 0.12845 0
0.455924 0.137728 0
0.498207 0.14902 0.00169375
0.541482 0.163363 0.00549325
0.584527 0.180865 0.01178
0.626642 0.20174 0.0200656
0.668284 0.226261 0.031693
0.707179 0.254124 0.046128
0.743908 0.28542 0.0643626
0.778286 0.319677 0.0859541
0.809308 0.356405 0.111482
0.837064 0.394705 0.139666
0.862348 0.434348 0.171099
0.884565 0.474235 0.205066
0.904341 0.51342 0.240482
0.921767 0.551263 0.276875
0.937041 0.587106 0.313069
0.950317 0.620768 0.348577
0.0526894 0.135424 0.00688182
0.0529335 0.135439 0.00688182
0.0545205 0.135454 0.00686656
0.0583658 0.135409 0.00666819
0.0662852 0.135592 0.00657664
0.0793164 0.135744 0.00628672
0.0974441 0.135714 0.00564584
0.12137 0.135668 0.00477607
0.150362 0.135866 0.0037232
0.183597 0.136446 0.00283818
0.219593 0.137575 0.0015259
0.257374 0.139467 0.000717174
0.296391 0.142275 0
0.335668 0.14612 0
0.374594 0.151278 0
0.413474 0.157473 0.000808728
0.453986 0.165438 0.00228885
0.49604 0.175875 0.00527962
0.538766 0.188815 0.00958267
0.581674 0.204974 0.0160678
0.623941 0.224216 0.0247807
0.665034 0.246677 0.0361639
0.704326 0.272618 0.050782
0.741405 0.30219 0.0693217
0.775479 0.334646 0.0907454
0.80705 0.369528 0.115862
0.835355 0.406378 0.144274
0.860899 0.444358 0.17557
0.88336 0.48278 0.209155
0.90341 0.520714 0.244312
0.92105 0.557427 0.280125
0.936248 0.592432 0.315938
0.949554 0.624949 0.350896
0.0667277 0.170764 0.00531014
0.0669413 0.170764 0.00531014
0.0684062 0.170794 0.00531014
0.0721447 0.170916 0.00535592
0.079408 0.171115 0.00538643
0.0910658 0.171313 0.0053254
0.107713 0.171389 0.00503548
0.129549 0.171511 0.004654
0.15697 0.171939 0.00433356
0.188495 0.172488 0.0037232
0.222965 0.173465 0.00337224
0.259113 0.174853 0.00247196
0.297292 0.177264 0.0024567
0.336019 0.180697 0.00274662
0.374136 0.185122 0.00332647
0.411978 0.190494 0.00469978
0.452338 0.197879 0.00695811
0.493965 0.206836 0.0101778
0.536126 0.218601 0.0149996
0.578912 0.232807 0.0217288
0.620996 0.250416 0.0308385
0.66183 0.270985 0.0427253
0.701259 0.294942 0.0572976
0.738079 0.322148 0.0750591
0.772793 0.35259 0.0969711
0.804364 0.385428 0.121508
0.833021 0.420218 0.149783
0.858915 0.456291 0.180484
0.881682 0.493004 0.213779
0.901793 0.529442 0.248447
0.919615 0.564843 0.283696
0.935485 0.598932 0.319509
0.948791 0.63064 0.354223
0.0843977 0.209262 0.00587472
0.0845808 0.209262 0.00587472
0.0859083 0.209293 0.00588998
0.0894942 0.209354 0.0059205
0.0961013 0.209522 0.00602731
0.106432 0.209552 0.00595102
0.121721 0.209857 0.00608835
0.141665 0.210025 0.00598154
0.16643 0.210666 0.0061799
0.195956 0.211109 0.00614939
0.228473 0.212055 0.00614939
0.263233 0.213443 0.00614939
0.29984 0.215442 0.00654612
0.337392 0.218341 0.00730907
0.374685 0.222126 0.00839246
0.411917 0.226612 0.00996414
0.45124 0.233066 0.0128634
0.49189 0.241077 0.0165408
0.533837 0.251499 0.0218051
0.576028 0.264302 0.0291752
0.617716 0.279866 0.0381781
0.658579 0.298695 0.0501564
0.697505 0.320241 0.0649424
0.734966 0.345388 0.0827802
0.769314 0.373251 0.103929
0.80174 0.403891 0.128893
0.830396 0.43653 0.156298
0.85655 0.470451 0.186923
0.879728 0.505165 0.219471
0.90013 0.539895 0.253407
0.918517 0.57406 0.288991
0.934386 0.6065 0.323827
0.94789 0.637064 0.358144
0.105455 0.249714 0.0089723
0.105623 0.249714 0.0089723
0.106813 0.249744 0.00900282
0.109743 0.249866 0.0091249
0.115877 0.249958 0.00923171
0.125185 0.249973 0.00923171
0.138766 0.250355 0.0096437
0.157122 0.250416 0.00993362
0.179843 0.251041 0.0103456
0.206455 0.251637 0.0105287
0.236561 0.252552 0.0109407
0.269688 0.253727 0.0116579
0.304234 0.255528 0.0122835
0.340505 0.25803 0.0138247
0.376394 0.261128 0.0151369
0.412818 0.265156 0.0174411
0.451286 0.270527 0.0207523
0.491127 0.277867 0.0248569
0.531838 0.286748 0.0304265
0.573617 0.297948 0.0378424
0.614862 0.312093 0.0476081
0.655573 0.328679 0.0594949
0.694194 0.348241 0.0740215
0.731533 0.370871 0.0918898
0.766323 0.396612 0.113024
0.798474 0.424475 0.137285
0.827893 0.454948 0.164736
0.853956 0.486732 0.194369
0.877607 0.519188 0.22652
0.898573 0.552361 0.260243
0.917037 0.584466 0.294575
0.932876 0.615427 0.328801
0.947097 0.645014 0.362951
0.129778 0.291157 0.0151522
0.129931 0.291157 0.0151522
0.130983 0.291188 0.015198
0.133791 0.291249 0.0152895
0.138903 0.291386 0.0154726
0.147448 0.291325 0.0155032
0.159548 0.291722 0.0159915
0.175906 0.292195 0.0166018
0.196185 0.292531 0.0168307
0.220539 0.293339 0.0177005
0.248493 0.294148 0.0185092
0.279103 0.295232 0.0196384
0.311696 0.296712 0.020737
0.345632 0.298711 0.0224308
0.380133 0.301488 0.0242771
0.415351 0.304967 0.0269017
0.452323 0.309682 0.0303807
0.491295 0.31577 0.0350958
0.531548 0.323751 0.0412604
0.571817 0.333577 0.0487373
0.612497 0.345663 0.0581369
0.652384 0.360662 0.0704662
0.691585 0.378332 0.0852522
0.728344 0.398413 0.1028
0.763104 0.421683 0.123217
0.795468 0.447456 0.147448
0.825071 0.474968 0.173938
0.851698 0.504677 0.203342
0.875395 0.534966 0.234592
0.896819 0.565942 0.267643
0.915404 0.596262 0.301472
0.931792 0.625925 0.335149
0.945953 0.653727 0.36846
0.156847 0.332891 0.0243839
0.156985 0.332891 0.0243992
0.1579 0.332921 0.0244144
0.160098 0.333059 0.0245823
0.164889 0.333181 0.0247349
0.172183 0.333288 0.0249638
0.183017 0.333471 0.0253147
0.197681 0.333898 0.0260014
0.215885 0.334173 0.0265202
0.238071 0.33492 0.0275883
0.263157 0.335668 0.0284733
0.29192 0.336858 0.0302129
0.321904 0.338277 0.0317693
0.353689 0.340032 0.0334478
0.386404 0.34226 0.0359655
0.419654 0.345266 0.0386206
0.455406 0.349264 0.0427253
0.492744 0.354635 0.0473487
0.531746 0.36144 0.0535897
0.571572 0.370138 0.0616007
0.611078 0.380819 0.071397
0.650477 0.393729 0.0830091
0.688823 0.409461 0.0978866
0.72578 0.427787 0.11548
0.760525 0.448295 0.135576
0.792477 0.471611 0.158602
0.82237 0.497032 0.184833
0.849226 0.524224 0.213535
0.873457 0.552117 0.24416
0.894972 0.580926 0.276478
0.913725 0.609323 0.309056
0.930404 0.637263 0.342382
0.944778 0.663935 0.374792
0.185946 0.374304 0.0368048
0.186053 0.374304 0.03682
0.186862 0.374319 0.0368658
0.189044 0.37438 0.0369879
0.193225 0.374502 0.037232
0.199741 0.374762 0.0376898
0.209369 0.375082 0.0383001
0.22211 0.375174 0.0387274
0.238621 0.375708 0.0397192
0.258015 0.376181 0.0404517
0.281361 0.377005 0.0418555
0.306889 0.377859 0.0433509
0.335012 0.379355 0.0457313
0.364492 0.380941 0.0475929
0.395056 0.382895 0.0500038
0.426383 0.385382 0.0530861
0.460426 0.389013 0.0571756
0.496315 0.393393 0.0621805
0.533547 0.399329 0.0683604
0.572137 0.406821 0.0763256
0.611185 0.416312 0.0862593
0.649378 0.427634 0.0981613
0.68716 0.441367 0.112337
0.723644 0.45771 0.129564
0.758022 0.476249 0.149554
0.790494 0.497108 0.172152
0.819898 0.520226 0.197482
0.846845 0.544579 0.224903
0.871351 0.570535 0.254658
0.893065 0.597223 0.286168
0.911971 0.623484 0.318013
0.929076 0.649653 0.350347
0.943694 0.674662 0.382177
0.217517 0.415396 0.0526741
0.217624 0.415396 0.0526741
0.218341 0.415412 0.0527199
0.220188 0.415381 0.0527504
0.22356 0.41529 0.052781
0.229404 0.415457 0.0532692
0.237797 0.415778 0.0539254
0.249393 0.416159 0.0547341
0.263905 0.416571 0.0556802
0.281483 0.416999 0.0567178
0.302037 0.417868 0.0583352
0.325139 0.41857 0.0598459
0.350942 0.419883 0.0618296
0.378027 0.421195 0.0643931
0.406317 0.422919 0.0670634
0.435706 0.425208 0.0701762
0.467979 0.428244 0.0744335
0.501839 0.432166 0.0793927
0.537667 0.437278 0.0857557
0.574426 0.443717 0.0934462
0.611963 0.451637 0.103075
0.649729 0.461738 0.114961
0.686595 0.473625 0.128801
0.722225 0.488197 0.145602
0.756222 0.504646 0.164599
0.788418 0.523201 0.18674
0.817731 0.543969 0.211048
0.84506 0.566323 0.238102
0.869596 0.58996 0.266728
0.89134 0.614374 0.297261
0.910552 0.638682 0.328145
0.927749 0.662928 0.359686
0.942702 0.686381 0.390433
0.252628 0.457938 0.0729839
0.25272 0.457954 0.0729992
0.253346 0.457969 0.0730449
0.254704 0.458091 0.0732433
0.257893 0.458183 0.0734875
0.263096 0.45832 0.0738689
0.270253 0.458534 0.0744335
0.280034 0.45864 0.0751354
0.293111 0.459052 0.0761425
0.308843 0.459632 0.0774701
0.326925 0.460029 0.0786755
0.347646 0.461006 0.0806439
0.370306 0.461845 0.082475
0.395377 0.463264 0.0848402
0.421225 0.464698 0.0875257
0.448508 0.466545 0.0911269
0.478019 0.469352 0.0952468
0.50988 0.472602 0.100252
0.543694 0.47686 0.106584
0.578668 0.48249 0.114076
0.614816 0.489494 0.123583
0.650904 0.49778 0.134737
0.686961 0.508324 0.148592
0.721874 0.520714 0.164324
0.755322 0.535317 0.182986
0.786633 0.551766 0.2038
0.816175 0.570062 0.227237
0.843198 0.58999 0.252918
0.867658 0.611322 0.280797
0.889509 0.633417 0.309895
0.909026 0.655985 0.340002
0.926314 0.678172 0.370367
0.941512 0.699886 0.400397
0.291341 0.501717 0.0981613
0.291432 0.501732 0.0981765
0.291936 0.501747 0.0982223
0.29337 0.501778 0.0983444
0.296101 0.501854 0.098558
0.300252 0.502052 0.0990311
0.306767 0.502235 0.0995956
0.315267 0.502586 0.10045
0.325856 0.502693 0.101152
0.339651 0.503182 0.102419
0.356008 0.503746 0.104128
0.37409 0.504219 0.105653
0.394369 0.505287 0.107958
0.416281 0.506172 0.110155
0.439918 0.507698 0.112902
0.464302 0.509224 0.115984
0.491936 0.511528 0.120439
0.521157 0.514336 0.125185
0.552529 0.517952 0.131136
0.585626 0.522545 0.138766
0.619669 0.528496 0.147616
0.654521 0.535805 0.158556
0.688975 0.544732 0.171557
0.722484 0.555322 0.186755
0.755322 0.568002 0.204456
0.786206 0.582223 0.224384
0.815076 0.598199 0.246494
0.841688 0.615961 0.270939
0.866407 0.635004 0.297749
0.888243 0.654887 0.325399
0.907881 0.675029 0.354284
0.925277 0.695293 0.383352
0.940246 0.715084 0.411963
0.333654 0.546029 0.128374
0.333715 0.546029 0.128374
0.334066 0.546059 0.128435
0.335119 0.546136 0.128588
0.337423 0.546197 0.128801
0.341192 0.546288 0.129168
0.346578 0.546471 0.129717
0.353902 0.546746 0.13048
0.363241 0.547127 0.131533
0.374624 0.547448 0.132387
0.388327 0.547845 0.133745
0.404623 0.54844 0.135821
0.422217 0.548959 0.137621
0.441535 0.550072 0.14023
0.462531 0.551171 0.142672
0.484321 0.55259 0.145846
0.508736 0.554421 0.149706
0.535851 0.556817 0.154467
0.564797 0.559731 0.160204
0.595163 0.563684 0.16701
0.627115 0.568551 0.175799
0.659785 0.574701 0.185962
0.692668 0.582254 0.198322
0.725261 0.59144 0.212497
0.756191 0.601984 0.228672
0.786374 0.61445 0.247898
0.814878 0.628214 0.268818
0.841352 0.643763 0.292241
0.865476 0.660288 0.317067
0.887343 0.677668 0.343374
0.906752 0.695705 0.370489
0.924132 0.713832 0.398108
0.939361 0.731838 0.425574
0.379019 0.590677 0.163928
0.379049 0.590677 0.163912
0.3794 0.590661 0.163912
0.380331 0.590631 0.163928
0.382116 0.590585 0.163958
0.384756 0.5906 0.164141
0.389364 0.590723 0.164614
0.395621 0.590906 0.16527
0.403464 0.591226 0.166232
0.413184 0.591638 0.167422
0.424842 0.592126 0.168872
0.438102 0.592401 0.170199
0.453758 0.593057 0.172427
0.47071 0.593805 0.174746
0.488533 0.594751 0.177005
0.508202 0.596017 0.180133
0.529625 0.597391 0.183612
0.553826 0.599573 0.188098
0.57995 0.601938 0.193454
0.608057 0.605005 0.199817
0.637201 0.609125 0.207782
0.667933 0.614115 0.217258
0.698482 0.620493 0.228428
0.729244 0.628077 0.241871
0.759503 0.637171 0.257404
0.788251 0.647669 0.274678
0.815717 0.659449 0.294118
0.841367 0.672541 0.315663
0.865431 0.687007 0.339239
0.886763 0.702235 0.36376
0.906355 0.718257 0.38967
0.923644 0.734234 0.415778
0.938796 0.75024 0.44152
0.42591 0.634363 0.203815
0.425956 0.634363 0.203815
0.426246 0.634379 0.203845
0.427054 0.634394 0.203937
0.428626 0.63444 0.204105
0.431189 0.634516 0.204395
0.434638 0.634531 0.204715
0.43946 0.634501 0.205066
0.446189 0.634714 0.205859
0.454276 0.63505 0.206943
0.464012 0.635477 0.20827
0.475395 0.635996 0.209857
0.488045 0.636286 0.211093
0.502678 0.636988 0.213291
0.518593 0.637827 0.21593
0.535195 0.63856 0.218357
0.554192 0.640009 0.221927
0.575158 0.641505 0.225559
0.598566 0.643778 0.230823
0.623636 0.646281 0.236652
0.650507 0.649439 0.243885
0.678203 0.653666 0.252338
0.707042 0.658763 0.262745
0.7355 0.66511 0.274891
0.763958 0.672557 0.289052
0.79173 0.681422 0.305028
0.818021 0.69163 0.323003
0.842695 0.702556 0.342763
0.866026 0.715053 0.364431
0.887007 0.728054 0.387198
0.906233 0.741955 0.411215
0.923491 0.755917 0.435431
0.93843 0.769848 0.459525
0.473991 0.676844 0.247837
0.474022 0.676844 0.247852
0.474266 0.67686 0.247883
0.474922 0.676875 0.247959
0.476204 0.676905 0.248112
0.478279 0.676966 0.248356
0.481361 0.677058 0.248737
0.485573 0.67718 0.249271
0.490517 0.67718 0.249592
0.497322 0.677317 0.250202
0.505318 0.677684 0.251392
0.514733 0.678111 0.252811
0.525536 0.67863 0.254475
0.53727 0.67892 0.255985
0.550637 0.679637 0.258259
0.565301 0.680446 0.261006
0.581552 0.681254 0.263432
0.599939 0.682765 0.267338
0.620127 0.684306 0.271626
0.64268 0.686641 0.277058
0.666331 0.68925 0.283421
0.691646 0.69247 0.291112
0.717754 0.69662 0.300389
0.744335 0.701762 0.311345
0.770703 0.708125 0.323995
0.796613 0.715206 0.338399
0.821637 0.723674 0.354803
0.845563 0.733211 0.373022
0.867826 0.743389 0.392309
0.888426 0.754604 0.413535
0.907164 0.766613 0.435462
0.923644 0.778546 0.45774
0.938872 0.790951 0.480339
0.522683 0.717571 0.294728
0.522713 0.717586 0.294728
0.522911 0.717586 0.294759
0.52343 0.717601 0.29482
0.524285 0.717678 0.295018
0.525841 0.717754 0.295277
0.528313 0.71783 0.295598
0.531716 0.717922 0.29604
0.536171 0.718059 0.296651
0.541405 0.718273 0.297459
0.547845 0.718212 0.298039
0.55552 0.718578 0.29929
0.56437 0.719005 0.30074
0.574365 0.719509 0.302419
0.585367 0.719905 0.303807
0.597192 0.720516 0.305928
0.611307 0.721386 0.308782
0.627039 0.722164 0.311818
0.644663 0.723735 0.315862
0.664088 0.725292 0.320226
0.685313 0.727657 0.326253
0.707424 0.730343 0.332784
0.730953 0.733562 0.341161
0.755306 0.737865 0.35079
0.779706 0.743023 0.362173
0.803784 0.749035 0.375036
0.827344 0.755627 0.389349
0.849577 0.763439 0.405402
0.870878 0.772229 0.423362
0.890684 0.781643 0.442466
0.908614 0.791424 0.461997
0.925109 0.801953 0.48278
0.939681 0.812543 0.503197
0.570413 0.756252 0.344244
0.570443 0.756252 0.344244
0.570596 0.756252 0.344259
0.571008 0.756268 0.344305
0.571832 0.756298 0.344396
0.573175 0.756329 0.344549
0.575067 0.75642 0.344808
0.5776 0.756558 0.34519
0.581155 0.756664 0.345617
0.585641 0.756817 0.346288
0.590799 0.757076 0.347189
0.59707 0.757153 0.347982
0.604044 0.757351 0.34905
0.612192 0.757763 0.350515
0.621408 0.758221 0.352163
0.631525 0.758755 0.35407
0.642817 0.759182 0.356039
0.65597 0.760189 0.358694
0.671321 0.761257 0.362341
0.687877 0.762524 0.366354
0.706264 0.764309 0.371298
0.725902 0.766552 0.377142
0.746624 0.769146 0.384161
0.768292 0.77258 0.392752
0.790539 0.776684 0.402457
0.812451 0.781567 0.413993
0.83447 0.787121 0.426856
0.855467 0.7935 0.441108
0.875273 0.800687 0.456779
0.894087 0.808392 0.47332
0.911437 0.816785 0.491295
0.92697 0.825605 0.509758
0.941314 0.834653 0.528603
0.61677 0.792538 0.394842
0.61677 0.792538 0.394842
0.616892 0.792538 0.394858
0.617227 0.792554 0.394919
0.617868 0.792569 0.39501
0.618936 0.792615 0.395178
0.620508 0.792645 0.395407
0.62266 0.792721 0.395727
0.625284 0.792859 0.396231
0.628794 0.792996 0.396811
0.633158 0.793149 0.397498
0.638041 0.793408 0.398428
0.644022 0.793637 0.399435
0.650355 0.79379 0.400336
0.657816 0.794064 0.401373
0.666041 0.794507 0.403006
0.675608 0.795087 0.40502
0.686488 0.795666 0.407263
0.699031 0.79646 0.410086
0.713146 0.797711 0.413718
0.728923 0.798871 0.417731
0.746075 0.800824 0.423133
0.764172 0.80293 0.428855
0.783261 0.805554 0.436088
0.803128 0.808927 0.444495
0.823102 0.81268 0.45452
0.843015 0.817273 0.465568
0.862547 0.822492 0.478172
0.881102 0.828367 0.491768
0.898695 0.834806 0.506706
0.915175 0.84184 0.522698
0.930175 0.849241 0.539071
0.943526 0.85658 0.555642
0.66125 0.826246 0.445594
0.661265 0.826246 0.445594
0.661357 0.82623 0.445594
0.661601 0.82623 0.445624
0.662013 0.82623 0.445686
0.662669 0.826291 0.445869
0.66389 0.826337 0.446082
0.665614 0.826383 0.446372
0.667872 0.826444 0.446754
0.670726 0.826535 0.447242
0.673961 0.826719 0.447913
0.67808 0.826871 0.448615
0.682857 0.827054 0.44947
0.68806 0.827344 0.450538
0.694057 0.827665 0.451728
0.700633 0.827909 0.452949
0.708232 0.828199 0.454398
0.717342 0.828794 0.456382
0.72781 0.829541 0.458656
0.739422 0.830198 0.461357
0.752636 0.831418 0.46511
0.767117 0.832639 0.46923
0.783154 0.834516 0.474556
0.799771 0.836561 0.480629
0.81738 0.839368 0.487846
0.835157 0.842344 0.496147
0.853193 0.845869 0.505592
0.870802 0.850141 0.516274
0.888212 0.854917 0.528222
0.904448 0.860212 0.541222
0.919829 0.865843 0.555184
0.933898 0.872023 0.56939
0.946868 0.87837 0.584176
0.702998 0.857374 0.496254
0.703014 0.857389 0.496254
0.70309 0.857389 0.496269
0.703288 0.857389 0.4963
0.703685 0.857404 0.496376
0.704341 0.85742 0.496483
0.705303 0.857466 0.496651
0.706645 0.857496 0.496864
0.708278 0.857603 0.4972
0.710384 0.85771 0.497627
0.712993 0.857679 0.497932
0.716106 0.857664 0.498329
0.719692 0.857877 0.498985
0.724086 0.858076 0.499657
0.728771 0.858366 0.500648
0.734234 0.85864 0.501762
0.740536 0.859007 0.503243
0.747997 0.859464 0.505028
0.756359 0.859754 0.506783
0.766217 0.860487 0.509331
0.777325 0.861433 0.512306
0.789548 0.862318 0.51545
0.802991 0.863828 0.519997
0.817243 0.865431 0.525078
0.832914 0.867567 0.531121
0.848478 0.870069 0.538354
0.864469 0.872908 0.54612
0.880385 0.876204 0.555032
0.896315 0.880186 0.565713
0.911391 0.884627 0.576898
0.925704 0.889296 0.588907
0.938903 0.894224 0.601236
