public/textures/grade/Nikon/Licorice-NLog.cube
TITLE "Generated by Resolve"
LUT_3D_SIZE 9
0 0.00511177 0.060853
0 0.00582895 0.057908
0.0817121 0.00769055 0.0514229
0.313466 0.00248722 0.049897
0.56672 0.0228428 0.0395361
0.812329 0.0868086 0.0479744
1 0.222873 0.0873884
1 0.397253 0.162692
1 0.559426 0.262425
0 0.0221103 0.0577096
0 0.023209 0.0549477
0.0816205 0.0273136 0.0508278
0.309941 0.0226596 0.0512703
0.56437 0.0369573 0.0416876
0.810529 0.0986496 0.0495918
1 0.230182 0.0890822
1 0.401068 0.164202
1 0.561318 0.263432
0 0.12874 0.105058
0 0.129427 0.103853
0.0681926 0.136965 0.0925002
0.289647 0.128084 0.069749
0.548821 0.126406 0.055787
0.797391 0.170962 0.0621805
1 0.276219 0.101595
1 0.426154 0.173861
1 0.574334 0.269551
0.0707256 0.309621 0.229847
0.082536 0.309651 0.228626
0.117388 0.317525 0.204334
0.275563 0.312184 0.147814
0.520348 0.299351 0.111818
0.772152 0.31133 0.106844
0.992142 0.374533 0.135882
1 0.484596 0.199054
1 0.606271 0.285878
0.184466 0.503471 0.31014
0.185153 0.503853 0.307012
0.196811 0.507927 0.285771
0.333425 0.493263 0.272648
0.513802 0.487922 0.209598
0.748684 0.479927 0.190524
0.964996 0.504738 0.198077
1 0.570397 0.243275
1 0.657725 0.316075
0.356512 0.687724 0.403525
0.361028 0.687236 0.403204
0.393225 0.683345 0.400336
0.468238 0.674678 0.388586
0.581216 0.668559 0.346914
0.749996 0.662089 0.304829
0.942367 0.661189 0.297337
1 0.687388 0.319158
1 0.73695 0.372808
0.611246 0.829831 0.504189
0.613291 0.829602 0.503609
0.627131 0.828183 0.499596
0.660533 0.825132 0.488075
0.717784 0.822202 0.462257
0.810391 0.820203 0.422293
0.945632 0.810468 0.419654
1 0.813901 0.429908
1 0.833631 0.463142
0.839368 0.929564 0.569116
0.840085 0.929503 0.568689
0.844739 0.92932 0.56614
0.858045 0.928969 0.558709
0.881407 0.928771 0.545144
0.923354 0.925109 0.541894
0.994888 0.91812 0.542901
1 0.914733 0.548135
1 0.919463 0.563455
0.992523 0.988769 0.636454
0.992844 0.988739 0.636439
0.994995 0.988434 0.636332
1 0.98764 0.636072
1 0.986313 0.635676
1 0.983902 0.635004
1 0.980423 0.634714
1 0.977157 0.636683
1 0.976791 0.643259
0 0.00572213 0.0825208
0 0.00671397 0.0786908
0.0867018 0.00956741 0.066804
0.315709 0.00643931 0.0585641
0.569238 0.0272526 0.0485695
0.813642 0.0912184 0.0571908
1 0.225299 0.0927749
1 0.398611 0.16791
1 0.560128 0.266056
0 0.0230411 0.0794232
0 0.0243839 0.0756085
0.0872206 0.0293889 0.0657206
0.312215 0.0262455 0.0611887
0.567529 0.0413214 0.0509957
0.811826 0.102861 0.0589303
1 0.232654 0.094667
1 0.402396 0.16936
1 0.56199 0.267079
0 0.130495 0.110323
0.000518807 0.130953 0.108995
0.0795453 0.138201 0.0995651
0.291554 0.13196 0.0820935
0.552102 0.129931 0.0662242
0.79881 0.174121 0.0716716
1 0.278386 0.107057
1 0.427359 0.178744
1 0.574975 0.273259
0.0722057 0.310765 0.236027
0.0841993 0.311131 0.235126
0.126345 0.317281 0.21561
0.276875 0.314183 0.157549
0.522286 0.30135 0.121248
0.773419 0.313252 0.114687
0.992416 0.376074 0.141161
1 0.485557 0.203418
1 0.606836 0.28925
0.190784 0.502388 0.317281
0.191684 0.503105 0.314351
0.1991 0.508446 0.291539
0.334035 0.494377 0.277348
0.514244 0.488807 0.214908
0.749157 0.480797 0.195102
0.96495 0.505318 0.202258
1 0.571054 0.247044
1 0.658137 0.31899
0.356588 0.688151 0.406607
0.361273 0.687617 0.406256
0.393423 0.683757 0.403388
0.46833 0.675135 0.391745
0.581277 0.668666 0.350225
0.750271 0.662425 0.3084
0.942306 0.66154 0.300786
1 0.687617 0.322133
1 0.737224 0.375143
0.611276 0.829938 0.506233
0.613352 0.829725 0.505669
0.627115 0.828336 0.501671
0.660594 0.825254 0.490135
0.717723 0.822232 0.464546
0.810422 0.820279 0.424689
0.945571 0.810575 0.421881
1 0.814023 0.432029
1 0.833753 0.464912
0.839307 0.929534 0.570474
0.840024 0.929488 0.570062
0.844739 0.92932 0.567514
0.858015 0.928985 0.560128
0.881392 0.928771 0.546548
0.923339 0.925139 0.543252
0.994842 0.918151 0.544198
1 0.914778 0.549249
1 0.919493 0.564492
0.992508 0.988785 0.637156
0.992813 0.988739 0.63714
0.994965 0.988434 0.637034
1 0.98764 0.636774
1 0.986313 0.636347
1 0.983917 0.635584
1 0.980438 0.63537
1 0.977157 0.637293
1 0.976822 0.643824
0 0.0126192 0.217166
0 0.015198 0.214359
0.0958267 0.0251926 0.196994
0.314946 0.028748 0.155703
0.57731 0.050782 0.112947
0.817685 0.115633 0.110414
1 0.240818 0.138705
1 0.406958 0.203143
1 0.56463 0.291554
0 0.0310063 0.213886
0 0.033402 0.211246
0.0985275 0.0440833 0.193729
0.313924 0.0472725 0.155413
0.576104 0.0663005 0.113054
0.816083 0.126055 0.111482
1 0.247791 0.139834
1 0.410773 0.204303
1 0.566293 0.292149
0.0211948 0.142824 0.190356
0.0362402 0.143664 0.187655
0.120455 0.148562 0.174197
0.304753 0.152682 0.153552
0.562646 0.150683 0.123186
0.805615 0.191959 0.121309
1 0.291325 0.149447
1 0.435355 0.21236
1 0.579355 0.297658
0.101961 0.31548 0.265385
0.111803 0.315221 0.26389
0.169268 0.315114 0.255909
0.288731 0.324086 0.210575
0.529381 0.312978 0.172702
0.780102 0.324193 0.156863
0.992706 0.385077 0.177874
1 0.491539 0.233448
1 0.610636 0.312062
0.231235 0.496834 0.363928
0.232242 0.497398 0.361624
0.241062 0.503716 0.342794
0.335454 0.501183 0.310948
0.51751 0.494942 0.25359
0.7523 0.486961 0.229633
0.965423 0.510765 0.232624
1 0.574975 0.272663
1 0.660731 0.339117
0.358144 0.690486 0.42771
0.362966 0.689952 0.427344
0.394354 0.686076 0.424247
0.469108 0.677791 0.41326
0.583276 0.670954 0.373739
0.751125 0.664424 0.332982
0.942107 0.663783 0.323659
1 0.689906 0.342214
1 0.73904 0.391699
0.611566 0.830732 0.520546
0.613611 0.830518 0.519997
0.626642 0.828977 0.516167
0.66096 0.825986 0.504738
0.718059 0.822873 0.479789
0.810651 0.82092 0.440452
0.945129 0.811322 0.437369
1 0.814649 0.445716
1 0.834638 0.476463
0.839261 0.92958 0.5794
0.840009 0.929564 0.579004
0.844831 0.929442 0.576516
0.857908 0.929137 0.569299
0.881407 0.928893 0.555718
0.923293 0.925322 0.552178
0.994583 0.918364 0.552789
1 0.915068 0.557183
1 0.919783 0.571405
0.992401 0.988846 0.641779
0.992721 0.9888 0.641764
0.994873 0.988495 0.641657
1 0.987716 0.641352
1 0.986282 0.640818
1 0.983993 0.640177
1 0.980514 0.639643
1 0.977218 0.641321
1 0.976913 0.647639
0.00267033 0.040589 0.43534
0.0191501 0.0433814 0.433387
0.113405 0.060441 0.417884
0.300237 0.0753185 0.391424
0.546609 0.0974594 0.327443
0.804791 0.163378 0.271366
1 0.278157 0.258503
1 0.42797 0.28986
1 0.57612 0.352377
0.00796521 0.0565347 0.431296
0.0235447 0.059205 0.429221
0.116518 0.0756085 0.41445
0.300374 0.0913252 0.38822
0.546212 0.11133 0.325551
0.803983 0.173617 0.269306
1 0.284245 0.256611
1 0.431449 0.290425
1 0.577966 0.352911
0.0462348 0.161852 0.406836
0.0601511 0.163058 0.405158
0.139345 0.170733 0.393362
0.30399 0.183917 0.369451
0.538308 0.194781 0.312917
0.798596 0.236759 0.257465
1 0.322164 0.258183
1 0.453834 0.294331
1 0.590066 0.35639
0.155261 0.336385 0.364721
0.16257 0.33666 0.363272
0.212284 0.337789 0.353094
0.324468 0.343771 0.339483
0.525078 0.342473 0.305348
0.781521 0.349996 0.264775
0.987701 0.40647 0.269047
1 0.506447 0.306905
1 0.61976 0.367041
0.261173 0.500572 0.43151
0.266957 0.500389 0.430579
0.305089 0.499016 0.424002
0.35993 0.510872 0.385916
0.522652 0.508217 0.345983
0.753506 0.500679 0.313664
0.963775 0.523461 0.305058
1 0.585489 0.334401
1 0.668223 0.387762
0.393484 0.686793 0.491829
0.394141 0.687465 0.490074
0.399481 0.6916 0.474952
0.47216 0.683879 0.466178
0.585992 0.67657 0.431815
0.751263 0.670436 0.39295
0.940291 0.66981 0.378042
1 0.695415 0.389822
1 0.743496 0.4309
0.612955 0.832532 0.554879
0.614969 0.832303 0.554345
0.628244 0.830976 0.550896
0.661357 0.827802 0.540413
0.718517 0.824796 0.517037
0.811017 0.822507 0.477867
0.944091 0.813428 0.473945
1 0.81706 0.478798
1 0.836973 0.504402
0.839506 0.929992 0.601648
0.840177 0.929976 0.601312
0.845029 0.929854 0.598795
0.85803 0.929549 0.591745
0.881254 0.929122 0.57818
0.923156 0.925689 0.573312
0.994171 0.919036 0.573159
1 0.915709 0.576226
1 0.920439 0.58822
0.99144 0.989166 0.654292
0.991745 0.98912 0.654276
0.993866 0.98883 0.654139
0.99913 0.988022 0.653758
1 0.986648 0.653147
1 0.984405 0.652171
1 0.980957 0.651362
1 0.977646 0.652323
1 0.977462 0.657984
0.0641489 0.105638 0.644068
0.0770886 0.107439 0.642191
0.154131 0.121324 0.630518
0.313619 0.148486 0.603906
0.517281 0.168795 0.574945
0.767834 0.220264 0.50988
0.984115 0.327977 0.449577
1 0.464942 0.426139
1 0.596246 0.44889
0.0691386 0.120668 0.64033
0.0817731 0.122347 0.638666
0.157168 0.134798 0.627161
0.314199 0.160861 0.600656
0.515953 0.180026 0.572534
0.766979 0.229282 0.507851
0.982986 0.334096 0.447715
1 0.467903 0.425757
1 0.59794 0.448966
0.102388 0.206744 0.618494
0.112154 0.207752 0.617197
0.178103 0.214893 0.60708
0.319524 0.235752 0.581537
0.511131 0.249012 0.55787
0.75903 0.285191 0.493462
0.976318 0.372274 0.436149
1 0.487205 0.424033
1 0.60911 0.449851
0.182589 0.359792 0.575814
0.189639 0.360052 0.574807
0.237568 0.361975 0.567452
0.347036 0.36997 0.548852
0.508278 0.380774 0.527031
0.742168 0.398367 0.466911
0.965255 0.445792 0.419898
1 0.532998 0.422522
1 0.636484 0.45391
0.29633 0.526299 0.532952
0.300542 0.526314 0.532326
0.328099 0.526513 0.528374
0.40235 0.52752 0.519707
0.527169 0.532052 0.500877
0.729854 0.530388 0.461738
0.949386 0.547143 0.424155
1 0.603632 0.43093
1 0.681361 0.464714
0.464851 0.677409 0.586358
0.468025 0.677211 0.585763
0.480735 0.679316 0.577722
0.498146 0.690852 0.547829
0.595453 0.685161 0.528145
0.743908 0.683162 0.490761
0.932937 0.681331 0.463386
1 0.705776 0.465049
1 0.752148 0.493523
0.61883 0.836118 0.60972
0.620706 0.835904 0.609308
0.633524 0.834562 0.606226
0.665156 0.831556 0.597025
0.720394 0.828229 0.575662
0.812696 0.826307 0.535393
0.942489 0.817395 0.53019
1 0.821546 0.530983
1 0.841077 0.549661
0.839628 0.930907 0.638224
0.84036 0.930877 0.637842
0.845487 0.930709 0.635142
0.858305 0.930419 0.62829
0.88159 0.930266 0.615274
0.923125 0.927199 0.608362
0.993027 0.920394 0.606149
1 0.917418 0.607172
1 0.922103 0.616114
0.986481 0.990402 0.679301
0.98674 0.990372 0.679316
0.988586 0.990097 0.6795
0.993393 0.989471 0.679667
1 0.98822 0.679011
1 0.985962 0.677821
1 0.982712 0.676402
1 0.979583 0.676219
1 0.979507 0.680125
0.169924 0.231327 0.832029
0.178546 0.232425 0.83093
0.234562 0.240467 0.822141
0.355261 0.264607 0.79852
0.525399 0.280842 0.774014
0.733425 0.317281 0.74107
0.942763 0.39559 0.684367
1 0.516793 0.627771
1 0.634287 0.598779
0.173281 0.240726 0.829664
0.181674 0.241566 0.828244
0.236942 0.249165 0.819715
0.356451 0.272404 0.796628
0.525017 0.288808 0.771878
0.732006 0.323827 0.739162
0.941405 0.400229 0.682582
1 0.519753 0.626612
1 0.63566 0.598459
0.196658 0.298665 0.813245
0.204211 0.299458 0.812146
0.254063 0.304768 0.803861
0.364675 0.321263 0.782422
0.523781 0.337682 0.758007
0.724941 0.366064 0.728191
0.934417 0.431388 0.672587
1 0.538781 0.619547
1 0.644739 0.596567
0.255009 0.413718 0.777035
0.260807 0.414099 0.776181
0.300786 0.416312 0.769451
0.392096 0.424231 0.753063
0.525521 0.438758 0.72813
0.711528 0.455604 0.705028
0.918303 0.500175 0.651759
1 0.5832 0.603601
1 0.667918 0.592706
0.354238 0.553796 0.728252
0.358373 0.553826 0.727611
0.38526 0.554147 0.723293
0.449302 0.556222 0.712474
0.549081 0.563272 0.694163
0.703609 0.573419 0.675044
0.898543 0.596674 0.625635
1 0.640497 0.59115
1 0.706416 0.590585
0.475761 0.70753 0.693065
0.47834 0.707347 0.692622
0.495872 0.70663 0.690074
0.539086 0.705531 0.68452
0.61239 0.704387 0.676799
0.721187 0.710506 0.658778
0.890043 0.711803 0.624933
1 0.728817 0.592386
1 0.769009 0.59675
0.644602 0.84065 0.699931
0.644984 0.840925 0.699016
0.648096 0.843061 0.693401
0.677531 0.839414 0.691615
0.724056 0.835462 0.684657
0.799329 0.836133 0.659709
0.910643 0.832807 0.644022
1 0.835035 0.625956
1 0.851347 0.627512
0.837354 0.933227 0.712993
0.83801 0.933211 0.712734
0.842115 0.93315 0.711162
0.853574 0.932906 0.70634
0.873487 0.932982 0.697581
0.910491 0.933318 0.681041
0.971801 0.927871 0.680888
1 0.925475 0.675715
1 0.929351 0.676371
0.974182 0.994369 0.729732
0.974411 0.994339 0.729763
0.975875 0.994171 0.729992
0.979873 0.993515 0.730465
0.98761 0.992523 0.731594
1 0.990738 0.731716
1 0.987915 0.729564
1 0.985061 0.727092
1 0.984955 0.727413
0.324468 0.405097 0.963302
0.32987 0.40557 0.962432
0.364263 0.409033 0.95613
0.44303 0.420294 0.940078
0.561502 0.437232 0.916716
0.728893 0.455817 0.892226
0.9066 0.5037 0.860334
1 0.585855 0.816922
1 0.684016 0.775479
0.327016 0.41004 0.961898
0.332082 0.410574 0.961013
0.365713 0.414054 0.954574
0.444068 0.424628 0.938811
0.561654 0.441779 0.915175
0.728374 0.459907 0.890913
0.905653 0.506477 0.859251
1 0.588067 0.816175
1 0.685359 0.774914
0.341497 0.442237 0.950652
0.346105 0.442695 0.949874
0.377951 0.44535 0.943908
0.451881 0.4542 0.929213
0.562844 0.470619 0.90515
0.725673 0.486183 0.882673
0.899702 0.527687 0.852659
1 0.602274 0.811292
1 0.694026 0.771252
0.378668 0.51313 0.924941
0.382849 0.513329 0.924193
0.410285 0.515023 0.919585
0.473747 0.520027 0.906691
0.571694 0.533028 0.885206
0.720745 0.545098 0.863737
0.888548 0.576471 0.838239
1 0.636728 0.799542
1 0.716106 0.762356
0.444907 0.611505 0.887633
0.44802 0.611566 0.887068
0.467887 0.611933 0.883223
0.517098 0.613931 0.873762
0.596094 0.619944 0.858061
0.720073 0.630594 0.836515
0.87451 0.649378 0.81767
1 0.691341 0.781537
1 0.750744 0.749386
0.555169 0.735561 0.835889
0.55697 0.735424 0.835538
0.569558 0.735348 0.833768
0.600519 0.735729 0.829206
0.652399 0.736919 0.820432
0.738689 0.743374 0.805478
0.864256 0.751644 0.791089
0.996521 0.771725 0.763699
1 0.803098 0.745556
0.683177 0.852705 0.816449
0.684306 0.852644 0.816312
0.691768 0.852354 0.815442
0.711208 0.851255 0.812985
0.746273 0.849668 0.809476
0.795209 0.854459 0.79704
0.881132 0.85716 0.787778
0.986389 0.861784 0.772137
1 0.875425 0.758068
0.836301 0.941375 0.812375
0.836713 0.94136 0.812345
0.840269 0.941146 0.811948
0.848997 0.940612 0.810758
0.86508 0.940124 0.808148
0.893706 0.940627 0.801709
0.939727 0.942275 0.794385
1 0.941588 0.788907
1 0.945342 0.781079
0.957534 0.998535 0.816144
0.957717 0.998535 0.816068
0.959045 0.99852 0.815503
0.962463 0.998657 0.814252
0.969284 0.998947 0.811582
0.982345 0.998993 0.80885
1 0.996719 0.811872
1 0.994842 0.808591
1 0.994904 0.805188
0.503197 0.586206 1
0.505791 0.586435 1
0.524163 0.587854 1
0.567315 0.592035 1
0.637324 0.601221 0.991394
0.751553 0.6121 0.972808
0.892317 0.634684 0.951415
1 0.681514 0.926192
1 0.747143 0.894469
0.504585 0.588479 1
0.507301 0.588678 1
0.525216 0.590204 1
0.568124 0.594308 1
0.637827 0.603342 0.990723
0.751492 0.614191 0.972076
0.892332 0.636362 0.95108
1 0.682918 0.925704
1 0.748028 0.894209
0.512718 0.603967 1
0.515007 0.604196 1
0.532036 0.605493 1
0.573754 0.609079 1
0.640818 0.617227 0.986099
0.751293 0.627878 0.967132
0.889677 0.648295 0.946792
1 0.692073 0.922576
1 0.754223 0.891478
0.533333 0.640772 0.999847
0.535668 0.640894 0.999374
0.55108 0.641855 0.996323
0.588281 0.644419 0.988357
0.650278 0.650629 0.974777
0.751919 0.661082 0.955734
0.8851 0.677241 0.93727
1 0.71487 0.914763
1 0.770367 0.885527
0.571176 0.69836 0.976532
0.572931 0.698451 0.976211
0.585779 0.698924 0.973709
0.616648 0.700267 0.967361
0.669245 0.703914 0.956191
0.755856 0.713436 0.937362
0.879133 0.724178 0.921355
0.994202 0.752834 0.901869
1 0.798016 0.876188
0.639704 0.78265 0.940383
0.64097 0.782589 0.940078
0.649531 0.782559 0.938308
0.67245 0.782956 0.934188
0.71104 0.784268 0.926543
0.776608 0.78909 0.912627
0.876799 0.796704 0.896986
0.979446 0.814008 0.882567
1 0.844556 0.863767
0.748257 0.878965 0.891081
0.748959 0.878965 0.89099
0.75346 0.879026 0.890486
0.765438 0.879118 0.889082
0.786603 0.879286 0.886427
0.824369 0.880934 0.882155
0.891997 0.884184 0.872648
0.975174 0.889265 0.867628
1 0.902205 0.861769
0.856367 0.952407 0.890883
0.85658 0.952499 0.89073
0.85803 0.953109 0.889662
0.86154 0.954818 0.886992
0.872557 0.955535 0.884962
0.898955 0.953735 0.884581
0.93872 0.955795 0.876692
0.990448 0.957382 0.875914
1 0.961532 0.871778
0.953094 1 0.891417
0.953246 1 0.891386
0.954345 1 0.891173
0.957168 1 0.890608
0.962615 1 0.889387
0.973556 1 0.886488
0.993118 1 0.881407
1 1 0.88481
1 1 0.881727
0.660395 0.732464 1
0.661723 0.73254 1
0.670848 0.733104 1
0.692882 0.734585 1
0.731212 0.738247 1
0.798993 0.746044 1
0.898985 0.755276 0.984787
0.997269 0.779995 0.96556
1 0.819425 0.945296
0.66099 0.733577 1
0.662318 0.733654 1
0.671351 0.734234 1
0.69337 0.735668 1
0.731563 0.739284 1
0.799039 0.747021 0.999588
0.899077 0.756176 0.984543
0.997055 0.780789 0.965255
1 0.820035 0.945083
0.664958 0.74078 1
0.66627 0.740841 1
0.674937 0.741375 1
0.696788 0.742885 1
0.734432 0.746334 1
0.799985 0.753796 0.996857
0.898207 0.762432 0.98175
0.995712 0.785885 0.963211
1 0.823819 0.943664
0.676097 0.759197 1
0.677317 0.759258 1
0.685206 0.759655 1
0.705715 0.760769 1
0.741222 0.763531 1
0.802121 0.771206 0.9897
0.897063 0.778531 0.97554
0.992172 0.799481 0.957977
1 0.834272 0.940185
0.696834 0.790112 1
0.697887 0.790143 1
0.704814 0.790478 1
0.722942 0.791379 1
0.754543 0.79321 0.993027
0.809552 0.79884 0.979156
0.89604 0.805829 0.964385
0.987015 0.822843 0.94876
1 0.852186 0.933867
0.738064 0.841077 0.980362
0.738903 0.841093 0.980209
0.744366 0.84097 0.978927
0.758434 0.841321 0.976013
0.783215 0.842466 0.970611
0.827695 0.845716 0.960296
0.898909 0.851698 0.946075
0.981216 0.862913 0.934417
1 0.884215 0.924346
0.808896 0.908156 0.944015
0.8094 0.908156 0.943938
0.812863 0.908186 0.943343
0.821668 0.908339 0.941833
0.837583 0.908827 0.938994
0.867231 0.910155 0.933349
0.915022 0.914412 0.924605
0.98114 0.919112 0.918166
1 0.928954 0.91577
0.888395 0.966949 0.938079
0.888731 0.966934 0.938033
0.890913 0.966812 0.937835
0.896635 0.966522 0.937301
0.906859 0.966308 0.936004
0.917342 0.971115 0.928359
0.952743 0.970642 0.924315
0.997391 0.972091 0.919692
1 0.975982 0.918425
0.962844 1 0.934127
0.962982 1 0.934112
0.963806 1 0.934005
0.966369 1 0.933577
0.970871 1 0.932631
0.980331 1 0.930587
0.997375 1 0.925536
1 1 0.926223
1 1 0.925582
