public/textures/grade/Nikon/Licorice-NLog.cube
TITLE "Generated by Resolve"
LUT_3D_SIZE 33
0 0.00511177 0.060853
0 0.00511177 0.0608225
0 0.00512703 0.0604868
0 0.00537118 0.0597086
0 0.00582895 0.057908
0 0.0069276 0.0548867
0.0168002 0.00892653 0.0510414
0.0458076 0.00852979 0.050782
0.0817121 0.00769055 0.0514229
0.126741 0.00668345 0.0531624
0.181155 0.00503548 0.054902
0.244205 0.00360113 0.0542306
0.313466 0.00248722 0.049897
0.382162 0.00386053 0.0461433
0.446357 0.00808728 0.0421454
0.505638 0.015198 0.0399939
0.56672 0.0228428 0.0395361
0.628382 0.0331121 0.0396735
0.690669 0.0467536 0.0410163
0.75227 0.0637369 0.0438087
0.812329 0.0868086 0.0479744
0.870344 0.115206 0.0542458
0.925292 0.147448 0.0626078
0.977234 0.183719 0.0738079
1 0.222873 0.0873884
1 0.264759 0.102113
1 0.308431 0.120439
1 0.352682 0.140337
1 0.397253 0.162692
1 0.440848 0.186908
1 0.482795 0.211841
1 0.522438 0.237156
1 0.559426 0.262425
0 0.00527962 0.0608072
0 0.00529488 0.0607767
0 0.00534066 0.0604715
0 0.00561532 0.0596475
0 0.00607309 0.0578775
0 0.007187 0.0548714
0.0168612 0.00920119 0.0510109
0.0458076 0.00881972 0.0507515
0.0817121 0.00799573 0.0514076
0.126772 0.00698863 0.0531777
0.181125 0.00537118 0.0549325
0.244221 0.00390631 0.0542763
0.31342 0.00280766 0.0499275
0.382086 0.00419623 0.0461738
0.44625 0.00834669 0.0421607
0.505608 0.0154421 0.0400397
0.56669 0.0230869 0.0395819
0.628351 0.033341 0.039704
0.690623 0.046952 0.0410468
0.752255 0.0639353 0.0438239
0.812284 0.0869917 0.0479896
0.870314 0.115389 0.0542763
0.925246 0.147601 0.0626383
0.977234 0.183841 0.0738384
1 0.222965 0.0874037
1 0.264851 0.102144
1 0.308522 0.120455
1 0.352758 0.140368
1 0.397314 0.162707
1 0.440909 0.186938
1 0.482856 0.211872
1 0.522484 0.237171
1 0.559457 0.26244
0 0.00695811 0.0604562
0 0.00697337 0.0604105
0 0.00706493 0.06009
0 0.00735485 0.0592966
0 0.00767529 0.0575265
0 0.00895705 0.0548409
0.0172427 0.0110933 0.0508278
0.0458686 0.0106203 0.0505684
0.0819409 0.0100862 0.0514229
0.126894 0.00921645 0.053315
0.180865 0.00770581 0.0550698
0.243839 0.00627146 0.0545357
0.313405 0.00500496 0.050248
0.381582 0.00633249 0.0463722
0.446067 0.0103456 0.0423743
0.505577 0.0171054 0.0403601
0.566217 0.0244907 0.0397192
0.628107 0.0348974 0.0399634
0.690379 0.0483711 0.0412451
0.752041 0.0652476 0.0440223
0.8121 0.088365 0.048188
0.8701 0.116609 0.0544594
0.925048 0.148684 0.0627909
0.977279 0.18471 0.0741131
1 0.223651 0.087541
1 0.265553 0.102327
1 0.309117 0.120638
1 0.353277 0.140551
1 0.397757 0.16286
1 0.441245 0.187091
1 0.483146 0.211994
1 0.522744 0.237293
1 0.559686 0.262547
0 0.0116732 0.0594797
0 0.0116884 0.0594339
0 0.0117952 0.0591592
0 0.0121004 0.0584115
0 0.0126802 0.0569467
0 0.013901 0.0542153
0.0181888 0.0159457 0.0505837
0.0461585 0.0159609 0.0500343
0.082063 0.0158999 0.0512245
0.126574 0.0151675 0.0534371
0.180011 0.0138552 0.0553902
0.242847 0.0122225 0.0551003
0.312184 0.0110018 0.0508431
0.380148 0.0122988 0.0459754
0.445457 0.0160983 0.0429541
0.504799 0.0214389 0.0410163
0.565667 0.0289006 0.0404517
0.62742 0.0387427 0.0405737
0.689586 0.0521248 0.0417182
0.751431 0.0688792 0.0445258
0.811551 0.0920272 0.0486915
0.8692 0.119554 0.0547951
0.924697 0.151537 0.0633402
0.976791 0.187274 0.0746777
1 0.225879 0.0880598
1 0.267338 0.102937
1 0.310719 0.121111
1 0.354665 0.141024
1 0.398886 0.163317
1 0.442237 0.187488
1 0.483986 0.212345
1 0.523445 0.237598
1 0.560265 0.262821
0 0.0221103 0.0577096
0 0.0221256 0.0576638
0 0.0222171 0.0573587
0 0.0224765 0.0565652
0 0.023209 0.0549477
0.000137331 0.0241093 0.0525978
0.0196994 0.0257725 0.050309
0.0467079 0.0271916 0.0495003
0.0816205 0.0273136 0.0508278
0.1252 0.0268864 0.0535744
0.178607 0.0256657 0.0561379
0.240909 0.023743 0.0561227
0.309941 0.0226596 0.0512703
0.378637 0.0231327 0.0471504
0.443259 0.0262455 0.0441901
0.504112 0.0301061 0.0425727
0.56437 0.0369573 0.0416876
0.62652 0.0466621 0.041886
0.688487 0.0592355 0.042771
0.750179 0.0757153 0.0453346
0.810529 0.0986496 0.0495918
0.868574 0.125765 0.0558938
0.923873 0.157076 0.0644236
0.975387 0.191821 0.0755322
1 0.230182 0.0890822
1 0.271031 0.103975
1 0.313542 0.12192
1 0.357382 0.141939
1 0.401068 0.164202
1 0.444083 0.18819
1 0.485405 0.212894
1 0.524819 0.238224
1 0.561318 0.263432
0 0.0397803 0.0550546
0 0.0398108 0.055024
0 0.0399329 0.0546578
0 0.040238 0.0537118
0 0.0406043 0.0521401
0.00408942 0.0415045 0.0504463
0.0226749 0.0430457 0.049424
0.0463111 0.0449683 0.049012
0.0803082 0.045594 0.0505379
0.123415 0.0453651 0.0538491
0.175708 0.0439765 0.0566415
0.237568 0.0422065 0.0570993
0.306279 0.0404059 0.052903
0.375479 0.0394293 0.0490578
0.440726 0.0402075 0.0464179
0.502113 0.0436103 0.0447395
0.5626 0.049836 0.0437018
0.624445 0.0589914 0.0436561
0.686671 0.070573 0.0446021
0.748104 0.0877394 0.046891
0.808637 0.109422 0.0510872
0.866941 0.13547 0.057496
0.922255 0.165621 0.0660716
0.974197 0.199649 0.0774395
1 0.237034 0.0909285
1 0.276661 0.105455
1 0.318608 0.123598
1 0.361624 0.143511
1 0.404776 0.165576
1 0.446937 0.18912
1 0.487907 0.213916
1 0.526772 0.239017
1 0.563195 0.264302
0 0.0627756 0.0611276
0 0.0627604 0.0610819
0 0.0628367 0.0608835
0 0.0630503 0.060441
0 0.0634623 0.059678
0.00204471 0.0642405 0.058854
0.0211337 0.0654917 0.0582742
0.0473945 0.0666972 0.0579232
0.0769665 0.0699321 0.0550088
0.121477 0.0691844 0.0569314
0.17258 0.0678264 0.0594797
0.233143 0.0656901 0.0601663
0.301778 0.0626383 0.0566567
0.371115 0.0603189 0.0524758
0.436942 0.0604868 0.0497749
0.498116 0.0629435 0.0478523
0.559426 0.0682689 0.0465248
0.621195 0.0762493 0.0460822
0.683497 0.0889448 0.0470741
0.745617 0.104738 0.0495308
0.805768 0.125017 0.0535134
0.864347 0.149523 0.0599832
0.919951 0.178149 0.0686961
0.971969 0.21062 0.0799115
1 0.246586 0.0934157
1 0.285252 0.108003
1 0.32607 0.126009
1 0.367712 0.145541
1 0.409842 0.167361
1 0.45156 0.190951
1 0.491814 0.215595
1 0.529992 0.240452
1 0.565988 0.265476
0 0.0919966 0.0782177
0 0.0919966 0.078172
0 0.0920119 0.0779736
0 0.092195 0.0775006
0 0.0926375 0.0767834
0.00325017 0.0933394 0.0758679
0.022446 0.094377 0.0751507
0.047303 0.0956436 0.0746166
0.0719615 0.100359 0.0690929
0.116075 0.100755 0.0648661
0.168307 0.0986038 0.0661021
0.228305 0.0955215 0.0658885
0.2963 0.0913558 0.0617227
0.365377 0.0886854 0.0574807
0.430945 0.0877241 0.054139
0.493034 0.0894331 0.0518807
0.554528 0.0939498 0.0503395
0.61706 0.101595 0.0497749
0.679454 0.11249 0.0505989
0.741665 0.127306 0.0531167
0.802518 0.145586 0.0571908
0.860731 0.168246 0.063447
0.916655 0.194934 0.0722972
0.969009 0.225559 0.0840467
1 0.259586 0.0969406
1 0.296513 0.111391
1 0.335714 0.129061
1 0.376211 0.148669
1 0.417105 0.170275
1 0.457725 0.193606
1 0.497017 0.217884
1 0.534386 0.242603
1 0.569467 0.267063
0 0.12874 0.105058
0 0.128756 0.105058
0 0.128817 0.104891
0 0.129 0.104479
0 0.129427 0.103853
0.00401312 0.130007 0.102876
0.0227054 0.130953 0.101839
0.0471504 0.131991 0.100587
0.0681926 0.136965 0.0925002
0.1084 0.137667 0.0846113
0.161273 0.136889 0.0782177
0.222263 0.133196 0.0757458
0.289647 0.128084 0.069749
0.358022 0.124468 0.0643778
0.423835 0.122469 0.0603189
0.486824 0.122972 0.0576486
0.548821 0.126406 0.055787
0.611002 0.132525 0.0550546
0.674388 0.141772 0.0557412
0.736767 0.154482 0.0580148
0.797391 0.170962 0.0621805
0.856748 0.191577 0.0687266
0.912795 0.215915 0.0776532
0.964981 0.244373 0.0890059
1 0.276219 0.101595
1 0.311208 0.116121
1 0.348226 0.133333
1 0.386908 0.152499
1 0.426154 0.173861
1 0.465476 0.196735
1 0.503578 0.220661
1 0.540261 0.245335
1 0.574334 0.269551
0 0.17116 0.136904
0 0.17116 0.136889
0 0.171221 0.136736
0 0.171435 0.136431
0 0.171786 0.135744
0.0071107 0.172244 0.134707
0.0254215 0.173144 0.133425
0.0492866 0.17406 0.131472
0.0746624 0.176623 0.125032
0.100389 0.180972 0.109529
0.154498 0.178698 0.0995651
0.215351 0.176059 0.0907454
0.283162 0.170764 0.0825971
0.350164 0.166369 0.0749981
0.4159 0.163165 0.0695354
0.478828 0.162341 0.066041
0.541436 0.163912 0.063508
0.605158 0.168582 0.0627146
0.667964 0.175967 0.0628977
0.731228 0.186603 0.0651408
0.792172 0.201053 0.0692912
0.850935 0.219104 0.0756237
0.908125 0.241108 0.0849622
0.960555 0.266926 0.0957351
1 0.296391 0.107607
1 0.328893 0.12195
1 0.363958 0.138872
1 0.400504 0.157763
1 0.437949 0.17847
1 0.47541 0.201022
1 0.512032 0.224628
1 0.547173 0.248463
1 0.580591 0.272633
0 0.217273 0.171115
0 0.217288 0.171115
0 0.21738 0.171023
0 0.217533 0.170642
0.00529488 0.217716 0.169879
0.017731 0.218112 0.168688
0.0360571 0.218769 0.166949
0.0604715 0.219242 0.164111
0.0856947 0.22121 0.156756
0.0979477 0.227955 0.13669
0.153368 0.22298 0.128878
0.211414 0.222583 0.105364
0.277256 0.217319 0.0994888
0.34313 0.212192 0.090837
0.408209 0.208347 0.0839857
0.471061 0.206271 0.0787366
0.53434 0.206378 0.0751659
0.59762 0.20885 0.073106
0.661112 0.21416 0.0729381
0.723949 0.223056 0.0749828
0.786038 0.234745 0.078706
0.845243 0.250202 0.0852979
0.901854 0.26981 0.0937972
0.955444 0.29308 0.104128
1 0.319738 0.115343
1 0.349447 0.129244
1 0.382055 0.145632
1 0.41622 0.163851
1 0.451484 0.184192
1 0.486915 0.206043
1 0.521828 0.229191
1 0.555962 0.252781
1 0.587671 0.276249
0.0202029 0.264134 0.202808
0.0204013 0.264149 0.202792
0.0218357 0.264195 0.202655
0.0252079 0.264271 0.202319
0.0324865 0.264347 0.20148
0.0445258 0.264759 0.200351
0.0621195 0.265293 0.198596
0.0871748 0.265248 0.195285
0.100938 0.26891 0.184009
0.109987 0.274022 0.164141
0.15642 0.270451 0.154009
0.213901 0.266484 0.140032
0.272709 0.265705 0.118105
0.337835 0.260639 0.110643
0.401953 0.256245 0.102815
0.463874 0.253239 0.0964218
0.526604 0.25211 0.0916762
0.589975 0.252583 0.088365
0.653895 0.256153 0.0874647
0.716991 0.262318 0.0881666
0.778744 0.271748 0.0914931
0.838529 0.28481 0.0969253
0.895369 0.301549 0.10457
0.948775 0.322072 0.114137
0.998566 0.345953 0.124727
1 0.373007 0.138109
1 0.402335 0.153429
1 0.434272 0.171359
1 0.466987 0.190997
1 0.500359 0.212238
1 0.533669 0.23476
1 0.565805 0.257771
1 0.596551 0.280629
0.0707256 0.309621 0.229847
0.0709239 0.309621 0.229831
0.0721752 0.309606 0.229679
0.0755474 0.309514 0.229221
0.082536 0.309651 0.228626
0.093843 0.309819 0.227466
0.104906 0.310903 0.224414
0.11075 0.313649 0.216327
0.117388 0.317525 0.204334
0.123735 0.321645 0.186404
0.167269 0.31809 0.178668
0.221454 0.313207 0.170047
0.275563 0.312184 0.147814
0.334585 0.309987 0.131991
0.397345 0.305272 0.124743
0.457847 0.301732 0.11783
0.520348 0.299351 0.111818
0.58381 0.298726 0.107439
0.647181 0.299886 0.104768
0.710384 0.30428 0.104845
0.772152 0.31133 0.106844
0.831388 0.321904 0.11104
0.88893 0.335714 0.117647
0.942092 0.353475 0.125917
0.992142 0.374533 0.135882
1 0.398749 0.148562
1 0.425437 0.163043
1 0.454353 0.180117
1 0.484596 0.199054
1 0.515602 0.219379
1 0.546731 0.241245
1 0.577111 0.263401
1 0.606271 0.285878
0.117525 0.356451 0.253941
0.117571 0.356466 0.25388
0.117876 0.356634 0.253651
0.118746 0.357061 0.252781
0.12018 0.357565 0.250751
0.122621 0.35877 0.247593
0.125948 0.360708 0.242634
0.130083 0.363241 0.235264
0.134371 0.366003 0.22443
0.139605 0.369696 0.208133
0.182864 0.365393 0.204166
0.232654 0.360159 0.198001
0.284215 0.357473 0.183474
0.336416 0.358236 0.154437
0.394919 0.354208 0.147997
0.454078 0.35024 0.141329
0.515175 0.347158 0.134661
0.577874 0.345342 0.129183
0.641047 0.345388 0.125551
0.703609 0.347341 0.12372
0.765301 0.35259 0.12459
0.824826 0.360555 0.127565
0.881376 0.372 0.132647
0.935699 0.386603 0.139467
0.985153 0.404898 0.14876
1 0.426078 0.160342
1 0.450095 0.174075
1 0.47599 0.18996
1 0.503883 0.208148
1 0.532448 0.227848
1 0.561318 0.248585
1 0.58996 0.270298
1 0.617243 0.291951
0.140566 0.406104 0.272312
0.140597 0.406119 0.272267
0.14081 0.406241 0.271931
0.141375 0.406577 0.271015
0.142412 0.407233 0.269306
0.144106 0.408255 0.266285
0.146136 0.409354 0.261418
0.148943 0.411307 0.25449
0.152209 0.413764 0.244572
0.1617 0.415641 0.231907
0.203265 0.41149 0.229755
0.248508 0.406531 0.225116
0.295949 0.402655 0.214786
0.345373 0.401816 0.194385
0.395239 0.402243 0.170474
0.452369 0.397894 0.165621
0.512276 0.394202 0.159167
0.57348 0.391608 0.152987
0.635767 0.390402 0.14815
0.697856 0.391211 0.145373
0.758785 0.394034 0.144335
0.818341 0.400122 0.145968
0.874983 0.409003 0.149493
0.928435 0.42118 0.155032
0.978775 0.436362 0.163088
1 0.454841 0.173541
1 0.475883 0.186236
1 0.499245 0.201343
1 0.524483 0.218479
1 0.550362 0.237018
1 0.577203 0.257038
1 0.603723 0.277684
1 0.629618 0.298955
0.162249 0.454063 0.290517
0.162264 0.454078 0.290471
0.162402 0.45417 0.29015
0.162768 0.454429 0.289311
0.163455 0.454963 0.287755
0.164538 0.455741 0.284855
0.165972 0.456901 0.280674
0.168032 0.458503 0.274128
0.170871 0.460304 0.264118
0.190478 0.459861 0.257496
0.227283 0.455665 0.255253
0.268574 0.451377 0.251621
0.312123 0.447303 0.243732
0.357397 0.445472 0.229267
0.404562 0.445518 0.203922
0.453178 0.444541 0.189105
0.51107 0.440345 0.183917
0.571267 0.436957 0.177798
0.631861 0.434882 0.172351
0.692988 0.434348 0.168368
0.753323 0.435996 0.166217
0.812024 0.440116 0.166125
0.868818 0.446662 0.167956
0.922011 0.456321 0.172427
0.972412 0.469291 0.179232
1 0.484993 0.188479
1 0.503212 0.200092
1 0.523827 0.214069
1 0.54612 0.229786
1 0.569772 0.247379
1 0.594217 0.266361
1 0.618708 0.286244
1 0.64271 0.306584
0.184466 0.503471 0.31014
0.184482 0.503487 0.310094
0.184573 0.503548 0.309758
0.184771 0.50367 0.308843
0.185153 0.503853 0.307012
0.186023 0.504448 0.304372
0.187457 0.505425 0.299825
0.189593 0.506844 0.293355
0.196811 0.507927 0.285771
0.224018 0.504906 0.284367
0.256123 0.501564 0.282521
0.294057 0.497276 0.279011
0.333425 0.493263 0.272648
0.374533 0.490486 0.261585
0.417502 0.489876 0.243366
0.461936 0.490852 0.215473
0.513802 0.487922 0.209598
0.571115 0.484398 0.204547
0.630457 0.481437 0.19881
0.689723 0.479973 0.194064
0.748684 0.479927 0.190524
0.806043 0.482307 0.188983
0.862119 0.48719 0.189609
0.91519 0.494301 0.192355
0.964996 0.504738 0.198077
1 0.517433 0.205859
1 0.532967 0.216159
1 0.550713 0.228717
1 0.570397 0.243275
1 0.591531 0.259678
1 0.613397 0.277501
1 0.635737 0.296422
1 0.657725 0.316075
0.208728 0.553109 0.32874
0.208743 0.553124 0.328679
0.208835 0.553185 0.328359
0.20911 0.553384 0.32752
0.209674 0.553765 0.325978
0.210636 0.554345 0.322957
0.211933 0.555138 0.318532
0.22005 0.554879 0.314626
0.239155 0.553033 0.313832
0.263096 0.550515 0.312612
0.291676 0.547311 0.310658
0.323354 0.543572 0.307332
0.35964 0.539864 0.301854
0.397101 0.53669 0.292729
0.436133 0.535363 0.278798
0.476371 0.535286 0.25771
0.520912 0.535698 0.234852
0.574624 0.532113 0.231403
0.630442 0.528801 0.226368
0.688014 0.526375 0.221149
0.745556 0.525414 0.216938
0.802243 0.526177 0.214496
0.856107 0.529 0.213687
0.908843 0.53434 0.215381
0.958099 0.541863 0.219226
1 0.552438 0.225818
1 0.564981 0.234668
1 0.579919 0.245655
1 0.596933 0.258824
1 0.615213 0.273808
1 0.634653 0.290379
1 0.65481 0.308293
1 0.67483 0.327077
0.235798 0.603143 0.345556
0.235813 0.603159 0.34551
0.236057 0.603189 0.345235
0.238102 0.602991 0.345144
0.242023 0.602594 0.344991
0.247883 0.602106 0.344823
0.25745 0.601114 0.344366
0.269902 0.599878 0.343816
0.286412 0.597635 0.342596
0.306889 0.595361 0.341299
0.331518 0.592554 0.339315
0.359274 0.589548 0.336355
0.390387 0.585946 0.331136
0.424353 0.583108 0.323461
0.459403 0.58085 0.311849
0.495964 0.580362 0.295644
0.536324 0.580941 0.27126
0.58088 0.580056 0.258122
0.634699 0.576211 0.25449
0.688685 0.573281 0.249912
0.743877 0.571344 0.24538
0.799069 0.570794 0.242023
0.852567 0.572137 0.240391
0.902907 0.575387 0.240665
0.951766 0.581033 0.243336
0.997345 0.58909 0.248264
1 0.599039 0.255436
1 0.611429 0.265003
1 0.625696 0.27689
1 0.641474 0.290379
1 0.658213 0.305623
1 0.675929 0.322347
1 0.693736 0.340078
0.294133 0.646525 0.374578
0.294209 0.646525 0.374578
0.29485 0.646448 0.374548
0.29659 0.64625 0.374441
0.299962 0.645869 0.374273
0.305455 0.645243 0.373922
0.312993 0.644465 0.373556
0.324102 0.643153 0.372808
0.337942 0.641596 0.371862
0.355154 0.639307 0.37023
0.376272 0.636667 0.367956
0.400488 0.633951 0.364828
0.427085 0.631312 0.360342
0.456245 0.628367 0.353368
0.487602 0.626398 0.343709
0.520027 0.624994 0.33022
0.556558 0.625101 0.311055
0.596414 0.626047 0.284993
0.641993 0.623453 0.282872
0.693355 0.619745 0.279057
0.745129 0.617151 0.274937
0.797711 0.615564 0.271214
0.849592 0.615488 0.268818
0.899245 0.61735 0.268193
0.946777 0.621012 0.26952
0.990799 0.626596 0.272938
1 0.634592 0.278752
1 0.644175 0.28661
1 0.656046 0.296864
1 0.669123 0.308919
1 0.683467 0.322988
1 0.699062 0.338781
1 0.714595 0.355352
0.356512 0.687724 0.403525
0.356573 0.687724 0.403525
0.356985 0.687694 0.403494
0.358236 0.687587 0.403433
0.361028 0.687236 0.403204
0.365637 0.686671 0.402823
0.372412 0.685832 0.402243
0.381125 0.684855 0.401556
0.393225 0.683345 0.400336
0.407614 0.681666 0.398779
0.42501 0.679561 0.396429
0.445579 0.676921 0.39292
0.468238 0.674678 0.388586
0.493446 0.672496 0.382483
0.520195 0.670314 0.373877
0.549126 0.669062 0.362615
0.581216 0.668559 0.346914
0.616938 0.668849 0.325338
0.655451 0.668406 0.310613
0.701305 0.665354 0.308293
0.749996 0.662089 0.304829
0.79913 0.659815 0.30132
0.848463 0.658625 0.29836
0.896651 0.658976 0.296971
0.942367 0.661189 0.297337
0.985962 0.664942 0.29955
1 0.670359 0.3037
1 0.678141 0.310521
1 0.687388 0.319158
1 0.698314 0.33022
1 0.710262 0.342794
1 0.723476 0.357137
1 0.73695 0.372808
0.42089 0.726894 0.431495
0.420951 0.726894 0.431495
0.421378 0.726818 0.431434
0.422507 0.726635 0.431281
0.424536 0.726329 0.431022
0.427802 0.725933 0.430655
0.433387 0.725216 0.429999
0.441032 0.724254 0.429023
0.45037 0.723201 0.427848
0.462821 0.72166 0.425971
0.477226 0.720043 0.423636
0.494087 0.718257 0.420432
0.513085 0.715999 0.415824
0.53434 0.714214 0.410163
0.557412 0.712657 0.402716
0.582269 0.711299 0.392813
0.6103 0.71043 0.379461
0.64152 0.710552 0.362142
0.676219 0.711116 0.338842
0.713848 0.708797 0.336873
0.75848 0.705577 0.334676
0.804135 0.70277 0.331548
0.850126 0.700816 0.328862
0.895796 0.699977 0.326848
0.940017 0.700633 0.326421
0.981582 0.703044 0.32784
1 0.706828 0.331106
1 0.712352 0.336538
1 0.719524 0.343984
1 0.728313 0.35375
1 0.738048 0.364996
1 0.749111 0.378363
1 0.760372 0.392264
0.485145 0.763867 0.458061
0.485206 0.763851 0.458061
0.485573 0.763806 0.458
0.486534 0.763684 0.457862
0.488457 0.763424 0.457572
0.491569 0.763027 0.457053
0.495338 0.762493 0.456397
0.501335 0.761517 0.455207
0.509514 0.76051 0.453727
0.519036 0.759503 0.451957
0.531289 0.758114 0.449317
0.545098 0.756756 0.446097
0.561013 0.755322 0.44184
0.578576 0.753552 0.436118
0.598047 0.752285 0.429358
0.618875 0.751324 0.421057
0.643229 0.750576 0.409705
0.670207 0.750027 0.394751
0.700328 0.750546 0.376043
0.733303 0.749538 0.365072
0.771374 0.746777 0.364004
0.812863 0.743709 0.361669
0.855253 0.741253 0.35935
0.897597 0.739681 0.357519
0.939254 0.739178 0.356542
0.979065 0.740093 0.357351
1 0.742641 0.359991
1 0.746426 0.364462
1 0.751736 0.370993
1 0.758434 0.379431
1 0.766476 0.389563
1 0.775357 0.401389
1 0.784833 0.414343
0.54876 0.798199 0.482261
0.548791 0.798199 0.482246
0.549065 0.798169 0.482185
0.549844 0.798062 0.482033
0.551354 0.797879 0.481712
0.55378 0.797604 0.481178
0.557382 0.797177 0.480385
0.561868 0.796735 0.479469
0.568215 0.796002 0.477928
0.576074 0.794842 0.4757
0.585504 0.793927 0.473274
0.59733 0.792752 0.469856
0.610361 0.791669 0.465827
0.62501 0.790616 0.460822
0.641535 0.789517 0.454383
0.658778 0.788449 0.446769
0.67924 0.787823 0.437018
0.702327 0.787579 0.424643
0.728206 0.787411 0.408682
0.756741 0.787671 0.393256
0.788418 0.785046 0.392966
0.825803 0.781964 0.391714
0.863752 0.779293 0.390127
0.902556 0.777249 0.388556
0.941329 0.775921 0.387732
0.978302 0.775952 0.388388
1 0.777035 0.390402
1 0.779583 0.394156
1 0.783246 0.39971
1 0.788357 0.407126
1 0.794675 0.41619
1 0.80177 0.426657
1 0.809293 0.437964
0.611246 0.829831 0.504189
0.611292 0.829816 0.504173
0.611505 0.829801 0.504112
0.612116 0.829725 0.503944
0.613291 0.829602 0.503609
0.615228 0.829404 0.503059
0.618097 0.829099 0.502251
0.622065 0.828672 0.501106
0.627131 0.828183 0.499596
0.633219 0.82768 0.497795
0.641154 0.826947 0.495216
0.649714 0.826047 0.492119
0.660533 0.825132 0.488075
0.672343 0.824414 0.483513
0.685756 0.823697 0.477821
0.70103 0.822934 0.470802
0.717784 0.822202 0.462257
0.737346 0.821836 0.451637
0.759319 0.821912 0.438743
0.78407 0.822156 0.422522
0.810391 0.820203 0.422293
0.842069 0.817105 0.421805
0.876143 0.814404 0.421012
0.911147 0.811994 0.419928
0.945632 0.810468 0.419654
0.980209 0.809888 0.420279
1 0.81001 0.421927
1 0.811383 0.425055
1 0.813901 0.429908
1 0.817594 0.436316
1 0.822019 0.444022
1 0.82739 0.45304
1 0.833631 0.463142
0.672526 0.858579 0.523415
0.672541 0.858564 0.5234
0.672679 0.858564 0.523354
0.67306 0.858549 0.523247
0.67393 0.858473 0.522957
0.675471 0.85832 0.522423
0.677745 0.858122 0.521645
0.680873 0.857847 0.5205
0.684977 0.857481 0.519005
0.690135 0.857069 0.517052
0.695964 0.856687 0.514916
0.703471 0.856153 0.511894
0.711696 0.855695 0.508522
0.721416 0.85507 0.504158
0.731792 0.854414 0.499153
0.744213 0.853895 0.493034
0.758206 0.853559 0.485832
0.77438 0.853361 0.476967
0.792721 0.853071 0.46569
0.814115 0.853284 0.452079
0.836454 0.851637 0.45211
0.862562 0.848981 0.452506
0.89221 0.846357 0.452049
0.922423 0.843915 0.451637
0.953933 0.841825 0.45156
0.984649 0.841016 0.452415
1 0.840574 0.453864
1 0.840955 0.456672
1 0.842451 0.46067
1 0.844907 0.466072
1 0.848356 0.472709
1 0.852461 0.4804
1 0.857145 0.488762
0.732036 0.884764 0.540612
0.732052 0.884764 0.540597
0.732189 0.884749 0.540536
0.73257 0.884733 0.540383
0.733272 0.884657 0.540063
0.734417 0.884535 0.539528
0.736095 0.884352 0.53875
0.738064 0.884184 0.537896
0.741024 0.88394 0.536553
0.745083 0.883665 0.534752
0.750057 0.88336 0.532509
0.755962 0.88304 0.529809
0.762432 0.882765 0.526833
0.770306 0.882414 0.522972
0.778744 0.882155 0.518807
0.788693 0.881849 0.513497
0.799786 0.881498 0.507149
0.812924 0.8813 0.499596
0.828138 0.881331 0.490593
0.845396 0.881376 0.481102
0.864149 0.879377 0.48217
0.885954 0.877394 0.483253
0.911452 0.874723 0.483177
0.937835 0.872419 0.483177
0.964645 0.870451 0.483207
0.992325 0.869139 0.484077
1 0.868269 0.485451
1 0.868269 0.487892
1 0.868971 0.491081
1 0.870405 0.495399
1 0.872801 0.500801
1 0.875883 0.507393
1 0.879683 0.51458
0.787335 0.908339 0.555947
0.78735 0.908339 0.555932
0.787457 0.908324 0.555886
0.787762 0.908309 0.555734
0.788327 0.908278 0.555459
0.789273 0.908217 0.555001
0.790677 0.908141 0.554299
0.792599 0.908049 0.553323
0.795148 0.907912 0.552041
