public/textures/grade/Nikon/Licorice-NLog.cube
TITLE "Generated by Resolve"
LUT_3D_SIZE 5
0 0.00511177 0.060853
0.0817121 0.00769055 0.0514229
0.56672 0.0228428 0.0395361
1 0.222873 0.0873884
1 0.559426 0.262425
0 0.12874 0.105058
0.0681926 0.136965 0.0925002
0.548821 0.126406 0.055787
1 0.276219 0.101595
1 0.574334 0.269551
0.184466 0.503471 0.31014
0.196811 0.507927 0.285771
0.513802 0.487922 0.209598
0.964996 0.504738 0.198077
1 0.657725 0.316075
0.611246 0.829831 0.504189
0.627131 0.828183 0.499596
0.717784 0.822202 0.462257
0.945632 0.810468 0.419654
1 0.833631 0.463142
0.992523 0.988769 0.636454
0.994995 0.988434 0.636332
1 0.986313 0.635676
1 0.980423 0.634714
1 0.976791 0.643259
0 0.0126192 0.217166
0.0958267 0.0251926 0.196994
0.57731 0.050782 0.112947
1 0.240818 0.138705
1 0.56463 0.291554
0.0211948 0.142824 0.190356
0.120455 0.148562 0.174197
0.562646 0.150683 0.123186
1 0.291325 0.149447
1 0.579355 0.297658
0.231235 0.496834 0.363928
0.241062 0.503716 0.342794
0.51751 0.494942 0.25359
0.965423 0.510765 0.232624
1 0.660731 0.339117
0.611566 0.830732 0.520546
0.626642 0.828977 0.516167
0.718059 0.822873 0.479789
0.945129 0.811322 0.437369
1 0.834638 0.476463
0.992401 0.988846 0.641779
0.994873 0.988495 0.641657
1 0.986282 0.640818
1 0.980514 0.639643
1 0.976913 0.647639
0.0641489 0.105638 0.644068
0.154131 0.121324 0.630518
0.517281 0.168795 0.574945
0.984115 0.327977 0.449577
1 0.596246 0.44889
0.102388 0.206744 0.618494
0.178103 0.214893 0.60708
0.511131 0.249012 0.55787
0.976318 0.372274 0.436149
1 0.60911 0.449851
0.29633 0.526299 0.532952
0.328099 0.526513 0.528374
0.527169 0.532052 0.500877
0.949386 0.547143 0.424155
1 0.681361 0.464714
0.61883 0.836118 0.60972
0.633524 0.834562 0.606226
0.720394 0.828229 0.575662
0.942489 0.817395 0.53019
1 0.841077 0.549661
0.986481 0.990402 0.679301
0.988586 0.990097 0.6795
1 0.98822 0.679011
1 0.982712 0.676402
1 0.979507 0.680125
0.324468 0.405097 0.963302
0.364263 0.409033 0.95613
0.561502 0.437232 0.916716
0.9066 0.5037 0.860334
1 0.684016 0.775479
0.341497 0.442237 0.950652
0.377951 0.44535 0.943908
0.562844 0.470619 0.90515
0.899702 0.527687 0.852659
1 0.694026 0.771252
0.444907 0.611505 0.887633
0.467887 0.611933 0.883223
0.596094 0.619944 0.858061
0.87451 0.649378 0.81767
1 0.750744 0.749386
0.683177 0.852705 0.816449
0.691768 0.852354 0.815442
0.746273 0.849668 0.809476
0.881132 0.85716 0.787778
1 0.875425 0.758068
0.957534 0.998535 0.816144
0.959045 0.99852 0.815503
0.969284 0.998947 0.811582
1 0.996719 0.811872
1 0.994904 0.805188
0.660395 0.732464 1
0.670848 0.733104 1
0.731212 0.738247 1
0.898985 0.755276 0.984787
1 0.819425 0.945296
0.664958 0.74078 1
0.674937 0.741375 1
0.734432 0.746334 1
0.898207 0.762432 0.98175
1 0.823819 0.943664
0.696834 0.790112 1
0.704814 0.790478 1
0.754543 0.79321 0.993027
0.89604 0.805829 0.964385
1 0.852186 0.933867
0.808896 0.908156 0.944015
0.812863 0.908186 0.943343
0.837583 0.908827 0.938994
0.915022 0.914412 0.924605
1 0.928954 0.91577
0.962844 1 0.934127
0.963806 1 0.934005
0.970871 1 0.932631
0.997375 1 0.925536
1 1 0.925582
