public/textures/grade/Nikon/Parasitic-NLog.cube
TITLE "Generated by Resolve"
LUT_3D_SIZE 33
0 0.00817884 0
0 0.00819409 0
0 0.00822461 0
0 0.00836194 0
0 0.00852979 0
0.0164645 0.00564584 0
0.0539254 0.000595102 0
0.0971237 0 0
0.145205 0 0
0.196399 0 0
0.248951 0 0
0.301625 0 0
0.353506 0 0
0.403464 0 0
0.45037 0 0
0.494774 0.00471504 0
0.538384 0.016556 0
0.581827 0.0315404 0
0.625177 0.0499123 0
0.668116 0.0722515 0
0.711971 0.0982071 0
0.756649 0.127626 0
0.801251 0.160555 0
0.843992 0.196704 0
0.884916 0.236316 0
0.922759 0.278279 0
0.957687 0.322545 0
0.990005 0.3673 0.0163424
1 0.411795 0.0378271
1 0.45565 0.0611276
1 0.497856 0.0852064
1 0.53753 0.109712
1 0.57435 0.13402
0 0.00843824 0
0 0.00843824 0
0 0.00848402 0
0 0.00857557 0
0 0.00874342 0
0.0164034 0.0059205 0
0.0538491 0.000854505 0
0.0970626 0 0
0.145144 0 0
0.196231 0 0
0.248875 0 0
0.301503 0 0
0.353414 0 0
0.403372 0 0
0.450263 0 0
0.494682 0.00500496 0
0.538293 0.0168154 0
0.581735 0.0317845 0
0.625116 0.0501411 0
0.66807 0.0724498 0
0.71194 0.0983902 0
0.756664 0.127779 0
0.801251 0.160708 0
0.843976 0.196841 0
0.884901 0.236423 0
0.922744 0.278386 0
0.957671 0.322621 0
0.98999 0.367361 0.0163272
1 0.411856 0.0378271
1 0.455711 0.0611124
1 0.497902 0.0852064
1 0.53756 0.109712
1 0.57438 0.134035
0 0.0100862 0
0 0.0100862 0
0 0.0101167 0
0 0.0102693 0
0 0.0104982 0
0.0159762 0.00776684 0
0.0536202 0.00265507 0
0.0968032 0 0
0.144579 0 0
0.195666 0 0
0.248096 0 0
0.300908 0 0
0.352712 0 0
0.40264 0 0
0.449454 0 0
0.49398 0.0069276 0
0.537835 0.0185397 0
0.581155 0.0334936 0
0.624643 0.0517128 0
0.668025 0.0737469 0
0.711925 0.0995651 0
0.756512 0.128908 0
0.801038 0.161608 0
0.843885 0.197742 0
0.88481 0.237217 0
0.922652 0.279072 0
0.95758 0.323217 0
0.989822 0.367773 0.0162356
1 0.412299 0.0378119
1 0.456092 0.0610819
1 0.498207 0.0852064
1 0.537835 0.109728
1 0.574609 0.134035
0 0.0148928 0
0 0.0148928 0
0 0.0148928 0
0 0.0150149 0
0 0.0150607 0
0.0147097 0.012665 0
0.051606 0.00793469 0
0.0951553 0.00320439 0
0.142626 0 0
0.19353 0 0
0.246418 0 0
0.298955 0 0
0.350881 0 0
0.400687 0 0
0.447669 0.00390631 0
0.492302 0.0120546 0
0.536019 0.0231022 0
0.579675 0.0380102 0
0.623346 0.0559548 0
0.667155 0.0775464 0
0.711284 0.102983 0
0.756039 0.131975 0
0.800534 0.164126 0
0.843763 0.200122 0
0.88455 0.239353 0
0.922393 0.280934 0
0.957504 0.324758 0
0.98941 0.368948 0.0160067
1 0.413474 0.0377966
1 0.457099 0.0609751
1 0.499062 0.0851911
1 0.538567 0.109728
1 0.575219 0.134051
0 0.0243687 0
0 0.0243687 0
0 0.0244297 0
0 0.0245518 0
0 0.0244907 0
0.0124819 0.0227207 0
0.0469978 0.019089 0
0.0902419 0.0145571 0
0.138369 0.0103304 0
0.189609 0.00689708 0
0.242359 0.00444038 0
0.295338 0.00384527 0
0.347219 0.00489815 0
0.396796 0.00842298 0
0.443961 0.0137484 0
0.488655 0.0215915 0
0.532967 0.0322118 0
0.576776 0.0463111 0
0.620966 0.0636606 0
0.665583 0.0844282 0
0.709957 0.109163 0
0.754955 0.137514 0
0.800214 0.169284 0
0.843381 0.204746 0
0.883711 0.243107 0
0.921889 0.28452 0
0.957198 0.327794 0
0.988952 0.371618 0.0158999
1 0.415763 0.0377356
1 0.459007 0.0609445
1 0.500664 0.0852522
1 0.539971 0.109758
1 0.576425 0.134096
0 0.0408179 0
0 0.0408331 0
0 0.0408789 0
0 0.041001 0
0 0.0408331 0
0.0101015 0.0393683 0
0.0403906 0.0368353 0
0.0823072 0.0328374 0
0.13022 0.0285039 0
0.182162 0.0247044 0
0.23537 0.0221714 0
0.288273 0.0210422 0
0.340459 0.022034 0
0.390661 0.0246586 0
0.437995 0.0297093 0
0.482673 0.0364996 0
0.52784 0.0464485 0
0.572747 0.0594797 0
0.61735 0.0760204 0
0.662989 0.096025 0
0.7084 0.11957 0
0.75375 0.146853 0
0.79881 0.177462 0
0.842115 0.212009 0
0.883177 0.249683 0
0.921355 0.290242 0
0.956054 0.332464 0
0.98819 0.375982 0.0157321
1 0.419409 0.0378576
1 0.462089 0.0611582
1 0.503319 0.0852369
1 0.542138 0.110201
1 0.578393 0.134173
0 0.0636301 0
0 0.0636454 0
0 0.0636912 0
0 0.0637064 0
0 0.0635233 0
0.00833143 0.0621042 0
0.0357061 0.0603494 0
0.0733043 0.0574197 0
0.11986 0.0535134 0
0.171542 0.0496529 0
0.225559 0.0466621 0
0.27895 0.0452125 0
0.330816 0.0453498 0
0.381231 0.0475929 0
0.429603 0.051545 0
0.474647 0.0578927 0
0.520882 0.0665751 0
0.566735 0.0783246 0
0.612909 0.0934005 0
0.658854 0.112078 0
0.705943 0.134279 0
0.752163 0.159976 0
0.797421 0.189609 0
0.840894 0.222889 0
0.881498 0.259083 0
0.919951 0.298314 0
0.955245 0.339712 0
0.987442 0.382223 0.0158999
1 0.424659 0.0378424
1 0.466392 0.0608072
1 0.50695 0.0849317
1 0.545281 0.110048
1 0.581247 0.134447
0 0.0923323 0
0 0.0923323 0
0 0.0923323 0
0 0.0923476 0
0 0.0919661 0
0.00769055 0.0910048 0
0.0326238 0.0896162 0
0.0669718 0.0873121 0
0.109957 0.0843671 0
0.159625 0.0810101 0
0.212711 0.0776532 0
0.265858 0.0759594 0
0.318303 0.0756695 0
0.369604 0.0767376 0
0.418311 0.0798657 0
0.464744 0.0848249 0
0.51191 0.0926528 0
0.559487 0.102693 0
0.606897 0.116304 0
0.654566 0.133165 0
0.702022 0.153506 0
0.749706 0.177737 0
0.795499 0.205402 0
0.838773 0.237125 0
0.879835 0.272084 0
0.918013 0.309865 0
0.953246 0.349386 0
0.98558 0.390509 0.0153353
1 0.431876 0.0375677
1 0.472786 0.0608072
1 0.512352 0.0849317
1 0.549874 0.109682
1 0.585122 0.13489
0 0.126085 0
0 0.126085 0
0 0.12604 0
0 0.12575 0
0 0.125093 0
0.010956 0.124514 0
0.0336919 0.123461 0
0.0638743 0.121965 0
0.103151 0.119615 0
0.149325 0.116945 0
0.199863 0.114168 0
0.252308 0.112108 0
0.304585 0.111284 0
0.3561 0.111727 0
0.405554 0.114 0
0.453239 0.11783 0
0.501976 0.123644 0
0.550774 0.132525 0
0.600275 0.144045 0
0.649363 0.159182 0
0.6981 0.17763 0
0.7458 0.19968 0
0.791989 0.225452 0
0.836225 0.255146 0
0.877501 0.288106 0
0.915618 0.324147 0
0.951431 0.362112 0
0.983871 0.401556 0.0152132
1 0.441382 0.0375525
1 0.480919 0.0612802
1 0.519265 0.0854505
1 0.555779 0.110246
1 0.58999 0.134874
0 0.162768 0
0 0.162753 0
0 0.162661 0
0 0.162448 0
0.00387579 0.162173 0
0.0188296 0.161593 0
0.0390173 0.160906 0
0.0666667 0.159731 0
0.101457 0.158465 0
0.143343 0.156481 0
0.190372 0.15436 0
0.240711 0.15201 0
0.29163 0.15111 0
0.34313 0.151125 0
0.39324 0.152331 0
0.441627 0.154955 0
0.491417 0.160006 0
0.541726 0.166964 0
0.592569 0.176822 0
0.642954 0.1897 0
0.692988 0.20621 0
0.741299 0.226078 0
0.787884 0.249744 0
0.832456 0.276783 0
0.874144 0.307759 0
0.91284 0.341436 0
0.948592 0.377371 0
0.981308 0.41474 0.0151522
1 0.452766 0.0375525
1 0.490684 0.0611734
1 0.527626 0.0854658
1 0.563287 0.110445
1 0.596414 0.135378
0.00442512 0.202029 0
0.004654 0.202029 0
0.00622568 0.201999 0
0.010193 0.201999 0
0.0183719 0.201831 0
0.0309911 0.201389 0
0.0492409 0.201099 0
0.0739605 0.200229 0
0.105303 0.199435 0
0.142611 0.198184 0
0.185138 0.196796 0
0.232212 0.195163 0
0.281437 0.194018 0
0.331914 0.193668 0
0.381781 0.194247 0
0.430503 0.195834 0
0.480781 0.199695 0
0.531975 0.205249 0
0.584497 0.213321 0
0.635935 0.224475 0
0.686839 0.238499 0
0.735882 0.256397 0
0.782513 0.27747 0
0.828122 0.302251 0
0.869886 0.330388 0
0.90901 0.361959 0
0.945373 0.395315 0
0.978088 0.430533 0.0149386
1 0.466377 0.0377508
1 0.502419 0.0615549
1 0.538125 0.0858167
1 0.571908 0.110994
1 0.603952 0.135561
0.0242313 0.243824 0
0.0244144 0.243824 0
0.025803 0.243809 0
0.0294804 0.243778 0
0.0362554 0.243793 0
0.0472572 0.243503 0
0.0637827 0.24332 0
0.0851148 0.242924 0
0.1131 0.242512 0
0.14641 0.241733 0
0.185534 0.240665 0
0.228977 0.239582 0
0.275303 0.23859 0
0.323445 0.238361 0
0.372168 0.238315 0
0.420218 0.239612 0
0.471015 0.242084 0
0.523247 0.246586 0
0.575418 0.253025 0
0.627909 0.262089 0
0.679118 0.27454 0
0.729198 0.289784 0
0.776883 0.308339 0
0.82211 0.330663 0
0.865202 0.356283 0
0.904418 0.384802 0
0.940963 0.416068 0
0.974701 0.448524 0.0157626
1 0.482231 0.0379034
1 0.516518 0.0621195
1 0.549935 0.0865797
1 0.582071 0.111376
1 0.613062 0.136706
0.0460212 0.287602 0
0.0461891 0.287602 0
0.0473945 0.287602 0
0.0503243 0.287694 0
0.0565194 0.287663 0
0.0660563 0.28751 0
0.0806439 0.28748 0
0.100175 0.287434 0
0.124651 0.287037 0
0.155428 0.286564 0
0.190066 0.286137 0
0.229725 0.285405 0
0.272877 0.284581 0
0.317922 0.284153 0
0.364782 0.284123 0
0.412299 0.28481 0
0.462409 0.286503 0
0.513893 0.28983 0
0.566751 0.295064 0
0.619013 0.302449 0
0.670909 0.312398 0
0.721523 0.325612 0
0.770047 0.342214 0
0.815793 0.361547 0
0.859083 0.384482 0
0.899519 0.410452 0
0.936141 0.438575 0
0.97026 0.468879 0.0163272
1 0.500069 0.0387427
1 0.531991 0.0630198
1 0.563455 0.0872663
1 0.594095 0.112734
1 0.623178 0.137438
0.0687419 0.332799 0
0.0688945 0.332799 0
0.0699779 0.332815 0
0.0728618 0.332815 0
0.0782025 0.332891 0
0.0868544 0.332799 0
0.0994736 0.332753 0
0.117082 0.332753 0
0.138872 0.332464 0
0.166308 0.332326 0
0.198016 0.331899 0
0.234455 0.331716 0
0.273732 0.331319 0
0.316884 0.330602 0
0.360586 0.330526 0
0.406531 0.330648 0
0.454902 0.33193 0
0.505943 0.334157 0
0.5579 0.338201 0
0.610742 0.344167 0
0.662409 0.352468 0
0.713619 0.363195 0
0.762417 0.377462 0
0.809033 0.394766 0
0.852613 0.414771 0
0.893584 0.43772 0
0.931136 0.463401 0
0.965667 0.490929 0.0176699
0.996323 0.5196 0.0403601
1 0.549187 0.0640574
1 0.578408 0.088716
1 0.607187 0.11397
1 0.634836 0.139193
0.0927901 0.378515 0
0.0929427 0.378515 0
0.0938888 0.378515 0
0.0964065 0.378546 0
0.101106 0.378637 0
0.109194 0.378653 0
0.120531 0.378775 0
0.135821 0.378531 0
0.155734 0.378592 0
0.18024 0.378164 0
0.209567 0.377935 0
0.24239 0.377478 0
0.279408 0.377325 0
0.318318 0.37702 0
0.360449 0.376501 0
0.403296 0.376516 0
0.450187 0.377356 0
0.499229 0.378866 0
0.550607 0.381659 0
0.602441 0.386374 0
0.654704 0.393194 0
0.705165 0.402258 0
0.754726 0.413962 0
0.80174 0.428962 0
0.845914 0.446632 0
0.887236 0.467002 0
0.925612 0.489738 0
0.95996 0.514275 0.0193484
0.991318 0.540642 0.0421912
1 0.567681 0.0664225
1 0.594568 0.0907454
1 0.62153 0.115999
1 0.647364 0.140734
0.118959 0.42443 0
0.119051 0.424445 0
0.11986 0.42446 0
0.122072 0.424369 0
0.126314 0.42414 0
0.133196 0.424201 0
0.143816 0.42417 0
0.157748 0.424247 0
0.175723 0.424125 0
0.197559 0.42388 0
0.223896 0.423804 0
0.254017 0.423209 0
0.288106 0.422919 0
0.324498 0.422415 0
0.362539 0.422217 0
0.40325 0.42208 0
0.447913 0.422477 0
0.494926 0.42356 0
0.544823 0.425589 0
0.59585 0.428946 0
0.646906 0.434089 0
0.697932 0.441581 0
0.746715 0.451408 0
0.794186 0.464164 0
0.839048 0.479194 0
0.880491 0.497017 0
0.919326 0.517006 0.0011902
0.954162 0.539345 0.0221866
0.986175 0.562951 0.0449378
1 0.587518 0.0689403
1 0.612253 0.0929885
1 0.637018 0.118212
1 0.661082 0.143221
0.149218 0.47216 0
0.149325 0.47216 0
0.150072 0.472145 0
0.152117 0.472145 0
0.156008 0.472145 0
0.162097 0.47219 0
0.171298 0.472068 0
0.183627 0.471778 0
0.199649 0.471778 0
0.219394 0.471733 0
0.242756 0.471214 0
0.269749 0.471107 0
0.300404 0.47042 0
0.334081 0.47013 0
0.369619 0.469596 0
0.40705 0.469444 0
0.448173 0.469795 0
0.493492 0.470115 0
0.540688 0.471519 0
0.590234 0.473945 0
0.640238 0.478096 0
0.690211 0.483528 0
0.739452 0.491615 0
0.786557 0.50193 0
0.831189 0.514885 0
0.873121 0.529931 0
0.912184 0.54728 0.00561532
0.947555 0.566674 0.0263066
0.980117 0.58761 0.0487984
1 0.609522 0.0725872
1 0.632288 0.0967422
1 0.654765 0.121309
1 0.676905 0.146181
0.183337 0.521462 0
0.183444 0.521462 0
0.1841 0.521462 0
0.185901 0.521431 0
0.189334 0.521401 0
0.194965 0.521355 0
0.202838 0.52137 0
0.213901 0.521294 0
0.22797 0.520775 0
0.245289 0.520714 0
0.266178 0.520562 0
0.290425 0.519875 0
0.317556 0.519692 0
0.347753 0.518959 0
0.380072 0.518761 0
0.414572 0.518135 0
0.453101 0.518257 0
0.49456 0.518471 0
0.539834 0.519036 0
0.586603 0.52076 0
0.635203 0.523537 0
0.683787 0.528084 0
0.732158 0.534234 0
0.778927 0.54229 0
0.82385 0.55285 0
0.865476 0.565515 0
0.904524 0.580102 0.01178
0.940963 0.596613 0.0325933
0.973526 0.615122 0.0546883
1 0.634531 0.0778973
1 0.654597 0.101686
1 0.6748 0.126009
1 0.69456 0.150729
0.221744 0.571557 0
0.22182 0.571542 0
0.2224 0.571542 0
0.223789 0.571542 0
0.226505 0.571557 0
0.231434 0.571466 0
0.238697 0.571298 0
0.248219 0.571191 0
0.260548 0.571054 0
0.275792 0.570672 0
0.293904 0.570275 0
0.315496 0.56997 0
0.339696 0.569223 0
0.366278 0.568963 0
0.39556 0.568399 0
0.426337 0.567971 0
0.461524 0.567529 0
0.500191 0.567483 0
0.541909 0.567712 0
0.586206 0.568582 0
0.632074 0.570489 0
0.679118 0.573541 0
0.725887 0.578225 0
0.771969 0.584665 0
0.816037 0.592615 0
0.858137 0.60296 0.00337224
0.897246 0.615015 0.02121
0.933364 0.629236 0.0409094
0.966079 0.644755 0.062089
0.995804 0.661311 0.0847334
1 0.678843 0.108003
1 0.696544 0.132189
1 0.714443 0.156115
0.263951 0.621958 0
0.264012 0.621958 0
0.264469 0.621912 0
0.265721 0.62182 0
0.268132 0.621653 0
0.271656 0.621515 0
0.277775 0.621363 0
0.28629 0.621118 0
0.296956 0.62092 0
0.310369 0.62063 0
0.326284 0.620325 0
0.34464 0.619638 0
0.366033 0.619242 0
0.389792 0.618662 0
0.415015 0.618097 0
0.443076 0.617655 0
0.474113 0.617029 0
0.509331 0.616831 0
0.547768 0.616495 0
0.588846 0.616754 0
0.631876 0.617838 0
0.676387 0.619806 0
0.721553 0.62295 0
0.766201 0.627588 0
0.809293 0.634058 0.00177005
0.85066 0.642023 0.0163882
0.889555 0.651637 0.033463
0.925582 0.662974 0.0519722
0.958709 0.676051 0.0726635
0.988327 0.690074 0.0943313
1 0.705318 0.117067
1 0.720592 0.140536
1 0.736156 0.163836
0.308705 0.671092 0
0.308751 0.671092 0
0.309163 0.671092 0
0.310277 0.671046 0
0.312428 0.670985 0
0.315938 0.670878 0
0.320623 0.670665 0
0.327428 0.670253 0
0.336767 0.669978 0
0.348089 0.669703 0
0.361883 0.669306 0
0.378073 0.668879 0
0.396094 0.668055 0
0.41677 0.667567 0
0.43949 0.667048 0
0.463325 0.666316 0
0.491539 0.665797 0
0.522515 0.665095 0
0.557229 0.664927 0
0.595117 0.66453 0
0.635019 0.664805 0
0.676371 0.665934 0
0.71902 0.667964 0
0.761761 0.671153 0.00810254
0.803769 0.675639 0.0195468
0.844282 0.681758 0.0333715
0.882521 0.689509 0.049134
0.917876 0.69836 0.0661936
0.951095 0.70898 0.0861372
0.980636 0.720485 0.106661
1 0.73312 0.128527
1 0.746151 0.151278
1 0.759365 0.173587
0.355612 0.718669 0.0209812
0.355657 0.718669 0.0209659
0.356008 0.718654 0.0209354
0.356924 0.718608 0.0208438
0.358724 0.718547 0.020676
0.361669 0.718441 0.0204013
0.366033 0.718273 0.0200046
0.371679 0.718135 0.0195926
0.379126 0.717586 0.0186923
0.388876 0.717113 0.0177615
0.400336 0.716777 0.0169375
0.413993 0.716335 0.016083
0.429877 0.715785 0.0152743
0.447303 0.714855 0.0138399
0.466865 0.714305 0.0127108
0.488243 0.713726 0.0119326
0.51252 0.712749 0.0110628
0.540139 0.712261 0.0110323
0.570718 0.711528 0.0109102
0.604669 0.711299 0.0124056
0.641367 0.710887 0.0149081
0.679728 0.711147 0.0187533
0.719158 0.712276 0.0243229
0.759838 0.714168 0.0321508
0.79968 0.717479 0.0420081
0.83859 0.721584 0.0542763
0.875929 0.727321 0.068513
0.910704 0.734569 0.0847181
0.943175 0.74255 0.10277
0.972915 0.751934 0.122225
0.999557 0.762387 0.143206
1 0.773022 0.164187
1 0.78436 0.186023
0.404166 0.76379 0.052369
0.404211 0.76379 0.052369
0.404501 0.763775 0.0523384
0.405264 0.763729 0.0522774
0.406439 0.76376 0.0522621
0.408743 0.763684 0.0520943
0.41236 0.763516 0.0517586
0.41735 0.763287 0.0512856
0.423575 0.763088 0.0506752
0.431632 0.762722 0.0498054
0.441337 0.761944 0.0486763
0.452674 0.761532 0.0479591
0.465843 0.761059 0.0471809
0.480827 0.760494 0.0464179
0.497475 0.759594 0.0456397
0.515709 0.758785 0.0449226
0.53698 0.758114 0.044358
0.56112 0.757061 0.0434119
0.588159 0.756512 0.0438392
0.617899 0.755703 0.0446174
0.650797 0.755459 0.0462959
0.685924 0.755001 0.0496681
0.722454 0.755215 0.0540017
0.759793 0.756451 0.0608225
0.797971 0.758328 0.0695811
0.834836 0.761349 0.0799725
0.870573 0.765057 0.0925002
0.904418 0.770138 0.107256
0.936019 0.776669 0.123384
0.965698 0.78381 0.141588
0.991958 0.791684 0.160952
1 0.800732 0.181003
1 0.809888 0.201678
0.45272 0.806241 0.0876326
0.45275 0.806241 0.0876326
0.452995 0.806226 0.087602
0.45362 0.806195 0.0875563
0.454856 0.806134 0.0874342
0.45687 0.806027 0.0872511
0.459388 0.805982 0.0871595
0.463493 0.805768 0.0868086
0.468894 0.805478 0.0863508
0.475502 0.805173 0.0858778
0.483528 0.804807 0.0853285
0.493202 0.80412 0.0844282
0.50396 0.803479 0.0836652
0.516426 0.80296 0.0829328
0.530449 0.802396 0.0819409
0.545937 0.80174 0.0813764
0.563973 0.800595 0.080705
0.584909 0.799771 0.0806287
0.608774 0.798917 0.0806744
0.634806 0.798032 0.080766
0.663661 0.797375 0.0822309
0.695155 0.796765 0.0846113
0.727977 0.796506 0.0879683
0.762844 0.796689 0.0937362
0.797681 0.797757 0.100694
0.832883 0.79939 0.10988
0.866773 0.80209 0.120729
0.899443 0.805585 0.13373
0.930053 0.810162 0.148287
0.958511 0.815473 0.164752
0.984619 0.821729 0.182635
1 0.828595 0.201038
1 0.836164 0.220356
0.500816 0.845457 0.126558
0.500847 0.845457 0.126558
0.50103 0.845441 0.126543
0.501549 0.845411 0.126497
0.502556 0.84535 0.126406
0.504204 0.845258 0.126268
0.506645 0.845106 0.126055
0.510018 0.844907 0.125765
0.51397 0.844755 0.125582
0.51957 0.844434 0.125124
0.526406 0.844022 0.12459
0.534066 0.843656 0.124163
0.543511 0.843107 0.123522
0.553567 0.842405 0.12282
0.565026 0.841749 0.122225
0.578317 0.841031 0.12163
0.593668 0.840269 0.121157
0.611276 0.839307 0.120272
0.631006 0.838437 0.120256
0.654459 0.83743 0.120897
0.679438 0.836393 0.121767
0.707485 0.835782 0.123262
0.737118 0.835035 0.126055
0.767758 0.834867 0.129992
0.800336 0.835004 0.136263
0.832715 0.835721 0.143481
0.864347 0.837369 0.152758
0.895872 0.839536 0.164141
0.925063 0.84268 0.17702
0.952377 0.846616 0.19173
0.978149 0.851286 0.207614
1 0.856748 0.224521
1 0.862181 0.242054
0.547646 0.881224 0.169146
0.547662 0.881209 0.169146
0.547814 0.881193 0.169131
0.548211 0.881148 0.16907
0.548989 0.881071 0.168978
0.550317 0.880964 0.168856
0.552285 0.880842 0.168688
0.555032 0.880659 0.16846
0.558633 0.88043 0.16817
0.56286 0.880217 0.167926
0.568307 0.879881 0.167544
0.575006 0.879438 0.16701
0.582345 0.879088 0.166384
0.591257 0.878523 0.165621
0.600748 0.878035 0.165225
0.611734 0.877241 0.164584
0.624231 0.876371 0.164034
0.639139 0.875578 0.163714
0.656382 0.874693 0.163577
0.675593 0.873503 0.163546
0.69749 0.872679 0.163806
0.721889 0.871427 0.165072
0.748196 0.870771 0.167575
0.776028 0.870054 0.170336
0.805066 0.869963 0.17525
0.834333 0.870039 0.181003
0.864225 0.870466 0.188876
0.893187 0.871763 0.198489
0.921401 0.873686 0.209827
0.947341 0.876448 0.222431
0.971984 0.879591 0.236484
0.993957 0.883619 0.251484
1 0.887984 0.267506
0.592905 0.913588 0.213291
0.59292 0.913588 0.213291
0.593042 0.913573 0.213275
0.593378 0.913542 0.213245
0.594034 0.913497 0.213184
0.595102 0.913436 0.213107
0.596613 0.913344 0.213001
0.598444 0.913283 0.212955
0.601343 0.913069 0.212726
0.605035 0.91281 0.212436
0.60943 0.912352 0.211963
0.614267 0.911925 0.211566
0.620676 0.911452 0.21117
0.627924 0.910964 0.210803
0.63592 0.910445 0.210498
0.645151 0.909819 0.210117
0.655619 0.909194 0.209796
0.667979 0.908522 0.209216
0.682231 0.907393 0.208545
0.698894 0.906477 0.20856
0.717678 0.905516 0.208942
0.738079 0.904356 0.209705
0.761395 0.903441 0.210803
0.785611 0.902525 0.21326
0.812039 0.9019 0.217105
0.838666 0.901564 0.221775
0.865843 0.901473 0.227649
0.892256 0.901961 0.235721
0.918929 0.90309 0.245304
0.943862 0.904845 0.256153
0.967254 0.907012 0.268513
0.988678 0.909636 0.281529
1 0.912749 0.295811
0.635233 0.942123 0.25919
0.635248 0.942123 0.25919
0.635355 0.942107 0.259174
0.63563 0.942092 0.259144
0.636149 0.942061 0.259083
0.637018 0.941985 0.258991
0.6383 0.941894 0.258839
0.64007 0.941772 0.258625
0.642405 0.941588 0.258412
