public/textures/grade/Nikon/Parasitic-NLog.cube
TITLE "Generated by Resolve"
LUT_3D_SIZE 9
0 0.00817884 0
0 0.00852979 0
0.145205 0 0
0.353506 0 0
0.538384 0.016556 0
0.711971 0.0982071 0
0.884916 0.236316 0
1 0.411795 0.0378271
1 0.57435 0.13402
0 0.0243687 0
0 0.0244907 0
0.138369 0.0103304 0
0.347219 0.00489815 0
0.532967 0.0322118 0
0.709957 0.109163 0
0.883711 0.243107 0
1 0.415763 0.0377356
1 0.576425 0.134096
0 0.126085 0
0 0.125093 0
0.103151 0.119615 0
0.304585 0.111284 0
0.501976 0.123644 0
0.6981 0.17763 0
0.877501 0.288106 0
1 0.441382 0.0375525
1 0.58999 0.134874
0.0460212 0.287602 0
0.0565194 0.287663 0
0.124651 0.287037 0
0.272877 0.284581 0
0.462409 0.286503 0
0.670909 0.312398 0
0.859083 0.384482 0
1 0.500069 0.0387427
1 0.623178 0.137438
0.149218 0.47216 0
0.156008 0.472145 0
0.199649 0.471778 0
0.300404 0.47042 0
0.448173 0.469795 0
0.640238 0.478096 0
0.831189 0.514885 0
0.980117 0.58761 0.0487984
1 0.676905 0.146181
0.308705 0.671092 0
0.312428 0.670985 0
0.336767 0.669978 0
0.396094 0.668055 0
0.491539 0.665797 0
0.635019 0.664805 0
0.803769 0.675639 0.0195468
0.951095 0.70898 0.0861372
1 0.759365 0.173587
0.500816 0.845457 0.126558
0.502556 0.84535 0.126406
0.51397 0.844755 0.125582
0.543511 0.843107 0.123522
0.593668 0.840269 0.121157
0.679438 0.836393 0.121767
0.800336 0.835004 0.136263
0.925063 0.84268 0.17702
1 0.862181 0.242054
0.675044 0.967483 0.305516
0.675776 0.967422 0.305455
0.680415 0.967117 0.305241
0.693126 0.96582 0.304189
0.716548 0.964096 0.30309
0.760052 0.960998 0.301717
0.830747 0.95697 0.305364
0.918746 0.954818 0.323095
0.998138 0.958022 0.360143
0.801114 1 0.478676
0.801434 1 0.478645
0.803601 1 0.478462
0.809339 1 0.477974
0.819867 1 0.477287
0.840894 1 0.476158
0.878767 1 0.475837
0.933425 1 0.48127
0.990784 1 0.498161
0 0.00889601 0.0201419
0 0.0090486 0.0185092
0.145205 0 0
0.353994 0 0
0.539651 0.0180514 0
0.714656 0.0994583 0
0.887297 0.237201 0
1 0.411917 0.0480812
1 0.574166 0.141604
0 0.0245975 0.0139467
0 0.0249638 0.0123903
0.139788 0.0116274 0
0.348013 0.00668345 0
0.534203 0.0338598 0
0.712612 0.110399 0
0.886076 0.243977 0
1 0.415885 0.0478828
1 0.576242 0.141665
0 0.12639 0
0 0.125902 0
0.103075 0.121309 0
0.306294 0.112566 0
0.504128 0.125002 0
0.700557 0.178439 0
0.879545 0.288624 0
1 0.441169 0.0472725
1 0.589868 0.141894
0.0472877 0.288457 0
0.0575265 0.288472 0
0.125444 0.288228 0
0.273487 0.285908 0
0.463981 0.287541 0
0.673198 0.313069 0
0.860883 0.385016 0
1 0.500008 0.0484779
1 0.62298 0.144427
0.149706 0.472923 0
0.156207 0.472984 0
0.199908 0.472618 0
0.300481 0.471275 0
0.448539 0.470603 0
0.641199 0.478691 0
0.83238 0.515099 0
0.981155 0.587549 0.0570077
1 0.676692 0.152667
0.308522 0.671412 0.00622568
0.31223 0.67129 0.00582895
0.336522 0.670268 0.00314336
0.395819 0.668391 0
0.491295 0.666117 0
0.635035 0.665003 0
0.80412 0.675669 0.0278172
0.951598 0.708873 0.0927596
1 0.759106 0.179065
0.500404 0.845441 0.13434
0.502144 0.845335 0.134188
0.513558 0.844739 0.133303
0.543084 0.843091 0.131106
0.593332 0.840284 0.127962
0.679164 0.836408 0.128054
0.800198 0.834958 0.141909
0.925109 0.842542 0.182025
1 0.861967 0.246174
0.674784 0.967376 0.309804
0.675517 0.967315 0.309758
0.680156 0.96701 0.309514
0.692836 0.965728 0.308431
0.71635 0.964034 0.306691
0.759793 0.960906 0.305699
0.830488 0.956832 0.308995
0.918593 0.954711 0.32636
0.998108 0.957961 0.362448
0.800977 1 0.48098
0.801297 1 0.480949
0.803464 1 0.480751
0.809201 1 0.480262
0.81973 1 0.479545
0.840757 1 0.478355
0.87863 1 0.477928
0.933318 1 0.483207
0.990707 1 0.499596
0 0.0181735 0.182803
0 0.0183719 0.18143
0.104219 0.0132143 0.17055
0.33872 0.00280766 0.123186
0.539574 0.0298619 0.0742351
0.725673 0.107057 0.0536507
0.90071 0.240955 0.0665446
1 0.41236 0.115969
1 0.573205 0.190341
0 0.0351568 0.17258
0 0.0354467 0.171237
0.100282 0.0315557 0.161349
0.336248 0.0197299 0.115999
0.535668 0.0446479 0.0704967
0.724239 0.117647 0.0519722
0.899702 0.247486 0.0653697
1 0.415885 0.115785
1 0.57528 0.190249
0 0.129915 0.127687
0.0103304 0.13048 0.127398
0.0856947 0.133043 0.120928
0.316121 0.118349 0.0715953
0.513283 0.131991 0.0482948
0.713878 0.183917 0.039704
0.89247 0.291554 0.0596933
1 0.441352 0.113268
1 0.588815 0.190036
0.0561379 0.292531 0.0845655
0.0654307 0.292912 0.0834821
0.126741 0.294102 0.0731518
0.273335 0.292943 0.0415808
0.471962 0.292622 0.0164034
0.684749 0.316472 0.0180209
0.871656 0.386542 0.0488746
1 0.49984 0.11043
1 0.62179 0.190295
0.15201 0.47631 0.0597696
0.158556 0.476326 0.0587472
0.200214 0.476326 0.052018
0.299489 0.475364 0.0355688
0.449683 0.474205 0.0170138
0.646708 0.480751 0.015259
0.839368 0.515526 0.048188
0.987686 0.586954 0.112367
1 0.675471 0.194644
0.307149 0.672435 0.0856641
0.310842 0.672328 0.0852064
0.334936 0.671778 0.0823682
0.393729 0.670024 0.0747845
0.48896 0.667353 0.0646677
0.634745 0.666148 0.0612192
0.80621 0.675776 0.0826581
0.954467 0.707683 0.138109
1 0.757931 0.214649
0.498085 0.845273 0.184436
0.499809 0.845182 0.184222
0.511177 0.844602 0.182986
0.540291 0.842634 0.179538
0.590433 0.840055 0.174868
0.677073 0.83624 0.172198
0.798856 0.834195 0.180804
0.925338 0.841657 0.215488
1 0.860899 0.273396
0.673228 0.96669 0.337682
0.67393 0.966598 0.337575
0.678386 0.96611 0.337072
0.691112 0.965133 0.336019
0.714672 0.963394 0.334142
0.75819 0.960296 0.331777
0.828931 0.956039 0.333196
0.917617 0.95404 0.348013
0.997635 0.957229 0.380972
0.800122 1 0.496223
0.800443 1 0.496178
0.802625 1 0.495857
0.808347 1 0.495216
0.818891 1 0.494331
0.839902 1 0.49279
0.877806 1 0.491829
0.93257 1 0.495964
0.990021 1 0.511162
0 0.0496376 0.439261
0.00140383 0.0496529 0.437232
0.09131 0.0501717 0.425437
0.273686 0.0510262 0.397742
0.501564 0.0654459 0.350195
0.727596 0.126528 0.295369
0.918212 0.248631 0.265614
1 0.413092 0.270405
1 0.570611 0.305241
0 0.0646677 0.428168
0.00378424 0.064683 0.426215
0.0906386 0.0655222 0.414984
0.270832 0.0663005 0.390311
0.499916 0.0781415 0.345754
0.727031 0.136034 0.292439
0.917311 0.255238 0.263874
1 0.416892 0.269505
1 0.572671 0.304875
0.0134432 0.151217 0.368673
0.0250401 0.151781 0.367742
0.0970169 0.153903 0.361776
0.257374 0.154101 0.350927
0.494881 0.154009 0.319875
0.722972 0.196139 0.275364
0.910994 0.297063 0.252644
1 0.441505 0.263676
1 0.586023 0.302693
0.0750896 0.303227 0.315221
0.08336 0.303578 0.315175
0.134432 0.306081 0.313451
0.244404 0.311238 0.307301
0.487633 0.298161 0.256489
0.700618 0.321218 0.23328
0.890608 0.388571 0.228717
1 0.498802 0.251728
1 0.618799 0.29752
0.162631 0.479988 0.281224
0.168429 0.480095 0.280674
0.205432 0.480674 0.276402
0.295155 0.481758 0.261723
0.444907 0.480308 0.225116
0.655146 0.483406 0.197177
0.853437 0.515236 0.204913
1 0.584558 0.240085
1 0.672099 0.29369
0.307073 0.673198 0.26125
0.310536 0.673136 0.260639
0.333516 0.672587 0.256504
0.389929 0.671489 0.246052
0.483223 0.669154 0.228626
0.631907 0.667369 0.208179
0.809873 0.674891 0.209277
0.960754 0.705547 0.244144
1 0.754879 0.300633
0.493736 0.843824 0.301167
0.495445 0.843732 0.300862
0.506584 0.843214 0.298787
0.535058 0.84184 0.293782
0.585016 0.839139 0.286107
0.67187 0.835264 0.275685
0.796109 0.833021 0.273228
0.925139 0.839353 0.294682
1 0.858457 0.339681
0.669749 0.964614 0.406394
0.670329 0.964599 0.406332
0.674998 0.964279 0.405707
0.687541 0.963424 0.403754
0.710826 0.961517 0.400076
0.754467 0.958694 0.395727
0.825711 0.954467 0.39234
0.91519 0.952407 0.400992
0.99646 0.955444 0.426505
0.79823 1 0.534157
0.798535 1 0.534112
0.800702 1 0.533822
0.806394 1 0.533043
0.816739 1 0.531655
0.837827 1 0.529519
0.875807 1 0.52694
0.93051 1 0.528603
0.988495 1 0.539956
0.024918 0.111345 0.662135
0.0367285 0.111818 0.660365
0.107103 0.114611 0.649165
0.252125 0.120516 0.630304
0.447608 0.133913 0.609689
0.693568 0.174243 0.575143
0.914366 0.272526 0.526299
1 0.419776 0.489525
1 0.569406 0.477699
0.028397 0.123308 0.652903
0.0397498 0.123781 0.651255
0.109117 0.126329 0.641489
0.251484 0.13225 0.62501
0.446418 0.144259 0.606516
0.693126 0.182345 0.573495
0.913848 0.278187 0.524605
1 0.423285 0.488258
1 0.571283 0.477287
0.0509957 0.194675 0.607202
0.0603342 0.194919 0.606378
0.121096 0.197635 0.602914
0.251835 0.201846 0.596551
0.440345 0.20827 0.588739
0.689982 0.234073 0.560113
0.909773 0.315053 0.512764
1 0.44622 0.480171
1 0.58407 0.472724
0.101564 0.329992 0.556405
0.109087 0.330236 0.556313
0.155718 0.332052 0.554589
0.260609 0.335378 0.55079
0.426017 0.337041 0.546426
0.680781 0.342397 0.522866
0.896406 0.397787 0.482017
1 0.499916 0.459541
1 0.615839 0.462242
0.185077 0.491295 0.516548
0.190173 0.491417 0.516335
0.22417 0.492042 0.515206
0.301518 0.493172 0.510506
0.418204 0.496605 0.503288
0.667475 0.486397 0.455894
0.865995 0.516091 0.434287
1 0.582544 0.431128
1 0.667994 0.447517
0.318288 0.673426 0.485496
0.321492 0.673335 0.485206
0.342535 0.672984 0.483162
0.393118 0.672099 0.476051
0.477928 0.671183 0.460838
0.624491 0.669215 0.423651
0.813382 0.673823 0.397772
0.96846 0.701991 0.406332
1 0.750408 0.43473
0.492866 0.840711 0.473182
0.494484 0.84062 0.472877
0.505089 0.840146 0.470954
0.532525 0.838895 0.465476
0.580118 0.836759 0.455039
0.66508 0.833677 0.436454
0.791074 0.83093 0.417594
0.924529 0.836225 0.420294
1 0.854398 0.446571
0.666026 0.961486 0.51635
0.666728 0.96144 0.516213
0.671412 0.960952 0.515068
0.683513 0.960037 0.512566
0.706081 0.958572 0.508186
0.748867 0.955734 0.499718
0.820752 0.95172 0.490394
0.911421 0.949386 0.488685
0.994217 0.952377 0.503258
0.795575 1 0.599283
0.79588 1 0.599222
0.79794 1 0.598718
0.803204 1 0.597589
0.813764 1 0.595392
0.834806 1 0.591989
0.872526 1 0.587427
0.927413 1 0.584543
0.985916 1 0.590616
0.104387 0.22153 0.858045
0.112398 0.221912 0.857694
0.162737 0.22417 0.855787
0.272892 0.229419 0.85185
0.431235 0.239918 0.845762
0.647135 0.267491 0.832486
0.874525 0.335485 0.801846
1 0.449821 0.757382
1 0.578027 0.713985
0.106966 0.229679 0.855238
0.114504 0.23003 0.854917
0.163729 0.232044 0.85275
0.273854 0.237201 0.849943
0.431083 0.24712 0.843885
0.646342 0.273396 0.830869
0.873976 0.339727 0.800687
1 0.452781 0.756222
1 0.579736 0.713069
0.121447 0.280446 0.838193
0.128649 0.280751 0.838071
0.174777 0.282399 0.837354
0.278294 0.28629 0.83473
0.428702 0.293812 0.829892
0.640955 0.314061 0.820371
0.86981 0.369833 0.792203
1 0.472114 0.748425
1 0.591592 0.707835
0.160021 0.386114 0.804196
0.165469 0.38613 0.803861
0.203967 0.387366 0.802853
0.29279 0.389319 0.800107
0.427268 0.393057 0.796506
0.627985 0.402884 0.791882
0.858381 0.437964 0.770062
1 0.517845 0.729198
1 0.620005 0.69424
0.228611 0.522072 0.760037
0.232685 0.52221 0.759884
0.261906 0.522545 0.758572
0.330755 0.523033 0.754925
0.438239 0.524269 0.74966
0.60943 0.526299 0.745907
0.840955 0.537789 0.730709
1 0.590448 0.69485
1 0.668223 0.670283
0.347494 0.683253 0.717754
0.350301 0.683177 0.71754
0.368475 0.682475 0.715862
0.41387 0.681773 0.712581
0.487877 0.680507 0.706798
0.605234 0.6813 0.6972
0.819425 0.674739 0.661814
0.974777 0.700267 0.642084
1 0.746288 0.636484
0.506539 0.837903 0.687663
0.508003 0.837827 0.687495
0.517388 0.837308 0.686381
0.541924 0.835889 0.683207
0.584741 0.833921 0.67744
0.660883 0.831342 0.663874
0.782818 0.829694 0.630777
0.923186 0.83267 0.608255
1 0.849546 0.611811
0.667674 0.955749 0.679484
0.66833 0.955703 0.679347
0.672435 0.955489 0.678538
0.683635 0.954498 0.675822
0.704952 0.953155 0.670954
0.745251 0.950713 0.661265
0.814435 0.947784 0.644053
0.905303 0.945403 0.628244
0.99057 0.948028 0.627176
0.793942 1 0.706493
0.794232 1 0.706416
0.796246 1 0.705928
0.801328 1 0.704753
0.811322 1 0.702358
0.831418 1 0.697551
0.868177 1 0.689281
0.922606 1 0.679988
0.981521 1 0.677501
0.224979 0.38024 1
0.22977 0.380468 1
0.262654 0.381704 1
0.339467 0.384009 1
0.457084 0.3897 1
0.628885 0.404807 1
0.829297 0.444648 1
1 0.519738 0.982467
1 0.614557 0.944976
0.226749 0.384939 1
0.23154 0.385138 1
0.263905 0.385946 1
0.340169 0.388693 1
0.457206 0.393668 1
0.628214 0.408667 1
0.82855 0.447944 1
1 0.521981 0.981643
1 0.615991 0.944305
0.236484 0.415763 1
0.241245 0.415885 1
0.272053 0.416434 1
0.345266 0.418387 1
0.458198 0.422797 1
0.624994 0.434989 1
0.824216 0.468711 1
0.997101 0.536629 0.976181
1 0.625223 0.939834
0.262989 0.484703 1
0.267063 0.484611 1
0.294331 0.485145 1
0.35993 0.485893 0.998047
0.462791 0.488075 0.994385
0.618952 0.495705 0.990723
0.813977 0.518898 0.983886
0.988006 0.572244 0.962631
1 0.648905 0.928557
0.31252 0.582895 0.96759
0.315435 0.582986 0.967514
0.337667 0.58291 0.966339
0.391012 0.582605 0.963256
0.477684 0.582483 0.959106
0.614115 0.58497 0.9552
0.796414 0.596078 0.953155
0.971908 0.630243 0.938308
1 0.688167 0.908583
0.402396 0.711513 0.922637
0.404685 0.711437 0.922454
0.419547 0.710658 0.920897
0.45713 0.709789 0.918044
0.520272 0.708263 0.913451
0.624231 0.707317 0.90634
0.774487 0.709163 0.903883
0.946792 0.719631 0.897398
1 0.754543 0.873045
0.537392 0.843976 0.879957
0.538384 0.843976 0.879896
0.547051 0.843442 0.879011
0.568826 0.842237 0.876844
0.606409 0.840238 0.872938
0.673548 0.83769 0.866102
0.773144 0.836713 0.856764
0.922148 0.832776 0.837644
1 0.84744 0.821576
0.682521 0.951141 0.853803
0.683116 0.951095 0.853727
0.687266 0.950744 0.853208
0.697673 0.949996 0.851972
0.716731 0.948425 0.849393
0.753231 0.946227 0.844678
0.814282 0.943389 0.834623
0.898665 0.942443 0.810712
0.985824 0.944121 0.792874
0.799405 1 0.846525
0.79968 1 0.846464
0.801572 1 0.846067
0.806241 1 0.845136
0.815442 1 0.842939
0.833753 1 0.838865
0.867536 1 0.830121
0.918166 1 0.816342
0.975906 1 0.803311
0.378134 0.555901 1
0.381003 0.555901 1
0.400076 0.556069 1
0.446418 0.556344 1
0.522957 0.557855 1
0.645029 0.563027 1
0.804852 0.580667 1
0.959045 0.621347 1
1 0.68127 1
0.379019 0.558343 1
0.381888 0.558343 1
0.400854 0.558511 1
0.447303 0.558618 1
0.523217 0.560189 1
0.645258 0.565103 1
0.804456 0.582605 1
0.958526 0.622614 1
1 0.682292 1
0.384802 0.574334 1
0.38761 0.574319 1
0.406363 0.574258 1
0.450919 0.57435 1
0.525338 0.575296 1
0.644785 0.579446 1
0.801694 0.595178 1
0.955703 0.632502 1
1 0.688853 1
0.401358 0.612375 1
0.403555 0.612451 1
0.420081 0.611978 1
0.462181 0.611811 1
0.531029 0.611749 1
0.643763 0.614435 1
0.795499 0.626001 1
0.948226 0.656504 1
1 0.706081 1
0.431724 0.671992 1
0.433539 0.671916 1
0.447852 0.671427 1
0.484001 0.670863 1
0.544854 0.669886 1
0.646006 0.670466 1
0.787015 0.676677 1
0.935607 0.697688 1
1 0.735958 1
0.491325 0.760143 1
0.492943 0.760067 1
0.503624 0.759701 1
0.530831 0.758343 1
0.5776 0.756725 1
0.659541 0.755276 1
0.778973 0.75613 1
0.915755 0.765118 1
1 0.787869 1
0.58912 0.863539 1
0.589868 0.863508 1
0.596735 0.86305 1
0.614054 0.861997 1
0.644709 0.860059 1
0.700359 0.857618 1
0.787243 0.855467 1
0.895735 0.856825 1
1 0.863355 1
0.709331 0.955154 0.986145
0.70985 0.955108 0.986084
0.713375 0.954787 0.985611
0.722072 0.953902 0.984375
0.739025 0.95256 0.982361
0.771054 0.950103 0.978744
0.825986 0.947158 0.972686
0.898329 0.945647 0.965682
0.980316 0.945129 0.960388
0.814725 1 0.967224
0.814984 1 0.967193
0.816571 1 0.96701
0.821042 1 0.966476
0.829435 1 0.965454
0.846372 1 0.963104
0.877485 1 0.959228
0.922377 1 0.952743
0.972503 1 0.940322
0.526162 0.702998 1
0.527733 0.702968 1
0.537987 0.702831 1
0.564416 0.702083 1
0.610437 0.701701 1
0.689906 0.702251 1
0.805356 0.70808 1
0.93254 0.726146 1
1 0.759075 1
0.526665 0.704189 1
0.528222 0.704143 1
0.53846 0.704021 1
0.565042 0.703151 1
0.610513 0.702693 1
0.689967 0.703365 1
0.805219 0.709117 1
0.932265 0.727031 1
1 0.759747 1
0.530297 0.711772 1
0.531823 0.711742 1
0.541817 0.711604 1
0.56733 0.71133 1
0.612696 0.710475 1
0.689937 0.71075 1
0.804685 0.71603 1
0.930404 0.733028 1
1 0.764385 1
0.539666 0.731533 1
0.5411 0.731487 1
0.550484 0.731319 1
0.574411 0.73051 1
0.617227 0.72987 1
0.691814 0.729473 1
0.801968 0.733166 1
0.926162 0.747692 1
1 0.775814 1
0.557046 0.764401 1
0.558343 0.764355 1
0.566796 0.764141 1
0.589014 0.76347 1
0.627283 0.762417 1
0.696437 0.761334 1
0.799619 0.763165 1
0.919142 0.773678 1
1 0.796277 1
0.592874 0.819318 1
0.593912 0.819272 1
0.601114 0.818906 1
0.618769 0.817853 1
0.650645 0.816724 1
0.708904 0.814771 1
0.799741 0.814008 1
0.908263 0.818998 1
1 0.833478 1
0.657771 0.892683 1
0.658488 0.892622 1
0.663355 0.892226 1
0.675532 0.89131 1
0.698146 0.890089 1
0.740856 0.887755 1
0.810315 0.885237 1
0.899809 0.885634 1
0.985916 0.891325 1
0.746853 0.965698 1
0.747265 0.965652 1
0.750118 0.965408 1
0.757183 0.964889 1
0.770703 0.963882 1
0.797101 0.961791 1
0.842878 0.959075 1
0.906081 0.957229 1
0.97203 0.957855 1
0.834165 1 1
0.834379 1 1
0.835798 1 1
0.839551 1 1
0.84686 1 1
0.861875 1 1
0.889509 1 1
0.931228 1 1
0.977172 1 1
