public/textures/grade/Nikon/Parasitic-NLog.cube
TITLE "Generated by Resolve"
LUT_3D_SIZE 5
0 0.00817884 0
0.145205 0 0
0.538384 0.016556 0
0.884916 0.236316 0
1 0.57435 0.13402
0 0.126085 0
0.103151 0.119615 0
0.501976 0.123644 0
0.877501 0.288106 0
1 0.58999 0.134874
0.149218 0.47216 0
0.199649 0.471778 0
0.448173 0.469795 0
0.831189 0.514885 0
1 0.676905 0.146181
0.500816 0.845457 0.126558
0.51397 0.844755 0.125582
0.593668 0.840269 0.121157
0.800336 0.835004 0.136263
1 0.862181 0.242054
0.801114 1 0.478676
0.803601 1 0.478462
0.819867 1 0.477287
0.878767 1 0.475837
0.990784 1 0.498161
0 0.0181735 0.182803
0.104219 0.0132143 0.17055
0.539574 0.0298619 0.0742351
0.90071 0.240955 0.0665446
1 0.573205 0.190341
0 0.129915 0.127687
0.0856947 0.133043 0.120928
0.513283 0.131991 0.0482948
0.89247 0.291554 0.0596933
1 0.588815 0.190036
0.15201 0.47631 0.0597696
0.200214 0.476326 0.052018
0.449683 0.474205 0.0170138
0.839368 0.515526 0.048188
1 0.675471 0.194644
0.498085 0.845273 0.184436
0.511177 0.844602 0.182986
0.590433 0.840055 0.174868
0.798856 0.834195 0.180804
1 0.860899 0.273396
0.800122 1 0.496223
0.802625 1 0.495857
0.818891 1 0.494331
0.877806 1 0.491829
0.990021 1 0.511162
0.024918 0.111345 0.662135
0.107103 0.114611 0.649165
0.447608 0.133913 0.609689
0.914366 0.272526 0.526299
1 0.569406 0.477699
0.0509957 0.194675 0.607202
0.121096 0.197635 0.602914
0.440345 0.20827 0.588739
0.909773 0.315053 0.512764
1 0.58407 0.472724
0.185077 0.491295 0.516548
0.22417 0.492042 0.515206
0.418204 0.496605 0.503288
0.865995 0.516091 0.434287
1 0.667994 0.447517
0.492866 0.840711 0.473182
0.505089 0.840146 0.470954
0.580118 0.836759 0.455039
0.791074 0.83093 0.417594
1 0.854398 0.446571
0.795575 1 0.599283
0.79794 1 0.598718
0.813764 1 0.595392
0.872526 1 0.587427
0.985916 1 0.590616
0.224979 0.38024 1
0.262654 0.381704 1
0.457084 0.3897 1
0.829297 0.444648 1
1 0.614557 0.944976
0.236484 0.415763 1
0.272053 0.416434 1
0.458198 0.422797 1
0.824216 0.468711 1
1 0.625223 0.939834
0.31252 0.582895 0.96759
0.337667 0.58291 0.966339
0.477684 0.582483 0.959106
0.796414 0.596078 0.953155
1 0.688167 0.908583
0.537392 0.843976 0.879957
0.547051 0.843442 0.879011
0.606409 0.840238 0.872938
0.773144 0.836713 0.856764
1 0.84744 0.821576
0.799405 1 0.846525
0.801572 1 0.846067
0.815442 1 0.842939
0.867536 1 0.830121
0.975906 1 0.803311
0.526162 0.702998 1
0.537987 0.702831 1
0.610437 0.701701 1
0.805356 0.70808 1
1 0.759075 1
0.530297 0.711772 1
0.541817 0.711604 1
0.612696 0.710475 1
0.804685 0.71603 1
1 0.764385 1
0.557046 0.764401 1
0.566796 0.764141 1
0.627283 0.762417 1
0.799619 0.763165 1
1 0.796277 1
0.657771 0.892683 1
0.663355 0.892226 1
0.698146 0.890089 1
0.810315 0.885237 1
0.985916 0.891325 1
0.834165 1 1
0.835798 1 1
0.84686 1 1
0.889509 1 1
0.977172 1 1
