public/textures/grade/Canon/Gems-CLog2.cube
TITLE "Generated by Resolve"
LUT_3D_SIZE 33
0.00529488 0.0109865 0.0230106
0.0116274 0.0114595 0.0198978
0.0159915 0.0128786 0.0191806
0.0256199 0.0132906 0.0154574
0.0418555 0.0117189 0.0108797
0.0602579 0.0106966 0.00564584
0.084596 0.00953689 0
0.116686 0.00860609 0
0.154452 0.0109407 0
0.200488 0.0154421 0
0.256306 0.024445 0
0.321996 0.0402686 0
0.398917 0.0649577 0
0.479698 0.100893 0
0.52874 0.144396 0
0.486061 0.204913 0
0.362173 0.276097 0.199756
0.325689 0.325689 0.325689
0.35697 0.35697 0.35697
0.382818 0.382818 0.382818
0.403311 0.403311 0.403311
0.418952 0.418952 0.418952
0.434836 0.434836 0.434836
0.455528 0.455528 0.455528
0.472435 0.472435 0.472435
0.486046 0.486046 0.486046
0.496818 0.496818 0.496818
0.505394 0.505394 0.505394
0.512123 0.512123 0.512123
0.517418 0.517418 0.517418
0.521385 0.521385 0.521385
0.524529 0.524529 0.524529
0.52636 0.52636 0.52636
0 0.016968 0.0216983
0.00746166 0.0167544 0.0185092
0.0159457 0.0162661 0.0153201
0.0265049 0.0155947 0.0120394
0.0398108 0.0148165 0.00816358
0.0574807 0.0140688 0.00334173
0.0805829 0.0131075 0
0.112642 0.0125429 0
0.149523 0.0159304 0
0.195819 0.0207523 0
0.252628 0.0287327 0
0.319219 0.043061 0
0.39678 0.0669871 0
0.478264 0.103105 0
0.528511 0.146288 0
0.487114 0.206073 0
0.363348 0.276905 0.199695
0.326452 0.326452 0.326452
0.357595 0.357595 0.357595
0.38291 0.38291 0.38291
0.403372 0.403372 0.403372
0.418997 0.418997 0.418997
0.43473 0.43473 0.43473
0.455421 0.455421 0.455421
0.472328 0.472328 0.472328
0.485939 0.485939 0.485939
0.496712 0.496712 0.496712
0.505287 0.505287 0.505287
0.512001 0.512001 0.512001
0.517311 0.517311 0.517311
0.521263 0.521263 0.521263
0.524407 0.524407 0.524407
0.526238 0.526238 0.526238
0 0.0216068 0.0204166
0.00444038 0.020737 0.0172427
0.0106355 0.021149 0.0140688
0.0215152 0.0204166 0.0110933
0.035935 0.0194858 0.00656138
0.0542153 0.0184634 0.0011902
0.077348 0.0173342 0
0.10898 0.016434 0
0.146014 0.018555 0
0.19292 0.0224155 0
0.24979 0.0304723 0
0.316533 0.0449683 0
0.394263 0.0690013 0
0.475914 0.104601 0
0.528084 0.148043 0
0.488777 0.206943 0
0.365179 0.27744 0.19852
0.327001 0.327001 0.327001
0.35819 0.35819 0.35819
0.383398 0.383398 0.383398
0.403433 0.403433 0.403433
0.419043 0.419043 0.419043
0.434623 0.434623 0.434623
0.455314 0.455314 0.455314
0.472221 0.472221 0.472221
0.485832 0.485832 0.485832
0.49662 0.49662 0.49662
0.50518 0.50518 0.50518
0.511894 0.511894 0.511894
0.517189 0.517189 0.517189
0.521157 0.521157 0.521157
0.5243 0.5243 0.5243
0.526131 0.526131 0.526131
0 0.0269169 0.0193637
0 0.026978 0.0164797
0.00456245 0.0275883 0.0132143
0.0144656 0.0269474 0.0110475
0.0290074 0.0261082 0.00608835
0.0479896 0.0249332 0.000183108
0.0717937 0.0233921 0
0.102998 0.0220188 0
0.142657 0.0215457 0
0.189166 0.0247501 0
0.245624 0.0325475 0
0.312413 0.0469978 0
0.390112 0.0708629 0
0.472541 0.106523 0
0.527321 0.150317 0
0.491386 0.208042 0
0.368765 0.277821 0.195193
0.327749 0.327749 0.327749
0.358862 0.358862 0.358862
0.384115 0.384115 0.384115
0.403876 0.403876 0.403876
0.419089 0.419089 0.419089
0.434501 0.434501 0.434501
0.455177 0.455177 0.455177
0.472084 0.472084 0.472084
0.48571 0.48571 0.48571
0.496513 0.496513 0.496513
0.505043 0.505043 0.505043
0.511757 0.511757 0.511757
0.517052 0.517052 0.517052
0.521019 0.521019 0.521019
0.524163 0.524163 0.524163
0.525994 0.525994 0.525994
0 0.0348211 0.0180514
0 0.0352789 0.0151827
0 0.035874 0.011841
0.00376898 0.0364691 0.00817884
0.0198215 0.0344091 0.00642405
0.0388647 0.0335088 0
0.0630808 0.0319066 0
0.0944839 0.0300908 0
0.134524 0.0288701 0
0.183215 0.0296178 0
0.240803 0.0354925 0
0.307256 0.0496223 0
0.384878 0.0733959 0
0.467582 0.1084 0
0.525856 0.153033 0
0.495872 0.208804 0
0.374792 0.277867 0.188586
0.328466 0.328466 0.328466
0.359533 0.359533 0.359533
0.384863 0.384863 0.384863
0.40473 0.40473 0.40473
0.419516 0.419516 0.419516
0.434333 0.434333 0.434333
0.455009 0.455009 0.455009
0.471916 0.471916 0.471916
0.485542 0.485542 0.485542
0.496345 0.496345 0.496345
0.504875 0.504875 0.504875
0.511589 0.511589 0.511589
0.516884 0.516884 0.516884
0.520836 0.520836 0.520836
0.52398 0.52398 0.52398
0.525811 0.525811 0.525811
0 0.0445258 0.0160678
0 0.0453803 0.0134432
0 0.0462348 0.0103304
0 0.0479744 0.00550851
0.00694286 0.0458991 0.00457771
0.027039 0.0440528 0.000122072
0.0513924 0.0428016 0
0.0825208 0.0408484 0
0.123613 0.0391394 0
0.173022 0.0391241 0
0.231998 0.0424506 0
0.300313 0.0528878 0
0.377432 0.0758526 0
0.460426 0.110079 0
0.522164 0.155169 0
0.501549 0.209567 0
0.383474 0.27747 0.178073
0.329076 0.329076 0.329076
0.360174 0.360174 0.360174
0.385595 0.385595 0.385595
0.406012 0.406012 0.406012
0.42153 0.42153 0.42153
0.435492 0.435492 0.435492
0.454795 0.454795 0.454795
0.471717 0.471717 0.471717
0.485344 0.485344 0.485344
0.496132 0.496132 0.496132
0.504662 0.504662 0.504662
0.51136 0.51136 0.51136
0.516655 0.516655 0.516655
0.520607 0.520607 0.520607
0.523751 0.523751 0.523751
0.525612 0.525612 0.525612
0 0.0568704 0.0138705
0 0.0578622 0.0113222
0 0.0588998 0.0084535
0 0.0606088 0.00410468
0 0.0614328 0
0.0115816 0.0580148 0
0.0364538 0.0564889 0
0.0671702 0.054902 0
0.108293 0.0527657 0
0.158618 0.0517586 0
0.218311 0.0538796 0
0.288319 0.0615244 0
0.368078 0.079469 0
0.45098 0.112001 0
0.514504 0.155444 0
0.508354 0.210086 0
0.395926 0.276158 0.16141
0.329473 0.329473 0.329473
0.360555 0.360555 0.360555
0.386801 0.386801 0.386801
0.409293 0.409293 0.409293
0.425849 0.425849 0.425849
0.43946 0.43946 0.43946
0.456291 0.456291 0.456291
0.471458 0.471458 0.471458
0.48513 0.48513 0.48513
0.495872 0.495872 0.495872
0.504387 0.504387 0.504387
0.511116 0.511116 0.511116
0.516381 0.516381 0.516381
0.520333 0.520333 0.520333
0.523476 0.523476 0.523476
0.525368 0.525368 0.525368
0 0.073228 0.011902
0 0.074464 0.00953689
0 0.0757305 0.00700389
0 0.0772259 0.00282292
0 0.0797894 0
0 0.0774243 0
0.0165713 0.0736858 0
0.0478065 0.0720226 0
0.0876631 0.0700236 0
0.139452 0.0684672 0
0.200305 0.0692607 0
0.27126 0.0749065 0
0.352728 0.0889754 0
0.438514 0.114199 0
0.504479 0.155917 0
0.515724 0.210437 0
0.412543 0.273899 0.137377
0.329473 0.329473 0.329473
0.360525 0.360525 0.360525
0.388525 0.388525 0.388525
0.4121 0.4121 0.4121
0.429648 0.429648 0.429648
0.443107 0.443107 0.443107
0.460914 0.460914 0.460914
0.473747 0.473747 0.473747
0.48481 0.48481 0.48481
0.495567 0.495567 0.495567
0.504067 0.504067 0.504067
0.510826 0.510826 0.510826
0.516045 0.516045 0.516045
0.519997 0.519997 0.519997
0.52314 0.52314 0.52314
0.525017 0.525017 0.525017
0 0.0964065 0.0122683
0 0.0979171 0.0103304
0 0.0991379 0.00799573
0 0.100771 0.00447089
0 0.102739 0
0 0.105821 0
0 0.100557 0
0.0238193 0.0958572 0
0.0626078 0.0935683 0
0.114427 0.0907759 0
0.176638 0.0894026 0
0.249073 0.0925307 0
0.331212 0.102541 0
0.421027 0.12166 0
0.490944 0.156268 0
0.510719 0.208606 0
0.43331 0.270726 0.104921
0.329061 0.329061 0.329061
0.360082 0.360082 0.360082
0.389731 0.389731 0.389731
0.413947 0.413947 0.413947
0.432853 0.432853 0.432853
0.446845 0.446845 0.446845
0.464622 0.464622 0.464622
0.479225 0.479225 0.479225
0.488777 0.488777 0.488777
0.495171 0.495171 0.495171
0.50367 0.50367 0.50367
0.510414 0.510414 0.510414
0.515633 0.515633 0.515633
0.519631 0.519631 0.519631
0.522713 0.522713 0.522713
0.524605 0.524605 0.524605
0 0.125444 0.0203861
0 0.126986 0.0187991
0 0.12813 0.0168002
0 0.12961 0.0137331
0 0.131228 0.00898756
0 0.133501 0.00181582
0 0.13576 0
0 0.129702 0
0.0344854 0.124239 0
0.083299 0.120562 0
0.147066 0.117433 0
0.221118 0.11632 0
0.30518 0.120806 0
0.397192 0.134417 0
0.476814 0.160815 0
0.503243 0.2065 0
0.45655 0.266865 0.0649882
0.340261 0.326314 0.310826
0.360418 0.360418 0.360418
0.390936 0.390936 0.390936
0.415869 0.415869 0.415869
0.43566 0.43566 0.43566
0.451057 0.451057 0.451057
0.466957 0.466957 0.466957
0.482719 0.482719 0.482719
0.494774 0.494774 0.494774
0.502083 0.502083 0.502083
0.504402 0.504402 0.504402
0.510063 0.510063 0.510063
0.515236 0.515236 0.515236
0.519219 0.519219 0.519219
0.522271 0.522271 0.522271
0.524132 0.524132 0.524132
0 0.160891 0.0381781
0 0.1626 0.0372473
0 0.16379 0.0357366
0 0.165255 0.0332494
0 0.166674 0.0292058
0 0.168505 0.0232548
0 0.170504 0.0136721
0 0.172808 6.10361e-05
0 0.16611 0.00254826
0.0495003 0.159075 0
0.111971 0.154269 0
0.187137 0.150866 0
0.272923 0.150118 0
0.367269 0.15613 0
0.459098 0.172976 0
0.500267 0.207233 0
0.473167 0.262486 0.0247959
0.366613 0.320867 0.268162
0.361135 0.361135 0.361135
0.391974 0.391974 0.391974
0.41799 0.41799 0.41799
0.438743 0.438743 0.438743
0.455238 0.455238 0.455238
0.468894 0.468894 0.468894
0.485344 0.485344 0.485344
0.498375 0.498375 0.498375
0.508156 0.508156 0.508156
0.514458 0.514458 0.514458
0.516136 0.516136 0.516136
0.515251 0.515251 0.515251
0.519219 0.519219 0.519219
0.522271 0.522271 0.522271
0.524132 0.524132 0.524132
0 0.202457 0.0671702
0 0.204211 0.066804
0 0.205814 0.066392
0 0.207446 0.0648203
0 0.208957 0.0616922
0 0.210605 0.0567178
0 0.212268 0.0488746
0 0.214084 0.0368811
0 0.216678 0.0191348
0.0061799 0.209171 0.0208591
0.0703441 0.200595 0.0148013
0.147692 0.194812 0
0.234211 0.191318 0
0.330327 0.191043 0
0.431617 0.198062 0
0.502434 0.21944 0
0.487694 0.260929 0
0.403265 0.315251 0.208515
0.361364 0.361364 0.361364
0.392615 0.392615 0.392615
0.419272 0.419272 0.419272
0.441123 0.441123 0.441123
0.458732 0.458732 0.458732
0.472694 0.472694 0.472694
0.487266 0.487266 0.487266
0.501076 0.501076 0.501076
0.511894 0.511894 0.511894
0.520088 0.520088 0.520088
0.525399 0.525399 0.525399
0.52784 0.52784 0.52784
0.526284 0.526284 0.526284
0.522271 0.522271 0.522271
0.524132 0.524132 0.524132
0 0.250553 0.109438
0 0.252552 0.110079
0 0.254383 0.110536
0 0.256046 0.10985
0 0.258076 0.108705
0 0.259815 0.105608
0 0.261662 0.100374
0 0.263203 0.0915847
0 0.264698 0.076997
0 0.266575 0.0552987
0.0187686 0.259724 0.0525368
0.102281 0.249409 0.0469673
0.191119 0.24271 0.0132906
0.288121 0.239322 0
0.392981 0.239521 0
0.491081 0.247974 0
0.526238 0.272862 0
0.470069 0.316503 0.115068
0.390249 0.363775 0.329915
0.396475 0.396475 0.396475
0.422461 0.422461 0.422461
0.444327 0.444327 0.444327
0.462562 0.462562 0.462562
0.477058 0.477058 0.477058
0.488701 0.488701 0.488701
0.5028 0.5028 0.5028
0.514244 0.514244 0.514244
0.523537 0.523537 0.523537
0.53048 0.53048 0.53048
0.535302 0.535302 0.535302
0.538094 0.538094 0.538094
0.538979 0.538979 0.538979
0.537118 0.537118 0.537118
0 0.304356 0.157336
0 0.306813 0.158984
0 0.308492 0.159457
0 0.310719 0.16025
0 0.312856 0.160082
0 0.315251 0.159396
0 0.31722 0.156603
0 0.319234 0.152087
0 0.320684 0.14406
0 0.321889 0.131533
0 0.322866 0.111177
0.0367895 0.317021 0.100954
0.143099 0.305516 0.0986343
0.242649 0.298222 0.0586709
0.347478 0.295293 0
0.458137 0.295857 0
0.544427 0.305303 0
0.550866 0.330816 0.00411994
0.482902 0.36965 0.212375
0.418311 0.408652 0.395666
0.434272 0.434272 0.434272
0.455299 0.455299 0.455299
0.473289 0.473289 0.473289
0.487755 0.487755 0.487755
0.499718 0.499718 0.499718
0.509911 0.509911 0.509911
0.51989 0.51989 0.51989
0.52813 0.52813 0.52813
0.534371 0.534371 0.534371
0.539574 0.539574 0.539574
0.543877 0.543877 0.543877
0.547066 0.547066 0.547066
0.548318 0.548318 0.548318
0 0.363272 0.210361
0 0.365789 0.212024
0 0.368048 0.213397
0 0.370504 0.214649
0 0.373068 0.215503
0 0.375769 0.21593
0 0.378485 0.215457
0 0.380697 0.213062
0 0.38262 0.20885
0 0.384268 0.201953
0 0.385046 0.190677
0.00791943 0.385199 0.17319
0.0702525 0.381018 0.157198
0.196002 0.367529 0.157824
0.302495 0.360327 0.123278
0.412558 0.358206 0.0498207
0.522728 0.359655 0
0.600504 0.368338 0
0.601984 0.390066 0.0592508
0.546853 0.421317 0.238682
0.491966 0.452674 0.397894
0.477226 0.477226 0.477226
0.494194 0.494194 0.494194
0.508431 0.508431 0.508431
0.520348 0.520348 0.520348
0.52987 0.52987 0.52987
0.537911 0.537911 0.537911
0.544625 0.544625 0.544625
0.549538 0.549538 0.549538
0.553185 0.553185 0.553185
0.555306 0.555306 0.555306
0.556832 0.556832 0.556832
0.556878 0.556878 0.556878
0 0.423117 0.267033
0 0.426398 0.269184
0 0.428809 0.270512
0 0.431968 0.272297
0 0.435401 0.273945
0 0.43888 0.275135
0 0.442344 0.275746
0 0.445838 0.275685
0 0.448325 0.273671
0 0.450248 0.269749
0 0.451759 0.263554
0.0265812 0.452094 0.253391
0.0624704 0.45127 0.237736
0.133669 0.448508 0.218326
0.261891 0.434562 0.221317
0.371405 0.428244 0.189517
0.479637 0.426886 0.133288
0.583368 0.428473 0.0633707
0.662303 0.435508 0.0239261
0.687877 0.451087 0.0728313
0.666789 0.473228 0.186099
0.629892 0.496895 0.308919
0.598657 0.518334 0.408606
0.576959 0.536919 0.483726
0.560342 0.551949 0.541009
0.562554 0.562554 0.562554
0.569894 0.569894 0.569894
0.575769 0.575769 0.575769
0.580072 0.580072 0.580072
0.582666 0.582666 0.582666
0.583856 0.583856 0.583856
0.584146 0.584146 0.584146
0.583093 0.583093 0.583093
0 0.483452 0.325628
0 0.487251 0.327962
0 0.490471 0.329946
0 0.493721 0.331548
0 0.49781 0.333684
0 0.501869 0.335256
0 0.506264 0.336751
0 0.510323 0.337346
0 0.514229 0.337285
0 0.516899 0.335363
0.0228428 0.518608 0.331594
0.0580148 0.519341 0.325292
0.0960708 0.518837 0.315694
0.137545 0.518273 0.29955
0.215213 0.515465 0.282353
0.339467 0.502541 0.285756
0.445533 0.498619 0.255558
0.545861 0.499077 0.213764
0.638178 0.501686 0.174197
0.716274 0.5075 0.138567
0.769635 0.516747 0.129137
0.796536 0.529107 0.149386
0.805997 0.543343 0.189334
0.805371 0.55697 0.235111
0.800397 0.569467 0.279561
0.794736 0.580575 0.31873
0.786435 0.590097 0.355184
0.771756 0.598169 0.393286
0.751064 0.605997 0.436133
0.727428 0.612543 0.478721
0.703212 0.617609 0.518151
0.678492 0.621561 0.555444
0.653605 0.623804 0.58912
0 0.544305 0.383597
0 0.547814 0.385565
0 0.55108 0.387396
0 0.554879 0.389471
0 0.55877 0.391302
0 0.5635 0.393545
0 0.568078 0.395239
0 0.573129 0.397055
0.0136721 0.577386 0.397711
0.0399176 0.58088 0.397314
0.0719921 0.583352 0.395697
0.106142 0.584802 0.392218
0.137041 0.584894 0.386267
0.172656 0.584497 0.37583
0.218784 0.585809 0.356268
0.313588 0.580194 0.348669
0.426307 0.569497 0.348821
0.521965 0.568933 0.320043
0.610208 0.570947 0.289998
0.686702 0.574777 0.267613
0.751598 0.581125 0.249317
0.804028 0.588235 0.237278
0.843229 0.596292 0.235599
0.872129 0.604639 0.240787
0.894148 0.612985 0.249912
0.910246 0.62002 0.259556
0.922698 0.626322 0.26949
0.93164 0.631251 0.278706
0.93785 0.635462 0.287938
0.94136 0.638544 0.296986
0.942443 0.640635 0.305455
0.941436 0.642008 0.313832
0.937118 0.64184 0.321691
0 0.6056 0.439261
0 0.609308 0.441413
0 0.612039 0.442847
0.00416571 0.615686 0.444907
0.0137636 0.619776 0.447089
0.0251011 0.623896 0.449088
0.0402991 0.628641 0.451301
0.0583352 0.633066 0.453071
0.081651 0.637583 0.454749
0.106752 0.641062 0.455421
0.13193 0.64361 0.455039
0.156695 0.645197 0.453117
0.181506 0.645716 0.449271
0.214862 0.646174 0.441627
0.257618 0.647425 0.427436
0.304509 0.652079 0.403571
0.421607 0.639902 0.412619
0.516381 0.634119 0.407858
0.598215 0.636851 0.380163
0.67039 0.640253 0.361898
0.731212 0.644999 0.350103
0.781735 0.650965 0.340902
0.822461 0.657832 0.335866
0.85536 0.664927 0.334157
0.881529 0.671534 0.334691
0.902068 0.677577 0.337087
0.919554 0.68333 0.339742
0.933776 0.687846 0.342199
0.945159 0.691264 0.344518
0.954284 0.69398 0.346853
0.961822 0.695766 0.348577
0.967803 0.696727 0.349554
0.97203 0.696178 0.348699
0.0591745 0.665568 0.491432
0.066804 0.668666 0.49337
0.0738079 0.67129 0.494987
0.0817884 0.673915 0.496468
0.0928511 0.677333 0.498527
0.105364 0.68098 0.500755
0.118624 0.684443 0.502724
0.134142 0.688319 0.504936
0.150393 0.691707 0.50663
0.167987 0.694743 0.507759
0.187182 0.697597 0.508522
0.206302 0.699229 0.507622
0.229801 0.700328 0.504494
0.261769 0.70132 0.497642
0.301427 0.70309 0.486061
0.345724 0.70721 0.467399
0.431601 0.702724 0.464927
0.525383 0.694972 0.469108
0.602075 0.694224 0.459586
0.669291 0.699596 0.433433
0.72488 0.703487 0.42649
0.771176 0.708537 0.421653
0.808377 0.714336 0.418982
0.838148 0.720424 0.418708
0.862165 0.726802 0.421225
0.882353 0.733074 0.424643
0.898207 0.738476 0.428748
0.911055 0.743435 0.433738
0.921248 0.747112 0.437827
0.929458 0.750362 0.442039
0.935958 0.752865 0.445594
0.941421 0.754635 0.448234
0.945083 0.754726 0.448112
0.142611 0.719356 0.539223
0.148409 0.721447 0.54078
0.153658 0.723323 0.542168
0.159915 0.725521 0.543832
0.166735 0.727703 0.545357
0.175448 0.730526 0.547417
0.185336 0.733486 0.549508
0.196292 0.7364 0.551385
0.20882 0.739422 0.553246
0.222293 0.742107 0.55462
0.236744 0.74432 0.555184
0.255528 0.746319 0.554314
0.280858 0.748394 0.551339
0.312459 0.750347 0.544976
0.349706 0.752743 0.534325
0.390478 0.756954 0.518166
0.458885 0.755932 0.511452
0.54757 0.747768 0.518364
0.619196 0.745098 0.515862
0.679118 0.747524 0.50399
0.730694 0.753597 0.484382
0.772168 0.757794 0.484993
0.805844 0.763409 0.487907
0.832853 0.769162 0.491844
0.854902 0.775097 0.496895
0.872358 0.780926 0.503456
0.886442 0.786679 0.511406
0.897368 0.791409 0.5187
0.906126 0.795789 0.526116
0.912902 0.799054 0.532021
0.91812 0.802045 0.537758
0.922469 0.804349 0.542443
0.925292 0.80528 0.544488
0.209751 0.764889 0.58233
0.213748 0.7664 0.583551
0.217182 0.76762 0.584497
0.221759 0.769284 0.585824
0.227237 0.771237 0.587396
0.233265 0.773129 0.5888
0.240879 0.775555 0.590646
0.249363 0.777996 0.592432
0.259205 0.780438 0.593973
0.271641 0.782742 0.594736
0.288167 0.785367 0.594781
0.308598 0.787594 0.593057
0.334371 0.789731 0.589105
0.365393 0.791974 0.582422
0.401251 0.795087 0.572198
0.438376 0.799573 0.557092
0.503578 0.797574 0.553231
0.582788 0.790311 0.56054
0.647608 0.787655 0.561746
0.701198 0.789227 0.557412
0.745785 0.793805 0.550958
0.783948 0.799985 0.544793
0.813779 0.805051 0.551888
0.838102 0.810819 0.559579
0.857481 0.816495 0.5682
0.872862 0.821927 0.577356
0.885115 0.827115 0.586908
0.894942 0.832166 0.596994
0.90248 0.836316 0.605585
0.908476 0.840101 0.613809
0.913024 0.843168 0.620645
0.91664 0.845563 0.626139
0.918868 0.84683 0.629206
0.263554 0.804868 0.620813
0.266804 0.805783 0.621637
0.269642 0.806592 0.622385
0.272938 0.80734 0.622995
0.277623 0.808362 0.623819
0.283772 0.809628 0.62472
0.290944 0.811353 0.625727
0.300313 0.813321 0.626535
0.312078 0.815442 0.627024
0.326665 0.817548 0.626703
0.34435 0.819532 0.625193
0.366506 0.82179 0.622675
0.392447 0.823911 0.618219
0.422644 0.826474 0.611673
0.456077 0.829877 0.602426
0.490394 0.834882 0.589609
0.55874 0.830091 0.594873
0.626734 0.824582 0.603616
0.683803 0.822828 0.608423
0.730816 0.824582 0.610132
0.769894 0.828656 0.610681
0.80267 0.834745 0.609094
0.829404 0.84065 0.613886
0.850721 0.845945 0.624537
0.867872 0.851408 0.635767
0.881483 0.856672 0.647028
0.892241 0.861524 0.657786
0.900755 0.866072 0.668223
0.907683 0.870451 0.678477
0.913024 0.873976 0.686915
0.917281 0.877211 0.694789
0.920653 0.879881 0.701381
0.922576 0.881285 0.704967
0.314565 0.838315 0.652399
0.318303 0.838788 0.652659
0.321859 0.839261 0.652934
0.326421 0.839826 0.653254
0.332158 0.840513 0.653574
0.338903 0.841093 0.65362
0.34815 0.841978 0.653849
0.359701 0.843061 0.654017
0.373465 0.843976 0.653605
0.390845 0.84535 0.653193
0.409781 0.847227 0.652033
0.431968 0.849256 0.649958
0.458167 0.851728 0.646799
0.486778 0.854582 0.641962
0.517906 0.858473 0.635203
0.552758 0.862882 0.62826
0.618326 0.856565 0.640009
0.67538 0.852659 0.6495
0.724117 0.852018 0.65687
0.764889 0.854353 0.662882
0.798428 0.858656 0.667552
0.825818 0.864012 0.672358
0.849607 0.870695 0.674067
0.868116 0.875685 0.686488
0.883085 0.880842 0.699046
0.895262 0.886061 0.711772
0.904753 0.890669 0.723095
0.912261 0.894881 0.733623
0.918502 0.89897 0.743893
0.923369 0.902373 0.752514
0.927321 0.905531 0.760571
0.930266 0.907973 0.766781
0.932021 0.909422 0.77055
0.381125 0.863478 0.679286
0.385443 0.863859 0.679652
0.389425 0.86421 0.679973
0.394263 0.86453 0.680171
0.400137 0.864881 0.680323
0.40795 0.865492 0.680735
0.417685 0.866178 0.681147
0.428946 0.866819 0.681163
0.443473 0.867842 0.681468
0.460273 0.868849 0.681239
0.480781 0.87039 0.681163
0.503532 0.872053 0.680293
0.528527 0.874784 0.678874
0.554803 0.877958 0.67602
0.582513 0.88217 0.672068
0.623621 0.882887 0.674846
0.677501 0.878691 0.686839
0.725078 0.876677 0.697398
0.765499 0.877119 0.706264
0.799435 0.87982 0.713588
0.828016 0.88423 0.720806
0.851652 0.889433 0.728695
0.871595 0.895308 0.735134
0.887816 0.900847 0.744015
0.900725 0.905684 0.756817
0.911498 0.910689 0.769894
0.919936 0.91516 0.781491
0.926619 0.919188 0.791943
0.932174 0.922957 0.80177
0.936461 0.92607 0.809873
0.940047 0.929 0.817517
0.942794 0.931289 0.823499
0.944411 0.932708 0.827207
0.458701 0.882933 0.706966
0.462409 0.883131 0.707179
0.466392 0.883421 0.707546
0.47129 0.883803 0.708034
0.477455 0.884276 0.708614
0.48513 0.884825 0.709255
0.494484 0.885496 0.709895
0.505043 0.886198 0.71046
0.518685 0.887221 0.711223
0.533944 0.888334 0.711727
0.552819 0.889921 0.712489
0.573495 0.891844 0.712917
0.597223 0.894514 0.713481
0.621759 0.897826 0.71313
0.646128 0.902266 0.711803
0.688396 0.90013 0.721111
0.731991 0.897688 0.732708
0.771496 0.897292 0.743908
0.804761 0.898787 0.753109
0.832914 0.901823 0.761349
0.856657 0.90602 0.769787
0.876829 0.911009 0.779141
0.89369 0.916426 0.788602
0.907958 0.922255 0.796155
0.919142 0.926879 0.808865
0.92813 0.931258 0.820645
0.935546 0.93547 0.831846
0.941558 0.939345 0.8421
0.946578 0.942962 0.851637
0.950439 0.945891 0.859327
0.953643 0.948562 0.866361
0.956222 0.950805 0.872251
0.957504 0.951904 0.875135
0.537942 0.898909 0.736233
0.541863 0.899229 0.736736
0.545403 0.89955 0.737224
0.54992 0.899916 0.737819
0.555535 0.900404 0.738582
0.562432 0.90103 0.739513
0.570123 0.901625 0.74023
0.580407 0.902571 0.741482
0.592645 0.903731 0.742901
0.606302 0.905028 0.744091
0.622522 0.906767 0.745708
0.640391 0.908766 0.746914
0.660899 0.911574 0.748699
0.682322 0.914992 0.750088
0.707927 0.917784 0.753567
0.746441 0.915618 0.765454
0.781064 0.914534 0.776013
0.812268 0.915022 0.785885
0.839887 0.917174 0.795453
0.863584 0.920638 0.804837
0.883604 0.924788 0.814054
0.900298 0.929366 0.823529
0.914549 0.934386 0.83415
0.926818 0.939895 0.842924
0.936507 0.944549 0.853681
0.944198 0.948608 0.864698
0.9505 0.952392 0.874846
0.95584 0.956054 0.88455
0.960128 0.959243 0.892989
0.963806 0.962234 0.900832
0.966613 0.964614 0.907088
0.968994 0.966751 0.912703
0.97026 0.96791 0.915724
0.613962 0.91313 0.767056
0.6168 0.913375 0.767437
0.619806 0.91368 0.767971
0.623514 0.914061 0.768658
0.628199 0.914565 0.769482
0.634134 0.915175 0.770443
0.641337 0.915984 0.771725
0.649348 0.916838 0.772915
0.659983 0.918074 0.774685
