public/textures/grade/Canon/Gems-CLog.cube
TITLE "Generated by Resolve"
LUT_3D_SIZE 9
0 0 0.00790417
0.0842756 0 0
0.29395 0.0163729 0
0.511559 0.124773 0
0.310201 0.310201 0.310201
0.388571 0.388571 0.388571
0.437049 0.437049 0.437049
0.490593 0.490593 0.490593
0.524132 0.524132 0.524132
0 0.05037 0.00968948
0.0307317 0.052842 0
0.257282 0.0528267 0
0.499229 0.140536 0
0.334462 0.309865 0.285237
0.390967 0.390967 0.390967
0.441077 0.441077 0.441077
0.490623 0.490623 0.490623
0.524132 0.524132 0.524132
0 0.174578 0.0492714
0 0.19353 0.0348058
0.130495 0.17731 0
0.4224 0.181903 0
0.438209 0.291081 0.118059
0.398642 0.398642 0.398642
0.459083 0.459083 0.459083
0.507912 0.507912 0.507912
0.541848 0.541848 0.541848
0 0.330816 0.180545
0 0.363531 0.202182
0 0.370428 0.163394
0.286671 0.345525 0.109148
0.574426 0.350423 0
0.501259 0.425055 0.317357
0.491081 0.491081 0.491081
0.534157 0.534157 0.534157
0.571221 0.571221 0.571221
0 0.475395 0.328023
0 0.538827 0.368536
0.0664073 0.555291 0.365087
0.191455 0.555596 0.325689
0.485573 0.536706 0.291203
0.715389 0.545449 0.20827
0.846204 0.571405 0.199039
0.900465 0.605783 0.258442
0.934707 0.641062 0.323079
0.00143435 0.630732 0.470665
0.130587 0.695537 0.51371
0.208453 0.710231 0.519905
0.302449 0.715084 0.502083
0.488121 0.711345 0.480461
0.684306 0.713161 0.445457
0.809583 0.727123 0.435752
0.888319 0.750576 0.450431
0.934249 0.778973 0.493675
0.21912 0.791348 0.608515
0.28986 0.813993 0.628809
0.35967 0.824292 0.627939
0.452918 0.832609 0.609598
0.600931 0.830594 0.605249
0.74342 0.828901 0.616327
0.833997 0.845029 0.622324
0.889677 0.8636 0.662104
0.924132 0.887495 0.719142
0.433234 0.888045 0.715694
0.520226 0.894896 0.728099
0.598123 0.901656 0.735668
0.674983 0.911971 0.739528
0.780545 0.909606 0.76759
0.85832 0.915816 0.7935
0.908995 0.929274 0.820768
0.943618 0.945983 0.858335
0.966461 0.963363 0.904143
0.757397 0.944869 0.85156
0.801785 0.951751 0.866178
0.841978 0.95906 0.880049
0.885954 0.965423 0.897993
0.931212 0.969863 0.922164
0.963058 0.978378 0.945388
0.985031 0.989136 0.971084
1 0.999664 1
1 1 1
0 0 0.142916
0.0322881 0.000442512 0.152102
0.278264 0.033875 0.0468757
0.534356 0.10135 0
0.321019 0.299718 0.282109
0.394263 0.394263 0.394263
0.447288 0.447288 0.447288
0.498451 0.498451 0.498451
0.532219 0.532219 0.532219
0 0.0469215 0.116762
0.0393683 0.0521553 0.0772412
0.25594 0.0622416 0.0065919
0.522637 0.13518 0
0.367208 0.307408 0.254185
0.403403 0.403403 0.403403
0.449821 0.449821 0.449821
0.496681 0.496681 0.496681
0.530434 0.530434 0.530434
0 0.17409 0.094728
0 0.191501 0.0841382
0.137499 0.179644 0.0229191
0.432212 0.186908 0
0.464042 0.294163 0.106203
0.408377 0.408377 0.408377
0.468849 0.468849 0.468849
0.514168 0.514168 0.514168
0.546548 0.546548 0.546548
0 0.327855 0.177783
0 0.359411 0.19913
0 0.367025 0.160403
0.286397 0.34226 0.103899
0.573297 0.347326 0
0.494026 0.423865 0.325078
0.489647 0.489647 0.489647
0.53283 0.53283 0.53283
0.56997 0.56997 0.56997
0 0.473854 0.326421
0 0.53579 0.366323
0.0622263 0.553277 0.363516
0.188769 0.553536 0.324147
0.484352 0.534646 0.288716
0.715541 0.543374 0.204654
0.845457 0.56968 0.196963
0.898085 0.60444 0.258808
0.93135 0.639994 0.324971
0 0.625086 0.466712
0.126085 0.693706 0.512261
0.206241 0.709178 0.51902
0.300252 0.714076 0.501534
0.486061 0.710506 0.479515
0.683604 0.712261 0.444404
0.809445 0.726192 0.434531
0.888472 0.749676 0.448981
0.9346 0.778119 0.492088
0.213489 0.788632 0.605982
0.287678 0.813443 0.628412
0.357397 0.823758 0.627756
0.451026 0.832135 0.609552
0.599084 0.83035 0.604562
0.742626 0.828504 0.615717
0.833616 0.844617 0.62153
0.889494 0.863218 0.661265
0.924041 0.887175 0.718395
0.428092 0.88748 0.714595
0.51696 0.894545 0.727504
0.595941 0.901335 0.73521
0.673564 0.91165 0.739147
0.779614 0.909422 0.76701
0.857801 0.915602 0.792996
0.908721 0.929076 0.82031
0.943435 0.945815 0.857893
0.966339 0.963226 0.903792
0.755093 0.944518 0.850797
0.800412 0.951507 0.86569
0.841108 0.958877 0.879728
0.88542 0.965423 0.89778
0.930938 0.969818 0.921996
0.962951 0.978332 0.945281
0.984985 0.98912 0.971038
1 0.999649 1
1 1 1
0 0 0.3785
0.0113222 0 0.376761
0.156222 0.025742 0.422583
0.452766 0.22533 0.297261
0.683024 0.256825 0.0937362
0.416083 0.416083 0.416083
0.469108 0.469108 0.469108
0.505913 0.505913 0.505913
0.54023 0.54023 0.54023
0 0.00717174 0.333715
0.00494392 0.0306249 0.331518
0.165194 0.0777752 0.366461
0.480507 0.20473 0.24448
0.672068 0.27332 0.0866255
0.425345 0.425345 0.425345
0.470665 0.470665 0.470665
0.504967 0.504967 0.504967
0.539239 0.539239 0.539239
0 0.160983 0.285649
0 0.178454 0.296605
0.152148 0.177615 0.225055
0.432944 0.198856 0.130648
0.672129 0.284474 0.0288243
0.44152 0.44152 0.44152
0.502846 0.502846 0.502846
0.538262 0.538262 0.538262
0.559686 0.559686 0.559686
0 0.333364 0.27715
0 0.361395 0.292866
0.0901045 0.370855 0.27277
0.304799 0.358022 0.220935
0.619455 0.364309 0.0573129
0.646387 0.439307 0.215137
0.526482 0.526482 0.526482
0.56968 0.56968 0.56968
0.600336 0.600336 0.600336
0 0.490288 0.357229
0 0.546715 0.395132
0.104738 0.565118 0.395789
0.222034 0.566461 0.361013
0.502892 0.550866 0.321843
0.734432 0.560327 0.243198
0.869688 0.585351 0.227771
0.927825 0.619532 0.278325
0.968551 0.651682 0.330159
0 0.61976 0.463142
0.119158 0.690944 0.510094
0.203464 0.70808 0.518227
0.297047 0.712627 0.500771
0.483055 0.7093 0.478126
0.682277 0.710903 0.443
0.809262 0.724834 0.432761
0.888701 0.748379 0.44686
0.935088 0.776913 0.489769
0.204776 0.784375 0.602014
0.283879 0.812299 0.627482
0.354025 0.823011 0.627588
0.448432 0.831403 0.609384
0.596704 0.829923 0.603555
0.741558 0.827924 0.614786
0.833005 0.844038 0.620371
0.88922 0.862654 0.66006
0.923919 0.886702 0.717311
0.420417 0.886656 0.712993
0.5122 0.894041 0.726635
0.592691 0.900893 0.734585
0.671534 0.911192 0.738613
0.778134 0.909194 0.766171
0.857038 0.915282 0.792264
0.908309 0.928786 0.819638
0.943191 0.945571 0.857252
0.966186 0.963027 0.903288
0.751659 0.944015 0.849622
0.798337 0.951171 0.865003
0.840101 0.958679 0.879408
0.884642 0.965423 0.897459
0.930541 0.969741 0.921752
0.962783 0.978271 0.945144
0.984939 0.98909 0.970977
1 0.999634 1
1 1 1
0 0 0.472236
0 0 0.519295
0.121889 0.011902 0.619547
0.336583 0.150759 0.706981
0.622675 0.410605 0.54197
0.934371 0.374884 0.361227
0.735546 0.483268 0.416526
0.555611 0.555611 0.555611
0.583749 0.583749 0.583749
0 0 0.497505
0 0.00561532 0.542809
0.140475 0.0500801 0.61799
0.349004 0.184482 0.681926
0.640208 0.409964 0.524498
0.930053 0.379278 0.349248
0.68397 0.490669 0.431388
0.550454 0.550454 0.550454
0.579126 0.579126 0.579126
0 0.0706188 0.479255
0 0.113497 0.523033
0.105226 0.152728 0.52871
0.322606 0.224811 0.573861
0.641657 0.384054 0.45272
0.922393 0.39855 0.324254
0.818036 0.501564 0.401572
0.658015 0.581048 0.549493
0.597635 0.597635 0.597635
0 0.222339 0.291203
0 0.315923 0.436942
0 0.360021 0.500221
0.317571 0.353033 0.41767
0.622309 0.37293 0.325628
0.865324 0.422385 0.257191
0.895079 0.499825 0.321187
0.848676 0.568689 0.439246
0.834455 0.613382 0.51928
0 0.473503 0.422995
0.00289921 0.543114 0.474525
0.183734 0.563485 0.481559
0.276555 0.565469 0.456199
0.51133 0.559564 0.405554
0.761593 0.569543 0.331899
0.915358 0.595743 0.314748
0.994415 0.629419 0.351965
1 0.661311 0.404654
0.0495155 0.653773 0.521843
0.180407 0.711055 0.563897
0.25124 0.729671 0.572824
0.341024 0.735866 0.556924
0.504356 0.738735 0.52462
0.708888 0.73669 0.498741
0.836271 0.751385 0.499062
0.909865 0.774166 0.528313
0.94995 0.802518 0.582971
0.189929 0.776837 0.595056
0.277363 0.810208 0.625711
0.348196 0.821683 0.627161
0.443687 0.830198 0.609323
0.591989 0.829328 0.601862
0.739651 0.826902 0.613184
0.832013 0.843015 0.618387
0.888762 0.861692 0.657984
0.923659 0.885893 0.715434
0.407462 0.885237 0.710292
0.50457 0.893324 0.725444
0.58703 0.900099 0.733471
0.667964 0.910399 0.737682
0.775708 0.908888 0.76492
0.855711 0.914748 0.791012
0.907637 0.928328 0.818586
0.942733 0.945129 0.856138
0.965972 0.962753 0.902602
0.745434 0.943114 0.847532
0.794919 0.950622 0.863905
0.838178 0.958328 0.878828
0.883116 0.965393 0.896742
0.929824 0.969619 0.921324
0.962509 0.97818 0.9449
0.984863 0.989044 0.970855
1 0.999603 1
1 1 1
0 0 0.0691386
0 0 0.113008
0.0397803 0.0311589 0.335271
0.214572 0.0993362 0.575189
0.531518 0.317433 0.912566
0.746471 0.546166 0.742123
0.986587 0.53785 0.642557
1 0.512963 0.55761
1 0.545403 0.553704
0 0 0.102022
0 0 0.152728
0.0486458 0.0395972 0.383688
0.226535 0.105531 0.608591
0.537118 0.324422 0.905638
0.750668 0.545693 0.732494
0.995544 0.531106 0.630915
1 0.508141 0.545647
1 0.545693 0.547662
0 0.042649 0.283055
0 0.0731823 0.374487
0.0573434 0.130892 0.627115
0.287449 0.191852 0.791775
0.538247 0.364736 0.861051
0.768368 0.555611 0.725505
1 0.558114 0.644251
1 0.540764 0.575936
1 0.550134 0.547387
0.104311 0.128176 0.150072
0.0720226 0.192218 0.308782
0.021149 0.289906 0.669184
0.283101 0.329137 0.711879
0.506188 0.403174 0.750774
0.745174 0.545861 0.648066
0.99881 0.544991 0.585458
1 0.563241 0.563439
1 0.594003 0.586572
0.300267 0.300267 0.300267
0.23888 0.399435 0.433661
0.061326 0.538033 0.668742
0.226062 0.562493 0.706386
0.527611 0.560281 0.618647
0.767498 0.579889 0.558694
0.930098 0.608316 0.539101
1 0.640909 0.551461
1 0.674052 0.58938
0.238087 0.538186 0.527031
0.149874 0.657908 0.638209
0.166506 0.732494 0.702388
0.335424 0.740337 0.696635
0.536324 0.738033 0.654429
0.71635 0.743664 0.628412
0.855085 0.759106 0.619089
0.932052 0.783505 0.645472
0.971054 0.813123 0.69276
0.26772 0.782254 0.670619
0.365286 0.824277 0.727703
0.439506 0.838178 0.741222
0.532784 0.846876 0.734646
0.638819 0.858381 0.715496
0.774243 0.858564 0.729641
0.863478 0.872877 0.740826
0.915648 0.89099 0.777478
0.946227 0.914 0.824872
0.382849 0.882246 0.704723
0.489342 0.891783 0.722774
0.577386 0.898878 0.731792
0.661753 0.909056 0.735988
0.771374 0.908354 0.762737
0.853391 0.913817 0.78883
0.90663 0.927642 0.817044
0.941955 0.944381 0.854185
0.965576 0.962264 0.901335
0.734447 0.941558 0.843885
0.788632 0.94963 0.861921
0.83415 0.957534 0.877363
0.880323 0.965301 0.895384
0.928603 0.969406 0.920577
0.962036 0.977996 0.944472
0.98471 0.988952 0.970657
1 0.999542 1
1 1 1
0 0 0
0 0 0
0.0356603 0.0356603 0.0356603
0.183261 0.141955 0.384009
0.359014 0.24889 0.636973
0.693111 0.461357 1
0.827344 0.611933 0.874113
0.966171 0.661814 0.836805
1 0.674678 0.823697
0 0 0
0 0 0
0.0364996 0.0364996 0.0364996
0.186282 0.142794 0.39408
0.364004 0.250019 0.650797
0.694682 0.463523 1
0.828229 0.612894 0.869963
0.968353 0.660334 0.832837
1 0.672465 0.819577
0.0311284 0.0311284 0.0311284
0.0385901 0.0385901 0.0385901
0.0921187 0.11339 0.248814
0.251087 0.198871 0.687892
0.43563 0.2907 0.856565
0.713649 0.499687 1
0.84831 0.639475 0.88455
0.969284 0.667536 0.836027
1 0.669337 0.814115
0.117067 0.124743 0.136034
0.122011 0.14406 0.176852
0.113741 0.24387 0.502647
0.253101 0.304967 0.843641
0.465934 0.352499 0.945937
0.696422 0.52398 0.949248
0.842039 0.658869 0.858961
0.969055 0.694224 0.837568
1 0.711925 0.843076
0.235431 0.235431 0.235431
0.270909 0.270909 0.270909
0.378622 0.378622 0.378622
0.241093 0.512657 0.876493
0.510231 0.544793 0.826932
0.680003 0.601877 0.845792
0.818326 0.68423 0.786557
0.94197 0.710338 0.775326
1 0.735515 0.792309
0.444358 0.482094 0.489143
0.33785 0.583215 0.634241
0.226246 0.7122 0.842161
0.322042 0.740383 0.878126
0.530922 0.742596 0.841413
0.731746 0.750118 0.781888
0.861845 0.769528 0.762432
0.937484 0.793591 0.772625
0.97464 0.823423 0.802045
0.476219 0.644144 0.649531
0.312154 0.780621 0.803632
0.316899 0.852155 0.883803
0.469963 0.864637 0.8822
0.637598 0.866667 0.859251
0.789899 0.869169 0.834058
0.874403 0.882887 0.838804
0.9281 0.900801 0.85626
0.957458 0.922866 0.886915
0.337652 0.889632 0.871855
0.508003 0.915251 0.902266
0.631083 0.923583 0.906661
0.745998 0.927749 0.9028
0.836469 0.934112 0.898085
0.890761 0.94786 0.902327
0.939971 0.955703 0.92314
0.968429 0.969757 0.94435
0.986618 0.98468 0.971359
0.733272 0.941619 0.849989
0.79469 0.950927 0.870924
0.843702 0.959518 0.888151
0.888151 0.968902 0.90518
0.936431 0.973281 0.931121
0.968215 0.981765 0.954421
0.989334 0.992416 0.979583
1 1 1
1 1 1
0 0 0
0 0 0
0.0142367 0.0142367 0.0142367
0.122591 0.122591 0.122591
0.279713 0.24744 0.379019
0.607126 0.399908 1
0.816587 0.574472 1
0.920913 0.684672 1
0.98233 0.736385 0.978469
0 0 0
0 0 0
0.0151217 0.0151217 0.0151217
0.123995 0.123995 0.123995
0.280293 0.247578 0.380545
0.608728 0.400565 1
0.816861 0.575051 1
0.920974 0.684932 1
0.982513 0.736309 0.976989
0 0 0
0 0 0
0.0487831 0.0487831 0.0487831
0.166888 0.160464 0.241794
0.316411 0.26743 0.474678
0.621561 0.411322 1
0.817273 0.575891 1
0.921141 0.685283 0.998856
0.982757 0.736217 0.974823
0.106004 0.106004 0.106004
0.105257 0.105257 0.105257
0.171801 0.189548 0.232929
0.238788 0.27396 0.701015
0.435981 0.336355 0.924788
0.662318 0.470832 1
0.831373 0.623346 1
0.920577 0.710521 0.990753
0.972717 0.749828 0.974472
0.229435 0.229435 0.229435
0.229038 0.229038 0.229038
0.344244 0.344244 0.344244
0.254887 0.477607 0.893019
0.490089 0.522866 0.948058
0.660792 0.571542 0.989197
0.80029 0.671031 0.958999
0.882521 0.742321 0.919722
0.935943 0.781476 0.921187
0.411566 0.411566 0.411566
0.411139 0.411139 0.411139
0.542245 0.542245 0.542245
0.320531 0.69279 0.944656
0.530709 0.721508 0.961181
0.725567 0.743709 0.886244
0.818235 0.779293 0.894484
0.878248 0.822812 0.873747
0.926635 0.848386 0.885222
0.319661 0.743618 0.8392
0.310018 0.775357 0.885817
0.378546 0.842176 0.972015
0.526665 0.857939 0.965911
0.674769 0.864698 0.938354
0.797223 0.87393 0.912459
0.883192 0.888609 0.898146
0.932723 0.907317 0.905653
0.960739 0.928786 0.925063
0.357427 0.882643 0.953811
0.511788 0.91078 0.976989
0.653819 0.924788 0.97351
0.753079 0.935058 0.966293
0.835096 0.943633 0.957534
0.900267 0.952911 0.953323
0.948791 0.962768 0.956283
0.974365 0.975372 0.969039
0.99118 0.989456 0.986145
0.759457 0.957351 0.978744
0.844511 0.96875 0.981704
0.895125 0.976898 0.983841
0.937102 0.984176 0.985992
0.972396 0.99115 0.989944
0.996475 0.99823 0.998596
1 1 1
1 1 1
1 1 1
0 0 0
0 0 0
0 0 0
0.0740673 0.0740673 0.0740673
0.262852 0.251713 0.305287
0.514839 0.392615 0.804425
0.796765 0.544076 1
0.91693 0.665171 1
0.978271 0.729442 1
0 0 0
0 0 0
0 0 0
0.0751202 0.0751202 0.0751202
0.263172 0.251926 0.305852
0.51606 0.392889 0.807492
0.797116 0.54435 1
0.916991 0.665324 1
0.978271 0.729519 1
0 0 0
0 0 0
0 0 0
0.0766461 0.0766461 0.0766461
0.263615 0.252232 0.306676
0.517815 0.393286 0.811902
0.797604 0.544762 1
0.917067 0.665537 1
0.978317 0.729625 1
0.0555581 0.0555581 0.0555581
0.0548409 0.0548409 0.0548409
0.0776837 0.0776837 0.0776837
0.196933 0.205402 0.306752
0.376364 0.309941 0.702678
0.597208 0.432837 1
0.807355 0.574411 1
0.919463 0.682857 1
0.982467 0.735637 1
0.21326 0.21326 0.21326
0.212955 0.212955 0.212955
0.259556 0.259556 0.259556
0.258274 0.414054 0.746471
0.458457 0.478248 1
0.642252 0.530556 1
0.796231 0.640497 1
0.887282 0.722316 1
0.941054 0.771267 1
0.382437 0.382437 0.382437
0.38204 0.38204 0.38204
0.457755 0.457755 0.457755
0.379629 0.637919 0.848936
0.52195 0.701762 1
0.715068 0.730343 0.945769
0.810941 0.765713 0.961059
0.874678 0.812345 0.943526
0.912108 0.849363 0.937072
0.619303 0.619303 0.619303
0.619058 0.619058 0.619058
0.388602 0.780224 0.932754
0.469886 0.846922 1
0.649729 0.858457 1
0.796765 0.869596 0.957961
0.882597 0.887892 0.9299
0.921675 0.910948 0.940673
0.948318 0.935836 0.948699
0.412894 0.886015 1
0.412726 0.885939 1
0.637629 0.916442 1
0.763806 0.931807 0.99118
0.849851 0.942946 0.978592
0.912596 0.95378 0.971023
0.953094 0.965698 0.971969
0.978149 0.978164 0.979568
0.993088 0.99205 0.993332
0.719844 0.946349 1
0.830961 0.962829 0.999512
0.907469 0.975967 0.99559
0.951904 0.985992 0.995514
0.983063 0.99443 0.997299
1 1 1
1 1 1
1 1 1
1 1 1
0 0 0
0 0 0
0 0 0
0.0205386 0.0205386 0.0205386
0.235355 0.235355 0.235355
0.429328 0.374121 0.571649
0.768963 0.526772 1
0.911818 0.652796 1
0.977615 0.723171 1
0 0 0
0 0 0
0 0 0
0.0213779 0.0213779 0.0213779
0.236347 0.236133 0.2374
0.430335 0.374578 0.573953
0.769268 0.52697 1
0.911879 0.652873 1
0.97763 0.723186 1
0 0 0
0 0 0
0 0 0
0.0225528 0.0225528 0.0225528
0.238193 0.237415 0.242054
0.4318 0.375219 0.577401
0.769696 0.52726 1
0.911986 0.652995 1
0.977661 0.723217 1
0 0 0
0 0 0
0 0 0
0.024506 0.024506 0.024506
0.241505 0.239826 0.249821
0.434287 0.376349 0.583108
0.770428 0.527749 1
0.912169 0.653193 1
0.977707 0.723278 1
0.152987 0.152987 0.152987
0.152331 0.152331 0.152331
0.151385 0.151385 0.151385
0.252354 0.257023 0.267216
0.388022 0.37641 0.91574
0.592096 0.453361 1
0.797787 0.594308 1
0.902296 0.692988 1
0.958892 0.744747 1
0.344671 0.344671 0.344671
0.344396 0.344396 0.344396
0.343908 0.343908 0.343908
0.492317 0.492317 0.492317
0.454932 0.654002 1
0.687968 0.692378 0.984024
0.798108 0.735058 1
0.87155 0.789151 0.985779
0.912398 0.829511 0.972168
0.59144 0.59144 0.59144
0.59118 0.59118 0.59118
0.590799 0.590799 0.590799
0.392187 0.811246 1
0.596078 0.845029 1
0.783642 0.859174 0.971984
0.876127 0.880308 0.94258
0.917418 0.90425 0.953445
0.945296 0.930312 0.958495
0.412329 0.880095 1
0.412192 0.880018 1
0.411994 0.879911 1
0.710277 0.923659 1
0.83006 0.939986 0.995911
0.90605 0.952499 0.983108
0.952407 0.965225 0.979065
0.97818 0.978653 0.982834
0.9935 0.993194 0.994446
0.7608 0.950713 1
0.7608 0.950713 1
0.859846 0.967285 1
0.950805 0.985733 0.999283
0.988998 0.996643 0.99971
1 1 1
1 1 1
1 1 1
1 1 1
