public/textures/grade/Canon/Gems-CLog.cube
TITLE "Generated by Resolve"
LUT_3D_SIZE 33
0 0 0.00790417
0 0 0.00790417
0.0153048 0.00030518 0
0.0470741 0 0
0.0842756 0 0
0.129824 0 0
0.18056 0.000167849 0
0.235233 0.00595102 0
0.29395 0.0163729 0
0.355886 0.0323186 0
0.420508 0.0548104 0
0.476234 0.0861982 0
0.511559 0.124773 0
0.512779 0.168963 0
0.472557 0.217929 0.00827039
0.386465 0.266773 0.160418
0.310201 0.310201 0.310201
0.333547 0.333547 0.333547
0.354482 0.354482 0.354482
0.372686 0.372686 0.372686
0.388571 0.388571 0.388571
0.402197 0.402197 0.402197
0.413855 0.413855 0.413855
0.423743 0.423743 0.423743
0.437049 0.437049 0.437049
0.451057 0.451057 0.451057
0.46569 0.46569 0.46569
0.478843 0.478843 0.478843
0.490593 0.490593 0.490593
0.50106 0.50106 0.50106
0.510201 0.510201 0.510201
0.518135 0.518135 0.518135
0.524132 0.524132 0.524132
0 9.15541e-05 0.00834669
0 0 0.0080415
0.0160067 0.000259403 0
0.0479591 0 0
0.0852827 0 0
0.130755 0 0
0.181476 0.000228885 0
0.236088 0.00605783 0
0.294743 0.016556 0
0.356619 0.0325322 0
0.421134 0.0550851 0
0.476661 0.0865187 0
0.511711 0.125093 0
0.512673 0.169207 0
0.472114 0.218219 0.00907912
0.386023 0.267018 0.161242
0.310307 0.310307 0.310307
0.333639 0.333639 0.333639
0.354543 0.354543 0.354543
0.372732 0.372732 0.372732
0.388602 0.388602 0.388602
0.402228 0.402228 0.402228
0.413886 0.413886 0.413886
0.423758 0.423758 0.423758
0.437064 0.437064 0.437064
0.451087 0.451087 0.451087
0.465705 0.465705 0.465705
0.478843 0.478843 0.478843
0.490608 0.490608 0.490608
0.501076 0.501076 0.501076
0.510201 0.510201 0.510201
0.518135 0.518135 0.518135
0.524132 0.524132 0.524132
0 0.013489 0.00831617
0 0.0131991 0.00828565
0.00277714 0.0126345 1.5259e-05
0.037232 0.0104067 0
0.0772564 0.00753796 0
0.125307 0.00584421 0
0.176226 0.00836194 0
0.231357 0.0146181 0
0.290593 0.0254215 0
0.352972 0.0415198 0
0.418204 0.0641031 0
0.475639 0.0948196 0
0.513451 0.131334 0
0.518059 0.173648 0
0.472679 0.220295 0.00944533
0.386481 0.268528 0.162661
0.311284 0.311284 0.311284
0.33434 0.33434 0.33434
0.354925 0.354925 0.354925
0.372854 0.372854 0.372854
0.388647 0.388647 0.388647
0.402243 0.402243 0.402243
0.413901 0.413901 0.413901
0.423758 0.423758 0.423758
0.437079 0.437079 0.437079
0.451102 0.451102 0.451102
0.465721 0.465721 0.465721
0.478859 0.478859 0.478859
0.490608 0.490608 0.490608
0.501076 0.501076 0.501076
0.510216 0.510216 0.510216
0.518135 0.518135 0.518135
0.524132 0.524132 0.524132
0 0.0305333 0.00917067
0 0.0301671 0.00888075
0 0.033051 0.000518807
0.0149996 0.0309911 0
0.0568856 0.0284733 0
0.106172 0.0254215 0
0.160235 0.0245518 0
0.218082 0.0268406 0
0.278264 0.0349584 0
0.340612 0.050782 0
0.406531 0.0733806 0
0.466621 0.1028 0
0.50956 0.137346 0
0.521737 0.17734 0
0.481544 0.221637 0
0.396826 0.268971 0.151186
0.317647 0.312047 0.306584
0.335851 0.335851 0.335851
0.356451 0.356451 0.356451
0.374441 0.374441 0.374441
0.390127 0.390127 0.390127
0.403433 0.403433 0.403433
0.414771 0.414771 0.414771
0.424155 0.424155 0.424155
0.43711 0.43711 0.43711
0.451118 0.451118 0.451118
0.465736 0.465736 0.465736
0.478874 0.478874 0.478874
0.490608 0.490608 0.490608
0.501076 0.501076 0.501076
0.510216 0.510216 0.510216
0.518135 0.518135 0.518135
0.524132 0.524132 0.524132
0 0.05037 0.00968948
0 0.0501411 0.0091249
0 0.0545357 0.00282292
0 0.0571756 0
0.0307317 0.052842 0
0.0788891 0.0501869 0
0.135286 0.0478523 0
0.194736 0.0482185 0
0.257282 0.0528267 0
0.322728 0.0626688 0
0.389761 0.0814527 0
0.451896 0.108431 0
0.499229 0.140536 0
0.519066 0.178164 0
0.495705 0.221088 0
0.416266 0.266758 0.1243
0.334462 0.309865 0.285237
0.336233 0.336233 0.336233
0.356939 0.356939 0.356939
0.375082 0.375082 0.375082
0.390967 0.390967 0.390967
0.405402 0.405402 0.405402
0.418341 0.418341 0.418341
0.429068 0.429068 0.429068
0.441077 0.441077 0.441077
0.455528 0.455528 0.455528
0.468009 0.468009 0.468009
0.478889 0.478889 0.478889
0.490623 0.490623 0.490623
0.501091 0.501091 0.501091
0.510216 0.510216 0.510216
0.518151 0.518151 0.518151
0.524132 0.524132 0.524132
0 0.0741741 0.0114443
0 0.0740673 0.0107271
0 0.0802167 0.00653086
0 0.0860761 0
0.000427253 0.0819409 0
0.0498512 0.077821 0
0.105089 0.074815 0
0.166476 0.0738384 0
0.230762 0.0763104 0
0.297505 0.0839551 0
0.367086 0.0965896 0
0.43415 0.114305 0
0.484977 0.143252 0
0.511757 0.178119 0
0.505318 0.219516 0
0.439567 0.263294 0.0885786
0.356771 0.305928 0.253391
0.335912 0.335912 0.335912
0.356588 0.356588 0.356588
0.375174 0.375174 0.375174
0.39382 0.39382 0.39382
0.409979 0.409979 0.409979
0.423911 0.423911 0.423911
0.435721 0.435721 0.435721
0.445808 0.445808 0.445808
0.461204 0.461204 0.461204
0.474678 0.474678 0.474678
0.486152 0.486152 0.486152
0.495232 0.495232 0.495232
0.502037 0.502037 0.502037
0.510231 0.510231 0.510231
0.518151 0.518151 0.518151
0.524132 0.524132 0.524132
0 0.105211 0.0177615
0 0.105394 0.0168765
0 0.112612 0.0151675
0 0.117662 0.00505074
0 0.12105 0
0.0183413 0.112673 0
0.0712749 0.108415 0
0.134173 0.105089 0
0.199908 0.103761 0
0.268177 0.106661 0
0.339147 0.11545 0
0.410101 0.12903 0
0.468437 0.148882 0
0.500832 0.178622 0
0.50338 0.216892 0
0.463615 0.25951 0.0476844
0.382086 0.301259 0.214679
0.335042 0.335042 0.335042
0.355749 0.355749 0.355749
0.377005 0.377005 0.377005
0.396216 0.396216 0.396216
0.413077 0.413077 0.413077
0.427817 0.427817 0.427817
0.440497 0.440497 0.440497
0.451225 0.451225 0.451225
0.464286 0.464286 0.464286
0.478508 0.478508 0.478508
0.490944 0.490944 0.490944
0.501839 0.501839 0.501839
0.510826 0.510826 0.510826
0.516976 0.516976 0.516976
0.519844 0.519844 0.519844
0.524132 0.524132 0.524132
0 0.138872 0.0301061
0 0.13933 0.0293126
0 0.147356 0.0303349
0 0.152651 0.0226902
0 0.156344 0.00666819
0 0.154009 0
0.0386969 0.146075 0
0.0990921 0.141451 0
0.165805 0.138247 0
0.235309 0.136721 0
0.307347 0.139178 0
0.380865 0.147066 0
0.448463 0.160998 0
0.491707 0.182925 0
0.49807 0.215122 0
0.47863 0.255222 0.00933852
0.41001 0.29604 0.168673
0.337377 0.333257 0.328542
0.356527 0.356527 0.356527
0.378225 0.378225 0.378225
0.397726 0.397726 0.397726
0.415061 0.415061 0.415061
0.430549 0.430549 0.430549
0.443992 0.443992 0.443992
0.455589 0.455589 0.455589
0.466072 0.466072 0.466072
0.48069 0.48069 0.48069
0.493782 0.493782 0.493782
0.505486 0.505486 0.505486
0.515831 0.515831 0.515831
0.524315 0.524315 0.524315
0.530465 0.530465 0.530465
0.53225 0.53225 0.53225
0 0.174578 0.0492714
0 0.17557 0.0488594
0 0.184451 0.0530556
0 0.190219 0.0481575
0 0.19353 0.0348058
0 0.196704 0.0141451
0 0.190463 0.011429
0.0621347 0.182391 0.00579843
0.130495 0.17731 0
0.200534 0.174166 0
0.273014 0.172503 0
0.348211 0.174868 0
0.4224 0.181903 0
0.480232 0.195956 0
0.504616 0.219394 0
0.481346 0.25214 0
0.438209 0.291081 0.118059
0.366827 0.327779 0.281361
0.356725 0.356725 0.356725
0.378653 0.378653 0.378653
0.398642 0.398642 0.398642
0.41651 0.41651 0.41651
0.432486 0.432486 0.432486
0.446647 0.446647 0.446647
0.459083 0.459083 0.459083
0.4701 0.4701 0.4701
0.482338 0.482338 0.482338
0.495644 0.495644 0.495644
0.507912 0.507912 0.507912
0.518898 0.518898 0.518898
0.528588 0.528588 0.528588
0.536614 0.536614 0.536614
0.541848 0.541848 0.541848
0 0.212009 0.0763714
0 0.213443 0.0764172
0 0.223667 0.0852827
0 0.229709 0.0827649
0 0.23357 0.0725567
0 0.236194 0.0557565
0 0.23859 0.0308843
0.02121 0.229572 0.032639
0.0919051 0.220951 0.0256657
0.164263 0.215793 0
0.23769 0.21297 0
0.313527 0.211353 0
0.39028 0.213077 0
0.461067 0.220096 0
0.507454 0.234379 0
0.511589 0.258167 0
0.471855 0.290593 0.0614176
0.413382 0.324987 0.21471
0.364157 0.357778 0.349874
0.379843 0.379843 0.379843
0.39971 0.39971 0.39971
0.417472 0.417472 0.417472
0.433921 0.433921 0.433921
0.448692 0.448692 0.448692
0.461479 0.461479 0.461479
0.473228 0.473228 0.473228
0.483879 0.483879 0.483879
0.497124 0.497124 0.497124
0.509606 0.509606 0.509606
0.521065 0.521065 0.521065
0.531594 0.531594 0.531594
0.54081 0.54081 0.54081
0.547616 0.547616 0.547616
0 0.25098 0.10985
0 0.253254 0.111269
0 0.26482 0.122042
0 0.271305 0.12224
0 0.275334 0.116258
0 0.278065 0.104982
0 0.279896 0.0865339
0 0.280613 0.0611276
0.0456703 0.270909 0.0627298
0.127306 0.262043 0.0560769
0.20209 0.256886 0.0247654
0.278233 0.2542 0
0.355413 0.252644 0
0.432563 0.25449 0
0.498207 0.260884 0
0.532845 0.275349 0
0.522255 0.29839 0
0.475349 0.327871 0.130663
0.421485 0.358572 0.276265
0.386099 0.386099 0.386099
0.405188 0.405188 0.405188
0.422477 0.422477 0.422477
0.438621 0.438621 0.438621
0.453422 0.453422 0.453422
0.466331 0.466331 0.466331
0.478492 0.478492 0.478492
0.489387 0.489387 0.489387
0.499947 0.499947 0.499947
0.512245 0.512245 0.512245
0.523537 0.523537 0.523537
0.533822 0.533822 0.533822
0.543557 0.543557 0.543557
0.55111 0.55111 0.55111
0 0.290913 0.144594
0 0.294682 0.148119
0 0.306706 0.159365
0 0.31426 0.16228
0 0.31873 0.159289
0 0.321584 0.152071
0 0.323369 0.140475
0 0.324804 0.123934
0 0.324651 0.101793
0.0793622 0.314565 0.10341
0.166384 0.304952 0.0969863
0.243671 0.300206 0.0615396
0.320241 0.298039 0.00961318
0.397681 0.296742 0
0.474723 0.29865 0
0.535378 0.304646 0
0.561273 0.3178 0
0.544213 0.338796 0.0374762
0.497871 0.364706 0.177783
0.449683 0.391867 0.312993
0.416205 0.416205 0.416205
0.433051 0.433051 0.433051
0.448493 0.448493 0.448493
0.463066 0.463066 0.463066
0.475898 0.475898 0.475898
0.488136 0.488136 0.488136
0.49929 0.49929 0.49929
0.5093 0.5093 0.5093
0.520272 0.520272 0.520272
0.531319 0.531319 0.531319
0.541329 0.541329 0.541329
0.550561 0.550561 0.550561
0.558068 0.558068 0.558068
0 0.330816 0.180545
0 0.336141 0.185458
0 0.34995 0.198108
0 0.358053 0.20238
0 0.363531 0.202182
0 0.367147 0.198337
0 0.369162 0.190738
0 0.370092 0.179263
0 0.370428 0.163394
0.0204166 0.370169 0.142519
0.122515 0.360067 0.146029
0.209918 0.350225 0.140902
0.286671 0.345525 0.109148
0.364523 0.343999 0.0536812
0.441688 0.342901 0.00387579
0.516869 0.344701 0
0.574426 0.350423 0
0.597818 0.361547 0
0.583383 0.379629 0.067277
0.543435 0.401663 0.194446
0.501259 0.425055 0.317357
0.466514 0.44686 0.41976
0.464256 0.464256 0.464256
0.47805 0.47805 0.47805
0.491081 0.491081 0.491081
0.502937 0.502937 0.502937
0.514168 0.514168 0.514168
0.52433 0.52433 0.52433
0.534157 0.534157 0.534157
0.545022 0.545022 0.545022
0.554696 0.554696 0.554696
0.56408 0.56408 0.56408
0.571221 0.571221 0.571221
0 0.369207 0.217624
0 0.376745 0.224292
0 0.392645 0.237888
0 0.402075 0.243091
0 0.408316 0.244282
0 0.412528 0.242634
0 0.415274 0.238117
0 0.416983 0.230945
0.000854505 0.417227 0.219974
0.0294957 0.416709 0.205097
0.0610056 0.41648 0.184451
0.171572 0.406134 0.189456
0.256901 0.397009 0.185458
0.333654 0.392966 0.156573
0.410437 0.391928 0.11046
0.48539 0.390997 0.0614786
0.557031 0.392416 0.00817884
0.613931 0.39733 0
0.642741 0.406455 0.00408942
0.639994 0.421073 0.0754101
0.613046 0.439048 0.178012
0.578912 0.458579 0.284611
0.548379 0.477638 0.37818
0.524712 0.495598 0.455573
0.511406 0.511406 0.511406
0.523201 0.523201 0.523201
0.534386 0.534386 0.534386
0.544823 0.544823 0.544823
0.55465 0.55465 0.55465
0.564782 0.564782 0.564782
0.574411 0.574411 0.574411
0.583947 0.583947 0.583947
0.591257 0.591257 0.591257
0 0.405295 0.254292
0 0.416281 0.263615
0 0.434211 0.277684
0 0.445457 0.284215
0 0.453407 0.287068
0 0.458625 0.286839
0 0.461769 0.284077
0 0.463645 0.279088
0.0153964 0.464424 0.271687
0.0469368 0.464515 0.262043
0.0780194 0.463478 0.248066
0.121767 0.463172 0.228168
0.22472 0.452628 0.233845
0.308186 0.443946 0.229435
0.383276 0.440833 0.202197
0.45771 0.440391 0.163561
0.528069 0.440009 0.128756
0.594903 0.441627 0.0842298
0.653239 0.445808 0.0472419
0.690852 0.45275 0.0444343
0.705867 0.463691 0.0786755
0.700221 0.47718 0.140887
0.682857 0.492668 0.217258
0.662211 0.508675 0.2934
0.643763 0.523781 0.359838
0.629862 0.538537 0.416709
0.618936 0.551965 0.464469
0.613382 0.564706 0.502373
0.609644 0.576242 0.534264
0.60763 0.587854 0.563455
0.601053 0.599832 0.598337
0.609857 0.609857 0.609857
0.617243 0.617243 0.617243
0 0.440452 0.29131
0 0.455299 0.303105
0 0.475837 0.318196
0 0.48809 0.32517
0 0.496986 0.328756
0 0.503243 0.32961
0 0.507286 0.328298
0.00479133 0.509438 0.324956
0.0365606 0.51043 0.319615
0.0685435 0.510445 0.312291
0.100618 0.509926 0.30309
0.134569 0.509682 0.288411
0.187472 0.508431 0.272633
0.282521 0.497871 0.27776
0.362127 0.490608 0.272755
0.433875 0.488777 0.246952
0.503929 0.489326 0.214923
0.569787 0.489586 0.189395
0.63151 0.491569 0.160082
0.68777 0.495521 0.132403
0.732143 0.500832 0.11577
0.763287 0.508659 0.116533
0.780407 0.517937 0.134691
0.787747 0.528954 0.166888
0.788678 0.540566 0.205463
0.78645 0.552316 0.245563
0.78555 0.564141 0.2822
0.784253 0.57525 0.316014
0.786404 0.586145 0.344259
0.789059 0.596201 0.368933
0.788373 0.607675 0.399069
0.789471 0.61828 0.424765
0.790372 0.6271 0.446143
0 0.475395 0.328023
0 0.494804 0.34255
0 0.51632 0.357229
0 0.52932 0.364523
0 0.538827 0.368536
0 0.545739 0.370184
0.00131228 0.550576 0.370031
0.0333104 0.553643 0.368429
0.0664073 0.555291 0.365087
0.0981918 0.555596 0.359792
0.125307 0.554849 0.352468
0.156558 0.554696 0.342306
0.191455 0.555596 0.325689
0.258015 0.552026 0.317586
0.345052 0.542779 0.322103
0.418433 0.537194 0.315602
0.485573 0.536706 0.291203
0.550423 0.537987 0.264622
0.610147 0.538888 0.245914
0.6654 0.541482 0.226139
0.715389 0.545449 0.20827
0.759075 0.550164 0.19408
0.795254 0.556497 0.188861
0.823636 0.563333 0.190524
0.846204 0.571405 0.199039
0.8636 0.579553 0.2112
0.877531 0.588037 0.226032
0.889921 0.597101 0.242481
0.900465 0.605783 0.258442
0.910811 0.614954 0.274952
0.919173 0.624231 0.29247
0.927871 0.633463 0.308858
0.934707 0.641062 0.323079
0 0.51046 0.363699
0 0.535195 0.381338
0 0.557 0.395483
0 0.570169 0.402792
0 0.580148 0.407401
0.00999466 0.587564 0.409842
0.0393072 0.592691 0.410468
0.0708324 0.59588 0.409628
0.102205 0.597681 0.407446
0.129595 0.598733 0.40412
0.153368 0.598489 0.398917
0.181491 0.598062 0.390448
0.21474 0.598703 0.377997
0.249516 0.601343 0.359655
0.331334 0.593683 0.362112
0.408988 0.586297 0.36492
0.476036 0.582605 0.356558
0.537285 0.583581 0.333852
0.595972 0.585626 0.312612
0.64889 0.587228 0.299321
0.697475 0.590585 0.286442
0.740719 0.594446 0.274662
0.779385 0.599084 0.265171
0.813642 0.604929 0.259709
0.84242 0.610986 0.258228
0.866789 0.617807 0.260822
0.887602 0.624994 0.266163
0.905547 0.632166 0.273091
0.921553 0.639994 0.281926
0.936248 0.647776 0.290867
0.949783 0.656046 0.300801
0.962539 0.664698 0.311604
0.972564 0.671443 0.320592
0 0.5467 0.398611
0 0.576074 0.418784
0 0.597742 0.432471
0.000274662 0.610559 0.439658
0.0262455 0.620096 0.444236
0.0547189 0.627405 0.447227
0.085893 0.632807 0.448859
0.114382 0.636057 0.448936
0.139223 0.638025 0.447684
0.16141 0.638849 0.444984
0.183413 0.639277 0.441321
0.210056 0.639216 0.434272
0.241215 0.639735 0.423865
0.275242 0.642069 0.40972
0.3252 0.642008 0.398825
0.405447 0.633295 0.405081
0.47393 0.628077 0.405219
0.533364 0.626566 0.395239
0.588266 0.628824 0.373953
0.639963 0.631373 0.35819
0.685985 0.633677 0.349218
0.727977 0.637522 0.34107
0.765332 0.641672 0.333761
0.798413 0.646418 0.328374
0.828046 0.652125 0.325536
0.853956 0.657816 0.324163
0.876692 0.664378 0.325826
0.896132 0.671016 0.329335
0.913863 0.677897 0.333913
0.930587 0.685496 0.339727
0.945098 0.692958 0.346944
0.957839 0.700862 0.356313
0.968246 0.707881 0.365896
0 0.586862 0.43418
0 0.618647 0.455802
0.0225681 0.638605 0.468391
0.0495308 0.650339 0.475181
0.0779126 0.659144 0.479942
0.106249 0.665614 0.48304
0.131075 0.670176 0.48484
0.153964 0.673472 0.485679
0.174762 0.675624 0.485237
0.1935 0.676692 0.483528
0.214588 0.677134 0.479912
0.241062 0.677913 0.474159
0.270741 0.678706 0.465187
0.302419 0.680568 0.45304
0.334707 0.684703 0.436561
0.409232 0.677546 0.441306
0.477562 0.671046 0.444938
0.536904 0.66836 0.442359
0.589288 0.668757 0.431281
0.638331 0.672572 0.410864
0.681987 0.674891 0.401114
0.721202 0.677638 0.395377
0.757061 0.681712 0.3906
0.78851 0.686091 0.386877
0.816449 0.69099 0.38471
0.841184 0.696712 0.384787
0.862486 0.702342 0.385916
0.88188 0.708736 0.388891
0.899718 0.715267 0.392599
0.915373 0.722271 0.398657
0.929305 0.729885 0.407431
0.941344 0.737926 0.418662
0.95024 0.744549 0.429175
0.00143435 0.630732 0.470665
0.0408331 0.661067 0.491508
0.0762646 0.678004 0.50251
0.105241 0.687922 0.508736
0.130587 0.695537 0.51371
0.152529 0.701106 0.516976
0.17261 0.705242 0.519066
0.191241 0.708202 0.520012
0.208453 0.710231 0.519905
0.22649 0.711757 0.518822
0.24802 0.712642 0.515328
0.273335 0.713512 0.509728
0.302449 0.715084 0.502083
0.332845 0.717128 0.491264
0.363256 0.720684 0.476875
0.421363 0.71812 0.47512
0.488121 0.711345 0.480461
0.54551 0.707347 0.48101
0.596277 0.706691 0.475898
0.641611 0.708537 0.464668
0.684306 0.713161 0.445457
0.721218 0.715557 0.441703
0.754192 0.718593 0.438712
0.783642 0.722774 0.436896
0.809583 0.727123 0.435752
0.832517 0.732128 0.43682
0.852949 0.737972 0.440223
0.871702 0.743938 0.444068
0.888319 0.750576 0.450431
0.902708 0.757122 0.458106
0.915084 0.764172 0.468086
0.925978 0.771908 0.480735
0.934249 0.778973 0.493675
0.0497292 0.674662 0.506355
0.0997635 0.701228 0.525246
0.133745 0.714702 0.535195
0.15613 0.722637 0.541039
0.175723 0.728832 0.545449
0.193622 0.733669 0.548592
0.210544 0.737575 0.550927
0.226307 0.740444 0.552178
0.241947 0.742382 0.552132
0.260792 0.743984 0.550469
0.283406 0.745754 0.547402
0.308354 0.747097 0.542062
0.335683 0.748623 0.534447
0.364935 0.751171 0.524727
0.393637 0.75462 0.511742
0.440818 0.753933 0.506432
0.50576 0.747662 0.513008
0.560952 0.743297 0.515343
0.60943 0.741863 0.513375
0.651942 0.74258 0.506477
0.690135 0.745251 0.49601
0.726146 0.750027 0.480629
0.75668 0.752697 0.480507
0.784009 0.756176 0.48101
0.808454 0.760616 0.483314
0.829709 0.76524 0.486473
0.848966 0.770565 0.490745
0.866285 0.776349 0.496834
0.881437 0.782422 0.504646
0.894774 0.788907 0.514412
0.906523 0.796124 0.526772
0.916548 0.803449 0.540505
0.923858 0.809812 0.553338
0.111727 0.71667 0.540825
0.15671 0.737118 0.557458
0.182467 0.747585 0.566018
0.200259 0.754177 0.571206
0.216754 0.759731 0.575463
0.231601 0.763973 0.57847
0.245655 0.767346 0.580575
0.260304 0.76997 0.581521
0.278019 0.772457 0.581262
0.297612 0.774334 0.579202
0.319738 0.775982 0.575494
0.344945 0.777905 0.570367
0.371542 0.779736 0.563012
0.399054 0.782177 0.553445
0.426734 0.786023 0.541543
0.470726 0.785275 0.536858
0.530312 0.778912 0.542794
0.582559 0.774868 0.546044
0.627604 0.772961 0.54548
0.667704 0.77348 0.542016
0.703334 0.775784 0.536248
0.734905 0.779187 0.529335
0.764584 0.783825 0.521187
0.789639 0.786862 0.524681
0.812024 0.790768 0.528954
0.832425 0.795727 0.534401
0.850172 0.800748 0.540749
0.865995 0.806149 0.548577
0.879927 0.811963 0.558099
0.891997 0.818021 0.568978
0.902785 0.824659 0.581979
0.912291 0.831937 0.597223
0.919402 0.838453 0.611627
0.169375 0.755337 0.57525
0.205066 0.770077 0.588388
0.226093 0.777951 0.595285
0.240665 0.783475 0.599832
0.25391 0.78793 0.603311
0.26659 0.791547 0.60592
0.281361 0.794919 0.607553
0.297719 0.797543 0.607691
0.31632 0.799756 0.606455
0.337133 0.801694 0.603845
0.360204 0.803677 0.599939
0.384314 0.805371 0.594202
0.410208 0.80763 0.586923
0.435981 0.810269 0.577462
0.461326 0.814054 0.566018
0.509316 0.811887 0.566506
0.563302 0.806394 0.572686
0.610559 0.802686 0.576577
0.652064 0.801129 0.578164
0.688411 0.801297 0.57731
0.721065 0.803464 0.575647
0.750088 0.806638 0.573312
0.776745 0.810971 0.568917
0.800641 0.815396 0.569467
0.821027 0.819074 0.575082
0.839185 0.823224 0.581643
0.855528 0.828214 0.590173
0.870008 0.833341 0.599588
0.882795 0.83888 0.610422
0.89427 0.845014 0.623194
0.904189 0.851179 0.636652
0.912963 0.857908 0.651942
0.919539 0.863859 0.665965
0.21912 0.791348 0.608515
0.24654 0.802304 0.618662
0.263523 0.80795 0.623865
0.27602 0.811322 0.626871
0.28986 0.813993 0.628809
0.305547 0.81706 0.630243
0.321889 0.819745 0.630518
0.339696 0.822034 0.629602
0.35967 0.824292 0.627939
0.380865 0.826108 0.624949
0.403647 0.82797 0.62092
0.42826 0.830259 0.616037
0.452918 0.832609 0.609598
0.477974 0.835782 0.601816
0.501717 0.839734 0.592187
0.552254 0.834958 0.59823
0.600931 0.830594 0.605249
0.64332 0.827665 0.610208
0.680705 0.82649 0.613397
0.714305 0.827146 0.615564
0.74342 0.828901 0.616327
0.769757 0.831937 0.617395
0.793011 0.835691 0.618235
0.814984 0.840833 0.615228
0.833997 0.845029 0.622324
0.850462 0.849088 0.630762
0.864912 0.853513 0.639963
0.878111 0.858488 0.650721
0.889677 0.8636 0.662104
0.900099 0.86923 0.674998
0.909453 0.875303 0.689342
0.917998 0.882033 0.705653
0.924132 0.887495 0.719142
0.263005 0.823301 0.638804
0.284291 0.830686 0.646036
0.300618 0.834501 0.649317
0.315496 0.836927 0.650828
0.331823 0.838926 0.651759
0.349523 0.840497 0.651911
0.368856 0.841932 0.651484
0.389715 0.84387 0.650904
0.410285 0.845899 0.649485
0.432441 0.84799 0.64741
0.454917 0.849973 0.64416
0.477867 0.85214 0.64004
0.501976 0.855009 0.63534
0.525261 0.858351 0.629267
0.554009 0.860349 0.625772
0.601373 0.855894 0.634409
0.643 0.852308 0.641306
0.680552 0.85034 0.647334
0.713405 0.849668 0.651774
0.74284 0.850431 0.655451
0.769558 0.852674 0.659327
0.79263 0.85565 0.662196
0.813321 0.859358 0.665217
0.832349 0.863767 0.667582
0.849561 0.868544 0.669703
0.864347 0.872511 0.679408
0.877729 0.876997 0.690242
0.88954 0.881636 0.701381
0.900069 0.88658 0.713405
0.90959 0.891905 0.726543
0.918074 0.89749 0.740414
0.925917 0.903655 0.755978
0.931807 0.908934 0.76939
0.304067 0.849577 0.664698
0.328099 0.854124 0.669215
0.348272 0.856657 0.671687
0.366354 0.858549 0.673381
0.384573 0.860029 0.674372
0.403693 0.861357 0.674876
0.42446 0.862776 0.675135
0.445441 0.864027 0.674662
0.467567 0.865507 0.673961
0.490089 0.867491 0.672969
0.511925 0.869749 0.671061
0.534585 0.87245 0.668818
0.556283 0.875319 0.665339
0.577569 0.878813 0.661219
0.611933 0.878141 0.664912
0.651713 0.874678 0.673228
0.688365 0.87248 0.681193
0.720516 0.871275 0.687648
0.749065 0.871275 0.693202
0.774945 0.872526 0.698573
0.797345 0.874662 0.702647
0.817792 0.877791 0.707347
0.836072 0.881422 0.712337
0.852461 0.885359 0.717845
0.868086 0.890379 0.72166
0.881163 0.894575 0.729091
0.892699 0.898512 0.739422
0.90341 0.903075 0.751232
0.912902 0.907805 0.763378
0.921492 0.912825 0.776272
0.929274 0.918074 0.789807
0.936507 0.923781 0.804578
0.941909 0.928588 0.817044
0.359609 0.870634 0.688853
0.388205 0.873655 0.693233
0.409934 0.875486 0.695766
0.42887 0.876997 0.697765
0.447837 0.878294 0.699168
0.467857 0.879728 0.700572
0.488334 0.881163 0.701656
0.508827 0.882567 0.702144
0.530373 0.88426 0.702632
