public/textures/grade/Canon/Gems-CLog3.cube
TITLE "Generated by Resolve"
LUT_3D_SIZE 33
0 0 0.00790417
0 0 0.00790417
0 0 0.00790417
6.10361e-05 0 0.00370794
0.0268406 0 0
0.0642557 0 0
0.108873 0 0
0.162768 0 0
0.225162 0.00462348 0
0.294301 0.0164492 0
0.370214 0.036759 0
0.447547 0.0677348 0
0.504326 0.113146 0
0.513115 0.168078 0
0.452293 0.230274 0.0437629
0.343481 0.290394 0.241535
0.328786 0.328786 0.328786
0.355291 0.355291 0.355291
0.377646 0.377646 0.377646
0.395941 0.395941 0.395941
0.410651 0.410651 0.410651
0.422431 0.422431 0.422431
0.436744 0.436744 0.436744
0.45182 0.45182 0.45182
0.466682 0.466682 0.466682
0.479362 0.479362 0.479362
0.490043 0.490043 0.490043
0.498924 0.498924 0.498924
0.506218 0.506218 0.506218
0.512291 0.512291 0.512291
0.517296 0.517296 0.517296
0.52134 0.52134 0.52134
0.524132 0.524132 0.524132
0 0 0.00790417
0 0 0.00790417
0 0 0.00790417
0.000350958 0 0.00392157
0.0282597 0 0
0.0656901 0 0
0.110262 0 0
0.164263 0 0
0.22652 0.00479133 0
0.295506 0.0167239 0
0.371084 0.0370336 0
0.448371 0.0681773 0
0.504692 0.113634 0
0.512932 0.168566 0
0.451698 0.230625 0.0448005
0.342947 0.2907 0.242588
0.328908 0.328908 0.328908
0.355383 0.355383 0.355383
0.377691 0.377691 0.377691
0.395987 0.395987 0.395987
0.410681 0.410681 0.410681
0.422446 0.422446 0.422446
0.436774 0.436774 0.436774
0.451835 0.451835 0.451835
0.466697 0.466697 0.466697
0.479362 0.479362 0.479362
0.490043 0.490043 0.490043
0.498924 0.498924 0.498924
0.506218 0.506218 0.506218
0.512306 0.512306 0.512306
0.517296 0.517296 0.517296
0.52134 0.52134 0.52134
0.524132 0.524132 0.524132
0 0 0.00790417
0 0 0.00790417
0 0 0.00790417
0.000656138 0 0.00402838
0.0294041 0 0
0.0666819 0 0
0.11133 0 0
0.165484 0 0
0.227634 0.00494392 0
0.296498 0.0169375 0
0.371756 0.0372625 0
0.449042 0.0685435 0
0.504982 0.114031 0
0.512795 0.168917 0
0.451118 0.230961 0.0458076
0.342519 0.290944 0.243427
0.329015 0.329015 0.329015
0.355459 0.355459 0.355459
0.377722 0.377722 0.377722
0.396017 0.396017 0.396017
0.410697 0.410697 0.410697
0.422461 0.422461 0.422461
0.43679 0.43679 0.43679
0.45185 0.45185 0.45185
0.466712 0.466712 0.466712
0.479377 0.479377 0.479377
0.490059 0.490059 0.490059
0.498939 0.498939 0.498939
0.506233 0.506233 0.506233
0.512306 0.512306 0.512306
0.517296 0.517296 0.517296
0.52134 0.52134 0.52134
0.524132 0.524132 0.524132
0 0.00588998 0.00758373
0 0.00553903 0.00756847
0 0.0052491 0.00758373
0 0.00419623 0.00343328
0.0266423 0.00283818 0
0.0644388 0.00155642 0
0.109804 0.00030518 0
0.164874 0.0018616 0
0.22742 0.00784314 0
0.296468 0.019852 0
0.371664 0.0397955 0
0.449226 0.070634 0
0.505394 0.115328 0
0.513054 0.169421 0
0.450645 0.23125 0.0466316
0.342153 0.291142 0.244129
0.329107 0.329107 0.329107
0.35552 0.35552 0.35552
0.377752 0.377752 0.377752
0.396048 0.396048 0.396048
0.410727 0.410727 0.410727
0.422477 0.422477 0.422477
0.436805 0.436805 0.436805
0.451865 0.451865 0.451865
0.466712 0.466712 0.466712
0.479393 0.479393 0.479393
0.490059 0.490059 0.490059
0.498939 0.498939 0.498939
0.506233 0.506233 0.506233
0.512306 0.512306 0.512306
0.517296 0.517296 0.517296
0.52134 0.52134 0.52134
0.524132 0.524132 0.524132
0 0.0231632 0.00909438
0 0.0225834 0.00907912
0 0.0221103 0.0090486
0 0.0220493 0.00511177
0.00607309 0.0221256 0
0.0481727 0.0195468 0
0.0958877 0.0162966 0
0.153643 0.0149233 0
0.217639 0.0187381 0
0.286961 0.0310979 0
0.362875 0.0515908 0
0.442588 0.0830549 0
0.504112 0.124849 0
0.520653 0.175723 0
0.455131 0.23386 0.0425422
0.345953 0.292866 0.243076
0.330663 0.330663 0.330663
0.35671 0.35671 0.35671
0.378561 0.378561 0.378561
0.396353 0.396353 0.396353
0.410742 0.410742 0.410742
0.422492 0.422492 0.422492
0.43682 0.43682 0.43682
0.451881 0.451881 0.451881
0.466728 0.466728 0.466728
0.479393 0.479393 0.479393
0.490074 0.490074 0.490074
0.498939 0.498939 0.498939
0.506233 0.506233 0.506233
0.512306 0.512306 0.512306
0.517296 0.517296 0.517296
0.52134 0.52134 0.52134
0.524132 0.524132 0.524132
0 0.0433967 0.00947585
0 0.0428321 0.00947585
0 0.042359 0.00947585
0 0.043061 0.00613413
0 0.0484779 0
0.0217288 0.0440375 0
0.069276 0.0413214 0
0.129549 0.0385595 0
0.196094 0.0391241 0
0.26894 0.0451667 0
0.346593 0.0608835 0
0.427344 0.0911574 0
0.493843 0.130007 0
0.520836 0.177935 0
0.470787 0.233494 0.0197452
0.362417 0.291554 0.223072
0.331701 0.331701 0.331701
0.357855 0.357855 0.357855
0.379889 0.379889 0.379889
0.398032 0.398032 0.398032
0.412436 0.412436 0.412436
0.423713 0.423713 0.423713
0.437018 0.437018 0.437018
0.451896 0.451896 0.451896
0.466743 0.466743 0.466743
0.479393 0.479393 0.479393
0.490074 0.490074 0.490074
0.498939 0.498939 0.498939
0.506233 0.506233 0.506233
0.512306 0.512306 0.512306
0.517311 0.517311 0.517311
0.52134 0.52134 0.52134
0.524132 0.524132 0.524132
0 0.0661631 0.0104372
0 0.0655375 0.0103761
0 0.0650339 0.0103304
0 0.0665751 0.00767529
0 0.0728771 0
0 0.073167 0
0.0402075 0.0686351 0
0.0991684 0.0661173 0
0.168017 0.0648508 0
0.242435 0.0681315 0
0.322728 0.0788586 0
0.40824 0.0985733 0
0.478813 0.133562 0
0.5149 0.17818 0
0.489158 0.231662 0
0.385443 0.288014 0.190555
0.331563 0.331563 0.331563
0.357748 0.357748 0.357748
0.37998 0.37998 0.37998
0.400885 0.400885 0.400885
0.417914 0.417914 0.417914
0.431037 0.431037 0.431037
0.442954 0.442954 0.442954
0.458167 0.458167 0.458167
0.469673 0.469673 0.469673
0.479408 0.479408 0.479408
0.490074 0.490074 0.490074
0.498939 0.498939 0.498939
0.506249 0.506249 0.506249
0.512306 0.512306 0.512306
0.517311 0.517311 0.517311
0.521355 0.521355 0.521355
0.524132 0.524132 0.524132
0 0.0985428 0.0161288
0 0.0979324 0.0159304
0 0.0973831 0.0157931
0 0.0997482 0.0140841
0 0.10692 0.00857557
0 0.112718 0
0.00564584 0.105821 0
0.0637522 0.100801 0
0.133745 0.097261 0
0.210498 0.0966201 0
0.292592 0.102785 0
0.380087 0.116884 0
0.459724 0.13991 0
0.503944 0.178378 0
0.498878 0.228733 0
0.41416 0.282933 0.145968
0.330739 0.330739 0.330739
0.357 0.357 0.357
0.382376 0.382376 0.382376
0.404501 0.404501 0.404501
0.422415 0.422415 0.422415
0.437064 0.437064 0.437064
0.448432 0.448432 0.448432
0.463523 0.463523 0.463523
0.477012 0.477012 0.477012
0.487404 0.487404 0.487404
0.493889 0.493889 0.493889
0.498955 0.498955 0.498955
0.506249 0.506249 0.506249
0.512306 0.512306 0.512306
0.517311 0.517311 0.517311
0.521355 0.521355 0.521355
0.524132 0.524132 0.524132
0 0.136172 0.0289311
0 0.135653 0.028687
0 0.135241 0.0285344
0 0.138552 0.0283665
0 0.14641 0.0258488
0 0.150912 0.0125734
0 0.153201 0
0.0257572 0.143771 0
0.093492 0.137896 0
0.172244 0.134142 0
0.256413 0.13344 0
0.3458 0.139437 0
0.434821 0.154742 0
0.492607 0.182223 0
0.496269 0.225422 0
0.444724 0.277623 0.0938277
0.347463 0.326741 0.303258
0.357443 0.357443 0.357443
0.383902 0.383902 0.383902
0.406836 0.406836 0.406836
0.425772 0.425772 0.425772
0.441505 0.441505 0.441505
0.454215 0.454215 0.454215
0.466316 0.466316 0.466316
0.480552 0.480552 0.480552
0.492653 0.492653 0.492653
0.502083 0.502083 0.502083
0.508461 0.508461 0.508461
0.510491 0.510491 0.510491
0.512322 0.512322 0.512322
0.517311 0.517311 0.517311
0.521355 0.521355 0.521355
0.524132 0.524132 0.524132
0 0.178088 0.0515145
0 0.177523 0.0511482
0 0.17705 0.0508431
0 0.181445 0.0528573
0 0.190112 0.0536965
0 0.19498 0.0440528
0 0.198154 0.0260014
0 0.196536 0.012253
0.0505074 0.186618 0.00914015
0.130327 0.17998 0
0.215686 0.176318 0
0.306859 0.17557 0
0.400992 0.181369 0
0.478843 0.197162 0
0.503914 0.22739 0
0.466361 0.272602 0.0433814
0.380072 0.320195 0.248951
0.357961 0.357961 0.357961
0.384771 0.384771 0.384771
0.40824 0.40824 0.40824
0.42797 0.42797 0.42797
0.444663 0.444663 0.444663
0.458595 0.458595 0.458595
0.4701 0.4701 0.4701
0.482826 0.482826 0.482826
0.495476 0.495476 0.495476
0.505974 0.505974 0.505974
0.514519 0.514519 0.514519
0.520455 0.520455 0.520455
0.523629 0.523629 0.523629
0.522087 0.522087 0.522087
0.521355 0.521355 0.521355
0.524132 0.524132 0.524132
0 0.223285 0.0862135
0 0.222782 0.085771
0 0.22237 0.08542
0 0.22829 0.0907149
0 0.237919 0.0953078
0 0.243122 0.0893568
0 0.24625 0.0753796
0 0.248585 0.0521401
0 0.24448 0.0399023
0.0829938 0.23386 0.0358587
0.171969 0.226764 0.00588998
0.26363 0.223133 0
0.35964 0.222827 0
0.453605 0.228504 0
0.514031 0.245121 0
0.505928 0.276448 0
0.440558 0.318242 0.162753
0.374594 0.358968 0.339345
0.386725 0.386725 0.386725
0.41001 0.41001 0.41001
0.429984 0.429984 0.429984
0.447211 0.447211 0.447211
0.461875 0.461875 0.461875
0.47425 0.47425 0.47425
0.484642 0.484642 0.484642
0.497398 0.497398 0.497398
0.508644 0.508644 0.508644
0.517876 0.517876 0.517876
0.525521 0.525521 0.525521
0.531167 0.531167 0.531167
0.534585 0.534585 0.534585
0.535271 0.535271 0.535271
0.53048 0.53048 0.53048
0 0.271519 0.127703
0 0.271092 0.127321
0 0.270726 0.127016
0 0.278264 0.134508
0 0.289113 0.141894
0 0.295201 0.140475
0 0.298894 0.133257
0 0.300984 0.119142
0 0.302464 0.0958572
0.0237125 0.297322 0.0827802
0.125963 0.285664 0.0790417
0.220691 0.278248 0.0427405
0.315969 0.275059 0
0.414847 0.274937 0
0.504189 0.280568 0
0.546563 0.297017 0
0.519265 0.326253 0.0543374
0.454231 0.36231 0.238254
0.399008 0.396323 0.392798
0.418372 0.418372 0.418372
0.438025 0.438025 0.438025
0.454887 0.454887 0.454887
0.469596 0.469596 0.469596
0.482078 0.482078 0.482078
0.492546 0.492546 0.492546
0.501854 0.501854 0.501854
0.512154 0.512154 0.512154
0.520851 0.520851 0.520851
0.52842 0.52842 0.52842
0.534981 0.534981 0.534981
0.540551 0.540551 0.540551
0.544182 0.544182 0.544182
0.545419 0.545419 0.545419
0 0.321233 0.171725
0 0.320912 0.171466
0 0.320684 0.171252
0 0.330663 0.181109
0 0.343038 0.190707
0 0.349874 0.192081
0 0.35433 0.188876
0 0.357137 0.18114
0 0.358434 0.167834
0 0.358938 0.147311
0.0588083 0.353628 0.133806
0.176562 0.341115 0.132952
0.273869 0.334112 0.0987106
0.371649 0.331426 0.0297551
0.470039 0.33167 0
0.553979 0.336934 0
0.587945 0.351217 0
0.559609 0.375799 0.101549
0.50428 0.405493 0.265202
0.455528 0.433829 0.403967
0.454612 0.454612 0.454612
0.470802 0.470802 0.470802
0.485176 0.485176 0.485176
0.49749 0.49749 0.49749
0.508141 0.508141 0.508141
0.516976 0.516976 0.516976
0.52488 0.52488 0.52488
0.532509 0.532509 0.532509
0.538659 0.538659 0.538659
0.543481 0.543481 0.543481
0.547112 0.547112 0.547112
0.549966 0.549966 0.549966
0.551888 0.551888 0.551888
0 0.36965 0.218051
0 0.369421 0.217823
0 0.369223 0.217639
0 0.382818 0.229938
0 0.397757 0.241123
0 0.406165 0.24448
0 0.411399 0.243915
0 0.415015 0.240101
0 0.416953 0.232212
0.00207523 0.417411 0.219669
0.0365911 0.416831 0.201175
0.117784 0.411948 0.187518
0.234791 0.399298 0.188251
0.332921 0.39321 0.157443
0.429526 0.391379 0.0998245
0.523919 0.391897 0.0335699
0.604303 0.396109 0
0.643381 0.407095 0.00662242
0.633433 0.425727 0.103243
0.594476 0.448966 0.235248
0.554101 0.471763 0.355169
0.523827 0.49279 0.45008
0.509773 0.509773 0.509773
0.521981 0.521981 0.521981
0.532174 0.532174 0.532174
0.5411 0.5411 0.5411
0.548424 0.548424 0.548424
0.554849 0.554849 0.554849
0.560159 0.560159 0.560159
0.563882 0.563882 0.563882
0.566293 0.566293 0.566293
0.567742 0.567742 0.567742
0.567285 0.567285 0.567285
0 0.415351 0.264805
0 0.415122 0.264576
0 0.414939 0.264378
0 0.434058 0.280247
0 0.451438 0.292302
0 0.461982 0.297429
0 0.468818 0.298558
0 0.473396 0.297093
0 0.476097 0.29276
0.0223697 0.477089 0.284825
0.0598764 0.47657 0.272892
0.101106 0.475776 0.255177
0.188617 0.470451 0.243214
0.300755 0.458213 0.243839
0.396124 0.453635 0.214542
0.488136 0.453285 0.170291
0.574517 0.454078 0.125643
0.651789 0.457786 0.0748302
0.703593 0.465446 0.0596475
0.724132 0.478004 0.0940108
0.718288 0.493416 0.162295
0.699351 0.510094 0.242725
0.679637 0.526589 0.317342
0.66038 0.541451 0.383093
0.646174 0.554757 0.435752
0.632944 0.56643 0.481514
0.619837 0.576226 0.521431
0.606912 0.584848 0.557519
0.592569 0.592569 0.592569
0.596048 0.596048 0.596048
0.598093 0.598093 0.598093
0.598749 0.598749 0.598749
0.597406 0.597406 0.597406
0 0.459098 0.310994
0 0.458915 0.310796
0 0.458762 0.310643
0 0.485267 0.330953
0 0.50428 0.343191
0 0.515801 0.348775
0 0.523873 0.351217
0 0.529488 0.351125
0.0147555 0.53286 0.348745
0.0531014 0.534508 0.343893
0.092256 0.534722 0.336309
0.128359 0.5337 0.324697
0.171756 0.53431 0.304372
0.268589 0.526894 0.299489
0.372244 0.516701 0.298726
0.461799 0.514763 0.271153
0.545754 0.515297 0.236362
0.621958 0.517052 0.207889
0.689845 0.520882 0.17908
0.746777 0.526986 0.158877
0.787976 0.534508 0.154086
0.814847 0.543526 0.163973
0.831617 0.55375 0.184314
0.840528 0.563638 0.209125
0.845792 0.573449 0.235889
0.84686 0.582193 0.262623
0.846708 0.59028 0.287678
0.843091 0.597467 0.313207
0.831556 0.60444 0.344518
0.814847 0.611093 0.379507
0.792325 0.617136 0.41886
0.765072 0.622309 0.460945
0.730068 0.62591 0.507698
0 0.50341 0.356649
0 0.503258 0.356497
0 0.505623 0.358007
0 0.536248 0.379812
0 0.555749 0.39173
0 0.567803 0.397772
0 0.576577 0.401114
0.0231479 0.583032 0.402396
0.0587167 0.58703 0.401511
0.0966201 0.589151 0.398749
0.129442 0.589761 0.393652
0.160754 0.589273 0.385657
0.200519 0.589471 0.371557
0.244266 0.592538 0.348043
0.355718 0.581262 0.355718
0.44744 0.573907 0.351629
0.527306 0.574182 0.325154
0.600992 0.575952 0.299245
0.665858 0.578637 0.281331
0.723079 0.583307 0.265232
0.771923 0.588525 0.251759
0.8121 0.594537 0.243946
0.844343 0.601602 0.243336
0.869657 0.608392 0.24654
0.889479 0.61529 0.252842
0.905684 0.621698 0.26041
0.918898 0.627634 0.268605
0.929107 0.632456 0.276143
0.937667 0.637034 0.28426
0.943725 0.640681 0.292226
0.947265 0.643229 0.300404
0.948089 0.644816 0.308766
0.945418 0.64506 0.317388
0 0.548333 0.400137
0 0.548211 0.400015
0 0.556435 0.405341
0 0.588205 0.427054
0 0.606989 0.438346
0.018265 0.61857 0.44445
0.0470436 0.626947 0.448066
0.0798047 0.633249 0.450111
0.113008 0.637369 0.450553
0.142229 0.639719 0.449165
0.16849 0.640635 0.445823
0.196979 0.640665 0.439628
0.233906 0.641138 0.428672
0.275929 0.643549 0.41149
0.348501 0.641581 0.402655
0.443565 0.632013 0.407996
0.521981 0.628351 0.400214
0.591119 0.630838 0.375219
0.653315 0.63389 0.358236
0.70721 0.637446 0.347723
0.753918 0.641962 0.338186
0.793256 0.647181 0.331365
0.826703 0.653193 0.327626
0.854688 0.658885 0.325475
0.877867 0.66479 0.326024
0.896895 0.670497 0.328359
0.913298 0.675502 0.330724
0.928038 0.680354 0.333318
0.9402 0.684474 0.33608
0.95053 0.687343 0.33817
0.959457 0.689769 0.340429
0.967346 0.691295 0.342061
0.973083 0.690944 0.341665
0 0.593988 0.441215
0 0.593881 0.441108
0 0.610162 0.452049
0.0192111 0.640314 0.472114
0.0525521 0.656641 0.48217
0.0829786 0.666773 0.487953
0.111727 0.673915 0.491722
0.137926 0.679225 0.494179
0.162539 0.682979 0.495262
0.185473 0.685466 0.494881
0.207721 0.686687 0.492683
0.236042 0.687449 0.487343
0.271443 0.688716 0.478279
0.310994 0.691112 0.46424
0.353994 0.695384 0.445029
0.449668 0.685405 0.45391
0.527367 0.679805 0.454566
0.59292 0.679774 0.444236
0.651209 0.684199 0.420859
0.70164 0.68716 0.411643
0.745296 0.690959 0.405875
0.782223 0.69575 0.401724
0.813382 0.701183 0.39971
0.839246 0.706401 0.398917
0.860868 0.712016 0.400198
0.879423 0.71722 0.401953
0.895567 0.72224 0.404349
0.909438 0.727214 0.408087
0.92108 0.73135 0.411749
0.930709 0.734966 0.415564
0.939315 0.737957 0.419043
0.946715 0.740215 0.421881
0.952468 0.740658 0.421973
0.0108797 0.640284 0.480201
0.0108034 0.640208 0.48014
0.0395972 0.664378 0.496696
0.0880446 0.689815 0.514122
0.122271 0.702281 0.522667
0.146609 0.710048 0.527993
0.167681 0.715877 0.531746
0.18793 0.7205 0.534386
0.207416 0.723934 0.535775
0.226108 0.726223 0.535805
0.248768 0.727871 0.533562
0.277485 0.729427 0.528588
0.311727 0.731411 0.520485
0.34873 0.734127 0.508034
0.38584 0.738964 0.490227
0.465782 0.732418 0.494133
0.541131 0.726009 0.498253
0.604288 0.724529 0.494881
0.657694 0.726665 0.48333
0.705348 0.731807 0.462211
0.745068 0.734585 0.460197
0.779141 0.738949 0.458808
0.807492 0.743648 0.459052
0.831296 0.748669 0.461295
0.851865 0.754253 0.464851
0.869139 0.759319 0.468681
0.883543 0.764446 0.473945
0.895628 0.76907 0.47953
0.905806 0.77348 0.485649
0.91429 0.777356 0.491676
0.92134 0.780941 0.497688
0.927352 0.783505 0.502281
0.931914 0.784909 0.504997
0.0594186 0.68513 0.516609
0.0593118 0.685054 0.516548
0.114382 0.71487 0.538384
0.156512 0.732906 0.552743
0.18056 0.741955 0.559808
0.199466 0.74844 0.564752
0.215885 0.753216 0.568124
0.232029 0.757168 0.570581
0.248203 0.76025 0.57203
0.267842 0.762814 0.571664
0.292332 0.76524 0.569268
0.320821 0.767193 0.563989
0.353216 0.769299 0.555779
0.38819 0.772335 0.544152
0.423087 0.777203 0.528069
0.494789 0.772061 0.530999
0.564843 0.765789 0.536156
0.623377 0.763119 0.535164
0.672694 0.764233 0.528725
0.715221 0.76788 0.519203
0.75314 0.773358 0.507408
0.783764 0.776761 0.51014
0.809369 0.780957 0.514061
0.831693 0.786023 0.518593
0.850385 0.791257 0.524498
0.865934 0.796307 0.531029
0.878996 0.80145 0.538766
0.889738 0.805936 0.54612
0.898802 0.810407 0.554131
0.906157 0.814191 0.561364
0.912398 0.817929 0.568887
0.917479 0.820905 0.575143
0.921218 0.822828 0.579461
0.115023 0.727031 0.551095
0.124666 0.731548 0.554498
0.181811 0.757778 0.577203
0.211917 0.769879 0.587762
0.230274 0.776974 0.593606
0.245228 0.782284 0.597879
0.258335 0.786175 0.600778
0.272984 0.789593 0.602609
0.290715 0.792584 0.602991
0.312322 0.79527 0.601724
0.337804 0.797711 0.59855
0.366308 0.799847 0.592844
0.397467 0.802182 0.584482
0.429969 0.805402 0.572915
0.462333 0.810697 0.557702
0.533486 0.804105 0.564767
0.596597 0.798642 0.570581
0.649424 0.796338 0.572229
0.694347 0.796948 0.57026
0.733089 0.800275 0.567102
0.766339 0.804974 0.562539
0.795102 0.809918 0.560739
0.818647 0.814328 0.567086
0.838514 0.818906 0.573938
0.855039 0.82359 0.581521
0.869032 0.828428 0.590005
0.880934 0.833432 0.599542
0.890715 0.837949 0.608621
0.898955 0.842466 0.618112
0.905577 0.846281 0.62649
0.911208 0.850019 0.634897
0.915724 0.853147 0.64213
0.918914 0.855207 0.647135
0.165133 0.764614 0.5841
0.191455 0.777478 0.595636
0.235355 0.796841 0.613581
0.257633 0.804593 0.620691
0.27245 0.80885 0.624521
0.286717 0.811902 0.626902
0.301442 0.814969 0.628382
0.318486 0.817853 0.628809
0.33846 0.8206 0.628031
0.36112 0.82295 0.625696
0.386542 0.825132 0.621851
0.414847 0.827497 0.616327
0.445197 0.830274 0.608759
0.47657 0.834272 0.599268
0.512932 0.837278 0.590631
0.578058 0.830518 0.599924
0.633677 0.826246 0.606806
0.681147 0.824826 0.611109
0.721798 0.82594 0.61326
0.75584 0.828717 0.613993
0.784863 0.832746 0.614893
0.810864 0.838544 0.612436
0.832258 0.843275 0.618906
0.850004 0.847684 0.627924
0.864958 0.852216 0.637339
0.877623 0.85687 0.647349
0.888045 0.86128 0.657069
0.897063 0.865888 0.667506
0.904463 0.870069 0.677302
0.910628 0.874022 0.686717
0.915831 0.877775 0.695811
0.92018 0.881178 0.704158
0.922927 0.883146 0.709133
0.207858 0.797024 0.613748
0.24918 0.81709 0.632853
0.280156 0.829114 0.644465
0.299733 0.834012 0.648859
0.316518 0.836713 0.650523
0.333074 0.838712 0.651392
0.350439 0.840238 0.651484
0.370535 0.841718 0.65098
0.392966 0.843992 0.650324
0.416495 0.846235 0.648508
0.441932 0.848524 0.645502
0.469505 0.851102 0.641199
0.498314 0.854337 0.635569
0.527245 0.858488 0.628138
0.570687 0.858442 0.628504
0.626291 0.853376 0.63827
0.674769 0.850324 0.646113
0.715846 0.849531 0.65185
0.751202 0.850904 0.656474
0.781643 0.85388 0.660517
0.807523 0.858274 0.664408
0.829572 0.862989 0.667536
0.848981 0.868437 0.669429
0.864729 0.872648 0.679728
0.87837 0.877256 0.690867
0.889647 0.881682 0.701488
0.899245 0.886183 0.712444
0.907164 0.890272 0.72253
0.913756 0.894148 0.732143
0.919493 0.898085 0.742031
0.924224 0.901534 0.750774
0.928374 0.904936 0.759426
0.93109 0.907195 0.76527
0.252735 0.828656 0.64358
0.297993 0.847837 0.662989
0.328435 0.854017 0.669093
0.352377 0.856992 0.671977
0.371862 0.858793 0.673396
0.390387 0.860334 0.674403
0.408728 0.86157 0.674754
0.429816 0.863005 0.674922
0.452369 0.864378 0.674311
0.476997 0.866011 0.673243
0.502312 0.86862 0.671687
0.528466 0.871626 0.66923
0.554772 0.875029 0.66537
0.580667 0.879377 0.66038
0.62826 0.876661 0.668345
0.675273 0.873121 0.678309
0.716411 0.871351 0.686824
0.75201 0.871351 0.693843
0.782727 0.873289 0.700328
0.808667 0.876387 0.705409
0.831083 0.88043 0.71107
0.85037 0.884962 0.717464
0.867826 0.890455 0.722164
0.881819 0.894987 0.730114
0.893477 0.899016 0.740673
0.903685 0.90338 0.751965
0.912215 0.907591 0.762783
0.919448 0.91162 0.773144
0.925719 0.915618 0.78349
0.930755 0.919097 0.792493
0.935225 0.922515 0.801358
0.938827 0.925429 0.808957
0.941344 0.927611 0.814633
0.306096 0.8598 0.674968
0.357046 0.869642 0.687572
0.392508 0.873335 0.69279
0.417273 0.875319 0.695369
0.437339 0.876829 0.697139
0.455512 0.878141 0.698497
0.473762 0.879362 0.699382
0.494484 0.880858 0.700328
0.515816 0.882353 0.700694
0.539284 0.884291 0.700954
0.563226 0.886458 0.700496
0.587594 0.889387 0.699718
0.611917 0.893248 0.698222
0.639765 0.896498 0.698421
0.682933 0.892958 0.708904
0.722057 0.890562 0.718425
0.757259 0.890059 0.727672
0.787564 0.891005 0.735561
0.813504 0.893324 0.742397
0.835782 0.896498 0.748898
0.85539 0.900465 0.756024
0.871946 0.904646 0.763317
0.886671 0.909407 0.770184
0.899474 0.914473 0.776761
0.910063 0.918639 0.788144
0.918776 0.922515 0.79855
0.926162 0.926299 0.808591
0.932754 0.93022 0.818936
0.938277 0.933837 0.828458
0.943145 0.937469 0.837964
0.947127 0.940581 0.846159
0.950668 0.943603 0.854047
0.952789 0.945434 0.858885
0.37911 0.88101 0.702861
0.431815 0.88632 0.712856
0.466255 0.889113 0.718013
0.489616 0.890852 0.720897
0.508415 0.892302 0.723125
0.524681 0.893446 0.724544
0.542092 0.894881 0.726314
0.560403 0.896376 0.727764
0.580621 0.898222 0.729381
0.601724 0.900343 0.730694
0.623148 0.902754 0.731533
0.645563 0.905821 0.732479
0.667201 0.909438 0.732677
0.697765 0.909834 0.738476
0.734386 0.907805 0.749172
0.766995 0.906798 0.758816
0.79559 0.906996 0.767071
0.820523 0.908415 0.774594
0.843 0.911101 0.782437
0.862242 0.914443 0.78999
0.878981 0.918242 0.797757
0.893339 0.922332 0.80592
0.905806 0.926619 0.814099
0.916762 0.931258 0.820661
0.925978 0.935363 0.829999
0.933959 0.939376 0.840909
0.940612 0.943069 0.850813
0.946242 0.946532 0.860075
0.951217 0.949981 0.8692
0.955322 0.953048 0.877287
0.959091 0.956115 0.885374
0.962203 0.958801 0.892409
0.964355 0.960769 0.897536
0.466438 0.896483 0.73138
0.512169 0.900343 0.740063
0.542382 0.902892 0.745296
0.563272 0.904662 0.748608
0.580163 0.906188 0.751232
0.594629 0.9075 0.753246
0.609583 0.908904 0.755215
0.62565 0.910552 0.75729
0.642985 0.912444 0.75935
