public/textures/grade/Canon/Gems-CLog.cube
TITLE "Generated by Resolve"
LUT_3D_SIZE 5
0 0 0.00790417
0.29395 0.0163729 0
0.310201 0.310201 0.310201
0.437049 0.437049 0.437049
0.524132 0.524132 0.524132
0 0.174578 0.0492714
0.130495 0.17731 0
0.438209 0.291081 0.118059
0.459083 0.459083 0.459083
0.541848 0.541848 0.541848
0 0.475395 0.328023
0.0664073 0.555291 0.365087
0.485573 0.536706 0.291203
0.846204 0.571405 0.199039
0.934707 0.641062 0.323079
0.21912 0.791348 0.608515
0.35967 0.824292 0.627939
0.600931 0.830594 0.605249
0.833997 0.845029 0.622324
0.924132 0.887495 0.719142
0.757397 0.944869 0.85156
0.841978 0.95906 0.880049
0.931212 0.969863 0.922164
0.985031 0.989136 0.971084
1 1 1
0 0 0.3785
0.156222 0.025742 0.422583
0.683024 0.256825 0.0937362
0.469108 0.469108 0.469108
0.54023 0.54023 0.54023
0 0.160983 0.285649
0.152148 0.177615 0.225055
0.672129 0.284474 0.0288243
0.502846 0.502846 0.502846
0.559686 0.559686 0.559686
0 0.490288 0.357229
0.104738 0.565118 0.395789
0.502892 0.550866 0.321843
0.869688 0.585351 0.227771
0.968551 0.651682 0.330159
0.204776 0.784375 0.602014
0.354025 0.823011 0.627588
0.596704 0.829923 0.603555
0.833005 0.844038 0.620371
0.923919 0.886702 0.717311
0.751659 0.944015 0.849622
0.840101 0.958679 0.879408
0.930541 0.969741 0.921752
0.984939 0.98909 0.970977
1 1 1
0 0 0.0691386
0.0397803 0.0311589 0.335271
0.531518 0.317433 0.912566
0.986587 0.53785 0.642557
1 0.545403 0.553704
0 0.042649 0.283055
0.0573434 0.130892 0.627115
0.538247 0.364736 0.861051
1 0.558114 0.644251
1 0.550134 0.547387
0.300267 0.300267 0.300267
0.061326 0.538033 0.668742
0.527611 0.560281 0.618647
0.930098 0.608316 0.539101
1 0.674052 0.58938
0.26772 0.782254 0.670619
0.439506 0.838178 0.741222
0.638819 0.858381 0.715496
0.863478 0.872877 0.740826
0.946227 0.914 0.824872
0.734447 0.941558 0.843885
0.83415 0.957534 0.877363
0.928603 0.969406 0.920577
0.98471 0.988952 0.970657
1 1 1
0 0 0
0.0142367 0.0142367 0.0142367
0.279713 0.24744 0.379019
0.816587 0.574472 1
0.98233 0.736385 0.978469
0 0 0
0.0487831 0.0487831 0.0487831
0.316411 0.26743 0.474678
0.817273 0.575891 1
0.982757 0.736217 0.974823
0.229435 0.229435 0.229435
0.344244 0.344244 0.344244
0.490089 0.522866 0.948058
0.80029 0.671031 0.958999
0.935943 0.781476 0.921187
0.319661 0.743618 0.8392
0.378546 0.842176 0.972015
0.674769 0.864698 0.938354
0.883192 0.888609 0.898146
0.960739 0.928786 0.925063
0.759457 0.957351 0.978744
0.895125 0.976898 0.983841
0.972396 0.99115 0.989944
1 1 1
1 1 1
0 0 0
0 0 0
0.235355 0.235355 0.235355
0.768963 0.526772 1
0.977615 0.723171 1
0 0 0
0 0 0
0.238193 0.237415 0.242054
0.769696 0.52726 1
0.977661 0.723217 1
0.152987 0.152987 0.152987
0.151385 0.151385 0.151385
0.388022 0.37641 0.91574
0.797787 0.594308 1
0.958892 0.744747 1
0.59144 0.59144 0.59144
0.590799 0.590799 0.590799
0.596078 0.845029 1
0.876127 0.880308 0.94258
0.945296 0.930312 0.958495
0.7608 0.950713 1
0.859846 0.967285 1
0.988998 0.996643 0.99971
1 1 1
1 1 1
