public/textures/grade/Canon/Gems-CLog2.cube
TITLE "Generated by Resolve"
LUT_3D_SIZE 5
0.00529488 0.0109865 0.0230106
0.154452 0.0109407 0
0.362173 0.276097 0.199756
0.472435 0.472435 0.472435
0.52636 0.52636 0.52636
0 0.0964065 0.0122683
0.0626078 0.0935683 0
0.43331 0.270726 0.104921
0.479225 0.479225 0.479225
0.524605 0.524605 0.524605
0 0.483452 0.325628
0 0.514229 0.337285
0.445533 0.498619 0.255558
0.800397 0.569467 0.279561
0.653605 0.623804 0.58912
0.381125 0.863478 0.679286
0.443473 0.867842 0.681468
0.677501 0.878691 0.686839
0.900725 0.905684 0.756817
0.944411 0.932708 0.827207
0.831785 0.957076 0.876524
0.851881 0.96112 0.883711
0.93254 0.970123 0.923003
0.994705 0.995865 0.987076
1 1 1
0 0 0.210712
0.0764782 0.0163882 0.231647
0.459739 0.254429 0.114717
0.480888 0.480888 0.480888
0.5355 0.5355 0.5355
0 0.0906081 0.181353
0.078294 0.0967269 0.130571
0.560037 0.262364 0.0321508
0.489326 0.489326 0.489326
0.534325 0.534325 0.534325
0 0.479438 0.32256
0 0.511864 0.3355
0.444083 0.496605 0.253193
0.793896 0.568734 0.285344
0.64445 0.623423 0.598886
0.377905 0.863111 0.67892
0.440986 0.867567 0.681285
0.676219 0.87863 0.686351
0.900572 0.905516 0.756436
0.944335 0.932586 0.826917
0.830884 0.956909 0.876188
0.851194 0.960983 0.883467
0.932311 0.970077 0.922866
0.99469 0.99585 0.98706
1 1 1
0 0 0.156924
0 0.00238041 0.295979
0.499504 0.291005 0.87451
1 0.483482 0.504433
0.994095 0.551278 0.523522
0 0.00616464 0.264881
0 0.0451514 0.439185
0.510887 0.320241 0.859785
1 0.48304 0.496086
0.976883 0.553063 0.521126
0.269383 0.286519 0.290013
0.0847028 0.441901 0.527337
0.486198 0.520668 0.582101
1 0.594873 0.488731
1 0.621881 0.526635
0.353933 0.860136 0.675822
0.422873 0.865751 0.680018
0.667369 0.878401 0.683284
0.899596 0.904509 0.753994
0.94374 0.93167 0.824643
0.823728 0.955566 0.873625
0.84593 0.959869 0.881514
0.930632 0.969757 0.921813
0.994583 0.995773 0.986831
1 1 1
0 0 0
0 0 0
0.245563 0.225193 0.328908
0.882353 0.635187 1
0.978973 0.734325 1
0 0 0
0 0 0
0.245823 0.225422 0.329076
0.882429 0.635355 1
0.978973 0.734371 1
0.184649 0.184649 0.184649
0.184192 0.184192 0.184192
0.404318 0.425223 0.976745
0.866575 0.68716 1
0.961791 0.756039 1
0.347204 0.836515 0.956344
0.381064 0.865721 0.993393
0.758083 0.912474 0.970123
0.945525 0.947158 0.950423
0.977676 0.969696 0.968994
0.871962 0.971283 0.989654
0.902266 0.976852 0.990127
0.975601 0.992447 0.993866
1 1 1
1 1 1
0 0 0
0 0 0
0.0508583 0.0508583 0.0508583
0.864912 0.604166 1
0.978332 0.723934 1
0 0 0
0 0 0
0.0516365 0.0516365 0.0516365
0.864988 0.604242 1
0.978347 0.723934 1
0 0 0
0 0 0
0.0572671 0.0572671 0.0572671
0.865583 0.604822 1
0.978378 0.72398 1
0.448371 0.776791 0.890333
0.448585 0.776608 0.890028
0.614679 0.892241 1
0.939483 0.940948 0.959808
0.971435 0.967208 0.975769
0.7608 0.950713 1
0.7608 0.950713 1
0.97612 0.992569 0.999084
1 1 1
1 1 1
