public/textures/grade/Canon/Gems-CLog2.cube
TITLE "Generated by Resolve"
LUT_3D_SIZE 9
0.00529488 0.0109865 0.0230106
0.0418555 0.0117189 0.0108797
0.154452 0.0109407 0
0.398917 0.0649577 0
0.362173 0.276097 0.199756
0.403311 0.403311 0.403311
0.472435 0.472435 0.472435
0.512123 0.512123 0.512123
0.52636 0.52636 0.52636
0 0.0348211 0.0180514
0.0198215 0.0344091 0.00642405
0.134524 0.0288701 0
0.384878 0.0733959 0
0.374792 0.277867 0.188586
0.40473 0.40473 0.40473
0.471916 0.471916 0.471916
0.511589 0.511589 0.511589
0.525811 0.525811 0.525811
0 0.0964065 0.0122683
0 0.102739 0
0.0626078 0.0935683 0
0.331212 0.102541 0
0.43331 0.270726 0.104921
0.413947 0.413947 0.413947
0.479225 0.479225 0.479225
0.510414 0.510414 0.510414
0.524605 0.524605 0.524605
0 0.250553 0.109438
0 0.258076 0.108705
0 0.264698 0.076997
0.191119 0.24271 0.0132906
0.526238 0.272862 0
0.422461 0.422461 0.422461
0.488701 0.488701 0.488701
0.53048 0.53048 0.53048
0.537118 0.537118 0.537118
0 0.483452 0.325628
0 0.49781 0.333684
0 0.514229 0.337285
0.0960708 0.518837 0.315694
0.445533 0.498619 0.255558
0.769635 0.516747 0.129137
0.800397 0.569467 0.279561
0.751064 0.605997 0.436133
0.653605 0.623804 0.58912
0.142611 0.719356 0.539223
0.166735 0.727703 0.545357
0.20882 0.739422 0.553246
0.280858 0.748394 0.551339
0.458885 0.755932 0.511452
0.730694 0.753597 0.484382
0.854902 0.775097 0.496895
0.906126 0.795789 0.526116
0.925292 0.80528 0.544488
0.381125 0.863478 0.679286
0.400137 0.864881 0.680323
0.443473 0.867842 0.681468
0.528527 0.874784 0.678874
0.677501 0.878691 0.686839
0.828016 0.88423 0.720806
0.900725 0.905684 0.756817
0.932174 0.922957 0.80177
0.944411 0.932708 0.827207
0.681544 0.925933 0.797635
0.693019 0.927306 0.799954
0.719371 0.930816 0.805539
0.769039 0.939086 0.816007
0.857588 0.941726 0.847791
0.927901 0.953933 0.884993
0.965393 0.971054 0.922286
0.983261 0.98381 0.956069
0.990997 0.990829 0.974273
0.831785 0.957076 0.876524
0.838178 0.958328 0.878828
0.851881 0.96112 0.883711
0.882811 0.965362 0.896574
0.93254 0.970123 0.923003
0.971954 0.982116 0.954345
0.994705 0.995865 0.987076
1 1 1
1 1 1
0 0.00656138 0.0775921
0.0242161 0.0116121 0.0773632
0.133379 0.0270237 0.0405127
0.405035 0.0468452 0
0.351766 0.269535 0.200671
0.406287 0.406287 0.406287
0.475395 0.475395 0.475395
0.515114 0.515114 0.515114
0.529381 0.529381 0.529381
0 0.0312352 0.0823682
0.0236973 0.0336767 0.0536965
0.131243 0.033463 0.0199741
0.390005 0.06804 0
0.367117 0.273152 0.191302
0.409293 0.409293 0.409293
0.474876 0.474876 0.474876
0.514626 0.514626 0.514626
0.528862 0.528862 0.528862
0 0.0971084 0.0529641
0 0.101289 0.0410925
0.0681621 0.0969253 0.0104677
0.335546 0.108812 0
0.424735 0.270237 0.118517
0.42121 0.42121 0.42121
0.48249 0.48249 0.48249
0.513237 0.513237 0.513237
0.527474 0.527474 0.527474
0 0.249058 0.108278
0 0.256764 0.107851
0 0.263493 0.076173
0.191104 0.241535 0.0117647
0.525597 0.272221 0
0.422446 0.422446 0.422446
0.488685 0.488685 0.488685
0.530404 0.530404 0.530404
0.536675 0.536675 0.536675
0 0.482261 0.324681
0 0.49688 0.332982
0 0.513603 0.336828
0.0952773 0.518303 0.315236
0.44506 0.498085 0.254963
0.769436 0.516243 0.128313
0.798535 0.569268 0.281224
0.748501 0.60592 0.438804
0.651057 0.623697 0.591852
0.141588 0.718959 0.538949
0.165698 0.727291 0.545037
0.208286 0.739269 0.55314
0.280385 0.748287 0.551324
0.458274 0.755825 0.511254
0.730556 0.753429 0.484199
0.854871 0.774945 0.496635
0.906157 0.795636 0.525841
0.925322 0.805127 0.544198
0.38024 0.863371 0.679179
0.399313 0.864805 0.680247
0.442771 0.867765 0.681422
0.528084 0.874723 0.678859
0.67715 0.87866 0.686702
0.827909 0.884184 0.720699
0.900694 0.905638 0.75671
0.932143 0.922911 0.801678
0.944396 0.932662 0.827131
0.68098 0.925856 0.797498
0.692638 0.92726 0.799878
0.719051 0.930785 0.805493
0.76878 0.93904 0.81593
0.857435 0.941711 0.847715
0.92784 0.953902 0.884932
0.965362 0.971038 0.922255
0.983246 0.983795 0.956039
0.990997 0.990829 0.974258
0.83154 0.957031 0.876432
0.837934 0.958267 0.878737
0.851698 0.961089 0.88365
0.882658 0.965362 0.896498
0.932479 0.970108 0.922972
0.971939 0.982116 0.95433
0.994705 0.995865 0.987076
1 1 1
1 1 1
0 0 0.210712
0.01738 0.00343328 0.206729
0.0764782 0.0163882 0.231647
0.378561 0.0821393 0.0996414
0.459739 0.254429 0.114717
0.419364 0.419364 0.419364
0.480888 0.480888 0.480888
0.521035 0.521035 0.521035
0.5355 0.5355 0.5355
0 0.0135348 0.196963
0.0083772 0.0222019 0.190585
0.0783856 0.0364538 0.204852
0.372763 0.0919051 0.0812085
0.490364 0.26096 0.0999161
0.421729 0.421729 0.421729
0.480659 0.480659 0.480659
0.520821 0.520821 0.520821
0.535271 0.535271 0.535271
0 0.0906081 0.181353
0 0.0936904 0.181399
0.078294 0.0967269 0.130571
0.332006 0.118532 0.0412451
0.560037 0.262364 0.0321508
0.438758 0.438758 0.438758
0.489326 0.489326 0.489326
0.520073 0.520073 0.520073
0.534325 0.534325 0.534325
0 0.252506 0.182727
0 0.260166 0.182818
0 0.266239 0.165789
0.205188 0.252308 0.106004
0.582071 0.282048 0
0.443351 0.443351 0.443351
0.509636 0.509636 0.509636
0.542473 0.542473 0.542473
0.544717 0.544717 0.544717
0 0.479438 0.32256
0 0.494438 0.331182
0 0.511864 0.3355
0.09337 0.517021 0.314214
0.444083 0.496605 0.253193
0.768856 0.514961 0.126177
0.793896 0.568734 0.285344
0.741802 0.605676 0.445792
0.64445 0.623423 0.598886
0.138247 0.717571 0.537835
0.163546 0.726497 0.544442
0.206531 0.738613 0.55259
0.279026 0.74789 0.551156
0.456641 0.755566 0.510735
0.730205 0.753002 0.483742
0.854841 0.774548 0.495995
0.906218 0.795239 0.525093
0.925444 0.804746 0.543435
0.377905 0.863111 0.67892
0.397147 0.864576 0.680064
0.440986 0.867567 0.681285
0.526879 0.874525 0.678782
0.676219 0.87863 0.686351
0.827634 0.884047 0.720439
0.900572 0.905516 0.756436
0.932067 0.92282 0.801434
0.944335 0.932586 0.826917
0.67953 0.925673 0.797147
0.691585 0.927138 0.799695
0.718105 0.930648 0.80528
0.768093 0.938903 0.815717
0.857053 0.941649 0.847501
0.927718 0.953857 0.88481
0.965316 0.970993 0.922148
0.98323 0.983764 0.955978
0.990967 0.990799 0.974197
0.830884 0.956909 0.876188
0.837324 0.95816 0.878523
0.851194 0.960983 0.883467
0.882231 0.965347 0.8963
0.932311 0.970077 0.922866
0.971908 0.982101 0.954284
0.99469 0.99585 0.98706
1 1 1
1 1 1
0 0 0.470802
0 0 0.474113
0.0516213 0 0.482246
0.235767 0.0776226 0.533242
0.723018 0.263752 0.295293
0.453742 0.453742 0.453742
0.503426 0.503426 0.503426
0.534005 0.534005 0.534005
0.548806 0.548806 0.548806
0 0 0.460273
0 0 0.463523
0.0521553 0.0165713 0.468559
0.241382 0.102266 0.520989
0.729 0.264088 0.287572
0.452384 0.452384 0.452384
0.502495 0.502495 0.502495
0.533394 0.533394 0.533394
0.54818 0.54818 0.54818
0 0.0336767 0.42063
0 0.0472419 0.422461
0.0346075 0.0727092 0.417746
0.231449 0.140047 0.460151
0.711711 0.271794 0.256672
0.479759 0.47245 0.467842
0.508873 0.508873 0.508873
0.531731 0.531731 0.531731
0.546487 0.546487 0.546487
0 0.217304 0.355367
0 0.237537 0.377783
0 0.252689 0.381125
0.216693 0.24741 0.304051
0.633417 0.287938 0.16289
0.589548 0.461631 0.368368
0.550942 0.550942 0.550942
0.571939 0.571939 0.571939
0.555718 0.555718 0.555718
0 0.49073 0.394736
0 0.506798 0.40499
0.052491 0.524804 0.412238
0.171923 0.533318 0.399222
0.470192 0.521263 0.336095
0.81973 0.540688 0.215717
0.908354 0.588403 0.280064
0.911101 0.618769 0.364767
0.867109 0.630442 0.437598
0.12784 0.7131 0.534218
0.155795 0.723293 0.541833
0.201648 0.736721 0.551064
0.275135 0.746578 0.550439
0.45243 0.754711 0.50927
0.729213 0.751842 0.482475
0.854673 0.773465 0.494255
0.906416 0.794156 0.523095
0.92575 0.803677 0.541344
0.371405 0.862333 0.678126
0.391897 0.864118 0.679728
0.436011 0.867018 0.680873
0.523659 0.873976 0.678508
0.673671 0.878508 0.685389
0.826902 0.883696 0.719738
0.900282 0.905226 0.755703
0.931884 0.92256 0.800778
0.944183 0.932326 0.826291
0.675517 0.925155 0.796094
0.688304 0.926711 0.798917
0.715236 0.930205 0.804471
0.766217 0.938506 0.815137
0.85597 0.941512 0.846906
0.927382 0.953704 0.884428
0.965179 0.970886 0.921859
0.983154 0.983703 0.95581
0.990906 0.990723 0.974014
0.828992 0.956542 0.875517
0.83563 0.957824 0.877882
0.849821 0.960678 0.882933
0.881056 0.965316 0.89572
0.931884 0.969985 0.922576
0.971786 0.98204 0.954147
0.994659 0.995834 0.986999
1 1 1
1 1 1
0 0 0.156924
0 0 0.179706
0 0.00238041 0.295979
0.152636 0.0581826 0.594354
0.499504 0.291005 0.87451
0.871717 0.525017 0.647929
1 0.483482 0.504433
1 0.528313 0.507744
0.994095 0.551278 0.523522
0 0 0.1626
0 0 0.185824
0 0.00241093 0.301472
0.154269 0.0582132 0.598169
0.500816 0.292622 0.872251
0.874342 0.523339 0.644907
1 0.48333 0.502113
1 0.528634 0.506554
0.989471 0.551736 0.522805
0 0.00616464 0.264881
0 0.0158389 0.300298
0 0.0451514 0.439185
0.178653 0.107988 0.700862
0.510887 0.320241 0.859785
0.884123 0.531853 0.647822
1 0.48304 0.496086
0.99942 0.529503 0.503563
0.976883 0.553063 0.521126
0 0.0938277 0.367071
0 0.119539 0.428748
0 0.167163 0.575998
0.15436 0.212085 0.703685
0.483146 0.345724 0.770108
0.887098 0.52694 0.610086
1 0.528328 0.528161
1 0.554788 0.527886
0.940505 0.557107 0.518441
0.269383 0.286519 0.290013
0.223163 0.340032 0.364813
0.0847028 0.441901 0.527337
0.0810254 0.523598 0.675151
0.486198 0.520668 0.582101
0.842496 0.55256 0.495552
1 0.594873 0.488731
1 0.618357 0.510918
1 0.621881 0.526635
0.205234 0.724849 0.639155
0.235462 0.738262 0.653544
0.285924 0.755169 0.671229
0.367605 0.767544 0.67837
0.517143 0.777996 0.643061
0.763226 0.784695 0.621073
0.889708 0.806882 0.642618
0.936339 0.827741 0.678004
0.953262 0.837385 0.697536
0.353933 0.860136 0.675822
0.375219 0.862196 0.677806
0.422873 0.865751 0.680018
0.514534 0.872541 0.677928
0.667369 0.878401 0.683284
0.824842 0.88275 0.7178
0.899596 0.904509 0.753994
0.931395 0.921843 0.799008
0.94374 0.93167 0.824643
0.664012 0.92369 0.793164
0.677958 0.925353 0.796338
0.707103 0.929 0.802396
0.761059 0.937438 0.813504
0.853025 0.941146 0.845304
0.926467 0.953277 0.883436
0.964782 0.970581 0.921065
0.982925 0.98349 0.955245
0.990723 0.990539 0.973526
0.823728 0.955566 0.873625
0.830777 0.956878 0.876143
0.84593 0.959869 0.881514
0.87776 0.965225 0.894163
0.930632 0.969757 0.921813
0.971466 0.981888 0.953796
0.994583 0.995773 0.986831
1 1 1
1 1 1
0 0 0
0 0 0
0 0 0
0.0622568 0.0622568 0.0622568
0.276493 0.219364 0.441611
0.73051 0.497978 1
0.892058 0.663294 0.890959
0.997177 0.690013 0.873243
1 0.698268 0.86978
0 0 0
0 0 0
0 0 0
0.0625467 0.0625467 0.0625467
0.276783 0.219394 0.44242
0.730739 0.498314 1
0.89218 0.663279 0.890272
0.997513 0.689784 0.872618
1 0.697993 0.869154
0 0 0
0 0 0
0 0 0
0.0633097 0.0633097 0.0633097
0.277546 0.219455 0.444526
0.731319 0.499229 1
0.89247 0.663233 0.888502
0.998367 0.689174 0.871
1 0.697276 0.867475
0.0542611 0.0542611 0.0542611
0.0540932 0.0540932 0.0540932
0.0898909 0.0914321 0.0961013
0.138003 0.174578 0.435554
0.390906 0.278492 0.833753
0.755154 0.545678 1
0.900343 0.683574 0.896468
1 0.692393 0.871611
1 0.695109 0.862989
0.206195 0.206195 0.206195
0.206119 0.206119 0.206119
0.272312 0.272312 0.272312
0.200137 0.407004 0.638453
0.453544 0.491218 0.882856
0.719493 0.602472 0.903548
0.876921 0.704143 0.83978
0.960143 0.731014 0.842206
0.996445 0.740139 0.858244
0.416205 0.55584 0.582834
0.375738 0.593408 0.637232
0.258549 0.712062 0.821546
0.292775 0.770077 0.906783
0.526024 0.783459 0.886702
0.781796 0.795682 0.81976
0.904814 0.821439 0.812894
0.948943 0.841794 0.82855
0.963699 0.851667 0.839872
0.313954 0.866316 0.893874
0.339956 0.880232 0.909407
0.414069 0.894881 0.922576
0.554604 0.90518 0.921645
0.727718 0.912627 0.905364
0.87187 0.923583 0.891722
0.937057 0.940246 0.910155
0.962921 0.954864 0.931136
0.972549 0.963317 0.943816
0.72813 0.92961 0.875792
0.741482 0.932082 0.878569
0.770367 0.937484 0.884321
0.821073 0.946929 0.892927
0.886366 0.961486 0.905928
0.951858 0.971191 0.937926
0.983154 0.98613 0.968414
0.997116 0.997238 0.992233
1 1 1
0.809155 0.953002 0.868711
0.817304 0.954421 0.871489
0.835431 0.957778 0.877821
0.868772 0.964981 0.889967
0.927382 0.969223 0.919875
0.970611 0.981491 0.952865
0.994369 0.995605 0.986435
1 1 1
1 1 1
0 0 0
0 0 0
0 0 0
0.0175631 0.0175631 0.0175631
0.245563 0.225193 0.328908
0.651728 0.438849 1
0.882353 0.635187 1
0.954543 0.710857 1
0.978973 0.734325 1
0 0 0
0 0 0
0 0 0
0.017792 0.017792 0.017792
0.245624 0.225254 0.328954
0.651881 0.438911 1
0.882368 0.635233 1
0.954543 0.710872 1
0.978973 0.73434 1
0 0 0
0 0 0
0 0 0
0.0183719 0.0183719 0.0183719
0.245823 0.225422 0.329076
0.652323 0.439063 1
0.882429 0.635355 1
0.954559 0.710948 1
0.978973 0.734371 1
0 0 0
0 0 0
0 0 0
0.0241398 0.0241398 0.0241398
0.246418 0.22594 0.329351
0.653483 0.439475 1
0.882582 0.635706 1
0.954589 0.711101 1
0.979004 0.734447 1
0.184649 0.184649 0.184649
0.184527 0.184527 0.184527
0.184192 0.184192 0.184192
0.264805 0.293126 0.334676
0.404318 0.425223 0.976745
0.697963 0.542947 1
0.866575 0.68716 1
0.931945 0.74107 1
0.961791 0.756039 1
0.455528 0.455528 0.455528
0.455451 0.455451 0.455451
0.455253 0.455253 0.455253
0.541482 0.609751 0.641901
0.47863 0.756909 1
0.773495 0.786206 0.91284
0.865934 0.829709 0.919371
0.90312 0.859937 0.911559
0.917159 0.870909 0.915434
0.347204 0.836515 0.956344
0.347189 0.836484 0.956313
0.381064 0.865721 0.993393
0.585977 0.896468 0.995224
0.758083 0.912474 0.970123
0.884306 0.928725 0.949447
0.945525 0.947158 0.950423
0.968841 0.961715 0.961349
0.977676 0.969696 0.968994
0.662898 0.935225 0.996323
0.701259 0.939437 0.994354
0.76495 0.946685 0.990158
0.83975 0.95819 0.986633
0.914519 0.970886 0.98262
0.968643 0.984207 0.985321
0.995773 0.996277 0.996719
1 1 1
1 1 1
0.871962 0.971283 0.989654
0.882155 0.973144 0.989837
0.902266 0.976852 0.990127
0.935668 0.983337 0.990845
0.975601 0.992447 0.993866
1 1 1
1 1 1
1 1 1
1 1 1
0 0 0
0 0 0
0 0 0
0 0 0
0.161944 0.161944 0.161944
0.564279 0.421683 0.888151
0.874006 0.615 1
0.952956 0.699855 1
0.978592 0.72668 1
0 0 0
0 0 0
0 0 0
0 0 0
0.162203 0.162203 0.162203
0.564462 0.421744 0.888548
0.874037 0.61503 1
0.952956 0.69987 1
0.978592 0.72668 1
0 0 0
0 0 0
0 0 0
0 0 0
0.16286 0.16286 0.16286
0.564981 0.421912 0.889662
0.874083 0.615091 1
0.952972 0.699886 1
0.978592 0.726696 1
0 0 0
0 0 0
0 0 0
0 0 0
0.165118 0.165118 0.165118
0.566094 0.422263 0.892103
0.874235 0.615274 1
0.953002 0.699931 1
0.978607 0.726726 1
0.0858167 0.0858167 0.0858167
0.0856489 0.0856489 0.0856489
0.0852827 0.0852827 0.0852827
0.0838331 0.0838331 0.0838331
0.293141 0.283146 0.633722
0.648127 0.468009 1
0.871031 0.64065 1
0.960006 0.716197 1
0.978622 0.726818 1
0.407599 0.407599 0.407599
0.407507 0.407507 0.407507
0.407294 0.407294 0.407294
0.406668 0.406668 0.406668
0.395865 0.708736 1
0.750454 0.756603 0.951568
0.856672 0.806775 0.962814
0.898634 0.84065 0.950164
0.913756 0.853193 0.950713
0.40206 0.805936 0.936675
0.40209 0.805905 0.936629
0.402167 0.805814 0.936492
0.384115 0.846799 1
0.711345 0.906401 1
0.876081 0.925841 0.970687
0.944854 0.946548 0.959945
0.965805 0.962646 0.970886
0.974685 0.971389 0.976242
0.583993 0.921691 1
0.583963 0.921691 1
0.583947 0.921675 1
0.787213 0.947936 1
0.911742 0.969512 0.991623
0.973449 0.985656 0.990692
0.998795 0.998795 0.999496
1 1 1
1 1 1
0.744808 0.948074 1
0.760555 0.950423 1
0.855009 0.965942 1
0.93138 0.980636 0.997238
0.982574 0.994247 0.998154
1 1 1
1 1 1
1 1 1
1 1 1
0 0 0
0 0 0
0 0 0
0 0 0
0.0508583 0.0508583 0.0508583
0.482948 0.397147 0.695018
0.864912 0.604166 1
0.951476 0.695552 1
0.978332 0.723934 1
0 0 0
0 0 0
0 0 0
0 0 0
0.0510719 0.0510719 0.0510719
0.483162 0.397238 0.695506
0.864942 0.604196 1
0.951492 0.695552 1
0.978332 0.723934 1
0 0 0
0 0 0
0 0 0
0 0 0
0.0516365 0.0516365 0.0516365
0.483711 0.397452 0.696757
0.864988 0.604242 1
0.951492 0.695567 1
0.978347 0.723934 1
0 0 0
0 0 0
0 0 0
0 0 0
0.0530709 0.0530709 0.0530709
0.485222 0.398077 0.700236
0.865156 0.604395 1
0.951537 0.695598 1
0.978347 0.723949 1
0 0 0
0 0 0
0 0 0
0 0 0
0.0572671 0.0572671 0.0572671
0.489281 0.399695 0.709484
0.865583 0.604822 1
0.951614 0.695705 1
0.978378 0.72398 1
0.348028 0.348028 0.348028
0.347936 0.347936 0.347936
0.347692 0.347692 0.347692
0.347051 0.347051 0.347051
0.387518 0.581765 0.767971
0.712093 0.700328 0.979843
0.844541 0.767819 0.996628
0.895399 0.808927 0.977722
0.913741 0.822003 0.978622
0.448371 0.776791 0.890333
0.448432 0.77673 0.890242
0.448585 0.776608 0.890028
0.449027 0.776272 0.889433
0.614679 0.892241 1
0.857145 0.917754 0.977325
0.939483 0.940948 0.959808
0.962051 0.958007 0.97081
0.971435 0.967208 0.975769
0.583246 0.921202 1
0.58323 0.921202 1
0.583169 0.921187 1
0.583017 0.921157 1
0.882307 0.963729 0.997742
0.96907 0.984131 0.991943
0.998413 0.998444 0.999512
1 1 1
1 1 1
0.7608 0.950713 1
0.7608 0.950713 1
0.7608 0.950713 1
0.837919 0.96347 1
0.97612 0.992569 0.999084
1 1 1
1 1 1
1 1 1
1 1 1
