public/textures/grade/Canon/Gems-CLog3.cube
TITLE "Generated by Resolve"
LUT_3D_SIZE 9
0 0 0.00790417
0.0268406 0 0
0.225162 0.00462348 0
0.504326 0.113146 0
0.328786 0.328786 0.328786
0.410651 0.410651 0.410651
0.466682 0.466682 0.466682
0.506218 0.506218 0.506218
0.524132 0.524132 0.524132
0 0.0231632 0.00909438
0.00607309 0.0221256 0
0.217639 0.0187381 0
0.504112 0.124849 0
0.330663 0.330663 0.330663
0.410742 0.410742 0.410742
0.466728 0.466728 0.466728
0.506233 0.506233 0.506233
0.524132 0.524132 0.524132
0 0.136172 0.0289311
0 0.14641 0.0258488
0.093492 0.137896 0
0.434821 0.154742 0
0.347463 0.326741 0.303258
0.425772 0.425772 0.425772
0.480552 0.480552 0.480552
0.510491 0.510491 0.510491
0.524132 0.524132 0.524132
0 0.321233 0.171725
0 0.343038 0.190707
0 0.358434 0.167834
0.273869 0.334112 0.0987106
0.587945 0.351217 0
0.454612 0.454612 0.454612
0.508141 0.508141 0.508141
0.538659 0.538659 0.538659
0.551888 0.551888 0.551888
0 0.50341 0.356649
0 0.555749 0.39173
0.0587167 0.58703 0.401511
0.200519 0.589471 0.371557
0.527306 0.574182 0.325154
0.771923 0.588525 0.251759
0.889479 0.61529 0.252842
0.937667 0.637034 0.28426
0.945418 0.64506 0.317388
0.0594186 0.68513 0.516609
0.18056 0.741955 0.559808
0.248203 0.76025 0.57203
0.353216 0.769299 0.555779
0.564843 0.765789 0.536156
0.75314 0.773358 0.507408
0.850385 0.791257 0.524498
0.898802 0.810407 0.554131
0.921218 0.822828 0.579461
0.252735 0.828656 0.64358
0.371862 0.858793 0.673396
0.452369 0.864378 0.674311
0.554772 0.875029 0.66537
0.716411 0.871351 0.686824
0.831083 0.88043 0.71107
0.893477 0.899016 0.740673
0.925719 0.915618 0.78349
0.941344 0.927611 0.814633
0.553491 0.909728 0.761181
0.647776 0.91902 0.780453
0.702174 0.925734 0.790524
0.770977 0.93518 0.804028
0.862516 0.93611 0.838453
0.921767 0.94815 0.870466
0.956008 0.963317 0.902144
0.974899 0.975723 0.93521
0.985473 0.985 0.959365
0.794781 0.950607 0.863874
0.834531 0.95761 0.877501
0.860288 0.962982 0.8869
0.901946 0.966293 0.905943
0.944793 0.972763 0.931014
0.975021 0.983612 0.957885
0.993698 0.995087 0.985168
1 1 1
1 1 1
0 0 0.0888075
0.00492866 0 0.0861372
0.213901 0.0115206 0.0128023
0.515129 0.0962387 0
0.320485 0.320485 0.320485
0.414618 0.414618 0.414618
0.471839 0.471839 0.471839
0.511559 0.511559 0.511559
0.529641 0.529641 0.529641
0 0.0167849 0.0466163
0.0089723 0.0157778 0.0297856
0.215686 0.0211795 0
0.512612 0.120455 0
0.326863 0.326863 0.326863
0.409598 0.409598 0.409598
0.469184 0.469184 0.469184
0.508858 0.508858 0.508858
0.526986 0.526986 0.526986
0 0.129656 0.0268406
0 0.138079 0.024155
0.0930037 0.131167 0
0.435813 0.15053 0
0.344167 0.326757 0.307179
0.42533 0.42533 0.42533
0.480278 0.480278 0.480278
0.508309 0.508309 0.508309
0.524437 0.524437 0.524437
0 0.317617 0.168399
0 0.337179 0.186175
0 0.35375 0.164263
0.272831 0.329442 0.0911421
0.583932 0.34789 0
0.45275 0.45275 0.45275
0.506401 0.506401 0.506401
0.537224 0.537224 0.537224
0.551171 0.551171 0.551171
0 0.501732 0.354971
0 0.550744 0.388235
0.0527199 0.584726 0.399786
0.197162 0.587381 0.370123
0.525597 0.572076 0.322805
0.772305 0.586374 0.248142
0.889509 0.613626 0.250767
0.936431 0.63537 0.283421
0.94229 0.643778 0.319005
0.0584421 0.684337 0.515969
0.17583 0.739971 0.55819
0.245594 0.759243 0.571237
0.350713 0.768505 0.555673
0.562936 0.765209 0.535454
0.752636 0.772641 0.506508
0.850248 0.790585 0.523369
0.898833 0.809766 0.552911
0.921309 0.822187 0.578134
0.246189 0.825422 0.640467
0.3682 0.858427 0.673121
0.449195 0.864027 0.674144
0.552911 0.874647 0.665309
0.71519 0.871153 0.686244
0.83061 0.880171 0.710536
0.893263 0.898787 0.740139
0.925582 0.915404 0.782986
0.941238 0.927428 0.814191
0.547677 0.909163 0.759777
0.644709 0.918639 0.779767
0.700603 0.925505 0.790265
0.769345 0.93518 0.803342
0.861997 0.936034 0.838193
0.921523 0.948028 0.870176
0.955886 0.963211 0.901915
0.974823 0.975647 0.935012
0.985412 0.984939 0.959197
0.793118 0.950347 0.863416
0.83328 0.957366 0.877058
0.859449 0.962798 0.88658
0.901335 0.966247 0.905638
0.94461 0.972717 0.930892
0.974945 0.983566 0.957794
0.993667 0.995071 0.985122
1 1 1
1 1 1
0 0 0.322316
0 0 0.321187
0.100343 0.00125124 0.358465
0.481117 0.166842 0.208698
0.454261 0.318425 0.231418
0.436255 0.436255 0.436255
0.482063 0.482063 0.482063
0.519997 0.519997 0.519997
0.538399 0.538399 0.538399
0 0 0.281163
0 0 0.280842
0.11902 0.0291142 0.311803
0.510826 0.133562 0.128283
0.396307 0.325963 0.276005
0.433371 0.433371 0.433371
0.478935 0.478935 0.478935
0.519005 0.519005 0.519005
0.537377 0.537377 0.537377
0 0.122469 0.231327
0 0.128145 0.238117
0.112657 0.134417 0.175067
0.444999 0.169619 0.0509651
0.545464 0.32578 0.150164
0.459205 0.459205 0.459205
0.503639 0.503639 0.503639
0.518059 0.518059 0.518059
0.536324 0.536324 0.536324
0 0.323293 0.241352
0 0.339467 0.252613
0.0225528 0.358892 0.241657
0.289509 0.342947 0.179522
0.645502 0.361196 0
0.491569 0.477745 0.46157
0.533181 0.533181 0.533181
0.55845 0.55845 0.55845
0.566918 0.566918 0.566918
0 0.500053 0.353277
0 0.545815 0.384741
0.0467842 0.58233 0.397955
0.193942 0.585473 0.368917
0.524132 0.569909 0.320272
0.772702 0.584192 0.244465
0.889296 0.611734 0.248417
0.934966 0.633722 0.282551
0.938704 0.64242 0.320851
0.0574807 0.683543 0.515328
0.170275 0.737591 0.556207
0.242969 0.758267 0.570474
0.348196 0.767727 0.55555
0.561212 0.764569 0.534722
0.752117 0.771923 0.505592
0.85005 0.789899 0.522225
0.898878 0.809125 0.551675
0.921416 0.82153 0.576806
0.244648 0.824659 0.639765
0.363836 0.857877 0.672633
0.446067 0.86363 0.673899
0.551003 0.874281 0.665202
0.713985 0.870954 0.685634
0.830121 0.879911 0.710018
0.893034 0.898573 0.73962
0.925429 0.915206 0.782483
0.941131 0.927245 0.813733
0.542321 0.908675 0.758602
0.641611 0.918273 0.77908
0.698589 0.925216 0.789792
0.767697 0.93518 0.80264
0.861479 0.935958 0.837934
0.921279 0.947906 0.869902
0.955779 0.963119 0.901671
0.974746 0.975586 0.934813
0.985351 0.984878 0.959045
0.791119 0.950027 0.86273
0.831998 0.957122 0.876616
0.858625 0.9626 0.886229
0.900725 0.966201 0.905318
0.944411 0.972686 0.930785
0.974868 0.983536 0.957702
0.993652 0.995056 0.985077
1 1 1
1 1 1
0 0 0.480797
0 0 0.48893
0.0540169 0 0.58793
0.317342 0.131304 0.69723
0.719692 0.399649 0.496834
0.863767 0.418814 0.345571
0.567285 0.536629 0.524269
0.562356 0.562356 0.562356
0.580514 0.580514 0.580514
0 0 0.494087
0 0 0.502113
0.0650187 0 0.58587
0.327977 0.148867 0.673152
0.745815 0.37966 0.463066
0.812131 0.425727 0.343206
0.535225 0.535225 0.535225
0.556512 0.556512 0.556512
0.574807 0.574807 0.574807
0 0.0399023 0.48893
0 0.0488136 0.500282
0.0486152 0.104128 0.534127
0.318822 0.205417 0.589181
0.755047 0.367758 0.413687
0.867582 0.441245 0.335714
0.584665 0.55465 0.541192
0.551019 0.551019 0.551019
0.569421 0.569421 0.569421
0 0.222782 0.301457
0 0.256657 0.354009
0 0.344366 0.487098
0.303365 0.338552 0.402472
0.689387 0.368933 0.28394
0.883177 0.45098 0.258335
0.798352 0.544457 0.417472
0.712871 0.600412 0.544472
0.625711 0.625711 0.625711
0 0.525887 0.445731
0.0113985 0.559182 0.469154
0.156878 0.598383 0.490715
0.266896 0.6047 0.47071
0.55346 0.598367 0.413626
0.816464 0.613535 0.343755
0.946014 0.640528 0.343984
1 0.660945 0.372488
1 0.665278 0.390509
0.0749371 0.694011 0.527001
0.176135 0.741329 0.564294
0.251972 0.764904 0.581277
0.358495 0.774975 0.566369
0.570504 0.772122 0.544533
0.760571 0.779538 0.519097
0.855863 0.79762 0.542168
0.903181 0.816831 0.574197
0.925139 0.829725 0.601633
0.243946 0.824125 0.639261
0.354284 0.856611 0.671443
0.439155 0.862837 0.673472
0.546883 0.873472 0.665003
0.711086 0.870588 0.684367
0.829053 0.879362 0.708888
0.892561 0.8981 0.738476
0.925139 0.914763 0.781415
0.940887 0.926848 0.812772
0.528725 0.907332 0.755291
0.635615 0.917601 0.777859
0.69424 0.924544 0.788754
0.764096 0.93518 0.801144
0.860258 0.93576 0.837247
0.92076 0.947662 0.869291
0.95552 0.962921 0.901152
0.974578 0.975418 0.934401
0.985229 0.984741 0.958709
0.786618 0.94931 0.86125
0.829221 0.956588 0.875593
0.856779 0.962203 0.885542
0.899367 0.96611 0.904631
0.943999 0.97261 0.930556
0.974716 0.983459 0.957534
0.993606 0.995026 0.985
1 1 1
1 1 1
0 0 0.00392157
0 0 0.00390631
0.0131533 0.0198978 0.169924
0.200351 0.106905 0.541573
0.567575 0.348913 0.940826
0.818204 0.570703 0.753277
1 0.555703 0.65893
1 0.548623 0.61355
1 0.55758 0.604822
0 0 0.0140536
0 0 0.0140383
0.0133822 0.0201114 0.186603
0.201587 0.105196 0.546441
0.571939 0.35404 0.93373
0.82269 0.569833 0.74406
1 0.54963 0.648386
1 0.543404 0.602152
1 0.553826 0.594583
0 0.0212863 0.160296
0 0.0205997 0.157992
0.0339818 0.0809033 0.409674
0.265171 0.167941 0.766308
0.584314 0.387808 0.916274
0.836744 0.586084 0.747677
1 0.554543 0.648875
1 0.537972 0.589624
1 0.550179 0.583673
0.0677653 0.12752 0.194827
0.065507 0.127367 0.197604
0.0184482 0.247822 0.584024
0.256916 0.307027 0.762097
0.549661 0.421027 0.809674
0.825513 0.581933 0.691768
1 0.583535 0.644068
1 0.589853 0.631373
1 0.58938 0.625467
0.331762 0.331762 0.331762
0.347753 0.347753 0.347753
0.132692 0.537728 0.637446
0.213382 0.601877 0.750011
0.570825 0.601007 0.655009
0.830625 0.62536 0.597192
0.967346 0.654856 0.592523
1 0.677119 0.609751
1 0.683864 0.626215
0.157748 0.660716 0.631296
0.156359 0.718837 0.686702
0.212619 0.782132 0.745998
0.395529 0.793957 0.7449
0.608316 0.797162 0.703136
0.78851 0.806668 0.690745
0.889479 0.825696 0.706264
0.934035 0.844526 0.734569
0.953826 0.857343 0.757595
0.300252 0.833204 0.681834
0.41207 0.862165 0.729046
0.501625 0.87425 0.742519
0.610574 0.885863 0.742794
0.741085 0.894072 0.749355
0.856123 0.900389 0.780179
0.914382 0.91873 0.811627
0.942641 0.934142 0.84892
0.956588 0.945647 0.87599
0.495872 0.904097 0.747112
0.620142 0.915831 0.774334
0.684413 0.92311 0.786343
0.75729 0.935042 0.798566
0.857389 0.93521 0.835492
0.919676 0.947112 0.867979
0.95494 0.962478 0.900069
0.974227 0.975082 0.933516
0.984985 0.984466 0.958007
0.776257 0.947677 0.857771
0.822919 0.955413 0.873335
0.852628 0.961288 0.883986
0.896468 0.965911 0.903136
0.942946 0.972351 0.929839
0.97438 0.983291 0.957137
0.9935 0.994934 0.984802
1 1 1
1 1 1
0 0 0
0 0 0
0.00474556 0.00474556 0.00474556
0.131258 0.122271 0.199252
0.376181 0.277333 0.626841
0.744793 0.51107 1
0.882429 0.656428 0.923659
0.977584 0.693706 0.90193
1 0.708659 0.895582
0 0 0
0 0 0
0.00595102 0.00595102 0.00595102
0.133577 0.123522 0.207431
0.380224 0.278355 0.637842
0.745754 0.512535 1
0.882643 0.656748 0.920516
0.978439 0.693233 0.899092
1 0.707729 0.892927
0 0 0
0 0 0
0.0229953 0.0229953 0.0229953
0.155856 0.140124 0.277409
0.393393 0.284581 0.67068
0.746685 0.514 1
0.882887 0.657038 0.917327
0.979324 0.692744 0.896193
1 0.706706 0.890227
0.106661 0.106661 0.106661
0.105806 0.105806 0.105806
0.138552 0.177218 0.258442
0.226413 0.270909 0.768688
0.487098 0.349981 0.97171
0.766155 0.570504 1
0.894133 0.691814 0.92224
0.97705 0.71635 0.907561
1 0.719905 0.900008
0.259831 0.259831 0.259831
0.259403 0.259403 0.259403
0.363012 0.363012 0.363012
0.23444 0.534661 0.879499
0.5514 0.582223 0.870909
0.738399 0.653452 0.886137
0.852155 0.730053 0.835828
0.929747 0.752071 0.836973
0.967498 0.76286 0.852171
0.392554 0.59411 0.634043
0.393652 0.593393 0.633021
0.272023 0.756558 0.881117
0.383505 0.797147 0.928191
0.616953 0.802686 0.885557
0.804242 0.815839 0.836484
0.899458 0.837522 0.832609
0.941894 0.855802 0.845487
0.959701 0.86862 0.859205
0.37229 0.774823 0.798627
0.312795 0.854704 0.89781
0.439918 0.893019 0.935882
0.605936 0.903883 0.927855
0.757794 0.911696 0.909377
0.877546 0.92076 0.897688
0.932021 0.935576 0.910872
0.958816 0.949538 0.928267
0.971298 0.960082 0.942885
0.440757 0.911681 0.888777
0.657679 0.93579 0.919417
0.742809 0.942504 0.923659
0.836896 0.947936 0.924086
0.902831 0.960266 0.929183
0.951598 0.971618 0.947524
0.979553 0.983474 0.968841
0.993927 0.994141 0.987716
1 1 1
0.750439 0.943847 0.849226
0.808682 0.952911 0.868559
0.843 0.959274 0.880415
0.889845 0.965545 0.899855
0.940658 0.971817 0.928267
0.973663 0.98294 0.956298
0.993271 0.994766 0.98439
1 1 1
1 1 1
0 0 0
0 0 0
0 0 0
0.070222 0.070222 0.070222
0.288289 0.263416 0.364691
0.694377 0.463478 1
0.875517 0.628931 1
0.948104 0.705196 1
0.979171 0.734844 1
0 0 0
0 0 0
0 0 0
0.0715343 0.0715343 0.0715343
0.28896 0.263828 0.365896
0.695033 0.463798 1
0.875624 0.62916 1
0.948135 0.705318 1
0.979187 0.73489 1
0 0 0
0 0 0
0 0 0
0.0728923 0.0728923 0.0728923
0.289647 0.264225 0.367193
0.69572 0.464149 1
0.875746 0.629419 1
0.948165 0.70544 1
0.979202 0.734966 1
0.0527352 0.0527352 0.0527352
0.051957 0.051957 0.051957
0.0510872 0.0510872 0.0510872
0.183383 0.194568 0.317189
0.40705 0.321981 0.732082
0.728634 0.507164 1
0.875242 0.645472 1
0.950011 0.7084 1
0.979232 0.735103 1
0.243275 0.243275 0.243275
0.242786 0.242786 0.242786
0.243427 0.243427 0.243427
0.257038 0.465248 0.76701
0.520226 0.542565 0.976516
0.721492 0.614969 1
0.846265 0.710826 0.98172
0.90486 0.758984 0.962798
0.937957 0.777279 0.973083
0.492561 0.492561 0.492561
0.49218 0.49218 0.49218
0.534768 0.534768 0.534768
0.353399 0.753079 0.979324
0.596506 0.786099 0.988312
0.798764 0.81004 0.907195
0.870207 0.843412 0.915648
0.905135 0.870954 0.909377
0.925856 0.882506 0.916777
0.342107 0.827146 0.944564
0.342092 0.827039 0.944442
0.432288 0.876219 1
0.636957 0.898253 0.985702
0.786099 0.910918 0.959762
0.886015 0.925216 0.944411
0.939132 0.941268 0.944915
0.963546 0.955245 0.954849
0.975235 0.965454 0.964569
0.49868 0.915358 0.996521
0.619791 0.928527 0.995529
0.756405 0.943557 0.987839
0.845792 0.956786 0.982589
0.916182 0.96849 0.978271
0.962295 0.979889 0.980713
0.988098 0.990555 0.990295
1 1 1
1 1 1
0.783841 0.958968 0.987945
0.873762 0.972091 0.988205
0.910323 0.978668 0.988968
0.949737 0.986419 0.990509
0.983612 0.994736 0.994812
1 1 1
1 1 1
1 1 1
1 1 1
0 0 0
0 0 0
0 0 0
0.00759899 0.00759899 0.00759899
0.262303 0.254658 0.292821
0.627466 0.445335 1
0.867094 0.60856 1
0.946105 0.693385 1
0.978653 0.727398 1
0 0 0
0 0 0
0 0 0
0.00875868 0.00875868 0.00875868
0.262669 0.255024 0.29305
0.628244 0.445624 1
0.867216 0.608713 1
0.946136 0.693446 1
0.978653 0.727428 1
0 0 0
0 0 0
0 0 0
0.00987259 0.00987259 0.00987259
0.263035 0.25539 0.293309
0.629038 0.445899 1
0.867338 0.60885 1
0.946166 0.693507 1
0.978653 0.727459 1
0 0 0
0 0 0
0 0 0
0.0122988 0.0122988 0.0122988
0.263813 0.256168 0.293812
0.630732 0.44651 1
0.867582 0.609155 1
0.946212 0.693629 1
0.978668 0.727535 1
0.19173 0.19173 0.19173
0.191241 0.191241 0.191241
0.190555 0.190555 0.190555
0.287541 0.287907 0.288487
0.45388 0.44242 1
0.702708 0.546258 1
0.855863 0.67245 1
0.923308 0.730236 1
0.959274 0.749935 1
0.451347 0.451347 0.451347
0.45095 0.45095 0.45095
0.450553 0.450553 0.450553
0.587823 0.587823 0.587823
0.548211 0.75877 1
0.783551 0.791043 0.940032
0.861921 0.826993 0.951568
0.900542 0.857328 0.942885
0.918044 0.872663 0.943511
0.413413 0.790845 0.911894
0.413642 0.790631 0.911559
0.413855 0.790433 0.911238
0.540612 0.885328 1
0.756924 0.9066 0.993988
0.880919 0.922667 0.965331
0.938689 0.940688 0.955886
0.959991 0.956313 0.966262
0.97145 0.967468 0.972732
0.543069 0.915084 1
0.542962 0.915068 1
0.568048 0.918135 1
0.827008 0.951675 0.996689
0.918181 0.968109 0.987579
0.967727 0.98143 0.987213
0.991913 0.992737 0.994614
1 1 1
1 1 1
0.738949 0.947585 1
0.778729 0.953643 1
0.896025 0.973327 0.99826
0.955184 0.986557 0.996796
0.992035 0.997513 0.999207
1 1 1
1 1 1
1 1 1
1 1 1
0 0 0
0 0 0
0 0 0
0 0 0
0.169848 0.169848 0.169848
0.546456 0.421897 0.8365
0.855055 0.594873 1
0.943893 0.687419 1
0.978332 0.723918 1
0 0 0
0 0 0
0 0 0
0 0 0
0.171527 0.171527 0.171527
0.547372 0.422248 0.838483
0.855192 0.594995 1
0.943908 0.687449 1
0.978332 0.723934 1
0 0 0
0 0 0
0 0 0
0 0 0
0.173205 0.173205 0.173205
0.548287 0.422583 0.840436
0.855314 0.595117 1
0.943938 0.68748 1
0.978347 0.723934 1
0 0 0
0 0 0
0 0 0
0 0 0
0.176822 0.176822 0.176822
0.550225 0.423331 0.844587
0.855604 0.595376 1
0.943999 0.687556 1
0.978363 0.723949 1
0.0428473 0.0428473 0.0428473
0.0420081 0.0420081 0.0420081
0.0409857 0.0409857 0.0409857
0.0386969 0.0386969 0.0386969
0.273594 0.255467 0.471595
0.611521 0.443687 1
0.864073 0.611627 1
0.944137 0.687694 1
0.978393 0.72398 1
0.387121 0.387121 0.387121
0.386664 0.386664 0.386664
0.386236 0.386236 0.386236
0.38529 0.38529 0.38529
0.410574 0.689845 1
0.746395 0.74049 0.965393
0.845472 0.788754 0.981537
0.892515 0.82565 0.966064
0.913054 0.842115 0.964981
0.48629 0.749737 0.841184
0.486686 0.749462 0.840681
0.487083 0.749172 0.840146
0.487922 0.748608 0.839078
0.680476 0.893523 1
0.862623 0.912963 0.971572
0.931884 0.933516 0.956359
0.955337 0.9505 0.967041
0.967605 0.962325 0.972854
0.540185 0.914137 1
0.540063 0.914122 1
0.53994 0.914092 1
0.640742 0.926894 1
0.894011 0.963287 0.994324
0.96257 0.979599 0.989334
0.990784 0.992325 0.994949
1 1 1
1 1 1
0.7608 0.950713 1
0.7608 0.950713 1
0.7608 0.950713 1
0.921172 0.978866 1
0.990097 0.997024 0.999802
1 1 1
1 1 1
1 1 1
1 1 1
