public/textures/grade/Canon/Gems-CLog3.cube
TITLE "Generated by Resolve"
LUT_3D_SIZE 5
0 0 0.00790417
0.225162 0.00462348 0
0.328786 0.328786 0.328786
0.466682 0.466682 0.466682
0.524132 0.524132 0.524132
0 0.136172 0.0289311
0.093492 0.137896 0
0.347463 0.326741 0.303258
0.480552 0.480552 0.480552
0.524132 0.524132 0.524132
0 0.50341 0.356649
0.0587167 0.58703 0.401511
0.527306 0.574182 0.325154
0.889479 0.61529 0.252842
0.945418 0.64506 0.317388
0.252735 0.828656 0.64358
0.452369 0.864378 0.674311
0.716411 0.871351 0.686824
0.893477 0.899016 0.740673
0.941344 0.927611 0.814633
0.794781 0.950607 0.863874
0.860288 0.962982 0.8869
0.944793 0.972763 0.931014
0.993698 0.995087 0.985168
1 1 1
0 0 0.322316
0.100343 0.00125124 0.358465
0.454261 0.318425 0.231418
0.482063 0.482063 0.482063
0.538399 0.538399 0.538399
0 0.122469 0.231327
0.112657 0.134417 0.175067
0.545464 0.32578 0.150164
0.503639 0.503639 0.503639
0.536324 0.536324 0.536324
0 0.500053 0.353277
0.0467842 0.58233 0.397955
0.524132 0.569909 0.320272
0.889296 0.611734 0.248417
0.938704 0.64242 0.320851
0.244648 0.824659 0.639765
0.446067 0.86363 0.673899
0.713985 0.870954 0.685634
0.893034 0.898573 0.73962
0.941131 0.927245 0.813733
0.791119 0.950027 0.86273
0.858625 0.9626 0.886229
0.944411 0.972686 0.930785
0.993652 0.995056 0.985077
1 1 1
0 0 0.00392157
0.0131533 0.0198978 0.169924
0.567575 0.348913 0.940826
1 0.555703 0.65893
1 0.55758 0.604822
0 0.0212863 0.160296
0.0339818 0.0809033 0.409674
0.584314 0.387808 0.916274
1 0.554543 0.648875
1 0.550179 0.583673
0.331762 0.331762 0.331762
0.132692 0.537728 0.637446
0.570825 0.601007 0.655009
0.967346 0.654856 0.592523
1 0.683864 0.626215
0.300252 0.833204 0.681834
0.501625 0.87425 0.742519
0.741085 0.894072 0.749355
0.914382 0.91873 0.811627
0.956588 0.945647 0.87599
0.776257 0.947677 0.857771
0.852628 0.961288 0.883986
0.942946 0.972351 0.929839
0.9935 0.994934 0.984802
1 1 1
0 0 0
0 0 0
0.288289 0.263416 0.364691
0.875517 0.628931 1
0.979171 0.734844 1
0 0 0
0 0 0
0.289647 0.264225 0.367193
0.875746 0.629419 1
0.979202 0.734966 1
0.243275 0.243275 0.243275
0.243427 0.243427 0.243427
0.520226 0.542565 0.976516
0.846265 0.710826 0.98172
0.937957 0.777279 0.973083
0.342107 0.827146 0.944564
0.432288 0.876219 1
0.786099 0.910918 0.959762
0.939132 0.941268 0.944915
0.975235 0.965454 0.964569
0.783841 0.958968 0.987945
0.910323 0.978668 0.988968
0.983612 0.994736 0.994812
1 1 1
1 1 1
0 0 0
0 0 0
0.169848 0.169848 0.169848
0.855055 0.594873 1
0.978332 0.723918 1
0 0 0
0 0 0
0.173205 0.173205 0.173205
0.855314 0.595117 1
0.978347 0.723934 1
0.0428473 0.0428473 0.0428473
0.0409857 0.0409857 0.0409857
0.273594 0.255467 0.471595
0.864073 0.611627 1
0.978393 0.72398 1
0.48629 0.749737 0.841184
0.487083 0.749172 0.840146
0.680476 0.893523 1
0.931884 0.933516 0.956359
0.967605 0.962325 0.972854
0.7608 0.950713 1
0.7608 0.950713 1
0.990097 0.997024 0.999802
1 1 1
1 1 1
