public/textures/grade/Canon/Guardians-CLog.cube
TITLE "Generated by Resolve"
LUT_3D_SIZE 5
0 0.00486763 0.00132753
0.321447 0 0
0.657176 0 0
0.959396 0 0
1 0 0
0 0.254154 0
0.244251 0.242069 0
0.591913 0.204227 0
0.895644 0.155657 0
1 0.0193179 0
0 0.526223 0
0.191699 0.543359 0
0.519478 0.528954 0
0.803204 0.518486 0
1 0.519158 0
0 0.801877 0
0.268513 0.813352 0
0.53994 0.806287 0.009308
0.786084 0.802106 0.0368353
0.982605 0.815442 0.086305
0.331868 1 0.149615
0.478813 1 0.167559
0.660624 1 0.180529
0.847517 1 0.196338
1 1 0.228595
0 0 0.40351
0.281773 0 0.34342
0.636088 0 0.269291
0.943664 0 0.217563
1 0 0.200015
0 0.238865 0.239475
0.212833 0.24155 0.24686
0.596841 0.199069 0.203494
0.898543 0.150866 0.193668
1 0 0.187381
0 0.527794 0
0.193713 0.548791 0.0153658
0.527672 0.535546 0.0277562
0.811337 0.525979 0.0464027
1 0.527047 0.0939956
0 0.797238 0
0.261051 0.812238 0
0.537575 0.805158 0.00846876
0.785367 0.800961 0.0361486
0.982651 0.814328 0.0857404
0.323507 1 0.148104
0.4748 1 0.167452
0.65893 1 0.180423
0.846998 1 0.196277
1 1 0.228595
0 0 0.846128
0.222354 0 0.794842
0.597116 0 0.713008
0.917189 0 0.648356
1 0 0.618296
0 0.187243 0.70811
0.190799 0.188479 0.694835
0.568948 0.149569 0.650446
0.888731 0.0889143 0.623102
1 0 0.606409
0 0.50837 0.518746
0.161074 0.539528 0.550439
0.494469 0.534066 0.54815
0.811704 0.519081 0.530251
1 0.520287 0.56405
0 0.789746 0.328801
0.260456 0.821073 0.39266
0.54377 0.814939 0.401907
0.795056 0.809644 0.40943
0.988205 0.822065 0.443549
0.298665 1 0.143755
0.462974 1 0.1664
0.654169 1 0.180133
0.845762 1 0.196094
1 1 0.228595
0 0 1
0.106813 0 1
0.547463 0 1
0.890074 0 1
1 0 0.981811
0 0.0214847 1
0.110536 0.00767529 1
0.547936 0 1
0.890791 0 1
1 0 0.977432
0 0.468101 0.893111
0.0799573 0.497337 0.904646
0.482185 0.49482 0.884367
0.798138 0.482475 0.868879
1 0.477531 0.889189
0 0.773754 0.78616
0.193225 0.80763 0.819577
0.510887 0.806699 0.818875
0.770138 0.801633 0.815717
0.982956 0.809705 0.82446
0.225483 1 0.750454
0.435172 1 0.76585
0.641413 1 0.761898
0.839353 1 0.754101
0.996429 1 0.759106
0 0 1
0 0 1
0.444144 0 1
0.858717 0 1
1 0 1
0 0 1
0 0 1
0.446754 0 1
0.859266 0 1
1 0 1
0 0.326635 1
0 0.324254 1
0.421012 0.341741 1
0.809171 0.314672 1
1 0.262623 1
0 0.748974 1
0 0.748577 1
0.448768 0.78558 1
0.762707 0.778698 1
0.9832 0.787457 1
0.145342 1 1
0.265095 1 1
0.597208 1 1
0.822232 1 1
0.992615 1 1
