public/textures/grade/Canon/Guardians-CLog2.cube
TITLE "Generated by Resolve"
LUT_3D_SIZE 5
0.0270237 0.0354925 0.0334173
0.210056 0.00782788 0.00683604
0.620676 0 0
1 0 0
1 0 0
0 0.169299 0
0.161929 0.155886 0
0.589319 0.0972305 0
1 0 0
1 0 0
0 0.511803 0
0.0855879 0.51632 0
0.492744 0.500191 0
0.88275 0.480522 0
1 0.440879 0
0.171695 0.881895 0.00419623
0.26276 0.883253 0.0189975
0.544778 0.876127 0.0484627
0.855711 0.871977 0.0872053
0.982422 0.880674 0.122103
0.458732 1 0.165911
0.498726 1 0.169406
0.663813 1 0.180804
0.898787 1 0.203906
1 1 0.228595
0.0157778 0.0174105 0.23949
0.185763 0 0.209277
0.613108 0 0.129229
1 0 0.0708782
1 0 0.0673075
0 0.160678 0.160021
0.135027 0.156741 0.158572
0.591348 0.0950332 0.104799
1 0 0.0591135
1 0 0.0415351
0 0.509651 0
0.0808881 0.514717 0
0.49189 0.498589 0
0.883146 0.478798 0
1 0.438697 0
0.167117 0.881559 0.00323491
0.259693 0.88304 0.0184176
0.543862 0.875959 0.048249
0.855573 0.871778 0.0870527
0.982406 0.880491 0.121996
0.456962 1 0.165743
0.497276 1 0.169284
0.663249 1 0.180774
0.898711 1 0.203906
1 1 0.228595
0 0 0.798642
0.11194 0 0.770474
0.568597 0 0.672312
1 0 0.588724
1 0 0.573098
0 0.0829938 0.730938
0.0966964 0.0788586 0.717281
0.559899 0.012665 0.64863
1 0 0.582193
1 0 0.56669
0 0.486183 0.496071
0.0533455 0.508522 0.518654
0.466972 0.506462 0.520043
0.889525 0.483253 0.506783
1 0.440223 0.536461
0.131991 0.878798 0
0.236301 0.881575 0.0142367
0.537331 0.875059 0.0471962
0.85481 0.870588 0.0863355
0.982361 0.879133 0.121172
0.443885 1 0.16437
0.48658 1 0.168307
0.659175 1 0.180438
0.898085 1 0.2038
1 1 0.228595
0 0 1
0 0 1
0.476967 0 1
0.968673 0 1
1 0 1
0 0 1
0 0 1
0.477882 0 1
0.96878 0 1
1 0 1
0 0.390921 1
0 0.390265 1
0.429908 0.412711 0.987091
0.891051 0.380545 0.964645
1 0.285466 0.999008
0 0.84802 0.859998
0.0553902 0.863691 0.875441
0.500603 0.877836 0.888945
0.842512 0.86981 0.882322
0.980697 0.873838 0.887465
0.358404 1 0.840742
0.42034 1 0.842008
0.631617 1 0.836454
0.888869 1 0.825315
0.994644 1 0.828779
0 0 1
0 0 1
0.21857 0 1
0.945922 0 1
1 0 1
0 0 1
0 0 1
0.2206 0 1
0.945998 0 1
1 0 1
0 0 1
0 0 1
0.234653 0 1
0.946517 0 1
1 0 1
0 0.828153 1
0 0.828077 1
0.342687 0.862181 1
0.834943 0.85124 1
0.980026 0.855634 1
0.145357 1 1
0.145357 1 1
0.543191 1 1
0.875929 1 1
0.992615 1 1
