public/textures/grade/Canon/Guardians-CLog2.cube
TITLE "Generated by Resolve"
LUT_3D_SIZE 33
0.0270237 0.0354925 0.0334173
0.0532845 0.0306401 0.0251621
0.0662394 0.0290074 0.0237125
0.0813153 0.0269627 0.022034
0.0995804 0.0245823 0.0200809
0.121126 0.0215457 0.0175479
0.1467 0.0179294 0.0146487
0.176089 0.0133822 0.0111086
0.210056 0.00782788 0.00683604
0.248203 0.00132753 0.00195315
0.290654 0 0
0.337133 0 0
0.387915 0 0
0.442496 0 0
0.500008 0 0
0.559853 0 0
0.620676 0 0
0.682078 0 0
0.744595 0 0
0.802136 0 0
0.856977 0 0
0.907881 0 0
0.95491 0 0
0.997421 0 0
1 0 0
1 0 0
1 0 0
1 0 0
1 0 0
1 0 0
1 0 0
1 0 0
1 0 0
0.0263676 0.0448157 0.0262608
0.0422217 0.0428016 0.0239414
0.0594949 0.0400702 0.0208133
0.0775921 0.0375982 0.0184176
0.0967575 0.0350042 0.0162509
0.11902 0.0320592 0.013962
0.14461 0.0283513 0.0110933
0.174212 0.0240024 0.00776684
0.208347 0.0185397 0.00378424
0.246693 0.0121309 0
0.289631 0.00476081 0
0.336461 0 0
0.38677 0 0
0.441337 0 0
0.49865 0 0
0.55877 0 0
0.619791 0 0
0.68098 0 0
0.741604 0 0
0.802213 0 0
0.857053 0 0
0.907927 0 0
0.954986 0 0
0.997482 0 0
1 0 0
1 0 0
1 0 0
1 0 0
1 0 0
1 0 0
1 0 0
1 0 0
1 0 0
0.024033 0.0543679 0.0208896
0.0381323 0.0527657 0.0194705
0.0531624 0.0508431 0.0177005
0.0716564 0.048188 0.0153048
0.0924086 0.0453498 0.0129397
0.115465 0.0421454 0.0104219
0.141787 0.0386206 0.0077821
0.171756 0.0343175 0.00457771
0.206226 0.0291905 0.0009308
0.2448 0.0230106 0
0.287678 0.0155642 0
0.334752 0.00691234 0
0.385748 0 0
0.440162 0 0
0.497566 0 0
0.557458 0 0
0.618448 0 0
0.679881 0 0
0.740505 0 0
0.799252 0 0
0.857114 0 0
0.908003 0 0
0.955047 0 0
0.997559 0 0
1 0 0
1 0 0
1 0 0
1 0 0
1 0 0
1 0 0
1 0 0
1 0 0
1 0 0
0.0202182 0.0659953 0.0139925
0.0337987 0.0647593 0.0131838
0.0473793 0.0631418 0.0120089
0.0649119 0.0610056 0.0104829
0.0859998 0.0581674 0.00839246
0.11043 0.0550546 0.00614939
0.137545 0.0514076 0.00355535
0.168383 0.0471962 0.000656138
0.20322 0.0420386 0
0.241886 0.0360113 0
0.285115 0.0290074 0
0.332616 0.0209506 0
0.383886 0.0115206 0
0.43859 0.000701915 0
0.495705 0 0
0.55555 0 0
0.616419 0 0
0.677928 0 0
0.738827 0 0
0.79765 0 0
0.854322 0 0
0.90808 0 0
0.955123 0 0
0.997635 0 0
1 0 0
1 0 0
1 0 0
1 0 0
1 0 0
1 0 0
1 0 0
1 0 0
1 0 0
0.0153201 0.0801404 0.0059968
0.0287785 0.0791791 0.00560006
0.0418402 0.0779126 0.00495918
0.0584115 0.076173 0.00401312
0.0789654 0.0737163 0.00260929
0.103532 0.0705425 0.000701915
0.131334 0.0668498 0
0.163134 0.0627146 0
0.198489 0.0578164 0
0.237888 0.0520943 0
0.281544 0.0454566 0
0.329122 0.0376898 0
0.380484 0.0287175 0
0.43566 0.0184939 0
0.493339 0.00712596 0
0.553338 0 0
0.61384 0 0
0.674998 0 0
0.736004 0 0
0.795071 0 0
0.851987 0 0
0.905409 0 0
0.955215 0 0
0.997726 0 0
1 0 0
1 0 0
1 0 0
1 0 0
1 0 0
1 0 0
1 0 0
1 0 0
1 0 0
0.00880446 0.0973373 0
0.0222324 0.0964828 0
0.0349889 0.0953384 0
0.0510262 0.0939498 0
0.0709239 0.0919203 0
0.0951553 0.0891737 0
0.123354 0.0857252 0
0.155932 0.0817121 0
0.192004 0.0768902 0
0.232105 0.0712902 0
0.276249 0.0649119 0
0.324407 0.0577859 0
0.376303 0.0493172 0
0.43151 0.0396429 0
0.489509 0.0288548 0
0.549676 0.0166018 0
0.610605 0.00311284 0
0.671199 0 0
0.731899 0 0
0.790875 0 0
0.84831 0 0
0.902159 0 0
0.952331 0 0
0.997848 0 0
1 0 0
1 0 0
1 0 0
1 0 0
1 0 0
1 0 0
1 0 0
1 0 0
1 0 0
6.10361e-05 0.117937 0
0.0142519 0.117144 0
0.0272068 0.116182 0
0.0429389 0.115099 0
0.0622873 0.113252 0
0.0858625 0.110994 0
0.113909 0.10782 0
0.146715 0.103883 0
0.183856 0.0995041 0
0.224903 0.0941634 0
0.269413 0.0881056 0
0.317769 0.0811322 0
0.370291 0.0733806 0
0.426001 0.0643778 0
0.48394 0.0543984 0
0.544411 0.0430457 0
0.605432 0.0305791 0
0.666697 0.0166018 0
0.727138 0.000457771 0
0.785321 0 0
0.842145 0 0
0.896406 0 0
0.947707 0 0
0.994522 0 0
1 0 0
1 0 0
1 0 0
1 0 0
1 0 0
1 0 0
1 0 0
1 0 0
1 0 0
0 0.141665 0
0.00448615 0.140993 0
0.0179294 0.140276 0
0.033341 0.1393 0
0.0528573 0.138018 0
0.0758068 0.136095 0
0.103655 0.133532 0
0.136233 0.129961 0
0.173266 0.125658 0
0.21503 0.120577 0
0.260792 0.115068 0
0.309789 0.108598 0
0.36257 0.101106 0
0.418296 0.0927596 0
0.476738 0.0836805 0
0.537346 0.0733349 0
0.598352 0.0619821 0
0.659663 0.0495003 0
0.720211 0.0350652 0
0.779034 0.0188296 0
0.835477 3.0518e-05 0
0.88838 0 0
0.939498 0 0
0.987808 0 0
1 0 0
1 0 0
1 0 0
1 0 0
1 0 0
1 0 0
1 0 0
1 0 0
1 0 0
0 0.169299 0
0 0.168994 0
0.00671397 0.168231 0
0.022858 0.167468 0
0.0421302 0.166171 0
0.0651713 0.164752 0
0.0925307 0.162524 0
0.124819 0.159533 0
0.161929 0.155886 0
0.203861 0.151202 0
0.249821 0.145785 0
0.299443 0.139757 0
0.352865 0.132891 0
0.40914 0.125383 0
0.467704 0.116945 0
0.528328 0.107439 0
0.589319 0.0972305 0
0.650782 0.086183 0
0.711208 0.073579 0
0.769909 0.059617 0
0.826566 0.0433051 0
0.879713 0.0239719 0
0.929839 0.00030518 0
0.976654 0 0
1 0 0
1 0 0
1 0 0
1 0 0
1 0 0
1 0 0
1 0 0
1 0 0
1 0 0
0 0.200427 0
0 0.200626 0
0 0.200275 0
0.0109712 0.199527 0
0.030518 0.198428 0
0.0535134 0.197284 0
0.0805676 0.195438 0
0.112612 0.192996 0
0.149523 0.189929 0
0.191241 0.18587 0
0.237446 0.180911 0
0.287572 0.17525 0
0.341543 0.168994 0
0.39852 0.162127 0
0.457069 0.154543 0
0.517815 0.145968 0
0.578943 0.136751 0
0.639994 0.127169 0
0.700404 0.116182 0
0.758724 0.104417 0
0.814878 0.0905623 0
0.867811 0.074815 0
0.918059 0.0556649 0
0.964828 0.0319066 0
1 0.00158694 0
1 0 0
1 0 0
1 0 0
1 0 0
1 0 0
1 0 0
1 0 0
1 0 0
0 0.23537 0
0 0.235813 0
0 0.235752 0
0 0.23563 0
0.018204 0.234607 0
0.0415198 0.233799 0
0.0683604 0.232364 0
0.0999161 0.23032 0
0.136507 0.227893 0
0.177966 0.22446 0
0.224201 0.220203 0
0.274662 0.215091 0
0.328786 0.209247 0
0.386145 0.203082 0
0.445289 0.196246 0
0.506157 0.188693 0
0.567041 0.180682 0
0.627878 0.171984 0
0.688014 0.162951 0
0.745861 0.152804 0
0.801541 0.141741 0
0.854002 0.129015 0
0.903502 0.113771 0
0.949416 0.0952316 0
0.992309 0.0722972 0
1 0.0431067 0
1 0.00543221 0
1 0 0
1 0 0
1 0 0
1 0 0
1 0 0
1 0 0
0 0.274296 0
0 0.274723 0
0 0.275074 0
0 0.275288 0
0.00503548 0.274647 0
0.0291447 0.273945 0
0.0561685 0.272969 0
0.0873426 0.271443 0
0.123598 0.2692 0
0.16492 0.266575 0
0.21088 0.262974 0
0.261326 0.258579 0
0.315541 0.253407 0
0.372427 0.24773 0
0.431815 0.241627 0
0.493034 0.235187 0
0.554147 0.228183 0
0.614801 0.220722 0
0.674296 0.212833 0
0.73196 0.20473 0
0.786801 0.195544 0
0.838437 0.185626 0
0.887053 0.173846 0
0.932296 0.159777 0
0.9738 0.142565 0
1 0.12134 0
1 0.0947127 0
1 0.0614328 0
1 0.0191958 0
1 0 0
1 0 0
1 0 0
1 0 0
0 0.316518 0
0 0.317311 0
0 0.317906 0
0 0.318135 0
0 0.318303 0
0.0166323 0.317479 0
0.0441901 0.317006 0
0.0754101 0.315938 0
0.111345 0.314229 0
0.151888 0.31191 0
0.197665 0.309178 0
0.247761 0.30547 0
0.301839 0.301045 0
0.358694 0.296056 0
0.418235 0.290486 0
0.479149 0.284611 0
0.540215 0.278569 0
0.600595 0.272633 0
0.660029 0.266011 0
0.716976 0.259113 0
0.771313 0.251972 0
0.822385 0.244129 0
0.870054 0.235386 0
0.913924 0.224659 0
0.954421 0.2121 0
0.991669 0.19707 0
1 0.178073 0
1 0.1552 0
1 0.127657 0
1 0.0943008 0
1 0.0555886 0
1 0.0101778 0
1 0 0
0 0.362036 0
0 0.363043 0
0 0.363546 0
0 0.364172 0
0 0.364446 0
0.00621042 0.364172 0
0.0336767 0.363622 0
0.0651713 0.36318 0
0.10074 0.36202 0
0.140887 0.360265 0
0.185748 0.357839 0
0.235325 0.354849 0
0.289174 0.351339 0
0.345724 0.347097 0
0.40499 0.342245 0
0.465507 0.337148 0
0.526177 0.332021 0
0.586358 0.326726 0
0.64535 0.321233 0
0.701839 0.315801 0
0.755581 0.310353 0
0.805798 0.304265 0
0.852659 0.297917 0
0.895552 0.290135 0
0.934936 0.2813 0
0.970581 0.270619 0
1 0.25745 0
1 0.24213 0
1 0.223484 0
1 0.201877 0
1 0.177951 0
1 0.151064 0
1 0.122087 0
0 0.410239 0
0 0.411124 0
0 0.411978 0
0 0.412528 0
0 0.41326 0
0 0.413321 0
0.0260624 0.41294 0
0.0569162 0.412528 0
0.0920577 0.411978 0
0.132082 0.410864 0
0.176272 0.409018 0
0.224979 0.406516 0
0.277852 0.403449 0
0.33373 0.399939 0
0.392325 0.395895 0
0.452201 0.391546 0
0.513207 0.387335 0
0.572946 0.38291 0
0.631464 0.378424 0
0.687297 0.374044 0
0.740185 0.369696 0
0.789883 0.365591 0
0.835676 0.3608 0
0.877836 0.355444 0
0.916014 0.349432 0
0.950515 0.342275 0
0.981659 0.333547 0
1 0.323095 0
1 0.310658 0
1 0.296925 0
1 0.281132 0
1 0.264607 0
1 0.246906 0
0 0.46038 0
0 0.461631 0
0 0.462272 0
0 0.463233 0
0 0.463844 0
0 0.464378 0
0.0211032 0.463951 0
0.0519112 0.464073 0
0.0864881 0.463661 0
0.125399 0.462913 0
0.169024 0.46157 0
0.217273 0.459907 0
0.268925 0.457465 0
0.324331 0.454475 0
0.382345 0.451026 0
0.44155 0.447349 0
0.501564 0.443458 0
0.560693 0.439734 0
0.618601 0.436088 0
0.673808 0.432654 0
0.726253 0.429786 0
0.774914 0.426596 0
0.820066 0.423255 0
0.86125 0.420127 0
0.898497 0.415976 0
0.931899 0.411536 0
0.961822 0.406043 0
0.988113 0.399069 0
1 0.391272 0
1 0.382513 0
1 0.372595 0
1 0.361959 0
1 0.350958 0
0 0.511803 0
0 0.513039 0
0 0.51397 0
0 0.514717 0
0 0.515648 0
0 0.51606 0
0.0217899 0.516091 0
0.0516365 0.516075 0
0.0855879 0.51632 0
0.123766 0.515846 0
0.166232 0.514977 0
0.213016 0.513542 0
0.263798 0.511543 0
0.318059 0.509071 0
0.375189 0.50634 0
0.43357 0.503395 0
0.492744 0.500191 0
0.551003 0.497063 0
0.608103 0.494072 0
0.662287 0.491508 0
0.713939 0.489052 0
0.761822 0.486854 0
0.806409 0.485069 0
0.846586 0.482918 0
0.88275 0.480522 0
0.915419 0.478004 0
0.944152 0.474754 0
0.969146 0.470726 0
0.991623 0.465919 0
1 0.460487 0
1 0.454444 0
1 0.447959 0
1 0.440879 0
0 0.564126 0
0 0.564965 0
0 0.565896 0
0 0.566888 0
0 0.567514 0
0.00195315 0.568063 0
0.0278019 0.568093 0
0.0569467 0.568597 0
0.0895552 0.568689 0
0.126452 0.568521 0
0.1682 0.568185 0
0.213825 0.567224 0
0.263294 0.565667 0
0.316197 0.563638 0
0.371618 0.561288 0
0.428824 0.558663 0
0.486793 0.555917 0
0.544015 0.553307 0
0.599908 0.550912 0
0.653391 0.548898 0
0.704463 0.547387 0
0.751476 0.545968 0
0.794919 0.544701 0
0.834287 0.543572 0
0.86978 0.542794 0
0.901274 0.54136 0
0.929305 0.53994 0
0.953353 0.537713 0
0.974578 0.535271 0
0.993027 0.532219 0
1 0.528847 0
1 0.525017 0
1 0.520638 0
0 0.615946 0
0 0.616999 0
0 0.617517 0
0 0.618326 0
0 0.619104 0
0.0162051 0.619135 0
0.0403601 0.619821 0
0.067628 0.620203 0
0.0990463 0.620447 0
0.135042 0.620691 0
0.174777 0.620386 0
0.219074 0.619593 0
0.267018 0.618387 0
0.318334 0.6168 0
0.372442 0.615152 0
0.428168 0.612924 0
0.484352 0.610681 0
0.540551 0.608438 0
0.595239 0.606439 0
0.647883 0.6047 0
0.697612 0.603357 0
0.74374 0.602472 0
0.786313 0.601846 0
0.825162 0.601785 0
0.85948 0.601541 0
0.890135 0.601144 0
0.917464 0.60087 0
0.940551 0.600107 0
0.961151 0.599176 0
0.97879 0.597833 0.00154116
0.993378 0.596307 0.00486763
1 0.594003 0.00726329
1 0.591455 0.00885023
0 0.666804 0
0 0.667597 0
0 0.668208 0
0.000106813 0.668498 0
0.017319 0.668849 0
0.0364691 0.669581 0
0.0585794 0.670039 0
0.0846113 0.670832 0
0.114366 0.671138 0
0.148363 0.671214 0
0.187091 0.671305 0
0.229313 0.670771 0
0.275425 0.66981 0
0.324971 0.668452 0
0.377264 0.666728 0
0.431357 0.664759 0
0.485985 0.662791 0
0.540734 0.660822 0
0.594003 0.659159 0
0.645823 0.658061 0
0.69424 0.657069 0
0.739452 0.656474 0
0.781064 0.656291 0
0.818647 0.656413 0
0.852445 0.656962 0
0.882399 0.657374 0
0.908705 0.657572 0.00227359
0.931502 0.658076 0.00709545
0.950973 0.657908 0.011368
0.96791 0.657725 0.0158083
0.981949 0.657313 0.0197299
0.993561 0.656367 0.0226902
1 0.654887 0.0247196
0 0.715358 0
0.00901808 0.715679 0
0.0190127 0.716136 0
0.0311589 0.716686 0
0.0451057 0.717083 0
0.0625315 0.71783 0
0.0833906 0.718578 0
0.107439 0.71899 0
0.135256 0.719356 0
0.167865 0.719799 0
0.204211 0.719631 0
0.244465 0.719188 0
0.289158 0.718608 0
0.33669 0.717464 0
0.386969 0.715984 0
0.438834 0.714321 0
0.49192 0.712489 0
0.544945 0.710704 0
0.596689 0.709239 0
0.646784 0.708034 0
0.693874 0.707271 0
0.738003 0.706844 0
0.778668 0.707286 0
0.815473 0.707759 0.00177005
0.848386 0.708415 0.007187
0.87747 0.709148 0.0126802
0.903288 0.71017 0.0184634
0.925155 0.710826 0.0236057
0.944137 0.711666 0.0286564
0.96025 0.711864 0.0329747
0.9738 0.7122 0.037232
0.985153 0.712322 0.0408179
0.992309 0.711772 0.0429541
0.0370031 0.761501 0
0.0462196 0.761715 0
0.0549172 0.762188 0
0.0654765 0.762753 0
0.0785687 0.763363 0
0.0941634 0.763684 0
0.113146 0.764385 0
0.135653 0.764935 0
0.1617 0.765301 0
0.191638 0.765438 0
0.226291 0.765621 0
0.264576 0.765164 0
0.306386 0.764431 0
0.351614 0.763348 0
0.399771 0.762051 0
0.450111 0.760693 0
0.501274 0.75906 0
0.552132 0.757473 0
0.602426 0.756024 0
0.651026 0.754955 0
0.696803 0.754345 0.00315862
0.739712 0.75404 0.00823987
0.77911 0.754147 0.0136263
0.814893 0.754665 0.0193027
0.847211 0.755825 0.0255589
0.875486 0.756802 0.031342
0.900298 0.757794 0.0368811
0.921584 0.759152 0.0424201
0.939864 0.759976 0.047303
0.955703 0.760922 0.0521401
0.968521 0.76144 0.0560769
0.979538 0.76202 0.0598459
0.986236 0.762005 0.0619821
0.079408 0.804868 0
0.0878004 0.805341 0
0.095491 0.805737 0
0.104585 0.805875 0
0.116381 0.806363 0
0.130785 0.806897 0
0.147982 0.807324 0
0.168292 0.807691 0
0.192737 0.808057 0
0.220462 0.808164 0
0.252247 0.808011 0
0.288609 0.807874 0
0.328038 0.807187 0
0.37113 0.806073 0
0.416785 0.804746 0
0.464607 0.803281 0.000137331
0.513375 0.80177 0.0043183
0.562875 0.800519 0.00898756
0.611307 0.799084 0.0133364
0.657984 0.798016 0.0180209
0.70248 0.797375 0.0230716
0.744091 0.797101 0.028336
0.782223 0.797253 0.0336919
0.816815 0.797757 0.0392462
0.847929 0.798611 0.0450599
0.8757 0.800015 0.0513161
0.899763 0.801175 0.0569314
0.920516 0.802411 0.0623484
0.938384 0.803677 0.0675059
0.95349 0.804578 0.0719158
0.966049 0.805631 0.0762036
0.976486 0.806561 0.0798047
0.982971 0.806699 0.0819867
0.124453 0.845075 0
0.132067 0.84538 0
0.138781 0.845701 0
0.147189 0.846052 0
0.157748 0.846418 0
0.170245 0.84651 0
0.185733 0.846983 0
0.204578 0.847364 0
0.226307 0.847395 0
0.252461 0.847547 0
0.281773 0.847303 0.00157168
0.315084 0.84683 0.00535592
0.35256 0.846387 0.00978103
0.392996 0.84535 0.0137789
0.436149 0.844022 0.0177615
0.481468 0.842496 0.0217441
0.528176 0.840925 0.025864
0.575311 0.839399 0.0301061
0.622187 0.838254 0.0348821
0.667018 0.837156 0.0394751
0.709972 0.836378 0.0443122
0.750256 0.836072 0.0495308
0.78735 0.836164 0.054963
0.820981 0.836606 0.0604868
0.851102 0.837339 0.0660716
0.878019 0.838636 0.0721141
0.901274 0.839933 0.0776074
0.921386 0.841199 0.0827955
0.938811 0.842649 0.0880446
0.953429 0.843671 0.0923323
0.965591 0.844877 0.0965744
0.975677 0.845685 0.0999771
0.981826 0.845975 0.102083
0.171695 0.881895 0.00419623
0.17821 0.882139 0.00544747
0.184161 0.882353 0.0065919
0.191318 0.882261 0.00747692
0.200549 0.882551 0.00917067
0.212055 0.882826 0.0112001
0.226047 0.883116 0.0135958
0.242374 0.883116 0.0159304
0.26276 0.883253 0.0189975
0.285893 0.883085 0.0220493
0.313451 0.882872 0.0256504
0.344137 0.882277 0.0291295
0.378897 0.881651 0.0331273
0.416739 0.880705 0.0370794
0.457511 0.879362 0.0408789
0.500496 0.877791 0.0446479
0.544778 0.876127 0.0484627
0.589624 0.874571 0.0525063
0.634211 0.873304 0.0569467
0.677775 0.872282 0.0616159
0.719097 0.871366 0.0661936
0.757916 0.870893 0.0710918
0.79382 0.870909 0.0763561
0.826429 0.871305 0.0817884
0.855711 0.871977 0.0872053
0.881788 0.873152 0.0929885
0.904356 0.874266 0.0982681
0.92398 0.875471 0.103349
0.940841 0.876997 0.108415
0.955016 0.878111 0.112596
0.966827 0.879377 0.116777
0.976516 0.880201 0.119966
0.982422 0.880674 0.122103
0.218921 0.914794 0.0319677
0.224048 0.914702 0.0325628
0.229389 0.914778 0.0334783
0.235904 0.914916 0.0346532
0.244114 0.915053 0.0360723
0.254276 0.915206 0.0377966
0.266407 0.915145 0.0394751
0.281666 0.915145 0.0417487
0.299825 0.915221 0.0445258
0.320974 0.91487 0.0471199
0.345861 0.914702 0.0505074
0.374334 0.913924 0.0535134
0.406546 0.913237 0.0571908
0.441535 0.912123 0.0606241
0.479866 0.910719 0.0641031
0.520302 0.909209 0.0677195
0.562448 0.907683 0.0715343
0.60528 0.906111 0.0754101
0.647837 0.904585 0.0792859
0.689464 0.903334 0.0834974
0.72929 0.902403 0.0879225
0.766644 0.901808 0.0925307
0.801099 0.901625 0.0974136
0.832715 0.901869 0.102541
0.861357 0.902495 0.107866
0.886671 0.903548 0.113405
0.908568 0.90454 0.118425
0.92755 0.905608 0.123171
0.943877 0.907012 0.127962
0.957671 0.908095 0.132006
0.969192 0.909392 0.136095
0.978653 0.910292 0.1393
0.984222 0.91078 0.141314
0.264393 0.94345 0.058854
0.26949 0.943481 0.059678
0.273945 0.943557 0.0604715
0.279774 0.943587 0.0614023
0.286915 0.943648 0.0625772
0.295888 0.943679 0.0639811
0.306691 0.94345 0.0652781
0.32015 0.943389 0.0672007
0.336477 0.943297 0.0695354
0.35552 0.942855 0.0717327
0.378439 0.942519 0.0746777
0.404242 0.941787 0.0774395
0.43418 0.941009 0.0807355
0.466728 0.939788 0.0837262
0.502403 0.938277 0.0867475
0.540841 0.936919 0.0903639
0.580667 0.935241 0.0937362
0.621256 0.933562 0.0972
0.661814 0.93193 0.100725
0.701564 0.930495 0.104479
0.739666 0.929503 0.108644
0.775738 0.928878 0.113069
0.809445 0.928817 0.118044
0.839933 0.928847 0.122713
0.86743 0.929229 0.12755
0.891981 0.929931 0.132509
0.913329 0.930892 0.137407
0.932036 0.932128 0.142397
0.947768 0.93315 0.146624
0.961349 0.934325 0.150805
0.97229 0.935271 0.154253
0.981643 0.936339 0.15761
0.986938 0.936858 0.159548
0.307713 0.968429 0.0844587
0.312001 0.968475 0.0851911
0.316152 0.968444 0.0857862
0.321157 0.96846 0.0865949
0.327672 0.968414 0.0875257
0.335561 0.968399 0.088716
0.345403 0.968322 0.0901198
0.357198 0.96791 0.0913252
0.37174 0.967727 0.0932784
