public/textures/grade/Canon/Guardians-CLog2.cube
TITLE "Generated by Resolve"
LUT_3D_SIZE 9
0.0270237 0.0354925 0.0334173
0.0995804 0.0245823 0.0200809
0.210056 0.00782788 0.00683604
0.387915 0 0
0.620676 0 0
0.856977 0 0
1 0 0
1 0 0
1 0 0
0.0153201 0.0801404 0.0059968
0.0789654 0.0737163 0.00260929
0.198489 0.0578164 0
0.380484 0.0287175 0
0.61384 0 0
0.851987 0 0
1 0 0
1 0 0
1 0 0
0 0.169299 0
0.0421302 0.166171 0
0.161929 0.155886 0
0.352865 0.132891 0
0.589319 0.0972305 0
0.826566 0.0433051 0
1 0 0
1 0 0
1 0 0
0 0.316518 0
0 0.318303 0
0.111345 0.314229 0
0.301839 0.301045 0
0.540215 0.278569 0
0.771313 0.251972 0
0.954421 0.2121 0
1 0.127657 0
1 0 0
0 0.511803 0
0 0.515648 0
0.0855879 0.51632 0
0.263798 0.511543 0
0.492744 0.500191 0
0.713939 0.489052 0
0.88275 0.480522 0
0.991623 0.465919 0
1 0.440879 0
0 0.715358 0
0.0451057 0.717083 0
0.135256 0.719356 0
0.289158 0.718608 0
0.49192 0.712489 0
0.693874 0.707271 0
0.848386 0.708415 0.007187
0.944137 0.711666 0.0286564
0.992309 0.711772 0.0429541
0.171695 0.881895 0.00419623
0.200549 0.882551 0.00917067
0.26276 0.883253 0.0189975
0.378897 0.881651 0.0331273
0.544778 0.876127 0.0484627
0.719097 0.871366 0.0661936
0.855711 0.871977 0.0872053
0.940841 0.876997 0.108415
0.982422 0.880674 0.122103
0.347875 0.989837 0.108217
0.365209 0.98941 0.110262
0.404807 0.988556 0.115129
0.486656 0.985763 0.123491
0.615473 0.979644 0.133761
0.760983 0.97348 0.146532
0.8804 0.971817 0.162646
0.956573 0.974807 0.179828
0.993347 0.97792 0.191272
0.458732 1 0.165911
0.470741 1 0.167117
0.498726 1 0.169406
0.55996 1 0.174304
0.663813 1 0.180804
0.790082 1 0.190372
0.898787 1 0.203906
0.969329 1 0.218494
1 1 0.228595
0.025391 0.0301976 0.100267
0.0859693 0.0229953 0.0893111
0.204685 0.00474556 0.0686503
0.385489 0 0.0404974
0.619196 0 0.00416571
0.854948 0 0
1 0 0
1 0 0
1 0 0
0.00959792 0.0775006 0.0752575
0.0614328 0.0745403 0.0732738
0.198566 0.055375 0.0502937
0.380255 0.0268101 0.0297398
0.613519 0 0.000198367
0.850843 0 0
1 0 0
1 0 0
1 0 0
0 0.168338 0.0107729
0.0404822 0.166659 0.011368
0.162829 0.156298 0.00668345
0.355856 0.133761 0
0.591638 0.0986343 0
0.827649 0.0443427 0
1 0 0
1 0 0
1 0 0
0 0.315633 0
0 0.317357 0
0.110185 0.313298 0
0.301381 0.300053 0
0.540169 0.277577 0
0.771664 0.250919 0
0.954803 0.21088 0
1 0.125612 0
1 0 0
0 0.511223 0
0 0.515099 0
0.0844434 0.515831 0
0.263111 0.511131 0
0.4925 0.499748 0
0.713939 0.488579 0
0.882841 0.480003 0
0.991775 0.465339 0
1 0.440375 0
0 0.715114 0
0.0434882 0.716915 0
0.134188 0.71928 0
0.288518 0.718486 0
0.49163 0.712322 0
0.693782 0.707103 0
0.848371 0.708263 0.00712596
0.944137 0.711498 0.0285954
0.992325 0.711589 0.0428931
0.170428 0.881804 0.00393683
0.199435 0.88246 0.00895705
0.261967 0.883177 0.0188296
0.378408 0.881636 0.0330816
0.544533 0.876081 0.0484016
0.719005 0.871321 0.0661479
0.855665 0.871916 0.0871595
0.94081 0.876951 0.10837
0.982422 0.880613 0.122072
0.347143 0.989837 0.108095
0.364523 0.989395 0.110155
0.404379 0.98854 0.115068
0.486259 0.985763 0.123445
0.61529 0.979629 0.13373
0.760906 0.973465 0.146517
0.880369 0.971786 0.162631
0.956558 0.974792 0.179812
0.993332 0.977905 0.191257
0.458244 1 0.165866
0.470298 1 0.167086
0.498329 1 0.169375
0.559701 1 0.174304
0.663661 1 0.180804
0.790021 1 0.190372
0.898772 1 0.203906
0.969314 1 0.218494
1 1 0.228595
0.0157778 0.0174105 0.23949
0.070573 0.0116121 0.23154
0.185763 0 0.209277
0.374624 0 0.172122
0.613108 0 0.129229
0.849607 0 0.0921645
1 0 0.0708782
1 0 0.0651255
1 0 0.0673075
0.00221256 0.0655528 0.216785
0.0575723 0.0621653 0.212131
0.177478 0.0480659 0.193057
0.371832 0.0171511 0.161593
0.608759 0 0.125032
0.846708 0 0.0856489
1 0 0.0634928
1 0 0.0582132
1 0 0.0603952
0 0.160678 0.160021
0.0285801 0.161532 0.16144
0.135027 0.156741 0.158572
0.356115 0.129 0.125216
0.591348 0.0950332 0.104799
0.827253 0.0403143 0.0856947
1 0 0.0591135
1 0 0.0392462
1 0 0.0415351
0 0.315465 0.0405127
0 0.319112 0.0469215
0.110506 0.31754 0.0500954
0.306828 0.304753 0.0453193
0.548089 0.283665 0.037583
0.777798 0.258228 0.0359808
0.959213 0.218555 0.0420233
1 0.131029 0.0451667
1 0 0.0157321
0 0.509651 0
0 0.513787 0
0.0808881 0.514717 0
0.261326 0.510063 0
0.49189 0.498589 0
0.713893 0.487327 0
0.883146 0.478798 0
0.991897 0.463905 0
1 0.438697 0
0 0.714702 0
0.0395972 0.716518 0
0.131609 0.71899 0
0.286748 0.71812 0
0.490852 0.71194 0
0.693523 0.706676 0
0.84831 0.70782 0.00695811
0.944167 0.711055 0.0284276
0.992386 0.711131 0.0427253
0.167117 0.881559 0.00323491
0.196521 0.882261 0.00836194
0.259693 0.88304 0.0184176
0.377081 0.881575 0.032929
0.543862 0.875959 0.048249
0.718746 0.871183 0.066041
0.855573 0.871778 0.0870527
0.940764 0.876814 0.108263
0.982406 0.880491 0.121996
0.345418 0.989731 0.107729
0.362737 0.989364 0.109865
0.403067 0.988586 0.114961
0.485252 0.985748 0.123308
0.614755 0.979599 0.133639
0.760693 0.973434 0.146456
0.880293 0.97174 0.16257
0.956527 0.974746 0.179782
0.993317 0.977859 0.191211
0.456962 1 0.165743
0.469093 1 0.166964
0.497276 1 0.169284
0.558968 1 0.174289
0.663249 1 0.180774
0.789853 1 0.190341
0.898711 1 0.203906
0.969299 1 0.218494
1 1 0.228595
0 0 0.48191
0.0445716 0 0.473991
0.158526 0 0.453681
0.351492 0 0.414206
0.596887 0 0.361913
0.836347 0 0.316869
1 0 0.290486
1 0 0.281651
1 0 0.281514
0 0.0342565 0.460685
0.0369726 0.0309911 0.455421
0.152789 0.0179599 0.438941
0.347311 0 0.403037
0.593835 0 0.355947
0.836683 0 0.312261
1 0 0.285985
1 0 0.277226
1 0 0.277119
0 0.137606 0.405447
0.0114748 0.138994 0.405234
0.128084 0.133776 0.397086
0.329152 0.112383 0.370047
0.580133 0.0746014 0.336446
0.820218 0.0157168 0.310307
1 0 0.28069
1 0 0.265904
1 0 0.265919
0 0.300938 0.304372
0 0.306798 0.310597
0.0896773 0.309972 0.314748
0.270832 0.303807 0.311315
0.548074 0.276066 0.276524
0.776287 0.251743 0.270466
0.95697 0.210849 0.27454
1 0.117357 0.279911
1 0 0.251499
0 0.510536 0.150179
0 0.517006 0.160586
0.0842756 0.521889 0.171664
0.266392 0.520562 0.17821
0.503273 0.509697 0.175448
0.726619 0.500023 0.179995
0.89279 0.492668 0.195148
0.999222 0.478264 0.213642
1 0.45243 0.2262
0 0.712612 0
0.0268101 0.714855 0
0.122881 0.717723 0
0.281819 0.717083 0
0.488716 0.710857 0
0.692851 0.705653 0
0.848157 0.706645 0.00653086
0.944228 0.709819 0.0279698
0.992569 0.709865 0.0422827
0.158038 0.880796 0.00123598
0.188891 0.881834 0.00700389
0.25333 0.882643 0.0172885
0.37319 0.88127 0.0322576
0.542016 0.875639 0.0478523
0.718044 0.870817 0.0657206
0.855314 0.871412 0.0867781
0.940612 0.876448 0.107973
0.982406 0.880125 0.121767
0.340032 0.989639 0.106828
0.358099 0.989487 0.109453
0.399145 0.988663 0.114595
0.482658 0.985641 0.122866
0.613291 0.979507 0.133394
0.760098 0.973297 0.146273
0.880064 0.971588 0.162417
0.956451 0.974624 0.17969
0.993286 0.977722 0.191073
0.453437 1 0.165408
0.465782 1 0.166659
0.494392 1 0.169039
0.557122 1 0.174105
0.662196 1 0.180667
0.78938 1 0.190311
0.898543 1 0.203876
0.969238 1 0.218463
1 1 0.228595
0 0 0.798642
0 0 0.792889
0.11194 0 0.770474
0.312901 0 0.728679
0.568597 0 0.672312
0.815686 0 0.620722
1 0 0.588724
1 0 0.575738
1 0 0.573098
0 0 0.795117
0 0 0.789731
0.112795 0 0.768612
0.313466 0 0.727077
0.568902 0 0.670756
0.815854 0 0.619181
1 0 0.587167
1 0 0.574105
1 0 0.571374
0 0.0829938 0.730938
0 0.0836652 0.728923
0.0966964 0.0788586 0.717281
0.301457 0.0564279 0.689281
0.559899 0.012665 0.64863
0.808743 0 0.611734
1 0 0.582193
1 0 0.569284
1 0 0.56669
0 0.265553 0.619974
0 0.272511 0.623758
0.0612497 0.279545 0.624842
0.262425 0.273365 0.612558
0.521889 0.251316 0.585733
0.76643 0.22237 0.567193
0.952102 0.175143 0.566552
1 0.062089 0.574304
1 0 0.553094
0 0.486183 0.496071
0 0.49723 0.507149
0.0533455 0.508522 0.518654
0.237858 0.512322 0.523293
0.466972 0.506462 0.520043
0.724758 0.489632 0.49659
0.889525 0.483253 0.506783
0.995041 0.467643 0.522377
1 0.440223 0.536461
0 0.711589 0.374258
0.0209506 0.718074 0.384726
0.121233 0.725002 0.397879
0.283223 0.728084 0.409033
0.494224 0.723262 0.411353
0.705165 0.717479 0.41117
0.85864 0.718135 0.422034
0.951629 0.721233 0.438499
0.998245 0.721202 0.451087
0.131991 0.878798 0
0.165743 0.880095 0.0021973
0.236301 0.881575 0.0142367
0.362692 0.880369 0.0303655
0.537331 0.875059 0.0471962
0.716106 0.869825 0.0648508
0.85481 0.870588 0.0863355
0.940322 0.87541 0.107271
0.982361 0.879133 0.121172
0.3252 0.989242 0.104173
0.344671 0.989151 0.107118
0.387854 0.988434 0.112779
0.474907 0.98555 0.121813
0.609308 0.979278 0.132723
0.758495 0.97293 0.145754
0.879454 0.971191 0.161975
0.956176 0.974227 0.179324
0.993164 0.977371 0.190723
0.443885 1 0.16437
0.456794 1 0.165728
0.48658 1 0.168307
0.551339 1 0.173678
0.659175 1 0.180438
0.788098 1 0.190188
0.898085 1 0.2038
0.969055 1 0.218418
1 1 0.228595
0 0 1
0 0 1
0.00706493 0 1
0.252094 0 1
0.531792 0 0.969833
0.792599 0 0.91371
0.982925 0 0.877424
1 0 0.860945
1 0 0.856138
0 0 1
0 0 1
0.00834669 0 1
0.252659 0 1
0.532052 0 0.969146
0.792706 0 0.913054
0.982971 0 0.876783
1 0 0.860319
1 0 0.855497
0 0 1
0 0 1
0.011429 0 1
0.253971 0 1
0.532708 0 0.967315
0.792981 0 0.91133
0.983139 0 0.875105
1 0 0.858671
1 0 0.853849
0 0.196506 0.93611
0 0.196094 0.936355
0 0.20502 0.935393
0.226734 0.200412 0.914382
0.504402 0.175189 0.882155
0.762341 0.136172 0.856443
0.958633 0.0627756 0.852018
1 0 0.854337
1 0 0.8495
0 0.453269 0.787472
0 0.453162 0.787549
0 0.473899 0.799741
0.201938 0.484413 0.799527
0.460029 0.478187 0.785626
0.706477 0.465827 0.770565
0.884169 0.45565 0.771466
0.994247 0.435889 0.784497
1 0.401892 0.79968
0 0.680705 0.694057
0 0.688045 0.70132
0.0547799 0.709316 0.722286
0.245563 0.718379 0.731258
0.466712 0.716808 0.730175
0.676677 0.712703 0.72755
0.855833 0.708064 0.718914
0.947753 0.711391 0.730922
0.994217 0.711131 0.741238
0.0842298 0.875166 0.651331
0.12781 0.879576 0.65803
0.211643 0.884718 0.667079
0.350027 0.886412 0.674189
0.530587 0.881773 0.675212
0.715389 0.87512 0.672038
0.858091 0.873442 0.671458
0.942367 0.877485 0.679774
0.982757 0.880659 0.687373
0.303655 0.995163 0.427176
0.325826 0.995132 0.429358
0.374365 0.994781 0.433677
0.469444 0.992096 0.439094
0.610574 0.985107 0.442191
0.763088 0.977325 0.444526
0.884184 0.974807 0.451957
0.959213 0.976974 0.462882
0.995529 0.979629 0.471412
0.41738 1 0.161669
0.432074 1 0.163363
0.465431 1 0.166629
0.536202 1 0.172366
0.651255 1 0.180087
0.78497 1 0.189837
0.896925 1 0.203601
0.968582 1 0.218296
1 1 0.228595
0 0 1
0 0 1
0 0 1
0.119203 0 1
0.476967 0 1
0.767651 0 1
0.968673 0 1
1 0 1
1 0 1
0 0 1
0 0 1
0 0 1
0.119997 0 1
0.477211 0 1
0.767727 0 1
0.968704 0 1
1 0 1
1 0 1
0 0 1
0 0 1
0 0 1
0.122072 0 1
0.477882 0 1
0.767956 0 1
0.96878 0 1
1 0 1
1 0 1
0 0 1
0 0 1
0 0 1
0.125811 0 1
0.479683 0 1
0.768536 0 1
0.968994 0 1
1 0 1
1 0 1
0 0.390921 1
0 0.390738 1
0 0.390265 1
0.0957198 0.417243 1
0.429908 0.412711 0.987091
0.700984 0.397925 0.966842
0.891051 0.380545 0.964645
1 0.345464 0.978683
1 0.285466 0.999008
0 0.662089 0.892226
0 0.662043 0.892241
0 0.661906 0.892271
0.152987 0.697978 0.9149
0.43621 0.70045 0.908446
0.672679 0.694926 0.898009
0.845899 0.692927 0.895842
0.945464 0.694255 0.903471
0.994919 0.692775 0.912367
0 0.84802 0.859998
0 0.848005 0.859998
0.0553902 0.863691 0.875441
0.280873 0.880537 0.891814
0.500603 0.877836 0.888945
0.697337 0.871565 0.882979
0.842512 0.86981 0.882322
0.939788 0.870207 0.880919
0.980697 0.873838 0.887465
0.174243 0.979614 0.868269
0.213993 0.983108 0.872877
0.290211 0.986709 0.878355
0.415198 0.986191 0.8804
0.57734 0.979065 0.876081
0.741009 0.969955 0.869535
0.869718 0.96527 0.866133
0.94934 0.965713 0.866117
0.986282 0.967865 0.869093
0.358404 1 0.840742
0.377813 1 0.841398
0.42034 1 0.842008
0.50454 1 0.841199
0.631617 1 0.836454
0.773068 1 0.829694
0.888869 1 0.825315
0.960708 1 0.826017
0.994644 1 0.828779
0 0 1
0 0 1
0 0 1
0 0 1
0.378256 0 1
0.736568 0 1
0.956313 0 1
1 0 1
1 0 1
0 0 1
0 0 1
0 0 1
0 0 1
0.378592 0 1
0.736645 0 1
0.956344 0 1
1 0 1
1 0 1
0 0 1
0 0 1
0 0 1
0 0 1
0.379492 0 1
0.736873 0 1
0.956405 0 1
1 0 1
1 0 1
0 0 1
0 0 1
0 0 1
0 0 1
0.381918 0 1
0.737514 0 1
0.956542 0 1
1 0 1
1 0 1
0 0.22536 1
0 0.225071 1
0 0.224323 1
0 0.221668 1
0.368154 0.225849 1
0.710964 0.189502 1
0.929686 0.130312 1
1 0 1
1 0 1
0 0.62768 1
0 0.627619 1
0 0.627451 1
0 0.626993 1
0.364034 0.667338 1
0.656748 0.661357 0.99585
0.843626 0.65922 0.99234
0.948989 0.658274 0.999161
1 0.654337 1
0 0.839857 0.964721
0 0.839841 0.964706
0 0.83978 0.964706
0.046479 0.853498 0.976028
0.442802 0.871931 0.985122
0.681575 0.864591 0.974105
0.840787 0.861982 0.969924
0.93521 0.863508 0.972702
0.980499 0.866545 0.977935
0.0771954 0.961028 0.970825
0.0771954 0.961028 0.970825
0.0771954 0.961013 0.970825
0.290257 0.984283 0.993606
0.53257 0.979355 0.988357
0.725414 0.968765 0.977691
0.861799 0.963333 0.972534
0.943297 0.963409 0.973159
0.985763 0.964553 0.974487
0.137407 1 0.976211
0.155184 1 0.978958
0.270466 1 0.994293
0.423209 1 0.996887
0.595361 1 0.988769
0.757733 1 0.978058
0.880323 1 0.971954
0.955703 1 0.971008
0.992432 1 0.971801
0 0 1
0 0 1
0 0 1
0 0 1
0.21857 0 1
0.701045 0 1
0.945922 0 1
1 0 1
1 0 1
0 0 1
0 0 1
0 0 1
0 0 1
0.219135 0 1
0.701152 0 1
0.945937 0 1
1 0 1
1 0 1
0 0 1
0 0 1
0 0 1
0 0 1
0.2206 0 1
0.701411 0 1
0.945998 0 1
1 0 1
1 0 1
0 0 1
0 0 1
0 0 1
0 0 1
0.224567 0 1
0.702113 0 1
0.946136 0 1
1 0 1
1 0 1
0 0 1
0 0 1
0 0 1
0 0 1
0.234653 0 1
0.704021 0 1
0.946517 0 1
1 0 1
1 0 1
0 0.575555 1
0 0.575479 1
0 0.575265 1
0 0.574685 1
0.23267 0.613336 1
0.632822 0.607996 1
0.843351 0.603815 1
0.956954 0.599634 1
1 0.590372 1
0 0.828153 1
0 0.828138 1
0 0.828077 1
0 0.827939 1
0.342687 0.862181 1
0.657496 0.854398 1
0.834943 0.85124 1
0.93341 0.853086 1
0.980026 0.855634 1
0.0785992 0.957977 1
0.0785992 0.957977 1
0.078584 0.957946 1
0.0785382 0.9579 1
0.461707 0.979934 1
0.706264 0.966995 1
0.856428 0.960723 1
0.942184 0.960433 1
0.984482 0.961868 1
0.145357 1 1
0.145357 1 1
0.145357 1 1
0.233295 1 1
0.543191 1 1
0.742428 1 1
0.875929 1 1
0.953948 1 1
0.992615 1 1
