public/textures/grade/Canon/Guardians-CLog3.cube
TITLE "Generated by Resolve"
LUT_3D_SIZE 9
0 0.00486763 0.00132753
0.0729076 0 0
0.270741 0 0
0.478553 0 0
0.689113 0 0
0.87837 0 0
1 0 0
1 0 0
1 0 0
0 0.0663462 0
0.052903 0.0554971 0
0.262165 0.0247501 0
0.471382 0 0
0.683452 0 0
0.87866 0 0
1 0 0
1 0 0
1 0 0
0 0.217395 0
0 0.21857 0
0.204944 0.203677 0
0.424796 0.179095 0
0.637873 0.149889 0
0.829114 0.111696 0
0.990372 0.0458686 0
1 0 0
1 0 0
0 0.382345 0
0 0.391608 0
0.155215 0.388983 0
0.371283 0.375479 0
0.582193 0.359106 0
0.766567 0.343084 0
0.914839 0.323384 0
1 0.284596 0
1 0.198566 0
0 0.552987 0
0 0.569924 0
0.145586 0.572503 0
0.346761 0.56643 0
0.547356 0.557443 0
0.722866 0.550958 0
0.860945 0.547463 0
0.961273 0.541802 0
1 0.525917 0
0 0.713359 0
0.0329595 0.734874 0
0.192691 0.73843 0
0.369802 0.735576 0
0.550942 0.7299 0
0.712581 0.726604 0
0.840192 0.727749 0.0128786
0.931334 0.731319 0.0330816
0.98938 0.732555 0.050248
0 0.852491 0
0.172992 0.873884 0
0.290227 0.875105 0.0179599
0.433768 0.871992 0.0335699
0.588968 0.866682 0.0475776
0.732464 0.863279 0.0628977
0.84773 0.864103 0.0810101
0.930556 0.868406 0.100725
0.982269 0.87306 0.117647
0.208042 0.975662 0.073167
0.332311 0.977417 0.0954604
0.410788 0.975753 0.105043
0.518914 0.971771 0.11548
0.64538 0.96585 0.125551
0.768505 0.961395 0.137438
0.87068 0.960494 0.151949
0.945144 0.963134 0.168139
0.991241 0.966949 0.182269
0.392248 1 0.158373
0.463706 1 0.166461
0.516396 1 0.170993
0.596063 1 0.176715
0.696971 1 0.182895
0.802213 1 0.191623
0.893355 1 0.20296
0.961181 1 0.216236
1 1 0.228595
0 0.00175479 0.121645
0.0471504 0 0.112612
0.259281 0 0.0701152
0.472602 0 0.0333867
0.684993 0 0.000549325
0.874769 0 0
1 0 0
1 0 0
1 0 0
0 0.0517281 0.0439918
0.0349889 0.0445563 0.0424048
0.259892 0.0104067 0.0106355
0.470283 0 0
0.683299 0 0
0.876738 0 0
1 0 0
1 0 0
1 0 0
0 0.210864 0
0 0.211749 0
0.201785 0.196689 0
0.424536 0.171374 0
0.639139 0.141115 0
0.831388 0.101701 0
0.993179 0.0324102 0
1 0 0
1 0 0
0 0.379019 0
0 0.387594 0
0.150027 0.385489 0
0.369482 0.371847 0
0.58204 0.355032 0
0.767498 0.339055 0
0.916045 0.318425 0
1 0.278584 0
1 0.189532 0
0 0.5514 0
0 0.567407 0
0.140063 0.570871 0
0.344411 0.564736 0
0.54638 0.555718 0
0.722484 0.549203 0
0.861097 0.545678 0
0.961654 0.539727 0
1 0.524025 0
0 0.712673 0
0.0239109 0.733898 0
0.187945 0.737667 0
0.367285 0.73492 0
0.549752 0.729229 0
0.712123 0.725872 0
0.84004 0.727016 0.0125734
0.93138 0.730648 0.0328679
0.989487 0.731777 0.0499733
0 0.850233 0
0.167391 0.873655 0
0.286519 0.8748 0.017258
0.431846 0.871702 0.0331273
0.58793 0.866423 0.047303
0.732021 0.863005 0.0626688
0.847562 0.863813 0.0807965
0.93048 0.868132 0.100542
0.982254 0.872786 0.117494
0.201328 0.975189 0.0714733
0.328435 0.977325 0.0948196
0.408164 0.975769 0.104753
0.517418 0.971679 0.115206
0.644526 0.965759 0.125368
0.768215 0.961303 0.137346
0.870497 0.960388 0.151827
0.945068 0.963012 0.168032
0.991226 0.966842 0.182177
0.389029 1 0.158083
0.46154 1 0.166186
0.514595 1 0.170886
0.594858 1 0.176623
0.696315 1 0.182849
0.801907 1 0.191592
0.893233 1 0.202945
0.961135 1 0.21622
1 1 0.228595
0 0 0.353094
0.0214389 0 0.346517
0.230686 0 0.304295
0.454139 0 0.256123
0.672023 0 0.213901
0.864561 0 0.181704
1 0 0.162249
1 0 0.15462
1 0 0.155505
0 0.0265202 0.30663
0.0196994 0.0193179 0.302251
0.232212 0 0.264927
0.455329 0 0.22092
0.673335 0 0.181308
0.866499 0 0.150546
1 0 0.131701
1 0 0.124544
1 0 0.125826
0 0.199908 0.197284
0 0.201892 0.202365
0.173083 0.198383 0.201953
0.429374 0.167819 0.165347
0.6421 0.139452 0.150652
0.833112 0.0997635 0.139803
0.99292 0.0263066 0.130922
1 0 0.0923476
1 0 0.0937972
0 0.37879 0.0445106
0 0.387686 0.059266
0.150759 0.390814 0.0727245
0.377264 0.378225 0.06981
0.591974 0.362676 0.0665904
0.775647 0.347524 0.0696269
0.922591 0.327565 0.0791333
1 0.287388 0.0915999
1 0.194873 0.0961013
0 0.549813 0
0 0.565057 0
0.134661 0.569162 0
0.342199 0.563287 0
0.545403 0.553979 0
0.722301 0.547372 0
0.861112 0.543816 0
0.962036 0.537636 0
1 0.521645 0
0 0.711986 0
0.0141604 0.732708 0
0.182925 0.73695 0
0.365042 0.734203 0
0.548516 0.728573 0
0.711666 0.725139 0
0.839887 0.726284 0.0122683
0.931365 0.729885 0.0325628
0.989578 0.730999 0.0496834
0 0.8495 0
0.160983 0.873167 0
0.282612 0.87454 0.0165866
0.429755 0.871458 0.0327306
0.58703 0.866133 0.0469978
0.731563 0.86273 0.0624399
0.84741 0.863508 0.0805829
0.930388 0.867842 0.100343
0.982254 0.872496 0.117327
0.194736 0.974975 0.0701915
0.324681 0.977188 0.0941024
0.405615 0.97586 0.104585
0.515862 0.971618 0.114931
0.643687 0.965682 0.1252
0.767895 0.961181 0.137179
0.870329 0.960266 0.151705
0.944976 0.962905 0.167926
0.991211 0.96672 0.182086
0.385977 1 0.157839
0.459113 1 0.165957
0.512734 1 0.170733
0.593652 1 0.176547
0.695659 1 0.182803
0.801602 1 0.191562
0.893111 1 0.202914
0.961074 1 0.216205
1 1 0.228595
0 0 0.618845
0 0 0.61532
0.197162 0 0.57583
0.426368 0 0.525628
0.652186 0 0.476753
0.848646 0 0.438834
1 0 0.414786
1 0 0.403647
1 0 0.401709
0 0 0.597208
0 0 0.594949
0.201068 0 0.557916
0.429374 0 0.508598
0.654047 0 0.460182
0.849897 0 0.42266
1 0 0.398932
1 0 0.387991
1 0 0.386007
0 0.172763 0.491463
0 0.172915 0.493339
0.164218 0.170245 0.483757
0.401221 0.146014 0.454002
0.629465 0.11371 0.426612
0.82536 0.0702525 0.409567
0.985321 0 0.396918
1 0 0.371405
1 0 0.369589
0 0.363333 0.367849
0 0.369924 0.375891
0.126055 0.382315 0.389548
0.339818 0.376104 0.386206
0.59205 0.353445 0.355367
0.774273 0.339849 0.354498
0.920089 0.319692 0.360983
1 0.277012 0.373678
1 0.17615 0.382925
0 0.550195 0.226581
0 0.564538 0.247547
0.135836 0.577676 0.27158
0.345342 0.574975 0.275944
0.557519 0.566003 0.271809
0.735882 0.560143 0.275319
0.871839 0.557702 0.287877
0.969848 0.551995 0.304662
1 0.535866 0.321187
0 0.714961 0
0.0031281 0.735149 0
0.181445 0.741268 0
0.367254 0.738918 0.0143587
0.553384 0.733379 0.0284276
0.717006 0.730083 0.0438849
0.844862 0.731121 0.0631571
0.935958 0.734798 0.0849928
0.993927 0.735958 0.104372
0 0.848981 0
0.147173 0.871931 0
0.274327 0.873884 0.0150149
0.425116 0.87097 0.0318914
0.584939 0.865553 0.0463874
0.730602 0.862135 0.0619516
0.847028 0.862882 0.0801251
0.930175 0.867247 0.0999008
0.982238 0.871916 0.116976
0.179019 0.9738 0.0660868
0.316625 0.977188 0.0930343
0.399878 0.975723 0.1037
0.512276 0.971511 0.114412
0.642008 0.965621 0.125048
0.767102 0.960937 0.136873
0.869963 0.960021 0.151446
0.944808 0.962661 0.167681
0.991165 0.966491 0.181903
0.378561 1 0.156756
0.453849 1 0.165454
0.508919 1 0.170352
0.591043 1 0.176379
0.694301 1 0.182788
0.801068 1 0.19147
0.892836 1 0.202869
0.960967 1 0.216175
1 1 0.228595
0 0 0.887846
0 0 0.887846
0.150118 0 0.850782
0.393011 0 0.799161
0.627756 0 0.747463
0.830503 0 0.705394
0.986053 0 0.677607
1 0 0.663264
1 0 0.658763
0 0 0.880385
0 0 0.8804
0.154345 0 0.842588
0.3953 0 0.791287
0.629023 0 0.739834
0.831189 0 0.697948
0.986572 0 0.670268
1 0 0.656016
1 0 0.651591
0 0.121218 0.785473
0 0.118471 0.787076
0.134524 0.116503 0.770932
0.37908 0.0907607 0.739269
0.61471 0.0526284 0.706462
0.817838 0 0.681834
0.981903 0 0.664393
1 0 0.649088
1 0 0.644724
0 0.337118 0.654719
0 0.336065 0.655375
0.0990921 0.356588 0.664515
0.333745 0.350225 0.65127
0.567803 0.33315 0.630472
0.76463 0.315969 0.619181
0.915343 0.292592 0.620737
1 0.242771 0.632959
1 0.121172 0.648356
0 0.535271 0.545953
0 0.540215 0.551461
0.105684 0.56611 0.577462
0.318471 0.567773 0.580026
0.52343 0.56257 0.577066
0.734096 0.550011 0.556863
0.868406 0.547906 0.564981
0.966186 0.542123 0.579171
1 0.524865 0.594873
0 0.710323 0.445472
0 0.727718 0.469474
0.168734 0.743328 0.494865
0.358358 0.744228 0.502861
0.54905 0.739086 0.502159
0.721004 0.733867 0.498558
0.849409 0.734966 0.505364
0.938003 0.738109 0.518639
0.994354 0.73933 0.532631
0 0.855756 0.206088
0.140169 0.879179 0.25861
0.276646 0.883253 0.277775
0.432349 0.881041 0.289464
0.594507 0.87541 0.296376
0.740795 0.87126 0.304021
0.855833 0.871565 0.316197
0.937346 0.875593 0.331914
0.988296 0.879744 0.346822
0.141268 0.970611 0.0555734
0.297429 0.976516 0.0894179
0.386709 0.975433 0.101625
0.505043 0.97145 0.113634
0.638407 0.965286 0.124361
0.765286 0.960433 0.136202
0.869169 0.959487 0.150896
0.944427 0.962127 0.167193
0.991043 0.966018 0.181476
0.361624 1 0.154192
0.442496 1 0.164187
0.500145 1 0.169589
0.585565 1 0.175937
0.691402 1 0.182803
0.799756 1 0.191318
0.892256 1 0.202777
0.960723 1 0.216114
1 1 0.228595
0 0 1
0 0 1
0.0658885 0 1
0.347982 0 1
0.600076 0 0.98146
0.811963 0 0.936385
0.971862 0 0.905821
1 0 0.888945
1 0 0.882216
0 0 1
0 0 1
0.0708171 0 1
0.349935 0 1
0.601068 0 0.978424
0.812436 0 0.933455
0.972137 0 0.902983
1 0 0.886122
1 0 0.879438
0 0 1
0 0 1
0.0719463 0 1
0.350423 0 1
0.600336 0 0.970504
0.812909 0 0.930709
0.972412 0 0.900298
1 0 0.883452
1 0 0.876768
0 0.289662 0.901015
0 0.288273 0.901808
0.0343786 0.305196 0.902876
0.309606 0.300679 0.882567
0.554376 0.282734 0.859022
0.760052 0.261463 0.843778
0.918395 0.22948 0.842771
1 0.158251 0.856016
1 0 0.873472
0 0.514046 0.781125
0 0.513634 0.781277
0.0437934 0.542306 0.799374
0.294575 0.548486 0.796811
0.519478 0.54229 0.785519
0.71696 0.534005 0.775326
0.862577 0.528984 0.775891
0.964111 0.521248 0.786404
1 0.500465 0.80174
0 0.699062 0.711925
0 0.698894 0.71194
0.115999 0.731807 0.74432
0.33048 0.736934 0.749416
0.526589 0.73402 0.747082
0.695399 0.730617 0.745235
0.84744 0.726253 0.736141
0.934936 0.729656 0.746136
0.991241 0.730678 0.757885
0 0.845655 0.662058
0.0661479 0.864149 0.685939
0.236072 0.876631 0.704967
0.4056 0.876631 0.710018
0.573938 0.871565 0.709087
0.726833 0.866316 0.705959
0.849454 0.86482 0.704051
0.931884 0.867979 0.710185
0.982269 0.872114 0.719371
0.0717021 0.960067 0.533608
0.274479 0.980011 0.57435
0.374273 0.980163 0.58172
0.499474 0.976135 0.585061
0.637537 0.969116 0.584497
0.767346 0.962844 0.583291
0.871519 0.960586 0.585855
0.945525 0.962493 0.59321
0.990799 0.965682 0.601358
0.321721 1 0.147799
0.416556 1 0.161563
0.480842 1 0.167727
0.573281 1 0.175021
0.685084 1 0.182361
0.796796 1 0.191043
0.891051 1 0.202594
0.96022 1 0.215991
1 1 0.228595
0 0 1
0 0 1
0 0 1
0.26804 0 1
0.562905 0 1
0.792401 0 1
0.959747 0 1
1 0 1
1 0 1
0 0 1
0 0 1
0 0 1
0.270527 0 1
0.563851 0 1
0.792782 0 1
0.95993 0 1
1 0 1
1 0 1
0 0 1
0 0 1
0 0 1
0.272999 0 1
0.564782 0 1
0.793164 0 1
0.960082 0 1
1 0 1
1 0 1
0 0.175036 1
0 0.172839 1
0 0.170871 1
0.2589 0.172534 1
0.54641 0.143435 1
0.771801 0.103975 1
0.943206 0.0318761 1
1 0 1
1 0 1
0 0.475883 0.955993
0 0.475227 0.956298
0 0.474952 0.956756
0.23772 0.509056 0.959838
0.501213 0.503441 0.942611
0.709743 0.494987 0.930205
0.863233 0.487755 0.929061
0.97023 0.4748 0.938598
1 0.444358 0.955566
0 0.684962 0.877058
0 0.684733 0.877104
0 0.698802 0.887922
0.279164 0.723903 0.901549
0.508141 0.721614 0.893904
0.693233 0.71725 0.886671
0.836683 0.715694 0.884703
0.932143 0.717174 0.890684
0.99118 0.717327 0.900328
0 0.83949 0.851637
0 0.839399 0.851621
0.132662 0.865309 0.877089
0.3626 0.872511 0.883925
0.553262 0.867887 0.879286
0.712123 0.863233 0.875013
0.834272 0.862089 0.874891
0.93022 0.862165 0.87277
0.980743 0.86627 0.880446
0.0564431 0.950134 0.839445
0.155505 0.966018 0.858518
0.309087 0.975082 0.871321
0.462272 0.97258 0.871687
0.614221 0.965454 0.867063
0.750271 0.958419 0.862058
0.859907 0.954711 0.85922
0.938598 0.955016 0.8589
0.985199 0.957977 0.862959
0.235386 1 0.811521
0.36968 1 0.822156
0.447364 1 0.823224
0.551308 1 0.821302
0.670787 1 0.81651
0.787137 1 0.811093
0.883879 1 0.807599
0.95314 1 0.808087
0.995041 1 0.811551
0 0 1
0 0 1
0 0 1
0.0785229 0 1
0.500511 0 1
0.767071 0 1
0.947829 0 1
1 0 1
1 0 1
0 0 1
0 0 1
0 0 1
0.0829938 0 1
0.501625 0 1
0.767452 0 1
0.947936 0 1
1 0 1
1 0 1
0 0 1
0 0 1
0 0 1
0.0871138 0 1
0.502739 0 1
0.767849 0 1
0.948058 0 1
1 0 1
1 0 1
0 0 1
0 0 1
0 0 1
0.095964 0 1
0.505104 0 1
0.768658 0 1
0.948302 0 1
1 0 1
1 0 1
0 0.388907 1
0 0.388052 1
0 0.387243 1
0.0779431 0.413031 1
0.463004 0.409537 1
0.708278 0.395956 1
0.87715 0.380758 1
0.994293 0.349996 1
1 0.280705 1
0 0.65948 0.98381
0 0.659205 0.983886
0 0.65893 0.983963
0.139071 0.694286 1
0.466453 0.697566 0.990051
0.68162 0.69279 0.979004
0.833219 0.691264 0.976608
0.933211 0.691783 0.981903
0.996124 0.690181 0.991577
0 0.831754 0.95436
0 0.831647 0.95436
0 0.831556 0.95436
0.256718 0.864652 0.979339
0.517342 0.862211 0.972152
0.700191 0.85655 0.963958
0.832837 0.854658 0.960861
0.924865 0.855894 0.963043
0.980346 0.859113 0.969024
0.0630808 0.947723 0.957671
0.0630503 0.947677 0.957656
0.0852064 0.951232 0.961166
0.387717 0.972503 0.981811
0.584054 0.964889 0.974014
0.737499 0.956909 0.966049
0.852354 0.953033 0.962463
0.932036 0.952941 0.963043
0.984726 0.954498 0.964675
0.135927 1 0.962264
0.17818 1 0.969848
0.346792 1 0.98407
0.499214 1 0.981186
0.645045 1 0.972961
0.77348 1 0.964721
0.875044 1 0.960021
0.947646 1 0.958923
0.992462 1 0.959716
0 0 1
0 0 1
0 0 1
0 0 1
0.384787 0 1
0.731594 0 1
0.935058 0 1
1 0 1
1 0 1
0 0 1
0 0 1
0 0 1
0 0 1
0.386191 0 1
0.732036 0 1
0.935195 0 1
1 0 1
1 0 1
0 0 1
0 0 1
0 0 1
0 0 1
0.387717 0 1
0.732479 0 1
0.935332 0 1
1 0 1
1 0 1
0 0 1
0 0 1
0 0 1
0 0 1
0.391211 0 1
0.73341 0 1
0.935622 0 1
1 0 1
1 0 1
0 0.131579 1
0 0.129107 1
0 0.12636 1
0 0.1205 1
0.39382 0.100618 1
0.727886 0.0424811 1
0.930785 0 1
1 0 1
1 0 1
0 0.609415 1
0 0.609064 1
0 0.608698 1
0 0.60798 1
0.374014 0.648035 1
0.657603 0.642191 1
0.829938 0.639689 1
0.938354 0.638498 1
1 0.632273 1
0 0.817411 1
0 0.817304 1
0 0.817197 1
0 0.816968 1
0.441184 0.850568 1
0.676585 0.843763 1
0.82591 0.841505 1
0.922316 0.84303 1
0.980392 0.84593 1
0.0649729 0.943679 1
0.0649271 0.943648 1
0.0648966 0.943603 1
0.14992 0.958038 1
0.525551 0.964141 1
0.7178 0.954086 1
0.845823 0.949401 1
0.93051 0.948959 1
0.983429 0.950866 1
0.145357 1 1
0.145357 1 1
0.145357 1 1
0.377203 1 1
0.602274 1 1
0.75816 1 1
0.869688 1 1
0.945266 1 1
0.992615 1 1
