public/textures/grade/Canon/Guardians-CLog.cube
TITLE "Generated by Resolve"
LUT_3D_SIZE 33
0 0.00486763 0.00132753
0 0.00486763 0.00132753
0.0533913 0 0
0.102098 0 0
0.148013 0 0
0.191882 0 0
0.235599 0 0
0.278691 0 0
0.321447 0 0
0.36379 0 0
0.405997 0 0
0.448493 0 0
0.490608 0 0
0.532738 0 0
0.574517 0 0
0.616007 0 0
0.657176 0 0
0.697734 0 0
0.737652 0 0
0.776791 0 0
0.815 0 0
0.852445 0 0
0.889082 0 0
0.924743 0 0
0.959396 0 0
0.992966 0 0
1 0 0
1 0 0
1 0 0
1 0 0
1 0 0
1 0 0
1 0 0
0 0.00601205 0.0010071
0 0.00515755 0.00125124
0.0548409 0 0
0.103273 0 0
0.148852 0 0
0.192752 0 0
0.236347 0 0
0.279194 0 0
0.32192 0 0
0.364294 0 0
0.406439 0 0
0.448859 0 0
0.490929 0 0
0.533013 0 0
0.574762 0 0
0.61622 0 0
0.657359 0 0
0.697887 0 0
0.737743 0 0
0.776883 0 0
0.815106 0 0
0.852537 0 0
0.889158 0 0
0.924804 0 0
0.959457 0 0
0.992996 0 0
1 0 0
1 0 0
1 0 0
1 0 0
1 0 0
1 0 0
1 0 0
0 0.0444495 0
0 0.0437018 0
0.0373693 0.0369573 0
0.0905623 0.0295109 0
0.139132 0.0224613 0
0.18497 0.0153506 0
0.229511 0.0078584 0
0.272755 0.000198367 0
0.315831 0 0
0.358434 0 0
0.4009 0 0
0.443534 0 0
0.485832 0 0
0.528237 0 0
0.570184 0 0
0.612055 0 0
0.653513 0 0
0.694591 0 0
0.735164 0 0
0.77641 0 0
0.815198 0 0
0.852598 0 0
0.88922 0 0
0.924849 0 0
0.959503 0 0
0.993027 0 0
1 0 0
1 0 0
1 0 0
1 0 0
1 0 0
1 0 0
1 0 0
0 0.0812848 0
0 0.0805524 0
0.0198215 0.0762341 0
0.0734875 0.0706645 0
0.124666 0.0639963 0
0.172747 0.0573587 0
0.219135 0.050782 0
0.263645 0.0440223 0
0.307469 0.0369268 0
0.35111 0.0293431 0
0.394186 0.0216983 0
0.437018 0.0134737 0
0.479561 0.00511177 0
0.521965 0 0
0.563638 0 0
0.60528 0 0
0.646815 0 0
0.687907 0 0
0.728405 0 0
0.76846 0 0
0.807935 0 0
0.846647 0 0
0.88452 0 0
0.921767 0 0
0.959533 0 0
0.993057 0 0
1 0 0
1 0 0
1 0 0
1 0 0
1 0 0
1 0 0
1 0 0
0 0.11667 0
0 0.115953 0
0.00384527 0.113924 0
0.0570687 0.109758 0
0.108354 0.104356 0
0.157885 0.0984054 0
0.205615 0.0923171 0
0.251484 0.0861524 0
0.296254 0.0797131 0
0.340688 0.0731518 0
0.383886 0.0663157 0
0.427451 0.0592966 0
0.470146 0.0518654 0
0.512993 0.0442359 0
0.555077 0.0361028 0
0.597116 0.0276493 0
0.638392 0.0185855 0
0.679286 0.00907912 0
0.719554 0 0
0.758831 0 0
0.797818 0 0
0.836332 0 0
0.874739 0 0
0.912474 0 0
0.949722 0 0
0.985962 0 0
1 0 0
1 0 0
1 0 0
1 0 0
1 0 0
1 0 0
1 0 0
0 0.151614 0
0 0.151034 0
0 0.150668 0
0.0424506 0.147494 0
0.0931258 0.143328 0
0.142702 0.138262 0
0.190982 0.132876 0
0.237766 0.127306 0
0.283314 0.121492 0
0.328405 0.115587 0
0.372259 0.109422 0
0.416068 0.10312 0
0.459068 0.0966659 0
0.501686 0.0898451 0
0.544259 0.082887 0
0.586191 0.075349 0
0.627634 0.0677501 0
0.668635 0.0597086 0
0.708675 0.0510109 0
0.748486 0.041886 0
0.787533 0.0320439 0
0.825971 0.0212406 0
0.863676 0.00920119 0
0.900359 0 0
0.936706 0 0
0.972808 0 0
1 0 0
1 0 0
1 0 0
1 0 0
1 0 0
1 0 0
1 0 0
0 0.185901 0
0 0.185504 0
0 0.186481 0
0.0289006 0.184573 0
0.0792706 0.181415 0
0.128206 0.177127 0
0.176547 0.172717 0
0.223972 0.167681 0
0.270191 0.162432 0
0.315633 0.156878 0
0.35996 0.151339 0
0.404013 0.145724 0
0.447196 0.139849 0
0.490227 0.134066 0
0.532494 0.127794 0
0.574578 0.121492 0
0.615946 0.114641 0
0.65658 0.107881 0
0.696681 0.100389 0
0.736187 0.0928511 0
0.775296 0.0846723 0
0.813458 0.0759442 0
0.850935 0.0663462 0
0.887892 0.0555886 0
0.924346 0.0433356 0
0.95993 0.0292821 0
0.994934 0.0128634 0
1 0 0
1 0 0
1 0 0
1 0 0
1 0 0
1 0 0
0 0.220111 0
0 0.219944 0
0 0.222248 0
0.0156405 0.221302 0
0.0661479 0.218753 0
0.115023 0.215473 0
0.162951 0.211444 0
0.21059 0.207233 0
0.257069 0.202548 0
0.302846 0.197604 0
0.34757 0.192508 0
0.391592 0.18761 0
0.435065 0.182254 0
0.478141 0.176822 0
0.52076 0.171466 0
0.562615 0.165728 0
0.603891 0.160143 0
0.644282 0.15404 0
0.684367 0.147936 0
0.723537 0.14139 0
0.76228 0.134524 0
0.800214 0.127367 0
0.837552 0.119585 0
0.874006 0.110948 0
0.909789 0.101228 0
0.945068 0.0904707 0
0.980072 0.0781109 0
1 0.0632486 0
1 0.0454719 0
1 0.0236057 0
1 0 0
1 0 0
1 0 0
0 0.254154 0
0 0.254276 0
0 0.257725 0
0.00299077 0.257862 0
0.0540932 0.255726 0
0.102953 0.253193 0
0.150561 0.249912 0
0.197772 0.246159 0
0.244251 0.242069 0
0.289952 0.23769 0
0.335119 0.233097 0
0.379538 0.228702 0
0.423209 0.223819 0
0.466087 0.218906 0
0.508766 0.214176 0
0.550591 0.209064 0
0.591913 0.204227 0
0.632288 0.198932 0
0.671946 0.193881 0
0.710994 0.188174 0
0.749538 0.182528 0
0.786831 0.176349 0
0.82385 0.170016 0
0.859983 0.163226 0
0.895644 0.155657 0
0.930251 0.147341 0
0.964355 0.137652 0
0.998459 0.126589 0
1 0.113436 0
1 0.0973983 0
1 0.0778821 0
1 0.0529335 0
1 0.0193179 0
0 0.28835 0
0 0.28867 0
0 0.292943 0
0 0.294255 0
0.0436561 0.292622 0
0.092134 0.290684 0
0.139681 0.288045 0
0.18645 0.284825 0
0.232502 0.281147 0
0.277943 0.277195 0
0.323339 0.273213 0
0.367651 0.269123 0
0.411414 0.264805 0
0.454582 0.260533 0
0.497108 0.256123 0
0.538842 0.25153 0
0.57998 0.247272 0
0.620218 0.242649 0
0.659983 0.2383 0
0.698589 0.233555 0
0.736889 0.228885 0
0.774075 0.223682 0
0.810452 0.218662 0
0.846372 0.213153 0
0.881148 0.206958 0
0.915465 0.200458 0
0.949035 0.19321 0
0.982254 0.184863 0
1 0.175097 0
1 0.163424 0
1 0.149355 0
1 0.132128 0
1 0.109346 0
0 0.322332 0
0 0.323064 0
0 0.328267 0
0 0.330098 0
0.0344854 0.329137 0
0.0827039 0.327626 0
0.129793 0.325429 0
0.176165 0.322774 0
0.221866 0.319753 0
0.267094 0.316518 0
0.312123 0.312901 0
0.356176 0.309071 0
0.400153 0.305226 0
0.443503 0.301396 0
0.485924 0.297368 0
0.527886 0.293599 0
0.568551 0.289555 0
0.608637 0.285435 0
0.648066 0.281727 0
0.686625 0.277653 0
0.724636 0.273762 0
0.761563 0.269535 0
0.797574 0.265507 0
0.833112 0.261173 0
0.867643 0.256168 0
0.901213 0.251301 0
0.934371 0.245594 0
0.966842 0.2392 0
0.998886 0.23212 0
1 0.223728 0
1 0.213687 0
1 0.201572 0
1 0.185885 0
0 0.356313 0
0 0.357794 0
0 0.363851 0
0 0.365988 0
0.0261692 0.365408 0
0.0744182 0.364431 0
0.121157 0.362737 0
0.167041 0.36051 0
0.212665 0.358114 0
0.257527 0.355169 0
0.302251 0.351904 0
0.346288 0.348684 0
0.390051 0.345174 0
0.433051 0.341497 0
0.475639 0.338186 0
0.51722 0.334554 0
0.557565 0.33109 0
0.597742 0.327886 0
0.636912 0.324285 0
0.675517 0.321035 0
0.713008 0.317449 0
0.749828 0.314229 0
0.785275 0.310735 0
0.820462 0.307362 0
0.854582 0.303471 0
0.887663 0.29987 0
0.920348 0.295598 0
0.952224 0.290929 0
0.983734 0.285832 0
1 0.279927 0
1 0.272587 0
1 0.264271 0
1 0.253391 0
0 0.390494 0
0 0.392462 0
0 0.398993 0
0 0.401892 0
0.0203555 0.401709 0
0.0683146 0.401007 0
0.114488 0.399847 0
0.159915 0.398108 0
0.204913 0.395819 0
0.249149 0.393256 0
0.29366 0.390707 0
0.337179 0.387747 0
0.380606 0.384558 0
0.423728 0.381598 0
0.465797 0.378286 0
0.507149 0.374975 0
0.547753 0.372152 0
0.587579 0.368978 0
0.626841 0.366232 0
0.664973 0.363165 0
0.702251 0.360586 0
0.73843 0.357641 0
0.773907 0.354833 0
0.808591 0.352056 0
0.842329 0.349462 0
0.874907 0.346441 0
0.90724 0.343526 0
0.938476 0.340078 0
0.969482 0.336568 0
0.999832 0.332494 0
1 0.327718 0
1 0.322316 0
1 0.314916 0
0 0.424598 0
0 0.427619 0
0 0.434531 0
0 0.437537 0
0.0155795 0.43772 0
0.063386 0.437308 0
0.109026 0.436393 0
0.154299 0.435294 0
0.198856 0.433448 0
0.242863 0.431266 0
0.286564 0.428748 0
0.330007 0.426307 0
0.373068 0.423484 0
0.415564 0.420554 0
0.45771 0.417945 0
0.49868 0.415076 0
0.538643 0.412299 0
0.578439 0.409842 0
0.617121 0.40708 0
0.655253 0.404791 0
0.692195 0.402243 0
0.728344 0.400046 0
0.763439 0.397803 0
0.79733 0.39556 0
0.8309 0.393606 0
0.863081 0.391348 0
0.894972 0.389364 0
0.925841 0.387259 0
0.956161 0.384771 0
0.985977 0.382406 0
1 0.379248 0
1 0.376089 0
1 0.37142 0
0 0.458503 0
0 0.462531 0
0 0.46981 0
0 0.473106 0
0.0134737 0.473594 0
0.0607004 0.473533 0
0.10602 0.472999 0
0.150332 0.471901 0
0.194034 0.470375 0
0.238025 0.468772 0
0.28098 0.466682 0
0.323934 0.464302 0
0.366659 0.461906 0
0.408865 0.459419 0
0.450172 0.456779 0
0.491112 0.45452 0
0.531121 0.451957 0
0.570397 0.44947 0
0.60911 0.447425 0
0.646555 0.445151 0
0.683223 0.443412 0
0.718837 0.441382 0
0.753689 0.439734 0
0.787594 0.438025 0
0.820508 0.436316 0
0.852552 0.435111 0
0.883497 0.433616 0
0.914244 0.432395 0
0.943893 0.430838 0
0.973236 0.429648 0
1 0.427909 0
1 0.426474 0
1 0.423819 0
0 0.492393 0
0 0.497826 0
0 0.505135 0
0 0.508598 0
0.0134585 0.509102 0
0.0600443 0.509194 0
0.104936 0.509133 0
0.148638 0.508385 0
0.19176 0.507195 0
0.23473 0.505562 0
0.27718 0.503868 0
0.319738 0.501945 0
0.361746 0.499672 0
0.403494 0.497566 0
0.444389 0.495369 0
0.484718 0.493004 0
0.524712 0.491005 0
0.563607 0.488777 0
0.601633 0.486656 0
0.639124 0.485039 0
0.675395 0.483192 0
0.710964 0.48188 0
0.745266 0.480369 0
0.778439 0.479072 0
0.811215 0.478202 0
0.842603 0.47715 0
0.87364 0.476539 0
0.903578 0.475685 0
0.932937 0.475364 0
0.96173 0.474662 0
0.990143 0.47451 0
1 0.473976 0
1 0.472984 0
0 0.526223 0
0 0.532845 0
0 0.540169 0
0 0.54345 0
0.0164492 0.544274 0
0.0619364 0.544732 0
0.105715 0.54464 0
0.148836 0.544015 0
0.191699 0.543359 0
0.233753 0.542062 0
0.2757 0.540459 0
0.317556 0.53875 0
0.359106 0.536919 0
0.399802 0.534874 0
0.44062 0.533074 0
0.480385 0.530983 0
0.519478 0.528954 0
0.558236 0.527337 0
0.595865 0.52546 0
0.632639 0.52372 0
0.668833 0.522499 0
0.703716 0.521096 0
0.737926 0.520256 0
0.770977 0.519219 0
0.803204 0.518486 0
0.83415 0.518212 0
0.8645 0.517723 0
0.894362 0.517754 0
0.923156 0.517632 0
0.951415 0.518135 0
0.979324 0.51838 0
1 0.518929 0
1 0.519158 0
0 0.55967 0
0 0.568185 0
0 0.575296 0
0 0.578515 0
0.0217746 0.579355 0
0.0661784 0.579904 0
0.109102 0.580041 0
0.151232 0.579705 0
0.193103 0.578866 0
0.234745 0.578073 0
0.275975 0.576684 0
0.316945 0.575051 0
0.357671 0.573617 0
0.398123 0.571801 0
0.43798 0.569863 0
0.477562 0.5682 0
0.516335 0.5664 0
0.554314 0.564599 0
0.591791 0.563287 0
0.62797 0.561837 0
0.663447 0.560647 0
0.698116 0.559716 0
0.73164 0.55877 0
0.764553 0.558358 0
0.796277 0.557778 0
0.82707 0.557778 0
0.857069 0.557748 0
0.886015 0.557961 0
0.914641 0.55874 0
0.942458 0.559365 0
0.969955 0.56051 0
0.997024 0.56202 0
1 0.562737 0.00347906
0 0.593103 0
0 0.60325 0
0 0.609888 0
0 0.612879 0
0.0295262 0.613718 0
0.0725261 0.614466 0
0.114794 0.614878 0
0.156085 0.614771 0
0.196811 0.614206 0
0.237522 0.613245 0
0.27837 0.612345 0
0.318441 0.610925 0
0.35819 0.609384 0
0.398245 0.607996 0
0.437446 0.606241 0
0.476127 0.604501 0
0.514611 0.603143 0
0.552041 0.601526 0
0.588678 0.600031 0
0.624857 0.599023 0
0.659815 0.597833 0
0.694102 0.597223 0
0.726986 0.596551 0
0.759152 0.596017 0
0.790768 0.596063 0
0.820935 0.596063 0
0.850721 0.596597 0
0.879469 0.597025 0
0.907301 0.597787 0
0.934752 0.599313 0
0.961715 0.600778 0
0.988434 0.602716 0.00515755
1 0.604623 0.0119631
0 0.627359 0
0 0.638361 0
0 0.644511 0
0 0.647105 0
0.0402838 0.648005 0
0.0819409 0.648829 0
0.122576 0.64921 0
0.162799 0.649104 0
0.203082 0.648951 0
0.242847 0.648112 0
0.2822 0.647074 0
0.321828 0.646159 0
0.360967 0.644724 0
0.399878 0.643183 0
0.438758 0.641917 0
0.476738 0.64033 0
0.514199 0.638758 0
0.551354 0.637598 0
0.587411 0.63624 0
0.622812 0.635126 0
0.657526 0.634363 0
0.691051 0.633539 0
0.723964 0.63328 0
0.755673 0.632883 0
0.786358 0.632776 0
0.816281 0.633356 0
0.845396 0.633768 0
0.873823 0.634607 0
0.901473 0.635904 0
0.928389 0.637293 0.000610361
0.955077 0.639414 0.00698863
0.981125 0.641886 0.014374
1 0.643809 0.0217136
0 0.661982 0
0 0.673198 0
0 0.678431 0
0.0117037 0.680278 0
0.0534981 0.681666 0
0.0939345 0.682811 0
0.133425 0.683177 0
0.172259 0.683207 0
0.21117 0.682795 0
0.250111 0.682475 0
0.288701 0.681514 0
0.327092 0.680369 0
0.365759 0.679377 0
0.403784 0.677943 0
0.441489 0.676463 0
0.479118 0.675334 0
0.515877 0.673899 0
0.552041 0.672557 0
0.587823 0.671641 0
0.622507 0.670527 0
0.656718 0.669902 0
0.689708 0.669184 0
0.721813 0.668711 0
0.753384 0.668803 0
0.783764 0.668788 0
0.813153 0.669245 0
0.841932 0.669978 0
0.869642 0.670893 0
0.896727 0.672328 0.00410468
0.92343 0.674235 0.0103456
0.949462 0.67631 0.0172274
0.975143 0.678874 0.0251011
0.996811 0.681498 0.0328069
0 0.69688 0
0 0.707439 0
0 0.712016 0
0.0307622 0.713542 0
0.0701457 0.714916 0
0.108614 0.715801 0
0.146441 0.716274 0
0.184695 0.716609 0
0.22211 0.71635 0
0.259724 0.715709 0
0.297704 0.715145 0
0.335119 0.714092 0
0.372412 0.712902 0
0.409964 0.711925 0
0.446784 0.710552 0
0.483177 0.709178 0
0.519448 0.708171 0
0.554803 0.706905 0
0.589578 0.705852 0
0.623926 0.705104 0
0.657237 0.704265 0
0.689967 0.703944 0
0.721477 0.703502 0
0.752163 0.703288 0
0.782345 0.7037 0
0.811185 0.704143 0.000106813
0.839414 0.70486 0.00442512
0.867033 0.706203 0.00985733
0.893629 0.707515 0.0154269
0.919463 0.709285 0.021561
0.945174 0.711833 0.0290074
0.970397 0.714626 0.0371405
0.991516 0.717098 0.04477
0 0.732128 0
0 0.741497 0
0.0124514 0.744518 0
0.051606 0.746319 0
0.0891737 0.747738 0
0.12604 0.748775 0
0.162402 0.749203 0
0.198611 0.749279 0
0.235431 0.74931 0
0.271839 0.748745 0
0.308263 0.747951 0
0.345006 0.74728 0
0.381247 0.746136 0
0.417166 0.744945 0
0.453635 0.743938 0
0.489311 0.742626 0
0.524468 0.74136 0
0.559487 0.740475 0
0.593469 0.739361 0
0.62707 0.738628 0
0.65977 0.737865 0
0.691554 0.737316 0
0.722789 0.737362 0
0.75285 0.73727 0.00343328
0.782071 0.737392 0.00735485
0.810712 0.738109 0.0120851
0.838346 0.738781 0.0168002
0.865156 0.739834 0.0220493
0.891615 0.741588 0.0282902
0.917128 0.743404 0.0347295
0.942138 0.745647 0.0418555
0.966735 0.748592 0.049897
0.987335 0.751369 0.0576791
0 0.767315 0
0 0.774716 0
0.0395819 0.777295 0
0.0756847 0.779004 0
0.110796 0.780179 0
0.145571 0.780987 0
0.180606 0.781476 0
0.215778 0.781689 0
0.250416 0.781491 0
0.285634 0.781064 0
0.321096 0.780468 0
0.356313 0.779553 0
0.391638 0.778607 0
0.426993 0.77763 0
0.461906 0.776364 0
0.49688 0.775402 0
0.531319 0.774121 0
0.565103 0.772992 0
0.598871 0.772244 3.0518e-05
0.631495 0.771328 0.00291447
0.663737 0.770855 0.00637827
0.694835 0.770245 0.00959792
0.725109 0.769848 0.0130617
0.75494 0.770031 0.0172732
0.783505 0.770214 0.0214237
0.811444 0.770626 0.0258793
0.838743 0.771664 0.0310369
0.86479 0.772732 0.0361791
0.890471 0.774044 0.041886
0.915724 0.776165 0.0487373
0.940291 0.778485 0.0559396
0.964492 0.781369 0.0640574
0.984405 0.783932 0.071458
0 0.801877 0
0.0254215 0.806851 0
0.0687114 0.809476 0
0.102113 0.811017 0
0.134981 0.81207 0
0.168139 0.813031 0
0.201236 0.813321 0
0.234577 0.813306 0
0.268513 0.813352 0
0.302144 0.812833 0
0.335988 0.81207 0
0.370382 0.811444 0
0.404349 0.810391 0
0.438361 0.809308 0.000228885
0.472633 0.808408 0.00341802
0.506279 0.807202 0.00614939
0.53994 0.806287 0.009308
0.572808 0.805112 0.0120241
0.605173 0.804013 0.0148165
0.637507 0.803326 0.0181735
0.668727 0.802548 0.0213016
0.699138 0.802029 0.0247044
0.72903 0.801923 0.0286259
0.757794 0.801755 0.0323796
0.786084 0.802106 0.0368353
0.813397 0.802426 0.0411994
0.839963 0.803098 0.0460059
0.865858 0.80441 0.051667
0.891096 0.805783 0.0574807
0.915526 0.807507 0.0637522
0.939361 0.809735 0.0706035
0.963211 0.812772 0.0788739
0.982605 0.815442 0.086305
0.00485237 0.834821 0
0.0612802 0.839063 0
0.100313 0.841291 0
0.131304 0.842542 0
0.162325 0.843748 0
0.193194 0.844282 0
0.224399 0.844495 0
0.256443 0.844694 0
0.28835 0.844358 0.000915541
0.320546 0.84387 0.00453193
0.353384 0.843412 0.00831617
0.386099 0.842496 0.0114443
0.419486 0.841672 0.0148013
0.452201 0.840513 0.0176242
0.484886 0.839292 0.020325
0.517815 0.838361 0.0234989
0.550118 0.837171 0.0262455
0.582193 0.836133 0.02916
0.613901 0.835279 0.0322881
0.6448 0.834302 0.0351873
0.675532 0.833707 0.0386053
0.705028 0.833082 0.0418097
0.733883 0.832685 0.0452583
0.762341 0.832807 0.0494087
0.789792 0.832868 0.0533761
0.816663 0.83331 0.0579232
0.842664 0.833951 0.0626993
0.867704 0.834852 0.0677958
0.892348 0.836103 0.0734112
0.916564 0.838102 0.0801251
0.940063 0.840253 0.0870375
0.96318 0.842893 0.0947738
0.981826 0.845289 0.101701
0.0497444 0.867414 0
0.0990921 0.871077 0
0.134417 0.872862 0
0.163256 0.874128 0
0.191684 0.874769 0.00344854
0.2206 0.875135 0.00799573
0.250355 0.875547 0.0127718
0.280156 0.87541 0.0167544
0.310811 0.87512 0.0206607
0.341634 0.874586 0.0242161
0.372503 0.873793 0.0274205
0.404181 0.873137 0.03093
0.43563 0.872099 0.0338445
0.46714 0.870985 0.0366674
0.499153 0.870024 0.039765
0.530694 0.868727 0.0423133
0.562173 0.86775 0.0453346
0.593057 0.866545 0.0479591
0.623575 0.865461 0.0506905
0.653941 0.86479 0.0540322
0.683436 0.863935 0.0570077
0.712566 0.863508 0.0605631
0.740642 0.862974 0.0638437
0.768048 0.862654 0.0673686
0.795117 0.862867 0.0716716
0.82121 0.863096 0.0758984
0.846555 0.8636 0.0804761
0.87126 0.864698 0.0858778
0.895262 0.865782 0.0912184
0.918593 0.867277 0.0971695
0.941543 0.869291 0.103899
0.964141 0.871916 0.111452
0.9823 0.87451 0.118517
0.0958114 0.899855 0
0.139345 0.902632 0.0102541
0.171267 0.904005 0.0169223
0.197833 0.904921 0.0221714
0.22385 0.905348 0.0266117
0.25095 0.90573 0.0311284
0.278416 0.905715 0.0351263
0.306538 0.905425 0.0388037
0.335515 0.905257 0.042771
