public/textures/grade/Canon/Guardians-CLog3.cube
TITLE "Generated by Resolve"
LUT_3D_SIZE 33
0 0.00486763 0.00132753
0 0.00486763 0.00132753
0 0.00486763 0.00132753
0.0135958 0.00250248 0
0.0729076 0 0
0.12462 0 0
0.17261 0 0
0.221088 0 0
0.270741 0 0
0.32166 0 0
0.373175 0 0
0.425772 0 0
0.478553 0 0
0.531899 0 0
0.585 0 0
0.637522 0 0
0.689113 0 0
0.739345 0 0
0.788205 0 0
0.83447 0 0
0.87837 0 0
0.919951 0 0
0.958724 0 0
0.994598 0 0
1 0 0
1 0 0
1 0 0
1 0 0
1 0 0
1 0 0
1 0 0
1 0 0
1 0 0
0 0.00486763 0.00132753
0 0.00486763 0.00132753
0 0.00486763 0.00132753
0.0163577 0.002121 0
0.0750896 0 0
0.126238 0 0
0.173922 0 0
0.222309 0 0
0.271778 0 0
0.322332 0 0
0.373907 0 0
0.426383 0 0
0.479072 0 0
0.532311 0 0
0.585336 0 0
0.637812 0 0
0.689342 0 0
0.739528 0 0
0.788357 0 0
0.834592 0 0
0.878462 0 0
0.920012 0 0
0.958785 0 0
0.994644 0 0
1 0 0
1 0 0
1 0 0
1 0 0
1 0 0
1 0 0
1 0 0
1 0 0
1 0 0
0 0.00486763 0.00132753
0 0.00486763 0.00132753
0 0.00486763 0.00132753
0.018555 0.00183108 0
0.0767071 0 0
0.127657 0 0
0.175036 0 0
0.223301 0 0
0.272618 0 0
0.322957 0 0
0.374517 0 0
0.42678 0 0
0.479484 0 0
0.532662 0 0
0.585626 0 0
0.638041 0 0
0.689525 0 0
0.739681 0 0
0.788449 0 0
0.834684 0 0
0.878538 0 0
0.920058 0 0
0.958831 0 0
0.99469 0 0
1 0 0
1 0 0
1 0 0
1 0 0
1 0 0
1 0 0
1 0 0
1 0 0
1 0 0
0 0.024506 0
0 0.0234684 0
0 0.0225834 0
0.0115511 0.0189364 0
0.0716716 0.0101472 0
0.123842 0.00221256 0
0.17171 0 0
0.22002 0 0
0.269429 0 0
0.320073 0 0
0.371878 0 0
0.424414 0 0
0.47808 0 0
0.532387 0 0
0.585855 0 0
0.638224 0 0
0.689677 0 0
0.739803 0 0
0.78854 0 0
0.83476 0 0
0.878599 0 0
0.920089 0 0
0.958877 0 0
0.99472 0 0
1 0 0
1 0 0
1 0 0
1 0 0
1 0 0
1 0 0
1 0 0
1 0 0
1 0 0
0 0.0663462 0
0 0.0651865 0
0 0.0641794 0
0 0.061677 0
0.052903 0.0554971 0
0.109697 0.047837 0
0.160876 0.0406043 0
0.211368 0.033051 0
0.262165 0.0247501 0
0.313619 0.0158083 0
0.365911 0.00619516 0
0.418479 0 0
0.471382 0 0
0.524773 0 0
0.578317 0 0
0.631296 0 0
0.683452 0 0
0.734554 0 0
0.784253 0 0
0.832212 0 0
0.87866 0 0
0.920119 0 0
0.958907 0 0
0.994751 0 0
1 0 0
1 0 0
1 0 0
1 0 0
1 0 0
1 0 0
1 0 0
1 0 0
1 0 0
0 0.104646 0
0 0.103639 0
0 0.102861 0
0 0.101213 0
0.0349279 0.0973373 0
0.0917067 0.0915541 0
0.144991 0.0851301 0
0.197635 0.0781567 0
0.250004 0.0707713 0
0.302388 0.0630503 0
0.355627 0.0545968 0
0.409003 0.0457465 0
0.462593 0.0359655 0
0.516442 0.025391 0
0.570031 0.014313 0
0.623087 0.00227359 0
0.674571 0 0
0.7252 0 0
0.775174 0 0
0.82324 0 0
0.869749 0 0
0.913985 0 0
0.955627 0 0
0.994781 0 0
1 0 0
1 0 0
1 0 0
1 0 0
1 0 0
1 0 0
1 0 0
1 0 0
1 0 0
0 0.141222 0
0 0.140352 0
0 0.139635 0
0 0.138628 0
0.0191653 0.136614 0
0.0754253 0.132448 0
0.128695 0.127108 0
0.182345 0.120806 0
0.236164 0.114214 0
0.289723 0.107286 0
0.343679 0.0997635 0
0.397375 0.0917525 0
0.451438 0.0831311 0
0.505547 0.0742962 0
0.559167 0.064622 0
0.612284 0.0545205 0
0.664363 0.0432746 0
0.715328 0.03122 0
0.764965 0.0177462 0
0.812451 0.00254826 0
0.857633 0 0
0.901473 0 0
0.944091 0 0
0.984787 0 0
1 0 0
1 0 0
1 0 0
1 0 0
1 0 0
1 0 0
1 0 0
1 0 0
1 0 0
0 0.178744 0
0 0.178012 0
0 0.177401 0
0 0.177142 0
0.00283818 0.177066 0
0.059556 0.173983 0
0.112413 0.169818 0
0.166155 0.164538 0
0.220569 0.158633 0
0.275166 0.152361 0
0.329946 0.145586 0
0.384192 0.138476 0
0.438544 0.130907 0
0.492866 0.123262 0
0.546654 0.114885 0
0.599588 0.106065 0
0.651713 0.0968643 0
0.702251 0.086717 0
0.75169 0.0757153 0
0.799191 0.0635538 0
0.844663 0.0497597 0
0.888304 0.0335851 0
0.930053 0.0144656 0
0.968826 0 0
1 0 0
1 0 0
1 0 0
1 0 0
1 0 0
1 0 0
1 0 0
1 0 0
1 0 0
0 0.217395 0
0 0.216861 0
0 0.216419 0
0 0.216983 0
0 0.21857 0
0.0449683 0.216022 0
0.0974289 0.21294 0
0.150347 0.20882 0
0.204944 0.203677 0
0.259892 0.198123 0
0.315251 0.192096 0
0.369985 0.185779 0
0.424796 0.179095 0
0.479362 0.17232 0
0.532906 0.165179 0
0.585855 0.15761 0
0.637873 0.149889 0
0.688029 0.141436 0
0.737224 0.132479 0
0.784329 0.122789 0
0.829114 0.111696 0
0.87219 0.0992752 0
0.91371 0.0848554 0
0.952697 0.0673533 0
0.990372 0.0458686 0
1 0.0185855 0
1 0 0
1 0 0
1 0 0
1 0 0
1 0 0
1 0 0
1 0 0
0 0.257343 0
0 0.256886 0
0 0.256458 0
0 0.257786 0
0 0.260731 0
0.0310369 0.259297 0
0.0831617 0.257115 0
0.135821 0.253635 0
0.190021 0.249287 0
0.245121 0.244724 0
0.300603 0.239445 0
0.355718 0.23386 0
0.410758 0.227893 0
0.465278 0.221698 0
0.519036 0.215579 0
0.571908 0.209293 0
0.623484 0.202548 0
0.673671 0.195666 0
0.721981 0.188327 0
0.768795 0.180468 0
0.813062 0.171771 0
0.855512 0.162234 0
0.895979 0.151186 0
0.934188 0.138155 0
0.970703 0.122316 0
1 0.103166 0
1 0.0788739 0
1 0.0477913 0
1 0.00714122 0
1 0 0
1 0 0
1 0 0
1 0 0
0 0.298329 0
0 0.297887 0
0 0.29752 0
0 0.299763 0
0 0.303807 0
0.0183566 0.302998 0
0.0704204 0.301457 0
0.122957 0.299062 0
0.176425 0.295689 0
0.231083 0.291508 0
0.286076 0.286961 0
0.341482 0.282032 0
0.396719 0.277165 0
0.451194 0.271763 0
0.504967 0.266194 0
0.557687 0.260563 0
0.609339 0.255177 0
0.659098 0.249302 0
0.706859 0.243259 0
0.753246 0.237064 0
0.796811 0.230228 0
0.838758 0.222904 0
0.878508 0.214603 0
0.915862 0.20499 0
0.951354 0.193454 0
0.984924 0.179431 0
1 0.162356 0
1 0.140871 0
1 0.114168 0
1 0.0796826 0
1 0.0344091 0
1 0 0
1 0 0
0 0.340063 0
0 0.339727 0
0 0.339452 0
0 0.342504 0
0 0.347524 0
0.0071107 0.347845 0
0.0595254 0.34667 0
0.11162 0.344945 0
0.164599 0.342382 0
0.218677 0.338949 0
0.273106 0.335073 0
0.328206 0.33077 0
0.38323 0.326223 0
0.437858 0.321584 0
0.491676 0.316899 0
0.544198 0.312001 0
0.595132 0.30721 0
0.6448 0.302708 0
0.692409 0.297734 0
0.73817 0.2925 0
0.781399 0.287526 0
0.822416 0.281666 0
0.861387 0.275563 0
0.8981 0.268498 0
0.932662 0.260182 0
0.965164 0.250156 0
0.995438 0.238056 0
1 0.222919 0
1 0.204639 0
1 0.181781 0
1 0.152972 0
1 0.117144 0
1 0.0710765 0
0 0.382345 0
0 0.382086 0
0 0.381842 0
0 0.386206 0
0 0.391608 0
0 0.393027 0
0.0513466 0.392111 0
0.102876 0.39089 0
0.155215 0.388983 0
0.208667 0.386282 0
0.26244 0.383047 0
0.316854 0.379355 0
0.371283 0.375479 0
0.425437 0.371405 0
0.479057 0.367422 0
0.531395 0.363287 0
0.582193 0.359106 0
0.631296 0.355016 0
0.678767 0.351324 0
0.723827 0.34728 0
0.766567 0.343084 0
0.807248 0.339025 0
0.845304 0.334249 0
0.881239 0.329213 0
0.914839 0.323384 0
0.946319 0.316396 0
0.975647 0.307912 0
1 0.297459 0
1 0.284596 0
1 0.269093 0
1 0.250034 0
1 0.226871 0
1 0.198566 0
0 0.425086 0
0 0.424842 0
0 0.424613 0
0 0.430549 0
0 0.436316 0
0 0.438285 0
0.0454261 0.437827 0
0.0963149 0.437064 0
0.148074 0.435584 0
0.200443 0.43357 0
0.253803 0.430915 0
0.307591 0.427771 0
0.361501 0.424338 0
0.415198 0.420768 0
0.468223 0.417197 0
0.520272 0.413916 0
0.570443 0.410422 0
0.61912 0.406973 0
0.66601 0.403861 0
0.710964 0.400717 0
0.753201 0.397528 0
0.793027 0.394736 0
0.830701 0.39118 0
0.865934 0.387732 0
0.898512 0.383429 0
0.929137 0.378683 0
0.95758 0.37293 0
0.984161 0.365835 0
1 0.357122 0
1 0.346502 0
1 0.333608 0
1 0.318425 0
1 0.29987 0
0 0.467857 0
0 0.467689 0
0 0.467536 0
0 0.47512 0
0 0.481117 0
0 0.48333 0
0.0429541 0.483238 0
0.0931106 0.482948 0
0.143908 0.48191 0
0.195361 0.480339 0
0.247822 0.478187 0
0.300801 0.475624 0
0.353933 0.472709 0
0.406867 0.469596 0
0.459266 0.466484 0
0.510872 0.463676 0
0.560769 0.46067 0
0.608911 0.457786 0
0.65481 0.455177 0
0.699413 0.452888 0
0.741085 0.450477 0
0.780362 0.448112 0
0.817563 0.446036 0
0.851743 0.443503 0
0.884123 0.440925 0
0.913649 0.437583 0
0.941283 0.433845 0
0.966842 0.429267 0
0.990463 0.42356 0
1 0.416556 0
1 0.407904 0
1 0.397696 0
1 0.385382 0
0 0.510719 0
0 0.510552 0
0 0.510399 0
0 0.519768 0
0 0.52578 0
0 0.528099 0
0.0440223 0.528237 0
0.0933547 0.528237 0
0.142916 0.527687 0
0.1935 0.526452 0
0.244831 0.524712 0
0.296727 0.522591 0
0.348852 0.52018 0
0.400992 0.51751 0
0.452689 0.514717 0
0.503624 0.512352 0
0.552865 0.509773 0
0.600427 0.507362 0
0.646021 0.50515 0
0.689921 0.503471 0
0.730846 0.501717 0
0.769512 0.500023 0
0.806241 0.498695 0
0.839933 0.497063 0
0.871397 0.495689 0
0.900435 0.493553 0
0.927352 0.491386 0
0.951843 0.488289 0
0.974502 0.484779 0
0.995499 0.480293 0
1 0.474784 0
1 0.468162 0
1 0.459724 0
0 0.552987 0
0 0.55285 0
0 0.553506 0
0 0.564065 0
0 0.569924 0
0.000366217 0.572091 0
0.0493782 0.572457 0
0.0970321 0.572793 0
0.145586 0.572503 0
0.194919 0.571633 0
0.244862 0.570321 0
0.295644 0.568521 0
0.346761 0.56643 0
0.397864 0.564141 0
0.448737 0.561959 0
0.498909 0.559686 0
0.547356 0.557443 0
0.594186 0.555398 0
0.639109 0.553567 0
0.68249 0.55227 0
0.722866 0.550958 0
0.760739 0.549874 0
0.796857 0.549157 0
0.829923 0.548211 0
0.860945 0.547463 0
0.889113 0.546517 0
0.915328 0.545464 0
0.939361 0.543679 0
0.961273 0.541802 0
0.98143 0.539223 0
0.999496 0.535561 0
1 0.531502 0
1 0.525917 0
0 0.594598 0
0 0.594476 0
0 0.596887 0
0 0.608042 0
0 0.613291 0
0.0127565 0.614939 0
0.0588388 0.615824 0
0.104906 0.616297 0
0.151705 0.616236 0
0.199664 0.615625 0
0.248508 0.614527 0
0.298024 0.613046 0
0.347921 0.611246 0
0.398062 0.609445 0
0.447776 0.607523 0
0.49662 0.605447 0
0.544396 0.603449 0
0.590387 0.601678 0
0.634852 0.600488 0
0.677089 0.599176 0
0.716945 0.598154 0
0.754223 0.597452 0
0.789624 0.597253 0
0.822095 0.596841 0
0.852506 0.596689 0
0.880278 0.596353 0
0.905455 0.595956 0
0.92903 0.595438 0
0.950515 0.594659 0
0.969482 0.593194 0
0.987289 0.591424 0.00192264
1 0.589227 0.00546273
1 0.585733 0.00796521
0 0.635325 0
0 0.635233 0
0 0.640467 0
0 0.651102 0
0 0.655512 0
0.0288853 0.656855 0
0.0723735 0.657923 0
0.116594 0.658518 0
0.161868 0.658579 0
0.208225 0.658122 0
0.255543 0.657221 0
0.303624 0.65597 0
0.352178 0.654414 0
0.401221 0.65301 0
0.449561 0.651164 0
0.497185 0.649332 0
0.543999 0.647517 0
0.589075 0.645991 0
0.632715 0.64506 0
0.674006 0.644022 0
0.713268 0.643183 0
0.750042 0.642893 0
0.784558 0.642832 0
0.816434 0.642817 0
0.846174 0.643015 0
0.873426 0.643351 0
0.898329 0.643503 0
0.921065 0.643763 0.000839246
0.941894 0.643717 0.00508125
0.960555 0.643259 0.00932326
0.977478 0.642725 0.01355
0.992767 0.641642 0.0177462
1 0.639307 0.0204318
0 0.674998 0
0 0.674937 0
0 0.683635 0
0 0.69279 0
0.00489815 0.695872 0
0.0489967 0.697429 0
0.0900587 0.698619 0
0.132128 0.699245 0
0.175479 0.699382 0
0.22005 0.699062 0
0.26569 0.698329 0
0.312367 0.697383 0
0.359884 0.696086 0
0.407095 0.694514 0
0.454139 0.692866 0
0.500542 0.691249 0
0.545983 0.689723 0
0.59057 0.688533 0
0.632898 0.687388 0
0.67332 0.686534 0
0.711849 0.685924 0
0.747967 0.68603 0
0.78172 0.685939 0
0.812924 0.686137 0
0.842222 0.686824 0
0.868757 0.687388 0.00376898
0.893126 0.687922 0.00840772
0.915511 0.688701 0.0134127
0.935653 0.689326 0.0182803
0.953689 0.689464 0.0228885
0.970245 0.689586 0.0276036
0.984527 0.689174 0.0314794
0.995636 0.688136 0.0347906
0 0.713359 0
0 0.713298 0
0 0.725444 0
0 0.73283 0
0.0329595 0.734874 0
0.0735027 0.736629 0
0.111757 0.737682 0
0.151476 0.738277 0
0.192691 0.73843 0
0.235477 0.738094 0
0.279347 0.737499 0
0.324437 0.736812 0
0.369802 0.735576 0
0.415503 0.734096 0
0.461295 0.732494 0
0.506386 0.730983 0
0.550942 0.7299 0
0.594125 0.728573 0
0.63534 0.72752 0
0.674678 0.726772 0
0.712581 0.726604 0
0.747829 0.726482 0
0.781003 0.726574 0.00323491
0.81178 0.727199 0.0081178
0.840192 0.727749 0.0128786
0.866011 0.728435 0.0177462
0.890074 0.729519 0.0231174
0.911757 0.730282 0.0280461
0.931334 0.731319 0.0330816
0.948913 0.731991 0.0379187
0.964981 0.732662 0.0428168
0.978988 0.732784 0.047013
0.98938 0.732555 0.050248
0 0.750103 0
0 0.752132 0
0 0.765743 0
0.0196231 0.770138 0
0.06392 0.772519 0
0.101061 0.774136 0
0.136812 0.774975 0
0.17409 0.775525 0
0.213214 0.775616 0
0.253925 0.775586 0
0.295766 0.775067 0
0.338811 0.774075 0
0.382422 0.772946 0
0.426459 0.771618 0
0.470863 0.770474 0
0.514748 0.768948 0
0.55758 0.767575 0
0.599313 0.766415 0
0.639841 0.765408 0.00120546
0.678614 0.765026 0.00552377
0.715297 0.764508 0.00955215
0.749645 0.76434 0.0138705
0.782025 0.764462 0.0184024
0.812177 0.76524 0.0236515
0.839918 0.76585 0.0285344
0.865263 0.766796 0.0337072
0.888624 0.767834 0.0389105
0.909621 0.76878 0.0437476
0.928862 0.770047 0.049012
0.945937 0.770962 0.0538338
0.961593 0.772015 0.0588388
0.975204 0.77261 0.0631571
0.985367 0.772808 0.0666667
0 0.785351 0
0 0.792493 0
0.00303655 0.803021 0
0.0585336 0.806378 0
0.0978866 0.808331 0
0.132021 0.80972 0
0.164752 0.810437 0
0.19968 0.810758 0
0.236469 0.810758 0
0.275135 0.810803 0
0.314992 0.810147 0
0.355749 0.809262 0
0.397498 0.808087 0
0.44033 0.80708 0
0.48275 0.805737 0.00321965
0.525002 0.804334 0.00675975
0.566552 0.802945 0.0102693
0.607111 0.801907 0.0141451
0.64654 0.800992 0.0180972
0.68394 0.80032 0.0221408
0.719585 0.799893 0.0263371
0.753399 0.799924 0.0310063
0.784878 0.800076 0.0356146
0.814069 0.800443 0.0403143
0.841154 0.801083 0.045182
0.866072 0.802304 0.0506752
0.888624 0.803342 0.0555581
0.909483 0.804654 0.0609293
0.928054 0.805692 0.0657816
0.944747 0.806867 0.0706951
0.959838 0.80795 0.0754406
0.973297 0.80911 0.0802014
0.982849 0.809339 0.0832837
0 0.818647 0
0 0.831174 0
0.051667 0.837766 0
0.0994736 0.840665 0
0.134585 0.84213 0
0.165637 0.843244 0
0.195789 0.843748 0
0.228 0.843946 0
0.262654 0.844129 0
0.298512 0.843778 0.00192264
0.336172 0.843091 0.00601205
0.374884 0.842237 0.00999466
0.415244 0.841352 0.0141756
0.455528 0.84004 0.0177768
0.496361 0.838575 0.0212253
0.536873 0.837201 0.0247654
0.577493 0.836149 0.0287785
0.616541 0.834974 0.0324254
0.654353 0.833936 0.0361334
0.69073 0.833097 0.0399481
0.725475 0.832944 0.04448
0.758251 0.832761 0.0487373
0.788739 0.832898 0.0532387
0.817426 0.833326 0.0580148
0.843931 0.834043 0.062974
0.867933 0.834867 0.0678416
0.89012 0.835874 0.0728466
0.910491 0.837232 0.0781567
0.928649 0.838376 0.0830396
0.945083 0.839826 0.0881666
0.959655 0.840879 0.0926223
0.972702 0.842145 0.0972457
0.981949 0.842893 0.100526
0 0.852491 0
0.0362249 0.866026 0
0.100343 0.870832 0
0.141772 0.872908 0
0.172992 0.873884 0
0.200855 0.874723 0.00491341
0.228397 0.874998 0.00914015
0.258442 0.875212 0.0136416
0.290227 0.875105 0.0179599
0.323705 0.874617 0.0219425
0.359304 0.874037 0.0261082
0.396139 0.873091 0.0298924
0.433768 0.871992 0.0335699
0.47245 0.870665 0.0370489
0.51165 0.869551 0.0409094
0.550607 0.868055 0.0442054
0.588968 0.866682 0.0475776
0.626871 0.865415 0.0510567
0.6636 0.864576 0.0549935
0.699077 0.863859 0.0589609
0.732464 0.863279 0.0628977
0.764263 0.862928 0.0669566
0.794232 0.863233 0.0717632
0.822095 0.863523 0.0763104
0.84773 0.864103 0.0810101
0.871504 0.865125 0.0861677
0.893034 0.866011 0.090898
0.912627 0.867018 0.0955978
0.930556 0.868406 0.100725
0.94638 0.869627 0.105379
0.960708 0.871107 0.110094
0.973236 0.872236 0.114305
0.982269 0.87306 0.117647
0.002121 0.889067 0
0.0952621 0.898024 0
0.149157 0.901381 0.0114137
0.185214 0.902724 0.0186465
0.21323 0.903517 0.0238956
0.237858 0.903807 0.0279088
0.26276 0.903807 0.0315404
0.290257 0.903944 0.0357366
0.319463 0.903593 0.0394751
0.350805 0.903181 0.0433967
0.383917 0.902495 0.0471809
0.418372 0.901427 0.0505531
0.454276 0.900282 0.0540322
0.490806 0.899092 0.0575265
0.528008 0.897658 0.0607462
0.565362 0.896208 0.0639506
0.602502 0.895094 0.067628
0.638773 0.893736 0.0708476
0.674006 0.892592 0.0742351
0.708125 0.891691 0.0778363
0.740749 0.891295 0.0819867
0.77174 0.891005 0.0861067
0.800504 0.890913 0.0902113
0.827466 0.891051 0.0943923
0.852522 0.891798 0.0992447
0.875532 0.8925 0.103838
0.896574 0.893385 0.108522
0.915938 0.894621 0.113542
0.933165 0.895674 0.118044
0.94876 0.897047 0.122835
0.962554 0.898177 0.127062
0.975006 0.89955 0.131533
0.98349 0.900191 0.134386
0.079469 0.921981 0.00903334
0.151919 0.927367 0.027985
0.197116 0.929335 0.0377508
0.228443 0.930083 0.043595
0.253437 0.930587 0.0481117
0.275257 0.930648 0.0514687
0.298268 0.930709 0.0550088
0.322774 0.930373 0.0581826
0.349889 0.930068 0.061738
0.378637 0.929381 0.0649882
0.409186 0.928512 0.0682078
0.441825 0.927718 0.0718242
0.475425 0.926452 0.0748608
0.510002 0.925002 0.07776
0.545327 0.923781 0.081117
0.580789 0.922271 0.0840314
0.616266 0.920806 0.0870375
0.651011 0.919539 0.0902266
0.685405 0.918563 0.0938277
0.718013 0.917586 0.0971695
0.749477 0.916793 0.100649
0.779248 0.91635 0.104433
0.80766 0.916442 0.108858
0.833967 0.916518 0.112978
0.858106 0.916854 0.117205
0.880674 0.917617 0.121889
0.901122 0.918349 0.126253
0.919768 0.919264 0.130709
0.936843 0.920562 0.135531
0.951812 0.921721 0.139788
0.965408 0.923079 0.144228
0.97734 0.924147 0.148089
0.985611 0.925002 0.151125
0.146868 0.950591 0.0424659
0.205768 0.953719 0.0563821
0.244099 0.954726 0.0638437
0.271305 0.954925 0.0683452
0.293065 0.955184 0.0720836
0.312734 0.954971 0.0747692
0.333288 0.95494 0.0778668
0.355734 0.954467 0.0805524
0.380362 0.954147 0.0838178
