public/textures/grade/Canon/Guardians-CLog3.cube
TITLE "Generated by Resolve"
LUT_3D_SIZE 5
0 0.00486763 0.00132753
0.270741 0 0
0.689113 0 0
1 0 0
1 0 0
0 0.217395 0
0.204944 0.203677 0
0.637873 0.149889 0
0.990372 0.0458686 0
1 0 0
0 0.552987 0
0.145586 0.572503 0
0.547356 0.557443 0
0.860945 0.547463 0
1 0.525917 0
0 0.852491 0
0.290227 0.875105 0.0179599
0.588968 0.866682 0.0475776
0.84773 0.864103 0.0810101
0.982269 0.87306 0.117647
0.392248 1 0.158373
0.516396 1 0.170993
0.696971 1 0.182895
0.893355 1 0.20296
1 1 0.228595
0 0 0.353094
0.230686 0 0.304295
0.672023 0 0.213901
1 0 0.162249
1 0 0.155505
0 0.199908 0.197284
0.173083 0.198383 0.201953
0.6421 0.139452 0.150652
0.99292 0.0263066 0.130922
1 0 0.0937972
0 0.549813 0
0.134661 0.569162 0
0.545403 0.553979 0
0.861112 0.543816 0
1 0.521645 0
0 0.8495 0
0.282612 0.87454 0.0165866
0.58703 0.866133 0.0469978
0.84741 0.863508 0.0805829
0.982254 0.872496 0.117327
0.385977 1 0.157839
0.512734 1 0.170733
0.695659 1 0.182803
0.893111 1 0.202914
1 1 0.228595
0 0 0.887846
0.150118 0 0.850782
0.627756 0 0.747463
0.986053 0 0.677607
1 0 0.658763
0 0.121218 0.785473
0.134524 0.116503 0.770932
0.61471 0.0526284 0.706462
0.981903 0 0.664393
1 0 0.644724
0 0.535271 0.545953
0.105684 0.56611 0.577462
0.52343 0.56257 0.577066
0.868406 0.547906 0.564981
1 0.524865 0.594873
0 0.855756 0.206088
0.276646 0.883253 0.277775
0.594507 0.87541 0.296376
0.855833 0.871565 0.316197
0.988296 0.879744 0.346822
0.361624 1 0.154192
0.500145 1 0.169589
0.691402 1 0.182803
0.892256 1 0.202777
1 1 0.228595
0 0 1
0 0 1
0.562905 0 1
0.959747 0 1
1 0 1
0 0 1
0 0 1
0.564782 0 1
0.960082 0 1
1 0 1
0 0.475883 0.955993
0 0.474952 0.956756
0.501213 0.503441 0.942611
0.863233 0.487755 0.929061
1 0.444358 0.955566
0 0.83949 0.851637
0.132662 0.865309 0.877089
0.553262 0.867887 0.879286
0.834272 0.862089 0.874891
0.980743 0.86627 0.880446
0.235386 1 0.811521
0.447364 1 0.823224
0.670787 1 0.81651
0.883879 1 0.807599
0.995041 1 0.811551
0 0 1
0 0 1
0.384787 0 1
0.935058 0 1
1 0 1
0 0 1
0 0 1
0.387717 0 1
0.935332 0 1
1 0 1
0 0.131579 1
0 0.12636 1
0.39382 0.100618 1
0.930785 0 1
1 0 1
0 0.817411 1
0 0.817197 1
0.441184 0.850568 1
0.82591 0.841505 1
0.980392 0.84593 1
0.145357 1 1
0.145357 1 1
0.602274 1 1
0.869688 1 1
0.992615 1 1
