public/textures/grade/Canon/Guardians-CLog.cube
TITLE "Generated by Resolve"
LUT_3D_SIZE 9
0 0.00486763 0.00132753
0.148013 0 0
0.321447 0 0
0.490608 0 0
0.657176 0 0
0.815 0 0
0.959396 0 0
1 0 0
1 0 0
0 0.11667 0
0.108354 0.104356 0
0.296254 0.0797131 0
0.470146 0.0518654 0
0.638392 0.0185855 0
0.797818 0 0
0.949722 0 0
1 0 0
1 0 0
0 0.254154 0
0.0540932 0.255726 0
0.244251 0.242069 0
0.423209 0.223819 0
0.591913 0.204227 0
0.749538 0.182528 0
0.895644 0.155657 0
1 0.113436 0
1 0.0193179 0
0 0.390494 0
0.0203555 0.401709 0
0.204913 0.395819 0
0.380606 0.384558 0
0.547753 0.372152 0
0.702251 0.360586 0
0.842329 0.349462 0
0.969482 0.336568 0
1 0.314916 0
0 0.526223 0
0.0164492 0.544274 0
0.191699 0.543359 0
0.359106 0.536919 0
0.519478 0.528954 0
0.668833 0.522499 0
0.803204 0.518486 0
0.923156 0.517632 0
1 0.519158 0
0 0.661982 0
0.0534981 0.681666 0
0.21117 0.682795 0
0.365759 0.679377 0
0.515877 0.673899 0
0.656718 0.669902 0
0.783764 0.668788 0
0.896727 0.672328 0.00410468
0.996811 0.681498 0.0328069
0 0.801877 0
0.134981 0.81207 0
0.268513 0.813352 0
0.404349 0.810391 0
0.53994 0.806287 0.009308
0.668727 0.802548 0.0213016
0.786084 0.802106 0.0368353
0.891096 0.805783 0.0574807
0.982605 0.815442 0.086305
0.143374 0.931884 0.0292821
0.258412 0.935592 0.0523537
0.362203 0.934829 0.0668193
0.475013 0.931548 0.0786603
0.590906 0.926574 0.0883497
0.704372 0.922423 0.09897
0.809186 0.920455 0.111757
0.90399 0.922286 0.129458
0.985977 0.929244 0.153994
0.331868 1 0.149615
0.4047 1 0.160037
0.478813 1 0.167559
0.566003 1 0.174441
0.660624 1 0.180529
0.756542 1 0.187579
0.847517 1 0.196338
0.931487 1 0.209857
1 1 0.228595
0 0 0.181018
0.12311 0 0.155566
0.308019 0 0.117433
0.482261 0 0.0856184
0.650675 0 0.0570993
0.809339 0 0.0329595
0.954086 0 0.0151675
1 0 0.00544747
1 0 0.00511177
0 0.10605 0.102205
0.0850385 0.101091 0.100725
0.297368 0.0724193 0.0689555
0.470863 0.0449531 0.0503243
0.639445 0.0110933 0.0315557
0.798413 0 0.0120699
0.948974 0 0
1 0 0
1 0 0
0 0.251255 0
0.0512703 0.254704 0
0.245487 0.241398 0
0.427161 0.223102 0
0.596048 0.203922 0
0.753277 0.1823 0
0.899001 0.155245 0
1 0.111681 0
1 0.0127413 0
0 0.388037 0
0.0132753 0.399191 0
0.20148 0.393256 0
0.379538 0.382025 0
0.547478 0.3691 0
0.702403 0.357427 0
0.842863 0.346075 0
0.970123 0.332906 0
1 0.310475 0
0 0.524742 0
0.00953689 0.542641 0
0.188159 0.541848 0
0.357107 0.535439 0
0.518532 0.527352 0
0.668528 0.520806 0
0.803281 0.517021 0
0.923369 0.515801 0
1 0.517189 0
0 0.659632 0
0.0478828 0.680827 0
0.207858 0.682033 0
0.36379 0.678569 0
0.514809 0.673045 0
0.656199 0.669017 0
0.783536 0.667887 0
0.896834 0.67158 0.00402838
0.996963 0.680583 0.0325322
0 0.800122 0
0.130358 0.811749 0
0.265431 0.812909 0
0.402502 0.809979 0
0.538888 0.805844 0.00898756
0.668132 0.80209 0.0209964
0.785779 0.801633 0.0365606
0.890944 0.80531 0.0572061
0.98262 0.814984 0.0860609
0.137224 0.931212 0.0275578
0.254795 0.935256 0.0514992
0.359716 0.93463 0.066331
0.473457 0.93135 0.0783398
0.589975 0.92636 0.0880751
0.703807 0.922194 0.0987106
0.808881 0.920226 0.111528
0.903868 0.922087 0.129351
0.985962 0.929015 0.153841
0.328405 1 0.149035
0.402243 1 0.159731
0.477165 1 0.167498
0.564858 1 0.174365
0.659937 1 0.180484
0.756146 1 0.187549
0.847303 1 0.196323
0.931365 1 0.209827
1 1 0.228595
0 0 0.40351
0.095613 0 0.383261
0.281773 0 0.34342
0.46305 0 0.303914
0.636088 0 0.269291
0.797528 0 0.240162
0.943664 0 0.217563
1 0 0.203296
1 0 0.200015
0 0.0843824 0.34168
0.076173 0.0787976 0.334203
0.270787 0.055787 0.305211
0.457023 0.0255589 0.27538
0.629038 0 0.248692
0.790982 0 0.224689
0.941405 0 0.198718
1 0 0.182437
1 0 0.179492
0 0.238865 0.239475
0.0346685 0.24712 0.249668
0.212833 0.24155 0.24686
0.429709 0.216815 0.21323
0.596841 0.199069 0.203494
0.753445 0.17818 0.196399
0.898543 0.150866 0.193668
1 0.105074 0.194766
1 0 0.187381
0 0.38645 0.12137
0.0138857 0.401602 0.144183
0.200534 0.400198 0.148775
0.387182 0.388907 0.141772
0.559213 0.377234 0.136767
0.712657 0.366903 0.137499
0.850935 0.35668 0.143267
0.976287 0.34435 0.1561
1 0.321904 0.177859
0 0.527794 0
0.0131685 0.547433 0
0.193713 0.548791 0.0153658
0.364614 0.54316 0.0226749
0.527672 0.535546 0.0277562
0.677745 0.529534 0.0351415
0.811337 0.525979 0.0464027
0.930495 0.525567 0.0650034
1 0.527047 0.0939956
0 0.657328 0
0.03888 0.679255 0
0.203189 0.681056 0
0.360922 0.677378 0
0.513252 0.671809 0
0.655421 0.667735 0
0.78323 0.66656 0
0.896803 0.670283 0.00367742
0.997192 0.679225 0.0321202
0 0.797238 0
0.123079 0.810788 0
0.261051 0.812238 0
0.399817 0.809369 0
0.537575 0.805158 0.00846876
0.667277 0.801419 0.0205539
0.785367 0.800961 0.0361486
0.89073 0.804639 0.0568246
0.982651 0.814328 0.0857404
0.128054 0.930205 0.0249485
0.24918 0.934829 0.050309
0.3561 0.93431 0.0656291
0.471443 0.930999 0.0777905
0.588754 0.925994 0.0876326
0.702983 0.921889 0.0983291
0.808438 0.91986 0.111208
0.903685 0.921813 0.129168
0.985962 0.92874 0.153689
0.323507 1 0.148104
0.398657 1 0.159289
0.4748 1 0.167452
0.563256 1 0.174289
0.65893 1 0.180423
0.755581 1 0.187503
0.846998 1 0.196277
0.931212 1 0.209796
1 1 0.228595
0 0 0.628138
0.0635538 0 0.611383
0.254307 0 0.572915
0.439628 0 0.531929
0.617563 0 0.493248
0.782834 0 0.460014
0.930892 0 0.434089
1 0 0.416556
1 0 0.409995
0 0.049546 0.580987
0.0538338 0.0433204 0.572
0.248295 0.0201267 0.543481
0.435767 0 0.509728
0.61413 0 0.47715
0.780224 0 0.447593
0.931777 0 0.421714
1 0 0.404364
1 0 0.398001
0 0.218341 0.479347
0.015259 0.226322 0.483925
0.208423 0.220462 0.473625
0.402548 0.202396 0.450904
0.584039 0.181552 0.430518
0.746212 0.158938 0.417868
0.893309 0.129503 0.411765
1 0.0790417 0.411322
1 0 0.402396
0 0.3729 0.378515
0 0.389487 0.396078
0.177737 0.39321 0.40119
0.350591 0.387304 0.397787
0.558694 0.367819 0.368292
0.710323 0.358679 0.366217
0.848219 0.348928 0.369253
0.973236 0.336065 0.379599
1 0.312108 0.400076
0 0.520867 0.274006
0.00239567 0.543099 0.304555
0.181811 0.548959 0.317006
0.354742 0.545098 0.317128
0.528618 0.536202 0.309453
0.682048 0.530297 0.308186
0.814481 0.527367 0.315129
0.931746 0.52752 0.330236
1 0.529152 0.355764
0 0.662425 0.134585
0.046891 0.687114 0.180392
0.21236 0.691798 0.198215
0.371542 0.689403 0.206058
0.525902 0.684642 0.210315
0.668681 0.680491 0.215473
0.795239 0.679789 0.225574
0.906661 0.68333 0.243229
1 0.692088 0.270756
0 0.792203 0
0.109895 0.80911 0
0.253269 0.811078 0
0.395422 0.80824 0
0.534951 0.804044 0.00766003
0.665797 0.800275 0.0198215
0.784726 0.799756 0.0354314
0.890196 0.803525 0.0559854
0.982681 0.813184 0.0851759
0.111711 0.928527 0.0204776
0.239872 0.934264 0.0485542
0.349981 0.93373 0.0643015
0.467445 0.93051 0.0769055
0.586389 0.92546 0.0868544
0.701579 0.921324 0.0976883
0.807675 0.919249 0.110658
0.903258 0.921187 0.128664
0.986007 0.928283 0.153475
0.314626 1 0.146471
0.392554 1 0.158419
0.470741 1 0.167117
0.56054 1 0.174304
0.657191 1 0.180316
0.754604 1 0.187427
0.846571 1 0.196185
0.930922 1 0.209751
1 1 0.228595
0 0 0.846128
0.0174716 0 0.834669
0.222354 0 0.794842
0.41413 0 0.753368
0.597116 0 0.713008
0.766354 0 0.677119
0.917189 0 0.648356
1 0 0.628031
1 0 0.618296
0 0 0.823499
0.0172885 0 0.814511
0.222202 0 0.779477
0.413642 0 0.741344
0.59675 0 0.704311
0.767132 0 0.67039
0.917739 0 0.641749
1 0 0.6215
1 0 0.611872
0 0.187243 0.70811
0 0.193271 0.709331
0.190799 0.188479 0.694835
0.384436 0.171511 0.672709
0.568948 0.149569 0.650446
0.737636 0.123476 0.633097
0.888731 0.0889143 0.623102
1 0.0277104 0.619837
1 0 0.606409
0 0.353994 0.606592
0 0.368063 0.616754
0.162799 0.375097 0.617761
0.347784 0.368231 0.607172
0.533516 0.355306 0.590539
0.699641 0.342718 0.578546
0.842329 0.331502 0.576379
0.969863 0.317327 0.583749
1 0.289815 0.602411
0 0.50837 0.518746
0 0.528954 0.539467
0.161074 0.539528 0.550439
0.332006 0.538827 0.550866
0.494469 0.534066 0.54815
0.680781 0.520775 0.52578
0.811704 0.519081 0.530251
0.928344 0.518975 0.541604
1 0.520287 0.56405
0 0.653376 0.437568
0.0216373 0.678447 0.470741
0.194202 0.687495 0.486305
0.354467 0.687205 0.490776
0.511772 0.682445 0.488716
0.664485 0.676936 0.482628
0.79469 0.675547 0.484855
0.90486 0.679225 0.497185
1 0.688411 0.520027
0 0.789746 0.328801
0.11371 0.816251 0.376669
0.260456 0.821073 0.39266
0.403326 0.819425 0.399588
0.54377 0.814939 0.401907
0.676524 0.810925 0.403876
0.795056 0.809644 0.40943
0.89836 0.813001 0.421836
0.988205 0.822065 0.443549
0.0794842 0.924712 0.0106661
0.222141 0.932738 0.0442817
0.339223 0.933043 0.0623636
0.460502 0.929656 0.0753338
0.582544 0.924788 0.0860761
0.699275 0.920302 0.0966659
0.806485 0.918318 0.109895
0.902541 0.920134 0.127779
0.985962 0.927367 0.152911
0.298665 1 0.143755
0.381765 1 0.157259
0.462974 1 0.1664
0.55584 1 0.174014
0.654169 1 0.180133
0.752911 1 0.187289
0.845762 1 0.196094
0.930449 1 0.209644
1 1 0.228595
0 0 1
0 0 1
0.178698 0 1
0.383581 0 0.957549
0.574685 0 0.915557
0.74905 0 0.877897
0.903395 0 0.846967
1 0 0.824247
1 0 0.811795
0 0 1
0 0 1
0.181155 0 0.997604
0.385153 0 0.954009
0.575631 0 0.912154
0.74963 0 0.874571
0.903761 0 0.843717
1 0 0.821057
1 0 0.808652
0 0.134585 0.930449
0 0.134463 0.930114
0.162768 0.132494 0.910536
0.368124 0.112657 0.884016
0.558862 0.086656 0.858488
0.732799 0.0542916 0.837568
0.888395 0.00747692 0.823514
1 0 0.814771
1 0 0.803418
0 0.325872 0.811246
0 0.331518 0.814374
0.13489 0.346395 0.813245
0.333913 0.340154 0.798993
0.519753 0.328283 0.782422
0.689616 0.314824 0.769299
0.837934 0.301396 0.763317
0.969436 0.283391 0.767575
1 0.248417 0.784802
0 0.491981 0.720775
0 0.50399 0.730007
0.13402 0.523919 0.741527
0.319005 0.524025 0.737148
0.493065 0.518242 0.728267
0.660349 0.510384 0.717906
0.803525 0.505562 0.714076
0.924773 0.504616 0.721019
1 0.504906 0.739712
0 0.642939 0.655436
0 0.662242 0.674708
0.167254 0.67866 0.691066
0.335836 0.68011 0.692866
0.492058 0.677485 0.691127
0.637293 0.674311 0.689555
0.792615 0.667247 0.675425
0.902144 0.671641 0.685359
0.999298 0.680598 0.704051
0 0.781094 0.603845
0.0725567 0.80618 0.635966
0.235599 0.815351 0.65069
0.384146 0.815335 0.65481
0.526345 0.811673 0.654398
0.662058 0.807187 0.651728
0.78941 0.804227 0.647974
0.895262 0.806973 0.653559
0.984619 0.816281 0.670146
0.0498207 0.918639 0.544137
0.214954 0.936004 0.576318
0.337499 0.938094 0.586511
0.461341 0.935485 0.5906
0.584222 0.930068 0.590478
0.702571 0.924651 0.589181
0.810697 0.921508 0.589715
0.905409 0.922179 0.595315
0.986435 0.928328 0.608804
0.275746 1 0.188128
0.368582 1 0.203937
0.455711 1 0.213672
0.552865 1 0.22118
0.654322 1 0.226932
0.754376 1 0.232837
0.848005 1 0.241398
0.93257 1 0.253864
1 1 0.272694
0 0 1
0 0 1
0.106813 0 1
0.342138 0 1
0.547463 0 1
0.730602 0 1
0.890074 0 1
1 0 0.996719
1 0 0.981811
0 0 1
0 0 1
0.110063 0 1
0.343694 0 1
0.548348 0 1
0.731106 0 1
0.890364 0 1
1 0 0.994904
1 0 0.980026
0 0.0214847 1
0 0.0186007 1
0.110536 0.00767529 1
0.344106 0 1
0.547936 0 1
0.730114 0 1
0.890791 0 1
1 0 0.992264
1 0 0.977432
0 0.277821 1
0 0.276692 1
0.0803235 0.29485 0.998138
0.310079 0.289296 0.977951
0.508965 0.275639 0.957748
0.685985 0.259922 0.941772
0.840299 0.241627 0.933196
0.976928 0.214694 0.935439
1 0.158831 0.952316
0 0.468101 0.893111
0 0.467582 0.893309
0.0799573 0.497337 0.904646
0.295415 0.500191 0.896376
0.482185 0.49482 0.884367
0.651011 0.487556 0.873762
0.798138 0.482475 0.868879
0.924285 0.479728 0.872969
1 0.477531 0.889189
0 0.629969 0.824125
0 0.629694 0.824201
0.117876 0.664347 0.848554
0.312459 0.668956 0.847913
0.481453 0.66627 0.84184
0.636255 0.662379 0.835676
0.778058 0.659022 0.830777
0.897398 0.66096 0.834424
0.998734 0.66949 0.849363
0 0.773754 0.78616
0 0.784314 0.796674
0.193225 0.80763 0.819577
0.360693 0.809583 0.821515
0.510887 0.806699 0.818875
0.647654 0.803449 0.816297
0.770138 0.801633 0.815717
0.89308 0.800198 0.81033
0.982956 0.809705 0.82446
0.0104219 0.904295 0.76527
0.15317 0.92607 0.792493
0.302922 0.932937 0.803616
0.438285 0.931289 0.805142
0.566979 0.926284 0.802838
0.687388 0.920729 0.799603
0.799161 0.916838 0.796933
0.899794 0.916152 0.795666
0.982727 0.92192 0.804013
0.225483 1 0.750454
0.338918 1 0.7626
0.435172 1 0.76585
0.536965 1 0.76527
0.641413 1 0.761898
0.743679 1 0.757565
0.839353 1 0.754101
0.924529 1 0.753567
0.996429 1 0.759106
0 0 1
0 0 1
0 0 1
0.272633 0 1
0.509499 0 1
0.707912 0 1
0.875349 0 1
1 0 1
1 0 1
0 0 1
0 0 1
0 0 1
0.27451 0 1
0.510292 0 1
0.70837 0 1
0.875593 0 1
1 0 1
1 0 1
0 0 1
0 0 1
0 0 1
0.27686 0 1
0.511315 0 1
0.709041 0 1
0.875959 0 1
1 0 1
1 0 1
0 0.174182 1
0 0.172488 1
0 0.177722 1
0.265843 0.173587 1
0.49633 0.152056 1
0.690196 0.12549 1
0.855619 0.0903944 1
1 0.0282597 1
1 0 1
0 0.424979 1
0 0.424491 1
0 0.440452 1
0.246006 0.455833 1
0.462287 0.450187 1
0.64445 0.442283 1
0.798672 0.435416 1
0.930205 0.429389 1
1 0.420996 1
0 0.610819 0.962676
0 0.610529 0.962768
0 0.633875 0.975845
0.265339 0.649927 0.976242
0.461418 0.64799 0.966308
0.628336 0.643778 0.957198
0.772808 0.641566 0.952468
0.89543 0.642847 0.954833
1 0.650294 0.967514
0 0.764584 0.920775
0 0.764431 0.92079
0.0964675 0.792386 0.942214
0.31928 0.80174 0.945571
0.491371 0.799481 0.939849
0.639429 0.795743 0.933776
0.769512 0.79324 0.929732
0.885084 0.793774 0.930312
0.982727 0.80209 0.94049
0.0164797 0.899702 0.910063
0.0164187 0.899626 0.910048
0.232074 0.926665 0.936614
0.402914 0.928023 0.937804
0.547707 0.923232 0.933028
0.675746 0.917617 0.927626
0.788907 0.913649 0.924178
0.888975 0.913069 0.924483
0.981811 0.916854 0.927687
0.131548 1 0.916167
0.255116 1 0.935836
0.388357 1 0.941466
0.508858 1 0.938842
0.623606 1 0.93312
0.73077 1 0.926757
0.828885 1 0.921675
0.917052 1 0.919066
0.99292 1 0.920272
0 0 1
0 0 1
0 0 1
0.122942 0 1
0.444144 0 1
0.675502 0 1
0.858717 0 1
1 0 1
1 0 1
0 0 1
0 0 1
0 0 1
0.125811 0 1
0.445212 0 1
0.67599 0 1
0.858946 0 1
1 0 1
1 0 1
0 0 1
0 0 1
0 0 1
0.129732 0 1
0.446754 0 1
0.676677 0 1
0.859266 0 1
1 0 1
1 0 1
0 0 1
0 0 1
0 0 1
0.136599 0 1
0.449393 0 1
0.677867 0 1
0.859815 0 1
1 0 1
1 0 1
0 0.326635 1
0 0.325658 1
0 0.324254 1
0.12108 0.34818 1
0.421012 0.341741 1
0.637232 0.328435 1
0.809171 0.314672 1
0.952102 0.296529 1
1 0.262623 1
0 0.572137 1
0 0.571817 1
0 0.571374 1
0.145022 0.607477 1
0.414771 0.609964 1
0.610834 0.605432 1
0.768002 0.602304 1
0.897826 0.60267 1
1 0.608225 1
0 0.748974 1
0 0.748806 1
0 0.748577 1
0.217121 0.784756 1
0.448768 0.78558 1
0.621042 0.781247 1
0.762707 0.778698 1
0.882063 0.779614 1
0.9832 0.787457 1
0.020737 0.89337 1
0.020676 0.893294 1
0.0205692 0.893156 1
0.322957 0.922805 1
0.511513 0.919036 1
0.659159 0.912764 1
0.781949 0.908248 1
0.887449 0.907073 1
0.980285 0.91133 1
0.145342 1 1
0.145357 1 1
0.265095 1 1
0.455222 1 1
0.597208 1 1
0.717968 1 1
0.822232 1 1
0.91252 1 1
0.992615 1 1
