public/textures/grade/Canon/Licorice-CLog2.cube
TITLE "Generated by Resolve"
LUT_3D_SIZE 33
0 0.01355 0.0677043
0 0.0131075 0.0647746
0.00183108 0.0128786 0.0620737
0.0168612 0.0126802 0.0584726
0.0368658 0.010132 0.0575875
0.0610819 0.00634775 0.0570687
0.0918441 0.00106813 0.0569162
0.130495 0 0.0567788
0.179522 0 0.0557107
0.240543 0 0.0523079
0.312551 0 0.0446784
0.387274 0 0.0373388
0.461204 0 0.0306706
0.535241 0 0.0238346
0.612207 0 0.0165713
0.689479 0 0.00900282
0.766003 0 0.00122072
0.840665 0 0
0.911482 0 0
0.980056 0 0
1 0 0
1 0 0
1 0 0
1 0 0
1 0 0
1 0 0
1 0 0
1 0 0
1 0 0
1 0 0
1 0 0
1 0 0
1 0 0
0 0.0255131 0.0625315
0 0.0246433 0.0597391
0 0.0240024 0.0576333
0.0136873 0.0232242 0.0554513
0.0320745 0.0219577 0.0531777
0.0562142 0.0186465 0.0532692
0.0865492 0.0137331 0.0538338
0.124941 0.00680552 0.0547036
0.174228 0 0.0552224
0.235355 0 0.0528267
0.308125 0 0.0452583
0.384482 0 0.0378271
0.459907 0 0.0308995
0.534691 0 0.0238651
0.612421 0 0.0165713
0.690196 0 0.00901808
0.767132 0 0.00123598
0.842634 0 0
0.913787 0 0
0.980117 0 0
1 0 0
1 0 0
1 0 0
1 0 0
1 0 0
1 0 0
1 0 0
1 0 0
1 0 0
1 0 0
1 0 0
1 0 0
1 0 0
0 0.0367285 0.0579385
0 0.0359045 0.0552682
0 0.0351263 0.0533455
0.0105135 0.0340581 0.0516823
0.027985 0.0330816 0.0504768
0.0508736 0.0306401 0.0498817
0.0807355 0.0261997 0.0509194
0.118944 0.0193942 0.0527657
0.168002 0.00978103 0.0541543
0.229755 0 0.0529488
0.303944 0 0.0461433
0.381369 0 0.0383917
0.45803 0 0.0311131
0.533379 0 0.0237736
0.611444 0 0.0162051
0.689998 0 0.00868238
0.767849 0 0.00111391
0.843656 0 0
0.915587 0 0
0.982437 0 0
1 0 0
1 0 0
1 0 0
1 0 0
1 0 0
1 0 0
1 0 0
1 0 0
1 0 0
1 0 0
1 0 0
1 0 0
1 0 0
0 0.0504005 0.0560616
0 0.0495003 0.0534524
0 0.0487373 0.0514839
0.00442512 0.0478523 0.0496223
0.0222782 0.0466011 0.0478065
0.0433204 0.0452583 0.0467231
0.0722972 0.0414282 0.047303
0.110338 0.03505 0.0500343
0.159625 0.0260624 0.0526131
0.221118 0.0137636 0.05243
0.296254 0 0.0463722
0.37615 0 0.0390478
0.454795 0 0.0315099
0.53106 0 0.0237278
0.610178 0 0.0160525
0.689418 0 0.00839246
0.767803 0 0.00077821
0.8448 0 0
0.917586 0 0
0.98529 0 0
1 0 0
1 0 0
1 0 0
1 0 0
1 0 0
1 0 0
1 0 0
1 0 0
1 0 0
1 0 0
1 0 0
1 0 0
1 0 0
0 0.0651255 0.0620737
0 0.0644236 0.059678
0 0.0635538 0.0575113
0 0.0626993 0.0554513
0.01178 0.0615549 0.0534371
0.0345769 0.0601968 0.0517433
0.0605173 0.0593729 0.0476997
0.0994583 0.0535744 0.0475471
0.14728 0.0459754 0.0497444
0.209171 0.0338598 0.0505531
0.285359 0.0184787 0.045182
0.36791 0.00178531 0.0379797
0.449882 0 0.0317388
0.527916 0 0.0238346
0.60734 0 0.0153811
0.687373 0 0.00749218
0.766934 0 0
0.844862 0 0
0.918608 0 0
0.9879 0 0
1 0 0
1 0 0
1 0 0
1 0 0
1 0 0
1 0 0
1 0 0
1 0 0
1 0 0
1 0 0
1 0 0
1 0 0
1 0 0
0 0.0836805 0.0731365
0 0.0832837 0.0707408
0 0.0824292 0.0682841
0 0.0814832 0.0657511
0 0.0798962 0.063035
0.0216983 0.0784924 0.0606851
0.0453651 0.0785077 0.0552071
0.0829633 0.0755779 0.0487221
0.133791 0.0673686 0.0496834
0.195163 0.0563668 0.0495308
0.271336 0.0419623 0.0441138
0.355489 0.0256046 0.0365148
0.440101 0.00932326 0.0292058
0.520684 0 0.02121
0.602579 0 0.0130465
0.683604 0 0.0047303
0.763165 0 0
0.843702 0 0
0.918822 0 0
0.989502 0 0
1 0 0
1 0 0
1 0 0
1 0 0
1 0 0
1 0 0
1 0 0
1 0 0
1 0 0
1 0 0
1 0 0
1 0 0
1 0 0
0 0.107591 0.091722
0 0.10724 0.0892042
0 0.106767 0.0868086
0 0.105837 0.0837415
0 0.104738 0.0801709
0.00344854 0.103227 0.0765545
0.0311437 0.101289 0.0726024
0.0593271 0.101656 0.0595254
0.112734 0.0945754 0.0520943
0.17702 0.0826581 0.0499733
0.25417 0.0673228 0.0436561
0.3402 0.0504005 0.0355993
0.427359 0.033463 0.0280766
0.510994 0.0173495 0.0200351
0.595102 0.000656138 0.0119326
0.678752 0 0.00419623
0.76109 0 0
0.840421 0 0
0.916426 0 0
0.989532 0 0
1 0 0
1 0 0
1 0 0
1 0 0
1 0 0
1 0 0
1 0 0
1 0 0
1 0 0
1 0 0
1 0 0
1 0 0
1 0 0
0 0.136294 0.115511
0 0.136507 0.113664
0 0.136202 0.111528
0 0.135653 0.108736
0 0.134646 0.10515
0 0.133501 0.101061
0.00611887 0.131716 0.0957809
0.042237 0.128985 0.0859998
0.0863203 0.125902 0.0654307
0.152316 0.11603 0.0531167
0.232395 0.0994278 0.0430915
0.320226 0.0804456 0.0335851
0.410025 0.0626383 0.0255894
0.49659 0.0460975 0.0172732
0.583581 0.029099 0.00909438
0.669642 0.011902 0.00151064
0.754101 0 0
0.836378 0 0
0.914183 0 0
0.986679 0 0
1 0 0
1 0 0
1 0 0
1 0 0
1 0 0
1 0 0
1 0 0
1 0 0
1 0 0
1 0 0
1 0 0
1 0 0
1 0 0
0 0.169116 0.140566
0 0.169589 0.139452
0 0.16994 0.138201
0 0.169711 0.135988
0 0.169436 0.133242
0 0.168521 0.129183
0 0.167193 0.123583
0.0175021 0.163943 0.114366
0.0504921 0.164096 0.085359
0.123476 0.15285 0.0646067
0.20618 0.138872 0.0449836
0.295491 0.11957 0.0318456
0.386954 0.0995193 0.021622
0.476799 0.0802167 0.0125124
0.567193 0.0620584 0.00418097
0.656214 0.0451057 0
0.742809 0.0276341 0
0.827314 0.00962844 0
0.907637 0 0
0.983108 0 0
1 0 0
1 0 0
1 0 0
1 0 0
1 0 0
1 0 0
1 0 0
1 0 0
1 0 0
1 0 0
1 0 0
1 0 0
1 0 0
0 0.204776 0.161288
0 0.20557 0.161257
0 0.206073 0.160861
0 0.206607 0.160189
0 0.206638 0.158465
0 0.2065 0.155703
0 0.205631 0.151034
0 0.203006 0.142687
0.0432593 0.199908 0.122835
0.0952468 0.194995 0.0885328
0.173907 0.184207 0.0514992
0.266621 0.165866 0.0365759
0.360723 0.145418 0.0222171
0.453315 0.125536 0.0106508
0.546777 0.106188 0.00112917
0.638453 0.0866102 0
0.727993 0.066804 0
0.814404 0.0489662 0
0.89691 0.0317845 0
0.974426 0.0138552 0
1 0 0
1 0 0
1 0 0
1 0 0
1 0 0
1 0 0
1 0 0
1 0 0
1 0 0
1 0 0
1 0 0
1 0 0
1 0 0
0 0.244236 0.182757
0 0.244907 0.182574
0 0.245518 0.182315
0 0.245869 0.181613
0 0.24625 0.180499
0 0.246311 0.178607
0 0.245914 0.175189
0 0.244114 0.168994
0.0403449 0.241901 0.15465
0.0572671 0.245441 0.111849
0.145937 0.229465 0.0934005
0.231189 0.218524 0.0491646
0.33048 0.198596 0.0311284
0.426825 0.178134 0.0150301
0.523003 0.157748 0.00238041
0.617319 0.138766 0
0.709407 0.119738 0
0.798428 0.100526 0
0.882658 0.0805982 0
0.962402 0.0614633 0
1 0.043183 0
1 0.0259556 0
1 0.00724804 0
1 0 0
1 0 0
1 0 0
1 0 0
1 0 0
1 0 0
1 0 0
1 0 0
1 0 0
1 0 0
0 0.287694 0.207996
0 0.288594 0.208042
0 0.289342 0.207965
0 0.289799 0.207462
0 0.290364 0.206699
0 0.29041 0.20502
0 0.290349 0.202487
0.00387579 0.289158 0.197848
0.040177 0.288594 0.185809
0.0550851 0.291722 0.153765
0.116609 0.284001 0.126024
0.200366 0.269429 0.0968338
0.293095 0.257221 0.0481727
0.395727 0.236866 0.0269932
0.495384 0.216022 0.00888075
0.592584 0.195956 0
0.687434 0.177203 0
0.778378 0.159289 0
0.865156 0.141527 0
0.946197 0.123903 0
1 0.106035 0
1 0.0868238 0
1 0.0663767 0
1 0.0461128 0
1 0.026215 0
1 0.00373846 0
1 0 0
1 0 0
1 0 0
1 0 0
1 0 0
1 0 0
1 0 0
0 0.335363 0.237018
0 0.336583 0.237369
0 0.337209 0.237278
0 0.338079 0.237186
0 0.338704 0.236637
0 0.339025 0.235416
0 0.338888 0.233265
0.0163272 0.33843 0.229984
0.0424811 0.339803 0.217838
0.0572671 0.342824 0.193454
0.0819257 0.343008 0.156786
0.170703 0.32694 0.14139
0.258564 0.314351 0.0992447
0.358694 0.300145 0.0495918
0.464179 0.279469 0.0253147
0.565042 0.258915 0.00534066
0.661677 0.239628 0
0.755062 0.221454 0
0.844266 0.204654 0
0.927077 0.188739 0
1 0.172961 0
1 0.157748 0
1 0.141329 0
1 0.124132 0
1 0.104799 0
1 0.0817121 0
1 0.0560922 0
1 0.0301671 0
1 0.00370794 0
1 0 0
1 0 0
1 0 0
1 0 0
0 0.386969 0.269764
0 0.387915 0.269963
0 0.388907 0.270222
0 0.389899 0.270329
0 0.390539 0.269902
0 0.391257 0.269215
0 0.391379 0.267582
0.0327611 0.391577 0.263569
0.0482948 0.394842 0.251133
0.0629282 0.397711 0.231662
0.0749676 0.4 0.200092
0.141726 0.390356 0.178408
0.228916 0.373892 0.158358
0.320958 0.36286 0.0993668
0.426047 0.346899 0.05449
0.533425 0.326406 0.0272679
0.63386 0.3066 0.00544747
0.729412 0.288075 0
0.820356 0.270939 0
0.904631 0.255512 0
0.983688 0.24126 0
1 0.227512 0
1 0.213962 0
1 0.200565 0
1 0.186297 0
1 0.170367 0
1 0.152392 0
1 0.131624 0
1 0.107698 0
1 0.0791028 0
1 0.0492103 0
1 0.0221866 0
1 0 0
0 0.441672 0.305425
0 0.442969 0.305959
0 0.444038 0.306355
0 0.44477 0.30631
0 0.445838 0.30634
0 0.446357 0.305638
0.028748 0.447349 0.303975
0.0428321 0.45005 0.296391
0.057557 0.452873 0.285649
0.0721447 0.455726 0.269703
0.0852522 0.458122 0.245228
0.113954 0.456107 0.214725
0.199451 0.440192 0.201999
0.291997 0.423789 0.175143
0.387289 0.414771 0.0983902
0.496284 0.396292 0.0638895
0.602335 0.376394 0.0341497
0.701198 0.357549 0.010544
0.794461 0.340551 0
0.880232 0.32517 0
0.960296 0.311009 0
1 0.298207 0
1 0.286656 0
1 0.275013 0
1 0.263783 0
1 0.25185 0
1 0.239033 0
1 0.224842 0
1 0.209079 0
1 0.191852 0
1 0.173266 0
1 0.153628 0
1 0.132418 0
0 0.499077 0.343755
0 0.500099 0.344121
0 0.501167 0.344533
0 0.502205 0.344808
0.0160983 0.502998 0.344701
0.031281 0.505272 0.342046
0.0438087 0.507774 0.337179
0.0575113 0.510414 0.33048
0.0722362 0.513375 0.321157
0.0865339 0.515938 0.307668
0.0985275 0.518029 0.287861
0.107347 0.518944 0.257877
0.17351 0.508141 0.241306
0.263844 0.490715 0.226184
0.358831 0.475929 0.190982
0.456748 0.467323 0.110628
0.566552 0.448295 0.0796368
0.670451 0.429358 0.0477913
0.766186 0.411826 0.0224155
0.853956 0.396185 0.00383001
0.935241 0.382071 0
1 0.370062 0
1 0.358984 0
1 0.348714 0
1 0.33933 0
1 0.32987 0
1 0.319921 0
1 0.309728 0
1 0.298863 0
1 0.287327 0
1 0.275441 0
1 0.262882 0
1 0.249683 0
0.00190738 0.557916 0.383658
0.0177462 0.559289 0.384009
0.0240635 0.560723 0.382696
0.0321813 0.562768 0.38117
0.0418097 0.565026 0.378912
0.0523232 0.567254 0.375769
0.0648661 0.569909 0.371435
0.0779431 0.572366 0.365332
0.0916457 0.574853 0.357061
0.104219 0.577249 0.345327
0.115267 0.579385 0.328847
0.123812 0.58027 0.304723
0.155642 0.575647 0.27982
0.237278 0.559777 0.268772
0.33228 0.541863 0.249851
0.428626 0.528878 0.203952
0.527657 0.519951 0.127764
0.635172 0.501381 0.100557
0.735821 0.483803 0.0682078
0.827115 0.467994 0.0422675
0.909773 0.45388 0.0226749
0.984421 0.441596 0.00866712
1 0.430869 0
1 0.421805 0
1 0.413092 0
1 0.405356 0
1 0.397375 0
1 0.389807 0
1 0.382055 0
1 0.373968 0
1 0.365698 0
1 0.357519 0
1 0.348791 0
0.0395056 0.620508 0.418601
0.0468605 0.622446 0.417578
0.0532692 0.624079 0.41651
0.060441 0.625605 0.414893
0.0694743 0.62768 0.412787
0.0799268 0.63003 0.409995
0.0911727 0.632105 0.405844
0.102434 0.634287 0.400244
0.114 0.636835 0.392874
0.124575 0.638895 0.382589
0.134096 0.640467 0.368139
0.142061 0.641352 0.348028
0.148028 0.640787 0.319615
0.217044 0.628046 0.308598
0.307622 0.610208 0.296086
0.404105 0.593317 0.271519
0.500267 0.582635 0.214405
0.599237 0.572488 0.150103
0.703044 0.554894 0.124346
0.797818 0.538781 0.0960098
0.883223 0.524407 0.0696269
0.959808 0.512154 0.0498054
1 0.501732 0.0353704
1 0.49279 0.0250706
1 0.484779 0.0179751
1 0.477913 0.0136263
1 0.471427 0.0105287
1 0.465431 0.00914015
1 0.459724 0.00842298
1 0.453986 0.00849927
1 0.448096 0.00827039
1 0.442573 0.00846876
1 0.436805 0.0084535
0.0760357 0.683955 0.452216
0.0825666 0.685298 0.451011
0.0883345 0.686732 0.449958
0.0949722 0.688365 0.448539
0.102022 0.689891 0.446448
0.110353 0.691905 0.443732
0.119066 0.693874 0.439963
0.128283 0.695949 0.434897
0.137407 0.697795 0.427924
0.146548 0.699702 0.418677
0.15491 0.701167 0.40618
0.16199 0.701717 0.388891
0.167437 0.700877 0.364965
0.205402 0.693019 0.346288
0.28748 0.676677 0.336385
0.382681 0.658351 0.32105
0.479118 0.643503 0.288579
0.572931 0.635508 0.220645
0.670192 0.62385 0.173297
0.768017 0.607706 0.149783
0.856001 0.593332 0.125643
0.934829 0.580621 0.103716
1 0.569879 0.0850843
1 0.561074 0.070222
1 0.553826 0.060029
1 0.547219 0.05243
1 0.54197 0.0476387
1 0.536706 0.0440528
1 0.532219 0.0421912
1 0.528176 0.0410315
1 0.523705 0.0398566
1 0.520073 0.0395361
1 0.515877 0.0386511
0.114794 0.74548 0.484749
0.119692 0.746868 0.48365
0.123491 0.747692 0.482399
0.12845 0.749126 0.481102
0.134127 0.750652 0.479118
0.140169 0.752026 0.476387
0.147189 0.753826 0.472847
0.154345 0.755383 0.468055
0.162127 0.757198 0.461799
0.169497 0.75848 0.453162
0.17644 0.759426 0.441764
0.182696 0.759716 0.426429
0.187854 0.75903 0.405936
0.202274 0.754681 0.382406
0.274327 0.740185 0.373846
0.365469 0.722072 0.362585
0.460929 0.704707 0.342306
0.554192 0.692332 0.300526
0.644404 0.686427 0.222446
0.73875 0.672847 0.196048
0.828412 0.65861 0.175326
0.909529 0.64625 0.155062
0.980926 0.635294 0.137011
1 0.62623 0.122271
1 0.618692 0.11043
1 0.61265 0.101518
1 0.60766 0.0948043
1 0.603449 0.0899062
1 0.599603 0.0863661
1 0.596399 0.0842451
1 0.593286 0.0822614
1 0.590585 0.0809949
1 0.58764 0.0796826
0.149828 0.804486 0.515633
0.153445 0.805615 0.51458
0.156619 0.806592 0.513558
0.15996 0.807309 0.51191
0.164279 0.808606 0.510079
0.169284 0.81001 0.507637
0.174456 0.811109 0.504067
0.180499 0.812573 0.499611
0.186419 0.813657 0.493538
0.192737 0.814862 0.485725
0.198535 0.815351 0.475166
0.203815 0.815274 0.461418
0.208133 0.814099 0.443153
0.211398 0.811292 0.419196
0.268559 0.799268 0.408606
0.353429 0.782208 0.399313
0.446967 0.764035 0.385092
0.53991 0.748745 0.357656
0.628367 0.739376 0.306889
0.714092 0.733547 0.237568
0.803235 0.720012 0.21883
0.885527 0.707225 0.200549
0.958099 0.696254 0.183307
1 0.687205 0.168719
1 0.679683 0.156802
1 0.673533 0.147448
1 0.668666 0.140368
1 0.664881 0.135454
1 0.661677 0.131868
1 0.659022 0.129397
1 0.656916 0.127733
1 0.654902 0.126513
1 0.652705 0.125139
0.181842 0.860304 0.544533
0.184558 0.861128 0.543404
0.186938 0.86183 0.542351
0.189731 0.862684 0.540948
0.192752 0.863371 0.538979
0.196567 0.864302 0.536416
0.200916 0.865415 0.533227
0.205341 0.866194 0.528801
0.210391 0.867155 0.523156
0.21529 0.867597 0.515679
0.219989 0.867628 0.505821
0.224613 0.867445 0.493355
0.22826 0.865873 0.476661
0.230991 0.862867 0.455192
0.268849 0.853269 0.440513
0.346899 0.837354 0.432319
0.437476 0.81912 0.421057
0.52929 0.802304 0.401633
0.617533 0.790341 0.366155
0.70135 0.783505 0.306081
0.781598 0.776699 0.254551
0.864347 0.763684 0.240391
0.937514 0.752712 0.224979
1 0.743328 0.210834
1 0.735729 0.19913
1 0.729839 0.190234
1 0.724926 0.1832
1 0.721035 0.178042
1 0.718349 0.174762
1 0.716258 0.172534
1 0.714321 0.170642
1 0.712978 0.169741
1 0.711467 0.168688
0.211353 0.912367 0.571023
0.213336 0.912947 0.569909
0.214832 0.913115 0.568658
0.216968 0.913664 0.567239
0.21944 0.914321 0.565347
0.22237 0.915007 0.562905
0.225483 0.915389 0.559548
0.229191 0.916106 0.555459
0.232929 0.916365 0.549905
0.237018 0.916686 0.54287
0.240818 0.91632 0.533669
0.244358 0.915373 0.521904
0.247547 0.913756 0.506706
0.249805 0.910552 0.487236
0.273899 0.902815 0.470054
0.346838 0.887648 0.462379
0.433173 0.869871 0.452781
0.522911 0.852369 0.437781
0.61004 0.838087 0.411261
0.692073 0.828946 0.3673
0.770031 0.824353 0.300435
0.846189 0.815 0.274403
0.91928 0.80383 0.261967
0.983764 0.794354 0.249332
1 0.786557 0.238346
1 0.780316 0.229526
1 0.775647 0.222995
1 0.771878 0.218051
1 0.769512 0.215015
1 0.76733 0.212604
1 0.765881 0.211215
1 0.764706 0.210269
1 0.763439 0.209262
0.237705 0.959411 0.594339
0.239155 0.959731 0.593133
0.240452 0.960052 0.592065
0.242039 0.960403 0.590677
0.243702 0.960433 0.588647
0.245899 0.960784 0.586191
0.248432 0.961227 0.583139
0.251102 0.961227 0.578943
0.2542 0.961425 0.57377
0.257221 0.961074 0.566964
0.260395 0.960555 0.558236
0.263157 0.959182 0.547066
0.265492 0.956893 0.532845
0.267491 0.953658 0.515038
0.283284 0.946899 0.496513
0.351888 0.932403 0.489448
0.434256 0.915068 0.480812
0.521996 0.897078 0.468162
0.607767 0.881514 0.447089
0.68835 0.870436 0.412711
0.764294 0.86392 0.360784
0.83473 0.859342 0.306905
0.904921 0.849088 0.293889
0.968826 0.83949 0.283375
1 0.831678 0.27361
1 0.825391 0.265507
1 0.820661 0.259358
1 0.816892 0.254673
1 0.81416 0.251453
1 0.812375 0.24947
1 0.810987 0.248112
1 0.810071 0.247333
1 0.809232 0.246662
0.261418 1 0.614725
0.262409 1 0.613504
0.263172 1 0.612284
0.264332 1 0.610819
0.265721 1 0.609003
0.267399 1 0.606714
0.269108 1 0.603449
0.271229 1 0.599557
0.273625 1 0.594507
0.275914 1 0.5879
0.278416 1 0.579644
0.280598 0.998306 0.568978
0.282445 0.995483 0.555444
0.283986 0.991577 0.538537
0.296574 0.985061 0.519936
0.362493 0.97081 0.513222
0.441535 0.953887 0.505318
0.52639 0.935973 0.494209
0.609567 0.919844 0.4766
0.68896 0.907317 0.448081
0.762997 0.899275 0.405661
0.831678 0.895262 0.348714
0.895521 0.88838 0.320851
0.958144 0.878538 0.312703
1 0.87068 0.304387
1 0.864439 0.2972
1 0.859678 0.2916
1 0.855924 0.287221
1 0.853132 0.284062
1 0.851331 0.282124
1 0.849943 0.280735
1 0.849119 0.279988
1 0.848386 0.279377
0.281987 1 0.631556
0.282795 1 0.630442
0.283528 1 0.629297
0.284398 1 0.627909
0.28542 1 0.626062
0.28658 1 0.623667
0.287861 1 0.620508
0.289555 1 0.616678
0.291279 1 0.611688
0.293065 1 0.605234
0.294987 1 0.597147
0.296742 1 0.586938
0.298192 1 0.574029
0.299489 1 0.558114
0.313787 1 0.540352
0.37763 1 0.533959
0.453651 0.986419 0.526528
0.535531 0.968811 0.516426
0.617136 0.952361 0.50071
0.694331 0.939269 0.476097
0.765835 0.930251 0.440146
0.832334 0.924941 0.391684
0.892866 0.920638 0.347707
0.951568 0.912016 0.337652
1 0.903929 0.330632
1 0.897627 0.324269
1 0.892836 0.319081
1 0.889143 0.315007
1 0.886564 0.312169
1 0.884535 0.309957
1 0.883268 0.308629
1 0.882246 0.307607
1 0.881559 0.306966
0.300298 1 0.644785
0.300893 1 0.643549
0.301427 1 0.642527
0.302083 1 0.641138
0.302876 1 0.639292
0.303655 1 0.636835
0.304768 1 0.633829
0.306004 1 0.630106
0.307378 1 0.625147
0.308736 1 0.618891
0.310185 1 0.611139
0.311498 1 0.60119
0.312612 1 0.588846
0.314092 1 0.573327
0.334783 1 0.557794
0.397696 1 0.55169
0.471046 1 0.54464
0.549828 0.995666 0.535134
0.628504 0.97937 0.520638
0.702708 0.966094 0.498527
0.772183 0.956374 0.466331
0.836393 0.950225 0.423636
0.895186 0.94696 0.371435
0.949096 0.940093 0.358267
1 0.932189 0.352697
1 0.92575 0.346899
1 0.920684 0.341817
1 0.917006 0.337942
1 0.914382 0.335088
1 0.912383 0.332891
1 0.911147 0.331533
1 0.910338 0.330632
1 0.909545 0.329793
0.316304 1 0.654276
0.316762 1 0.653162
0.317189 1 0.652064
0.317662 1 0.650706
0.318242 1 0.648951
0.318914 1 0.646586
0.31957 1 0.643534
0.320577 1 0.639902
0.321706 1 0.635157
