public/textures/grade/Canon/Licorice-CLog3.cube
TITLE "Generated by Resolve"
LUT_3D_SIZE 33
0 0 0.0439918
0 0 0.0439918
0 0 0.0439918
0 0 0.0420386
0.00239567 0 0.0337835
0.0580606 0 0.0347601
0.119448 0 0.0369726
0.192477 0 0.0355993
0.274968 0 0.0276646
0.35555 0 0.0198825
0.430182 0 0.0120241
0.501793 0 0.00404364
0.573053 0 0
0.643244 0 0
0.71133 0 0
0.777829 0 0
0.84181 0 0
0.902953 0 0
0.961257 0 0
1 0 0
1 0 0
1 0 0
1 0 0
1 0 0
1 0 0
1 0 0
1 0 0
1 0 0
1 0 0
1 0 0
1 0 0
1 0 0
1 0 0
0 0 0.0439918
0 0 0.0439918
0 0 0.0439918
0 0 0.0417639
0.00450141 0 0.0337072
0.0600443 0 0.0348363
0.121508 0 0.0370031
0.194415 0 0.035462
0.276661 0 0.027512
0.356878 0 0.0197452
0.431205 0 0.0119173
0.502617 0 0.00393683
0.573709 0 0
0.643702 0 0
0.711772 0 0
0.778195 0 0
0.842084 0 0
0.903181 0 0
0.96141 0 0
1 0 0
1 0 0
1 0 0
1 0 0
1 0 0
1 0 0
1 0 0
1 0 0
1 0 0
1 0 0
1 0 0
1 0 0
1 0 0
1 0 0
0 0 0.0439918
0 0 0.0439918
0 0 0.0439918
0 0 0.0415045
0.00624094 0 0.0336614
0.0615244 0 0.0349126
0.122927 0 0.0370336
0.196017 0 0.0353399
0.27805 0 0.0273594
0.357961 0 0.0196384
0.431968 0 0.011841
0.503288 0 0.00387579
0.574258 0 0
0.644053 0 0
0.712139 0 0
0.77847 0 0
0.842313 0 0
0.903365 0 0
0.961517 0 0
1 0 0
1 0 0
1 0 0
1 0 0
1 0 0
1 0 0
1 0 0
1 0 0
1 0 0
1 0 0
1 0 0
1 0 0
1 0 0
1 0 0
0 0.000869764 0.0402686
0 0 0.0404669
0 0 0.0406958
0 0 0.0386511
0.00318914 0 0.0312657
0.0583658 0 0.0337224
0.119539 0 0.0369573
0.193118 0 0.0364996
0.276509 0 0.0288396
0.357717 0 0.0209354
0.432319 0 0.0129244
0.504021 0 0.00468452
0.575128 0 0
0.64448 0 0
0.712444 0 0
0.778714 0 0
0.842512 0 0
0.903517 0 0
0.961608 0 0
1 0 0
1 0 0
1 0 0
1 0 0
1 0 0
1 0 0
1 0 0
1 0 0
1 0 0
1 0 0
1 0 0
1 0 0
1 0 0
1 0 0
0 0.0460517 0.0471046
0 0.044831 0.0463264
0 0.0438087 0.0457008
0 0.0431067 0.0429847
0 0.0408484 0.0360113
0.0340734 0.0376287 0.0314488
0.0940719 0.0286107 0.033753
0.167971 0.0139162 0.0379034
0.255009 0 0.0332341
0.343664 0 0.0261845
0.424598 0 0.0180056
0.499687 0 0.00946059
0.573205 0 0.00122072
0.644968 0 0
0.715068 0 0
0.782696 0 0
0.847303 0 0
0.908354 0 0
0.965774 0 0
1 0 0
1 0 0
1 0 0
1 0 0
1 0 0
1 0 0
1 0 0
1 0 0
1 0 0
1 0 0
1 0 0
1 0 0
1 0 0
1 0 0
0 0.088014 0.0797742
0 0.0868544 0.0787671
0 0.0858625 0.0779126
0 0.0858778 0.0749676
0 0.0852522 0.0658122
0.00624094 0.08159 0.0580148
0.059205 0.0788434 0.0437629
0.136477 0.0671244 0.040589
0.223255 0.050309 0.0359655
0.316136 0.0319524 0.0273899
0.404303 0.0146639 0.0197757
0.485206 0 0.0115206
0.562722 0 0.00352483
0.637171 0 0
0.708934 0 0
0.778225 0 0
0.845151 0 0
0.90811 0 0
0.970184 0 0
1 0 0
1 0 0
1 0 0
1 0 0
1 0 0
1 0 0
1 0 0
1 0 0
1 0 0
1 0 0
1 0 0
1 0 0
1 0 0
1 0 0
0 0.131594 0.117403
0 0.130724 0.116701
0 0.129915 0.11606
0 0.130999 0.114534
0 0.132372 0.107118
0 0.129747 0.0968795
0.0298009 0.124804 0.0837262
0.0979324 0.119249 0.0544747
0.189212 0.1028 0.0416114
0.284703 0.0818189 0.0297856
0.377462 0.0629892 0.0214084
0.463798 0.0462348 0.0132601
0.545403 0.0303807 0.00538643
0.623194 0.0148928 0
0.699016 0 0
0.771206 0 0
0.84062 0 0
0.906004 0 0
0.967056 0 0
1 0 0
1 0 0
1 0 0
1 0 0
1 0 0
1 0 0
1 0 0
1 0 0
1 0 0
1 0 0
1 0 0
1 0 0
1 0 0
1 0 0
0 0.175402 0.146273
0 0.17467 0.145892
0 0.174014 0.145556
0 0.176425 0.146883
0 0.180362 0.145312
0 0.179599 0.137545
0 0.176135 0.125109
0.0505074 0.17499 0.0852979
0.149981 0.160082 0.0513466
0.249943 0.13991 0.0362097
0.345754 0.119234 0.0235904
0.436316 0.0997482 0.0137331
0.521462 0.0816052 0.00505074
0.602945 0.0643778 0
0.681849 0.0492409 0
0.75668 0.0340734 0
0.828733 0.0191958 0
0.896498 0.00401312 0
0.960891 0 0
1 0 0
1 0 0
1 0 0
1 0 0
1 0 0
1 0 0
1 0 0
1 0 0
1 0 0
1 0 0
1 0 0
1 0 0
1 0 0
1 0 0
0 0.219379 0.169299
0 0.218723 0.168917
0 0.218204 0.168612
0 0.221439 0.170565
0 0.226368 0.171679
0 0.2271 0.167727
0 0.22504 0.158694
0.0450294 0.222446 0.132692
0.116411 0.213581 0.0929122
0.209339 0.200763 0.0492714
0.310338 0.180301 0.0318151
0.404532 0.160082 0.0171054
0.493721 0.141176 0.00595102
0.578149 0.123766 0
0.659922 0.106706 0
0.737713 0.0896468 0
0.812024 0.072755 0
0.88188 0.0569772 0
0.948226 0.0428016 0
1 0.0281071 0
1 0.0133364 0
1 0 0
1 0 0
1 0 0
1 0 0
1 0 0
1 0 0
1 0 0
1 0 0
1 0 0
1 0 0
1 0 0
1 0 0
0 0.265446 0.19556
0 0.264851 0.195209
0 0.264347 0.194919
0 0.268498 0.197482
0 0.273259 0.198306
0 0.274327 0.195422
0 0.273045 0.188739
0.0429847 0.272114 0.169467
0.0780804 0.272755 0.123278
0.17612 0.255146 0.0978714
0.269871 0.242847 0.0483406
0.370382 0.223102 0.0287022
0.463111 0.203738 0.0122835
0.550591 0.185611 0
0.634836 0.168338 0
0.715068 0.15201 0
0.791669 0.13666 0
0.863386 0.121416 0
0.931777 0.106371 0
0.995651 0.090486 0
1 0.0739452 0
1 0.0580148 0
1 0.0420844 0
1 0.0261692 0
1 0.00869764 0
1 0 0
1 0 0
1 0 0
1 0 0
1 0 0
1 0 0
1 0 0
1 0 0
0 0.312276 0.223636
0 0.311849 0.223392
0 0.311498 0.223178
0 0.315801 0.225666
0 0.321401 0.227466
0 0.322972 0.225437
0.00047303 0.322423 0.220478
0.0444953 0.323491 0.203326
0.0619211 0.327291 0.162799
0.145922 0.314168 0.138003
0.235691 0.299748 0.101122
0.330968 0.286931 0.0498054
0.429328 0.267674 0.0278935
0.521324 0.249149 0.00985733
0.60824 0.231525 0
0.690654 0.215045 0
0.768841 0.199695 0
0.84268 0.185733 0
0.912291 0.171847 0
0.978271 0.158526 0
1 0.144991 0
1 0.131319 0
1 0.116823 0
1 0.100389 0
1 0.0823224 0
1 0.0618448 0
1 0.0401923 0
1 0.0182956 0
1 0 0
1 0 0
1 0 0
1 0 0
1 0 0
0 0.35964 0.252995
0 0.359213 0.25272
0 0.358862 0.252506
0 0.364675 0.256123
0 0.370611 0.258427
0 0.372778 0.257267
0.018555 0.372808 0.253544
0.0488289 0.376104 0.236164
0.0664683 0.379629 0.20499
0.11696 0.374914 0.171756
0.207202 0.357748 0.153017
0.296529 0.345922 0.101976
0.392477 0.332082 0.0546731
0.489708 0.313344 0.0305028
0.580011 0.295445 0.0106355
0.664561 0.279072 0
0.744457 0.263539 0
0.819898 0.249195 0
0.891264 0.23624 0
0.957732 0.223682 0
1 0.211963 0
1 0.200015 0
1 0.188403 0
1 0.175891 0
1 0.162448 0
1 0.147646 0
1 0.130694 0
1 0.110353 0
1 0.085481 0
1 0.0554818 0
1 0.0248875 0
1 0 0
1 0 0
0 0.407843 0.283925
0 0.407492 0.283696
0 0.407202 0.283497
0 0.414359 0.288136
0 0.420829 0.291066
0 0.423224 0.290394
0.0345006 0.424949 0.285115
0.0561227 0.429099 0.268315
0.0736858 0.432456 0.243091
0.086244 0.434653 0.203845
0.179461 0.418738 0.191394
0.268986 0.402564 0.167041
0.357168 0.393332 0.102098
0.454032 0.377997 0.0629282
0.549111 0.360052 0.0368811
0.63743 0.343191 0.0155795
0.719493 0.327596 0
0.796445 0.313085 0
0.868162 0.299992 0
0.936416 0.28806 0
0.999466 0.276661 0
1 0.266407 0
1 0.255894 0
1 0.245762 0
1 0.235096 0
1 0.223529 0
1 0.211063 0
1 0.196902 0
1 0.180682 0
1 0.160983 0
1 0.137667 0
1 0.109071 0
1 0.0725109 0
0 0.456855 0.316136
0 0.456565 0.315938
0 0.456321 0.315785
0 0.464973 0.321523
0 0.471672 0.324758
0.016556 0.474037 0.324315
0.0455482 0.478492 0.315038
0.0669871 0.482643 0.300404
0.0849317 0.485878 0.279133
0.0968948 0.487694 0.247776
0.15642 0.47924 0.225956
0.242863 0.462486 0.211322
0.331304 0.448218 0.1794
0.418738 0.440711 0.104204
0.515053 0.424308 0.075288
0.607324 0.407279 0.0476844
0.69308 0.391577 0.0252079
0.771786 0.376959 0.00743114
0.845228 0.363592 0
0.914122 0.351522 0
0.977874 0.340764 0
1 0.330571 0
1 0.321355 0
1 0.312123 0
1 0.303288 0
1 0.294286 0
1 0.284382 0
1 0.273716 0
1 0.261967 0
1 0.248631 0
1 0.232822 0
1 0.214801 0
1 0.193057 0
0 0.506111 0.349142
0 0.505867 0.348974
0 0.505669 0.348837
0 0.515816 0.355627
0 0.522728 0.359136
0.0370642 0.527489 0.354559
0.0605478 0.53225 0.345098
0.0816663 0.536202 0.332021
0.0982681 0.539315 0.313893
0.10985 0.54107 0.287938
0.137606 0.538094 0.259113
0.21857 0.523033 0.248264
0.307164 0.506279 0.230182
0.39411 0.49424 0.189471
0.48069 0.4869 0.11696
0.575479 0.470451 0.0919051
0.664408 0.454948 0.0637827
0.746242 0.44004 0.0398566
0.821485 0.426535 0.0211185
0.891066 0.414359 0.00668345
0.956359 0.403616 0
1 0.393683 0
1 0.385092 0
1 0.376516 0
1 0.368856 0
1 0.360861 0
1 0.353185 0
1 0.345006 0
1 0.336172 0
1 0.326207 0
1 0.315099 0
1 0.30248 0
1 0.287755 0
0 0.555276 0.382544
0 0.555108 0.382422
0 0.554955 0.38233
0 0.567056 0.390478
0.0304112 0.575357 0.390524
0.0568856 0.581262 0.383841
0.0794995 0.585763 0.375128
0.098909 0.589364 0.363149
0.113619 0.592187 0.347189
0.124498 0.593912 0.32517
0.131868 0.594079 0.295094
0.199588 0.58204 0.282445
0.284291 0.565362 0.270085
0.371878 0.549905 0.246952
0.456809 0.540154 0.197147
0.542596 0.532143 0.132952
0.634577 0.516594 0.110948
0.719188 0.501869 0.0846113
0.796872 0.488243 0.0597696
0.868254 0.475868 0.0402838
0.934493 0.465126 0.0254673
0.994705 0.455314 0.0139925
1 0.446494 0.00541695
1 0.438865 0
1 0.431449 0
1 0.424689 0
1 0.41825 0
1 0.411368 0
1 0.404562 0
1 0.397147 0
1 0.388983 0
1 0.380102 0
1 0.369589 0
0 0.604257 0.416236
0 0.60412 0.416129
0 0.605051 0.4168
0.0202335 0.619287 0.423377
0.0552529 0.628611 0.418952
0.080766 0.634272 0.412726
0.101335 0.638392 0.404532
0.117601 0.641718 0.393729
0.13051 0.644175 0.379263
0.140673 0.646021 0.360403
0.147616 0.645899 0.33463
0.187411 0.638575 0.315099
0.264805 0.623255 0.305226
0.351507 0.606531 0.290349
0.436622 0.593133 0.260929
0.519265 0.58555 0.202304
0.604166 0.576501 0.152071
0.691249 0.561746 0.131044
0.771405 0.548165 0.107652
0.844831 0.535805 0.0851148
0.912795 0.524742 0.0651408
0.973938 0.514885 0.0496071
1 0.506233 0.0376745
1 0.498741 0.0289311
1 0.49192 0.0221103
1 0.485771 0.0176089
1 0.479683 0.0141451
1 0.474403 0.012253
1 0.468864 0.0112154
1 0.462837 0.010132
1 0.456764 0.0102083
1 0.450385 0.0104372
1 0.442832 0.0100252
0 0.652537 0.449744
0 0.652399 0.449653
0.00453193 0.656626 0.451377
0.0522164 0.672938 0.451484
0.0849928 0.681147 0.446998
0.106828 0.686198 0.440986
0.1234 0.689876 0.43331
0.137118 0.692821 0.423285
0.148501 0.695064 0.410208
0.157565 0.696452 0.39324
0.164019 0.696254 0.370809
0.180835 0.69247 0.346365
0.250324 0.678721 0.337789
0.333364 0.662303 0.326863
0.418845 0.646708 0.307958
0.50135 0.635966 0.271717
0.581079 0.630121 0.204944
0.663523 0.619287 0.171206
0.745602 0.605707 0.151781
0.820905 0.593439 0.131243
0.890684 0.582284 0.111894
0.953323 0.572244 0.0944533
1 0.563485 0.079057
1 0.556054 0.0670939
1 0.549355 0.0577401
1 0.543801 0.0509957
1 0.538323 0.0457465
1 0.533639 0.0425116
1 0.528878 0.039704
1 0.5243 0.0381781
1 0.519799 0.0371862
1 0.515053 0.0368353
1 0.509529 0.0357824
0.0196384 0.7019 0.478065
0.0195621 0.701778 0.478004
0.0416724 0.710567 0.479927
0.0886091 0.725353 0.478965
0.114733 0.732311 0.474266
0.131975 0.736706 0.468437
0.145556 0.739879 0.461128
0.157412 0.742565 0.451774
0.167178 0.744411 0.439704
0.175021 0.745296 0.424323
0.180972 0.74493 0.404471
0.185046 0.742916 0.37908
0.241184 0.731456 0.368566
0.318791 0.715908 0.359548
0.403204 0.699809 0.346471
0.485801 0.686229 0.322393
0.564706 0.677348 0.278599
0.640864 0.672587 0.210025
0.720424 0.66067 0.190356
0.797604 0.648585 0.172976
0.868528 0.637171 0.154665
0.932662 0.627085 0.137926
0.991058 0.618524 0.123568
1 0.610651 0.110765
1 0.603967 0.100206
1 0.598459 0.0919203
1 0.593545 0.0849622
1 0.58941 0.0799268
1 0.585199 0.0758831
1 0.581643 0.0732128
1 0.578027 0.071397
1 0.574166 0.0698558
1 0.570138 0.0682994
0.0493782 0.750195 0.504997
0.0493172 0.750103 0.504952
0.0846113 0.763439 0.507607
0.122667 0.775814 0.505226
0.142626 0.781735 0.500435
0.156344 0.785397 0.494728
0.167483 0.788022 0.487694
0.177447 0.790234 0.478843
0.185885 0.791653 0.467597
0.192676 0.792126 0.4533
0.197955 0.791485 0.435309
0.201694 0.78941 0.41268
0.237568 0.780972 0.39762
0.309728 0.766812 0.389883
0.390829 0.750622 0.379553
0.472511 0.735576 0.362585
0.551003 0.724163 0.332479
0.626078 0.717388 0.28217
0.698955 0.71252 0.225483
0.775433 0.700542 0.209476
0.847044 0.689128 0.193393
0.91252 0.678935 0.177417
0.972 0.670344 0.163363
1 0.66244 0.150652
1 0.655695 0.140032
1 0.650141 0.131456
1 0.645365 0.124346
1 0.641489 0.119142
1 0.637781 0.114794
1 0.634684 0.111818
1 0.631678 0.10927
1 0.629038 0.107912
1 0.625925 0.10631
0.082414 0.797024 0.531243
0.0823835 0.796963 0.531212
0.125582 0.814496 0.533822
0.153338 0.82446 0.530388
0.168841 0.829221 0.525414
0.179812 0.83209 0.519692
0.189075 0.834302 0.512993
0.19733 0.835966 0.504524
0.204379 0.836851 0.493858
0.210239 0.836973 0.480598
0.214847 0.836027 0.464057
0.218189 0.833707 0.443442
0.238285 0.827771 0.425254
0.304372 0.814298 0.417929
0.381888 0.798642 0.409247
0.462455 0.78291 0.396307
0.540368 0.769741 0.374487
0.615335 0.760891 0.338079
0.686397 0.755901 0.281926
0.755581 0.749538 0.240253
0.827451 0.738033 0.22771
0.894133 0.727962 0.213458
0.953902 0.718944 0.199634
1 0.710994 0.187121
1 0.704479 0.176791
1 0.698726 0.168002
1 0.694011 0.160922
1 0.690211 0.155642
1 0.686702 0.151247
1 0.68397 0.148257
1 0.681361 0.145785
1 0.679515 0.144488
1 0.677211 0.143069
0.114214 0.841779 0.55642
0.12076 0.844892 0.557229
0.161563 0.863355 0.558373
0.181613 0.870527 0.553841
0.193591 0.874159 0.54876
0.202335 0.876356 0.543114
0.209964 0.878111 0.536568
0.216617 0.879072 0.528313
0.222492 0.879469 0.518166
0.227466 0.879133 0.505577
0.231479 0.877943 0.490272
0.234714 0.875837 0.471763
0.242039 0.871168 0.45098
0.303593 0.858259 0.443976
0.377203 0.843244 0.436271
0.455726 0.827527 0.425788
0.533379 0.813626 0.409247
0.606806 0.802731 0.381811
0.677028 0.795651 0.339162
0.743847 0.79205 0.278187
0.810758 0.783917 0.257359
0.877272 0.773434 0.245457
0.937316 0.764309 0.232944
0.992096 0.756359 0.221195
1 0.749706 0.211124
1 0.743999 0.202518
1 0.739452 0.195834
1 0.735546 0.190433
1 0.732403 0.186358
1 0.729671 0.1832
1 0.727611 0.181109
1 0.725841 0.179538
1 0.724041 0.178302
0.142214 0.884169 0.580362
0.161715 0.894759 0.582757
0.192462 0.908644 0.580606
0.207538 0.913924 0.575631
0.216693 0.916457 0.570352
0.22356 0.917906 0.56466
0.229816 0.919219 0.558434
0.235294 0.919646 0.550393
0.240116 0.919585 0.540658
0.244205 0.918791 0.528679
0.247791 0.917571 0.514504
0.250309 0.91487 0.496971
0.252003 0.910857 0.476005
0.306203 0.899138 0.468391
0.37644 0.884916 0.461433
0.452659 0.869245 0.452277
0.528893 0.854475 0.438666
0.601648 0.842374 0.417136
0.671077 0.833783 0.383871
0.736767 0.828687 0.336233
0.798657 0.824643 0.286946
0.86244 0.815351 0.273732
0.922301 0.806256 0.263294
0.977203 0.798398 0.252842
1 0.791485 0.243214
1 0.785657 0.234989
1 0.781018 0.228473
1 0.777081 0.223178
1 0.774182 0.219425
1 0.771572 0.216373
1 0.769818 0.214466
1 0.768231 0.213031
1 0.766781 0.211948
0.167712 0.924651 0.603204
0.19826 0.941726 0.605676
0.220066 0.950942 0.601038
0.231205 0.954452 0.59556
0.238178 0.956039 0.590112
0.24358 0.956817 0.584482
0.248508 0.957519 0.578256
0.252903 0.957519 0.570504
0.256916 0.957092 0.561242
0.260517 0.956252 0.550027
0.263218 0.95433 0.536416
0.265202 0.951293 0.51989
0.266667 0.947143 0.50045
0.312612 0.936812 0.49102
0.379141 0.922835 0.484367
0.452369 0.907485 0.476234
0.527382 0.89218 0.464546
0.599619 0.879408 0.447044
0.667674 0.869505 0.420172
0.732341 0.862852 0.381399
0.793072 0.859083 0.329976
0.851133 0.853803 0.299351
0.91046 0.844465 0.290455
0.964431 0.836332 0.281346
1 0.829389 0.272663
1 0.823713 0.265217
1 0.818891 0.258915
1 0.815137 0.254078
1 0.811963 0.250187
1 0.809689 0.247471
1 0.807858 0.245533
1 0.806683 0.244511
1 0.805295 0.243381
0.196887 0.966247 0.625803
0.229847 0.984283 0.625437
0.244602 0.989624 0.619196
0.252705 0.991699 0.613275
0.258137 0.992508 0.607858
0.262486 0.993088 0.602487
0.266163 0.992966 0.596216
0.269581 0.992477 0.588632
0.272923 0.991867 0.579736
0.275685 0.990341 0.568856
0.277943 0.987976 0.555795
0.279789 0.984909 0.540444
0.281132 0.980301 0.521767
0.321965 0.970275 0.511543
0.386358 0.956436 0.50515
0.457374 0.941543 0.497841
0.530373 0.926452 0.487678
0.601129 0.912779 0.472358
0.667964 0.901854 0.449622
0.731472 0.89424 0.417288
0.791089 0.88957 0.374456
0.846693 0.886442 0.326238
0.901595 0.878828 0.314305
0.954818 0.870771 0.307134
1 0.863676 0.299474
1 0.857771 0.292531
1 0.853223 0.287022
1 0.849287 0.282307
1 0.84622 0.278706
1 0.843824 0.276036
1 0.841901 0.274006
1 0.840772 0.272984
1 0.83975 0.27216
0.233249 1 0.647486
0.256016 1 0.6421
0.266331 1 0.635081
0.272221 1 0.628931
0.27628 1 0.623499
0.279713 1 0.618189
0.282551 1 0.611994
0.285512 1 0.604761
0.287953 1 0.595834
0.290105 1 0.585245
0.292119 1 0.572869
0.293553 1 0.558175
0.295109 1 0.540215
0.335653 0.999969 0.530343
0.397421 0.986496 0.524346
0.466148 0.971466 0.51722
0.536645 0.956466 0.507958
0.606348 0.942611 0.494331
0.671916 0.93138 0.474647
0.73341 0.922835 0.446815
0.791516 0.917021 0.40972
0.846006 0.913863 0.364065
0.89691 0.909102 0.337407
0.947997 0.90135 0.329809
0.995132 0.894209 0.323369
1 0.888273 0.31725
1 0.88336 0.311864
1 0.879499 0.3075
1 0.876509 0.304158
1 0.874067 0.301472
1 0.872511 0.299763
1 0.871183 0.298421
1 0.870237 0.297551
0.26424 1 0.664103
0.278492 1 0.656046
0.285756 1 0.648524
0.290059 1 0.642176
0.29308 1 0.636683
0.295689 1 0.631327
0.297948 1 0.625193
0.300237 1 0.618128
0.302296 1 0.609583
0.304128 1 0.599298
0.305531 1 0.587182
0.3066 1 0.572961
0.30901 1 0.555489
0.352316 1 0.547066
0.412894 1 0.541299
0.479194 0.99762 0.534844
0.547662 0.98262 0.525948
0.614481 0.968795 0.513512
0.678569 0.957031 0.495506
0.738964 0.948302 0.470878
0.795544 0.941924 0.438132
0.84802 0.937926 0.398016
0.896971 0.934676 0.358831
0.944335 0.928405 0.349645
0.990417 0.921187 0.344289
1 0.915175 0.338811
1 0.91046 0.334051
1 0.906416 0.329778
1 0.903319 0.326406
1 0.900908 0.323766
1 0.899077 0.321782
1 0.897978 0.320607
1 0.897078 0.319707
0.288655 1 0.67631
0.29807 1 0.66688
0.303243 1 0.659083
0.30634 1 0.652674
0.308812 1 0.647318
0.310643 1 0.641855
0.312428 1 0.635966
0.314076 1 0.628901
0.31574 1 0.620554
