public/textures/grade/Canon/Licorice-CLog2.cube
TITLE "Generated by Resolve"
LUT_3D_SIZE 5
0 0.01355 0.0677043
0.179522 0 0.0557107
0.766003 0 0.00122072
1 0 0
1 0 0
0 0.169116 0.140566
0.0504921 0.164096 0.085359
0.742809 0.0276341 0
1 0 0
1 0 0
0.00190738 0.557916 0.383658
0.0916457 0.574853 0.357061
0.527657 0.519951 0.127764
1 0.413092 0
1 0.348791 0
0.261418 1 0.614725
0.273625 1 0.594507
0.441535 0.953887 0.505318
1 0.87068 0.304387
1 0.848386 0.279377
0.361334 1 0.663035
0.363455 1 0.64596
0.587076 1 0.597086
1 1 0.414557
1 0.99353 0.394293
0 0 0.277867
0.168368 0 0.24538
0.756771 0 0.116716
1 0 0.072755
1 0 0.0758984
0 0.158404 0.212222
0.123476 0.151431 0.176577
0.757977 0.0485084 0.0953841
1 0 0.0655528
1 0 0.0577249
0 0.555215 0.381979
0.0892805 0.572671 0.357183
0.52639 0.518532 0.127077
1 0.410971 0
1 0.346075 0
0.260609 1 0.615396
0.273182 1 0.595056
0.439948 0.954009 0.505348
1 0.870512 0.30425
1 0.848173 0.27921
0.361242 1 0.663584
0.363302 1 0.646662
0.586191 1 0.597192
1 1 0.414603
1 0.99353 0.394293
0 0 0.809949
0.0950332 0 0.782177
0.688045 0 0.677012
1 0 0.575341
1 0 0.566796
0 0.00077821 0.76762
0.0829023 0.0240177 0.754818
0.693843 0 0.673793
1 0 0.568093
1 0 0.559579
0 0.553582 0.577676
0.0831922 0.566857 0.578454
0.529168 0.533913 0.502419
1 0.454978 0.404028
1 0.40827 0.441855
0.253681 0.998734 0.619928
0.269734 1 0.59968
0.428199 0.954879 0.505562
1 0.869139 0.303227
1 0.846693 0.277928
0.360723 1 0.668574
0.362432 1 0.65156
0.577829 1 0.598245
1 1 0.414847
1 0.99353 0.394293
0 0 1
0 0 1
0.586511 0 1
1 0 1
1 0 1
0 0 1
0 0 1
0.587427 0 1
1 0 1
1 0 1
0 0.405524 1
0 0.404608 1
0.486961 0.422904 1
1 0.351278 1
1 0.230915 1
0.013611 0.978042 0.982849
0.0902571 0.989273 0.989914
0.457237 0.932937 0.906157
0.919249 0.892103 0.818509
1 0.876432 0.778836
0.372564 1 0.976852
0.413046 1 0.96022
0.650706 1 0.892271
0.978378 1 0.698482
1 0.987945 0.674647
0 0 1
0 0 1
0.261723 0 1
1 0 1
1 0 1
0 0 1
0 0 1
0.264195 0 1
1 0 1
1 0 1
0 0 1
0 0 1
0.281254 0 1
1 0 1
1 0 1
0.161349 0.953307 1
0.161257 0.953216 1
0.371801 0.940414 1
0.905135 0.879637 0.946075
1 0.86981 0.935241
0.182467 1 1
0.182467 1 1
0.483604 1 1
0.911681 1 0.940642
1 1 0.925582
