public/textures/grade/Canon/Licorice-CLog2.cube
TITLE "Generated by Resolve"
LUT_3D_SIZE 9
0 0.01355 0.0677043
0.0368658 0.010132 0.0575875
0.179522 0 0.0557107
0.461204 0 0.0306706
0.766003 0 0.00122072
1 0 0
1 0 0
1 0 0
1 0 0
0 0.0651255 0.0620737
0.01178 0.0615549 0.0534371
0.14728 0.0459754 0.0497444
0.449882 0 0.0317388
0.766934 0 0
1 0 0
1 0 0
1 0 0
1 0 0
0 0.169116 0.140566
0 0.169436 0.133242
0.0504921 0.164096 0.085359
0.386954 0.0995193 0.021622
0.742809 0.0276341 0
1 0 0
1 0 0
1 0 0
1 0 0
0 0.335363 0.237018
0 0.338704 0.236637
0.0424811 0.339803 0.217838
0.258564 0.314351 0.0992447
0.661677 0.239628 0
1 0.172961 0
1 0.104799 0
1 0.00370794 0
1 0 0
0.00190738 0.557916 0.383658
0.0418097 0.565026 0.378912
0.0916457 0.574853 0.357061
0.155642 0.575647 0.27982
0.527657 0.519951 0.127764
0.909773 0.45388 0.0226749
1 0.413092 0
1 0.382055 0
1 0.348791 0
0.149828 0.804486 0.515633
0.164279 0.808606 0.510079
0.186419 0.813657 0.493538
0.208133 0.814099 0.443153
0.446967 0.764035 0.385092
0.803235 0.720012 0.21883
1 0.679683 0.156802
1 0.661677 0.131868
1 0.652705 0.125139
0.261418 1 0.614725
0.265721 1 0.609003
0.273625 1 0.594507
0.282445 0.995483 0.555444
0.441535 0.953887 0.505318
0.762997 0.899275 0.405661
1 0.87068 0.304387
1 0.853132 0.284062
1 0.848386 0.279377
0.330297 1 0.660853
0.331579 1 0.655482
0.334066 1 0.642023
0.338003 1 0.607813
0.514244 1 0.572457
0.791074 0.996307 0.502083
1 0.975113 0.384833
1 0.957122 0.368917
1 0.952102 0.363256
0.361334 1 0.663035
0.361624 1 0.658228
0.363455 1 0.64596
0.392874 1 0.615946
0.587076 1 0.597086
0.825299 1 0.529763
1 1 0.414557
1 0.998459 0.399893
1 0.99353 0.394293
0 0.00546273 0.136614
0.0361944 0.00476081 0.123217
0.182055 0 0.102159
0.462516 0 0.0549935
0.765576 0 0.0326848
1 0 0.014023
1 0 0.00436408
1 0 0.00437934
1 0 0.0080415
0 0.0598917 0.113146
0.0238041 0.057435 0.100328
0.161563 0.0411078 0.0883497
0.456275 0 0.0550851
0.769009 0 0.0338903
1 0 0.0121157
1 0 0
1 0 0
1 0 0.00120546
0 0.166812 0.147311
0 0.165362 0.136706
0.0772259 0.161486 0.106645
0.395315 0.104982 0.0559701
0.749523 0.035874 0.0263676
1 0 0.00764477
1 0 0
1 0 0
1 0 0
0 0.334051 0.236255
0 0.337667 0.236103
0.041825 0.338521 0.217807
0.258213 0.313207 0.0983749
0.661753 0.238315 0
1 0.171527 0
1 0.102983 0
1 0.00178531 0
1 0 0
0 0.557153 0.383169
0.0405585 0.564294 0.378912
0.0910048 0.574212 0.357031
0.154696 0.57528 0.279637
0.52723 0.519524 0.127535
0.909865 0.4533 0.022385
1 0.412497 0
1 0.381415 0
1 0.348028 0
0.149035 0.804105 0.51574
0.163714 0.808301 0.510201
0.186099 0.813458 0.493706
0.208011 0.813962 0.443351
0.446525 0.763943 0.385077
0.803113 0.719844 0.218738
1 0.6795 0.156664
1 0.661509 0.131762
1 0.652491 0.125002
0.261189 1 0.614923
0.265538 1 0.609171
0.273503 1 0.594705
0.282383 0.995468 0.555611
0.441077 0.953933 0.505333
0.762829 0.899245 0.405707
1 0.870634 0.304341
1 0.853071 0.284016
1 0.848325 0.279332
0.330251 1 0.661067
0.331518 1 0.65568
0.33402 1 0.642222
0.337957 1 0.607996
0.513848 1 0.572488
0.790921 0.996307 0.502144
1 0.975097 0.384833
1 0.957107 0.368902
1 0.952087 0.363226
0.361318 1 0.663188
0.361608 1 0.658427
0.363409 1 0.646159
0.39237 1 0.615991
0.586816 1 0.597116
0.825193 1 0.529809
1 1 0.414572
1 0.998444 0.399878
1 0.99353 0.394293
0 0 0.277867
0.0257115 0 0.266835
0.168368 0 0.24538
0.443519 0 0.170672
0.756771 0 0.116716
1 0 0.0850233
1 0 0.072755
1 0 0.0723278
1 0 0.0758984
0 0.0361639 0.258656
0.0146334 0.0389868 0.249699
0.156847 0.0290379 0.228565
0.442725 0 0.160693
0.764843 0 0.113542
1 0 0.0824292
1 0 0.0675517
1 0 0.0672465
1 0 0.0706188
0 0.158404 0.212222
0 0.158587 0.199725
0.123476 0.151431 0.176577
0.40116 0.113756 0.137514
0.757977 0.0485084 0.0953841
1 0 0.0794995
1 0 0.0655528
1 0 0.0544442
1 0 0.0577249
0 0.333394 0.263966
0 0.337011 0.265126
0.0641337 0.337331 0.259373
0.266423 0.321691 0.172015
0.680125 0.25008 0.088838
1 0.190341 0.061738
1 0.128847 0.05832
1 0.0273747 0.061738
1 0 0.0469215
0 0.555215 0.381979
0.0372473 0.562341 0.378897
0.0892805 0.572671 0.357183
0.152255 0.574334 0.279149
0.52639 0.518532 0.127077
0.910048 0.451835 0.0215915
1 0.410971 0
1 0.379721 0
1 0.346075 0
0.14696 0.803082 0.515953
0.162203 0.807462 0.51046
0.185245 0.812894 0.494118
0.207675 0.813581 0.443763
0.44535 0.763668 0.384985
0.802869 0.719402 0.218494
1 0.678996 0.156313
1 0.661082 0.131472
1 0.651972 0.12462
0.260609 1 0.615396
0.265049 1 0.609644
0.273182 1 0.595056
0.282261 0.995438 0.556069
0.439948 0.954009 0.505348
0.762463 0.899138 0.405798
1 0.870512 0.30425
1 0.852949 0.283909
1 0.848173 0.27921
0.330068 1 0.661601
0.33135 1 0.656153
0.333913 1 0.64271
0.33785 1 0.608484
0.51284 1 0.572564
0.790555 0.996307 0.502281
1 0.975067 0.384802
1 0.957061 0.368872
1 0.952026 0.363195
0.361242 1 0.663584
0.361578 1 0.6589
0.363302 1 0.646662
0.391104 1 0.616098
0.586191 1 0.597192
0.824872 1 0.529976
1 1 0.414603
1 0.998444 0.399893
1 0.99353 0.394293
0 0 0.517113
0.00146487 0 0.508217
0.14197 0 0.484443
0.394858 0 0.438346
0.727886 0 0.351858
1 0 0.293538
1 0 0.268055
1 0 0.263096
1 0 0.265949
0 0 0.502403
0 0 0.49601
0.137606 0 0.474342
0.396277 0 0.434394
0.735637 0 0.350607
1 0 0.288884
1 0 0.263645
1 0 0.258778
1 0 0.261875
0 0.108675 0.455573
0 0.114763 0.452781
0.109682 0.117815 0.436622
0.367712 0.0961471 0.402564
0.734401 0.033753 0.321859
1 0 0.284367
1 0 0.262043
1 0 0.247791
1 0 0.250965
0 0.328481 0.368032
0 0.333562 0.366003
0.103517 0.331655 0.351293
0.29575 0.317678 0.315999
0.690394 0.259907 0.238132
1 0.210315 0.215091
1 0.158282 0.219699
1 0.0593118 0.239872
1 0 0.237964
0 0.554604 0.432959
0.0309148 0.559762 0.435676
0.158175 0.560342 0.432258
0.243488 0.561044 0.395834
0.543221 0.531868 0.256352
0.927108 0.470024 0.190494
1 0.43508 0.167712
1 0.407065 0.163424
1 0.376257 0.164355
0.141222 0.800397 0.516701
0.158206 0.805478 0.511528
0.183215 0.811566 0.495293
0.206851 0.812482 0.444862
0.442313 0.76289 0.38471
0.802121 0.718196 0.217792
1 0.677668 0.155337
1 0.659754 0.130541
1 0.650629 0.12372
0.258839 1 0.616587
0.263661 1 0.610864
0.272297 1 0.596368
0.281941 0.995331 0.557183
0.436774 0.954253 0.505409
0.761517 0.898909 0.406119
1 0.870146 0.303975
1 0.852613 0.28365
1 0.847761 0.278859
0.329549 1 0.662974
0.330846 1 0.657465
0.333577 1 0.643931
0.337652 1 0.609873
0.510033 1 0.572763
0.789532 0.996292 0.502663
1 0.974975 0.384741
1 0.956939 0.36878
1 0.951888 0.363088
0.361105 1 0.664942
0.361456 1 0.660105
0.363043 1 0.647898
0.38764 1 0.616388
0.584054 1 0.597482
0.824018 1 0.530419
1 1 0.414664
1 0.998459 0.399908
1 0.99353 0.394293
0 0 0.809949
0 0 0.806302
0.0950332 0 0.782177
0.353445 0 0.737163
0.688045 0 0.677012
1 0 0.611048
1 0 0.575341
1 0 0.565606
1 0 0.566796
0 0 0.807874
0 0 0.804089
0.0962997 0 0.78027
0.354177 0 0.735256
0.688472 0 0.675013
1 0 0.609003
1 0 0.573343
1 0 0.563622
1 0 0.564797
0 0.00077821 0.76762
0 0.00828565 0.768078
0.0829023 0.0240177 0.754818
0.345846 0.0326085 0.71928
0.693843 0 0.673793
1 0 0.616449
1 0 0.568093
1 0 0.558373
1 0 0.559579
0 0.264424 0.679805
0 0.275059 0.684779
0.0374456 0.281346 0.68014
0.281315 0.276951 0.650294
0.630259 0.244038 0.610224
0.982834 0.190784 0.55581
1 0.126879 0.550103
1 0 0.571328
1 0 0.545312
0 0.553582 0.577676
0 0.563165 0.582895
0.0831922 0.566857 0.578454
0.236484 0.554238 0.553597
0.529168 0.533913 0.502419
0.911574 0.481422 0.416175
1 0.454978 0.404028
1 0.433524 0.420813
1 0.40827 0.441855
0.120592 0.785672 0.64094
0.1738 0.788479 0.641794
0.249195 0.786099 0.636027
0.341665 0.772274 0.615854
0.430869 0.77789 0.51458
0.814618 0.729763 0.399863
1 0.694697 0.355764
1 0.681071 0.342794
1 0.67454 0.341772
0.253681 0.998734 0.619928
0.25977 0.999802 0.614481
0.269734 1 0.59968
0.281102 0.995178 0.560555
0.428199 0.954879 0.505562
0.758679 0.898344 0.407156
1 0.869139 0.303227
1 0.851667 0.282902
1 0.846693 0.277928
0.328084 1 0.666911
0.329717 1 0.661372
0.332876 1 0.647593
0.336934 1 0.613199
0.502373 1 0.573236
0.786877 0.996307 0.50367
0.99968 0.974746 0.384558
1 0.956588 0.368521
1 0.951537 0.362814
0.360723 1 0.668574
0.361242 1 0.663661
0.362432 1 0.65156
0.378882 1 0.617227
0.577829 1 0.598245
0.821729 1 0.531609
1 1 0.414847
1 0.998489 0.399939
1 0.99353 0.394293
0 0 1
0 0 1
0 0 1
0.283589 0 1
0.648356 0 0.953155
0.977768 0 0.900923
1 0 0.868574
1 0 0.859129
1 0 0.860258
0 0 1
0 0 1
0 0 1
0.284291 0 1
0.648646 0 0.952544
0.97789 0 0.900298
1 0 0.867933
1 0 0.858488
1 0 0.859617
0 0 1
0 0 1
0 0 1
0.286061 0 1
0.649424 0 0.950912
0.978195 0 0.89865
1 0 0.866285
1 0 0.856825
1 0 0.857939
0 0.140703 0.982147
0 0.140047 0.982315
0 0.159716 0.987106
0.247318 0.172503 0.959457
0.621302 0.156664 0.918349
0.975097 0.0938277 0.891142
1 0.00062562 0.882918
1 0 0.865583
1 0 0.853452
0 0.500923 0.871077
0 0.500725 0.871122
0 0.520821 0.88043
0.208423 0.513741 0.861219
0.51371 0.501076 0.812284
0.853574 0.468666 0.780362
1 0.437919 0.756619
1 0.406638 0.768887
1 0.364294 0.794415
0 0.784894 0.799283
0 0.79234 0.804776
0.0895094 0.803281 0.807538
0.225849 0.78941 0.783032
0.466819 0.760769 0.736248
0.754879 0.741405 0.685954
1 0.708431 0.618006
1 0.697169 0.604395
1 0.693568 0.610666
0.193683 0.975647 0.851179
0.227787 0.974914 0.848676
0.284398 0.967544 0.838026
0.365087 0.946212 0.811032
0.547692 0.912276 0.763714
0.74493 0.902342 0.645838
1 0.873549 0.569024
1 0.860655 0.555474
1 0.858778 0.553552
0.436362 1 0.784222
0.438117 1 0.778149
0.441291 1 0.763912
0.446784 1 0.727687
0.49305 1 0.637095
0.784344 0.997497 0.574655
1 0.974441 0.471748
1 0.956466 0.456916
1 0.951492 0.452033
0.359762 1 0.678416
0.36022 1 0.673121
0.36144 1 0.660243
0.368627 1 0.62475
0.561975 1 0.600168
0.815641 1 0.53463
1 1 0.415335
1 0.998581 0.400031
1 0.99353 0.394293
0 0 1
0 0 1
0 0 1
0.133669 0 1
0.586511 0 1
0.953811 0 1
1 0 1
1 0 1
1 0 1
0 0 1
0 0 1
0 0 1
0.134554 0 1
0.58677 0 1
0.953887 0 1
1 0 1
1 0 1
1 0 1
0 0 1
0 0 1
0 0 1
0.136858 0 1
0.587427 0 1
0.954101 0 1
1 0 1
1 0 1
1 0 1
0 0 1
0 0 1
0 0 1
0.144427 0 1
0.589487 0 1
0.95465 0 1
1 0 1
1 0 1
1 0 1
0 0.405524 1
0 0.405264 1
0 0.404608 1
0.0921035 0.427314 1
0.486961 0.422904 1
0.862974 0.390173 1
1 0.351278 1
1 0.301534 1
1 0.230915 1
0 0.757595 0.996597
0 0.757549 0.996612
0 0.757397 0.996658
0.223148 0.773281 0.989609
0.451667 0.741756 0.940917
0.741299 0.725536 0.891371
0.984543 0.704112 0.873274
1 0.692744 0.862272
1 0.686229 0.867658
0.013611 0.978042 0.982849
0.0136263 0.978027 0.982834
0.0902571 0.989273 0.989914
0.245029 0.973144 0.961791
0.457237 0.932937 0.906157
0.729686 0.899992 0.851469
0.919249 0.892103 0.818509
1 0.880446 0.792309
1 0.876432 0.778836
0.203265 1 1
0.234592 1 1
0.28661 1 0.995285
0.372747 1 0.962386
0.565332 1 0.911635
0.756771 0.993515 0.831312
0.944106 0.977844 0.766949
1 0.964248 0.749279
1 0.959319 0.737667
0.372564 1 0.976852
0.382925 1 0.971984
0.413046 1 0.96022
0.494514 1 0.934844
0.650706 1 0.892271
0.776425 1 0.794888
0.978378 1 0.698482
1 0.993698 0.683101
1 0.987945 0.674647
0 0 1
0 0 1
0 0 1
0 0 1
0.462806 0 1
0.920455 0 1
1 0 1
1 0 1
1 0 1
0 0 1
0 0 1
0 0 1
0 0 1
0.463249 0 1
0.920562 0 1
1 0 1
1 0 1
1 0 1
0 0 1
0 0 1
0 0 1
0 0 1
0.464378 0 1
0.920836 0 1
1 0 1
1 0 1
1 0 1
0 0 1
0 0 1
0 0 1
0 0 1
0.467079 0 1
0.921599 0 1
1 0 1
1 0 1
1 0 1
0 0.15378 1
0 0.15314 1
0 0.151476 1
0 0.146853 1
0.437934 0.211536 1
0.912444 0.155886 1
1 0.0728618 1
1 0 1
1 0 1
0 0.70959 1
0 0.709514 1
0 0.709285 1
0 0.708705 1
0.363516 0.704387 1
0.728496 0.687694 1
0.993866 0.663523 0.997177
1 0.65008 0.998306
1 0.639887 1
0.187701 0.96849 1
0.187686 0.96846 1
0.187625 0.968414 1
0.233997 0.978775 1
0.458183 0.936797 0.998322
0.720592 0.901061 0.93756
0.90985 0.890806 0.909102
1 0.883299 0.901778
1 0.881621 0.895766
0.119661 1 1
0.119661 1 1
0.119692 1 1
0.2598 1 1
0.479835 1 1
0.739376 0.994095 0.942473
0.910475 0.981613 0.904356
1 0.976379 0.892622
1 0.973114 0.886336
0.155566 1 1
0.169574 1 1
0.257984 1 1
0.358801 1 1
0.558007 1 1
0.783215 1 0.944533
0.927321 1 0.895766
1 1 0.880262
1 1 0.873747
0 0 1
0 0 1
0 0 1
0 0 1
0.261723 0 1
0.878141 0 1
1 0 1
1 0 1
1 0 1
0 0 1
0 0 1
0 0 1
0 0 1
0.262425 0 1
0.878279 0 1
1 0 1
1 0 1
1 0 1
0 0 1
0 0 1
0 0 1
0 0 1
0.264195 0 1
0.878599 0 1
1 0 1
1 0 1
1 0 1
0 0 1
0 0 1
0 0 1
0 0 1
0.268635 0 1
0.879499 0 1
1 0 1
1 0 1
1 0 1
0 0 1
0 0 1
0 0 1
0 0 1
0.281254 0 1
0.881865 0 1
1 0 1
1 0 1
1 0 1
0 0.641413 1
0 0.641306 1
0 0.641016 1
0 0.640238 1
0.231846 0.651759 1
0.712169 0.631296 1
1 0.601495 1
1 0.5832 1
1 0.56643 1
0.161349 0.953307 1
0.161334 0.953277 1
0.161257 0.953216 1
0.161059 0.953048 1
0.371801 0.940414 1
0.689845 0.891112 0.984421
0.905135 0.879637 0.946075
1 0.871427 0.938384
1 0.86981 0.935241
0.223102 1 1
0.223117 1 1
0.223133 1 1
0.223178 1 1
0.411994 1 1
0.706401 0.999863 0.975967
0.908141 0.977966 0.943206
1 0.976287 0.92343
1 0.973449 0.920607
0.182467 1 1
0.182467 1 1
0.182467 1 1
0.232654 1 1
0.483604 1 1
0.746532 1 0.986709
0.911681 1 0.940642
1 1 0.92459
1 1 0.925582
