public/textures/grade/Canon/Licorice-CLog.cube
TITLE "Generated by Resolve"
LUT_3D_SIZE 9
0 0 0.0439918
0.0864881 0 0.0359045
0.355169 0 0.019913
0.588922 0 0
0.80235 0 0
0.993622 0 0
1 0 0
1 0 0
1 0 0
0 0.102266 0.092607
0.0165408 0.0976577 0.0671855
0.302174 0.0504768 0.0285801
0.573373 0 0.00294499
0.801724 0 0
1 0 0
1 0 0
1 0 0
1 0 0
0 0.261692 0.193362
0 0.271321 0.191424
0.17525 0.252262 0.0964523
0.483864 0.19617 0.0087129
0.74522 0.142931 0
0.969833 0.0957504 0
1 0.0463264 0
1 0 0
1 0 0
0 0.417517 0.290227
0.0147097 0.434073 0.296407
0.0877241 0.445319 0.214633
0.370611 0.402777 0.100389
0.663371 0.350286 0.014023
0.90338 0.306508 0
1 0.272908 0
1 0.243717 0
1 0.210025 0
0 0.573373 0.394949
0.0747234 0.603174 0.391592
0.129809 0.61323 0.339376
0.294972 0.583597 0.280537
0.565194 0.548791 0.140047
0.831006 0.50341 0.0641337
1 0.4701 0.0167086
1 0.448066 0.000869764
1 0.435187 0.00798047
0.0492714 0.736019 0.495583
0.150774 0.767178 0.482292
0.185016 0.77348 0.443168
0.251713 0.758663 0.384543
0.507057 0.711269 0.336583
0.753201 0.684367 0.201709
0.981155 0.64947 0.147173
1 0.626627 0.110124
1 0.617945 0.100587
0.180819 0.906218 0.584405
0.225315 0.921019 0.566079
0.244556 0.921813 0.533013
0.256062 0.912703 0.475776
0.477867 0.866712 0.45008
0.708553 0.832731 0.36144
0.923964 0.808133 0.2645
1 0.783398 0.230121
1 0.773632 0.217533
0.279347 1 0.661448
0.296071 1 0.639704
0.305516 1 0.609735
0.31107 1 0.560662
0.495827 0.998901 0.536263
0.711757 0.956436 0.487327
0.898405 0.938674 0.362005
1 0.913802 0.336629
1 0.901778 0.323522
0.354818 1 0.705974
0.359152 1 0.682857
0.361929 1 0.654841
0.402945 1 0.615091
0.580682 1 0.597894
0.764248 1 0.556634
0.926055 1 0.462531
1 1 0.407675
1 0.99353 0.394293
0 0 0.213275
0.0809949 0 0.189593
0.341466 0 0.124239
0.585184 0 0.0817273
0.799969 0 0.0585031
0.991455 0 0.0438239
1 0 0.0365148
1 0 0.0356909
1 0 0.0386358
0 0.0904555 0.152071
0.0559091 0.0876783 0.124376
0.313069 0.0514992 0.0979629
0.588006 0 0.0627604
0.808637 0 0.0466926
1 0 0.0376135
1 0 0.028397
1 0 0.0184024
1 0 0.0216526
0 0.258732 0.205295
0 0.268727 0.20737
0.176425 0.25452 0.134188
0.495583 0.197879 0.0565042
0.755566 0.148425 0.0295109
0.977096 0.104158 0.0163882
1 0.0565347 0.0121309
1 0.00471504 0.0152285
1 0 0.0204471
0 0.414572 0.288304
0.00450141 0.43093 0.294697
0.0864729 0.441932 0.214694
0.369329 0.399695 0.0973678
0.663203 0.346746 0.0128481
0.90428 0.303166 0
1 0.269154 0
1 0.23949 0
1 0.205035 0
0 0.57171 0.393805
0.0709087 0.600656 0.391608
0.128923 0.611643 0.339986
0.292378 0.582177 0.27982
0.564706 0.546899 0.13901
0.83093 0.501472 0.0628367
1 0.468071 0.0157015
1 0.445975 7.62951e-05
1 0.433005 0.00733959
0.0422675 0.732357 0.494347
0.148562 0.765682 0.482582
0.184192 0.772396 0.443503
0.249638 0.757961 0.384115
0.505592 0.710491 0.33637
0.752667 0.683421 0.20119
0.981064 0.648447 0.146456
1 0.625589 0.109346
1 0.616876 0.0998398
0.177249 0.904311 0.584466
0.224125 0.920272 0.566613
0.244144 0.921462 0.533623
0.254139 0.912535 0.47567
0.476585 0.866361 0.449882
0.707973 0.832258 0.361257
0.92369 0.807645 0.264195
1 0.782879 0.229725
1 0.773098 0.217105
0.27808 1 0.662028
0.295506 1 0.640299
0.305241 1 0.610361
0.310765 1 0.561318
0.494377 0.998932 0.536233
0.710964 0.956374 0.487495
0.89807 0.93846 0.361868
1 0.913588 0.336461
1 0.901549 0.323323
0.354528 1 0.70695
0.359014 1 0.683619
0.361852 1 0.655543
0.401022 1 0.615259
0.579324 1 0.598062
0.763516 1 0.556909
0.925689 1 0.462837
1 1 0.407691
1 0.99353 0.394293
0 0 0.435874
0.055314 0 0.413764
0.297719 0 0.372122
0.5514 0 0.302556
0.779782 0 0.25069
0.978332 0 0.216999
1 0 0.196063
1 0 0.185962
1 0 0.187823
0 0.041413 0.386923
0.0409094 0.0528115 0.374716
0.287572 0.03299 0.340032
0.56083 0 0.271031
0.793469 0 0.23006
0.99324 0 0.204303
1 0 0.181277
1 0 0.167025
1 0 0.169421
0 0.25185 0.303349
0.0155184 0.260044 0.294133
0.224918 0.247807 0.255833
0.504341 0.209628 0.206973
0.770916 0.164858 0.167987
0.980758 0.129488 0.158877
1 0.089662 0.156909
1 0.0376745 0.162203
1 0 0.168841
0 0.414832 0.339193
0 0.429938 0.347387
0.188357 0.424643 0.332479
0.381888 0.411643 0.225269
0.686702 0.360861 0.165011
0.923186 0.32253 0.135515
1 0.294118 0.123812
1 0.268833 0.122576
1 0.237995 0.131395
0 0.573312 0.409171
0.122286 0.596567 0.417227
0.173556 0.608576 0.374975
0.294713 0.59176 0.31252
0.577371 0.555413 0.197238
0.842313 0.510948 0.143206
1 0.479026 0.108843
1 0.458183 0.0962997
1 0.446052 0.102373
0.0353704 0.728389 0.492836
0.145602 0.763836 0.483207
0.182925 0.770916 0.444205
0.24625 0.757458 0.383856
0.503487 0.709361 0.336049
0.751644 0.682139 0.200443
0.980987 0.646967 0.145403
1 0.624079 0.108232
1 0.615518 0.0990158
0.17116 0.900694 0.583993
0.2224 0.919173 0.56733
0.243549 0.920974 0.534585
0.252659 0.912108 0.475975
0.474372 0.866026 0.449729
0.707088 0.831586 0.361044
0.92314 0.806989 0.263767
1 0.782132 0.229145
1 0.772351 0.216495
0.276173 1 0.662821
0.294682 1 0.641306
0.304845 1 0.611292
0.310353 1 0.562249
0.492271 0.998978 0.536171
0.709819 0.956268 0.487709
0.897444 0.938186 0.3617
1 0.913268 0.336202
1 0.901198 0.323033
0.354101 1 0.708278
0.358831 1 0.684855
0.36173 1 0.656474
0.39826 1 0.615503
0.577371 1 0.598306
0.762463 1 0.557305
0.925155 1 0.463279
1 1 0.407706
1 0.99353 0.394293
0 0 0.651392
0.0265202 0 0.635431
0.26952 0 0.594079
0.515358 0 0.548058
0.751858 0 0.490486
0.960067 0 0.444404
1 0 0.413443
1 0 0.396841
1 0 0.395727
0 0 0.619669
0.0210117 0 0.611154
0.268421 0 0.576623
0.520974 0 0.537621
0.763287 0 0.482963
0.970016 0 0.437766
1 0 0.40061
1 0 0.384344
1 0 0.383474
0 0.210391 0.534676
0 0.22295 0.535439
0.212467 0.219654 0.509209
0.465034 0.196933 0.477958
0.737011 0.156847 0.417868
0.961227 0.120806 0.389136
1 0.0803998 0.379629
1 0.019791 0.384344
1 0 0.391592
0 0.415686 0.449622
0.00729381 0.430854 0.451987
0.186114 0.422629 0.430091
0.392691 0.408133 0.394553
0.67657 0.369039 0.332296
0.919051 0.333745 0.292973
1 0.311254 0.291463
1 0.290608 0.299626
1 0.265766 0.323674
0 0.574456 0.486931
0.0347906 0.592554 0.49752
0.217914 0.585565 0.483238
0.332631 0.581064 0.438758
0.578302 0.560098 0.334035
0.849836 0.51812 0.281605
1 0.490944 0.254871
1 0.474495 0.247089
1 0.466102 0.254719
0.0655375 0.726085 0.543343
0.239597 0.746044 0.556161
0.279118 0.751064 0.526574
0.29398 0.754925 0.464881
0.511345 0.722728 0.406287
0.767529 0.694194 0.302022
0.993713 0.660624 0.263508
1 0.64065 0.241108
1 0.6336 0.234577
0.160525 0.894408 0.582849
0.219409 0.917418 0.568719
0.242222 0.919707 0.535897
0.251957 0.911254 0.477409
0.470619 0.865736 0.449699
0.705135 0.830518 0.361059
0.922225 0.805997 0.263142
1 0.780835 0.228153
1 0.771069 0.215457
0.272831 1 0.664332
0.293126 1 0.642878
0.304128 1 0.612741
0.309834 1 0.563928
0.488075 0.999237 0.536202
0.707607 0.955978 0.488014
0.896406 0.937713 0.361425
1 0.912718 0.335775
1 0.900587 0.32253
0.353307 1 0.710674
0.35848 1 0.68687
0.361624 1 0.658244
0.39382 1 0.615869
0.573968 1 0.598718
0.760678 1 0.557977
0.924239 1 0.464027
1 1 0.407767
1 0.99353 0.394293
0 0 0.853376
0 0 0.844434
0.235569 0 0.798398
0.487007 0 0.758907
0.726131 0 0.714656
0.940993 0 0.670665
1 0 0.637095
1 0 0.617227
1 0 0.614038
0 0 0.841169
0 0 0.834302
0.240787 0 0.792111
0.492729 0 0.754604
0.72929 0 0.708858
0.941939 0 0.663355
1 0 0.629786
1 0 0.609964
1 0 0.606882
0 0.148882 0.758404
0 0.163439 0.762127
0.196002 0.170626 0.738262
0.452171 0.161166 0.707805
0.70518 0.123049 0.679805
0.940902 0.0819409 0.646418
1 0.0350042 0.627787
1 0 0.623636
1 0 0.610178
0 0.3823 0.674357
0 0.398337 0.681376
0.166293 0.394141 0.665232
0.38439 0.385473 0.632517
0.629633 0.362585 0.605035
0.881071 0.331197 0.555611
1 0.306722 0.536553
1 0.281956 0.540413
1 0.24535 0.568444
0 0.579629 0.603296
0 0.597894 0.613275
0.174212 0.59266 0.596139
0.339315 0.576471 0.566247
0.559762 0.56228 0.527382
0.82237 0.527276 0.465507
1 0.501472 0.429374
1 0.489845 0.431495
1 0.485054 0.450355
0 0.732662 0.641321
0.0839857 0.750576 0.651835
0.243153 0.741421 0.635096
0.371725 0.723018 0.607126
0.493767 0.725658 0.528298
0.760403 0.694774 0.44564
0.985992 0.664164 0.40499
1 0.647791 0.385534
1 0.644633 0.387701
0.179446 0.872694 0.683894
0.310262 0.888273 0.692973
0.381048 0.877272 0.676844
0.397543 0.874311 0.630732
0.461036 0.875807 0.546258
0.710231 0.838895 0.477378
0.930694 0.813565 0.403784
1 0.791104 0.378134
1 0.785 0.370733
0.265538 1 0.6663
0.29044 1 0.645747
0.302724 1 0.61529
0.308766 1 0.566369
0.480812 0.99968 0.536248
0.703777 0.955459 0.488533
0.894575 0.936904 0.360937
1 0.912016 0.335241
1 0.899535 0.321675
0.351904 1 0.715023
0.3579 1 0.690547
0.361379 1 0.661219
0.385534 1 0.616571
0.568017 1 0.599451
0.757473 1 0.559091
0.922637 1 0.465324
1 1 0.407858
1 0.99353 0.394293
0 0 1
0 0 1
0.189685 0 0.989013
0.455772 0 0.942687
0.701717 0 0.904341
0.923003 0 0.867262
1 0 0.836957
1 0 0.818036
1 0 0.815213
0 0 1
0 0 1
0.192706 0 0.985412
0.457725 0 0.939422
0.702815 0 0.901152
0.923644 0 0.864027
1 0 0.833661
1 0 0.814694
1 0 0.811826
0 0.0379187 0.965728
0 0.042771 0.968383
0.170626 0.0733043 0.948806
0.440864 0.0945602 0.913649
0.698222 0.0525978 0.889433
0.933425 0.00460822 0.866072
1 0 0.847318
1 0 0.832334
1 0 0.806638
0 0.332509 0.879484
0 0.340764 0.885344
0.132143 0.349966 0.877317
0.370336 0.347402 0.843656
0.621469 0.330297 0.816037
0.858442 0.300679 0.795956
1 0.271763 0.7776
1 0.241505 0.777554
1 0.195514 0.802976
0 0.554131 0.804654
0 0.567132 0.812024
0.168521 0.571099 0.79939
0.339879 0.555108 0.773159
0.550378 0.545739 0.738567
0.775448 0.524865 0.716289
0.992554 0.502693 0.67924
1 0.489265 0.669032
1 0.480461 0.685832
0 0.73994 0.75639
0 0.756725 0.767163
0.179675 0.75288 0.751858
0.31458 0.734188 0.722438
0.514168 0.7149 0.687373
0.713664 0.703609 0.65272
0.940963 0.675486 0.596658
1 0.658503 0.565789
1 0.658824 0.572808
0 0.884321 0.795911
0.137377 0.899062 0.803723
0.26746 0.886412 0.783536
0.380285 0.86421 0.752804
0.548913 0.840543 0.715007
0.691615 0.837873 0.62739
0.914122 0.814542 0.558419
1 0.794491 0.531685
1 0.791577 0.527352
0.273335 1 0.835538
0.3635 1 0.827848
0.420233 0.998169 0.806439
0.49723 0.97496 0.778241
0.538155 0.97612 0.704524
0.693431 0.957443 0.638163
0.89369 0.937011 0.539727
1 0.912734 0.522347
1 0.903105 0.512139
0.363317 1 0.732967
0.370565 1 0.707271
0.373083 1 0.675944
0.382376 1 0.624964
0.563973 1 0.60737
0.757275 1 0.568124
0.923858 1 0.4757
1 1 0.418738
1 0.995163 0.405097
0 0 1
0 0 1
0.114565 0 1
0.407187 0 1
0.673915 0 1
0.904845 0 1
1 0 1
1 0 0.987533
1 0 0.986313
0 0 1
0 0 1
0.118059 0 1
0.409262 0 1
0.674907 0 1
0.905409 0 1
1 0 1
1 0 0.985794
1 0 0.984558
0 0 1
0 0 1
0.123629 0 1
0.41912 0 1
0.688548 0 1
0.917632 0 1
1 0 0.999603
1 0 0.983291
1 0 0.982025
0 0.253178 1
0 0.251637 1
0.0701457 0.275837 1
0.348898 0.279911 1
0.619348 0.270344 1
0.86331 0.237476 0.984207
1 0.203662 0.975219
1 0.162921 0.979217
1 0.0945907 1
0 0.513619 0.984115
0 0.513008 0.98439
0.0871901 0.534783 0.989425
0.305119 0.520439 0.961913
0.539803 0.515496 0.922164
0.771145 0.497032 0.899031
0.979995 0.475624 0.886397
1 0.458427 0.880232
1 0.445579 0.895293
0 0.721492 0.922179
0 0.721157 0.922255
0.198657 0.739376 0.918532
0.330678 0.720546 0.888014
0.513985 0.702251 0.857572
0.703182 0.693889 0.825879
0.899382 0.676066 0.809949
1 0.662638 0.783536
1 0.661692 0.783444
0 0.892576 0.901473
0.00770581 0.902449 0.908598
0.194125 0.901595 0.895903
0.311757 0.87837 0.863233
0.49308 0.854551 0.826047
0.684291 0.834546 0.791485
0.848966 0.827665 0.761837
1 0.80911 0.720913
1 0.802319 0.694926
0.0425574 1 0.945602
0.194461 1 0.946838
0.299626 1 0.920134
0.407492 0.986084 0.884733
0.567727 0.958572 0.845685
0.696635 0.950256 0.781094
0.864256 0.93492 0.718715
1 0.918578 0.682429
1 0.907561 0.659251
0.3458 1 0.962341
0.401907 1 0.941436
0.457633 1 0.91722
0.554864 1 0.886915
0.649577 1 0.840055
0.7243 1 0.761044
0.896773 1 0.694606
1 1 0.638193
1 0.987015 0.624872
0 0 1
0 0 1
0 0 1
0.323735 0 1
0.630823 0 1
0.882002 0 1
1 0 1
1 0 1
1 0 1
0 0 1
0 0 1
0 0 1
0.32604 0 1
0.631937 0 1
0.882536 0 1
1 0 1
1 0 1
1 0 1
0 0 1
0 0 1
0 0 1
0.329335 0 1
0.633555 0 1
0.883314 0 1
1 0 1
1 0 1
1 0 1
0 0.0598306 1
0 0.0568093 1
0 0.074052 1
0.309468 0.119265 1
0.621653 0.130816 1
0.885969 0.0866865 1
1 0.0353857 1
1 0 1
1 0 1
0 0.447562 1
0 0.446693 1
0 0.464103 1
0.248341 0.461952 1
0.523003 0.462119 1
0.775814 0.444541 1
0.992874 0.421012 1
1 0.400015 1
1 0.379126 1
0 0.690471 1
0 0.690089 1
0.0231327 0.709651 1
0.269795 0.696559 1
0.483955 0.676875 1
0.695872 0.670604 0.976547
0.899092 0.653254 0.959747
1 0.640314 0.953094
1 0.636759 0.957397
0.0900435 0.880796 1
0.0897688 0.880613 1
0.233173 0.896819 1
0.350881 0.874861 0.989425
0.506432 0.849088 0.950011
0.67863 0.831327 0.919432
0.8392 0.824155 0.892317
0.996078 0.812406 0.880766
1 0.810605 0.86334
0.054078 1 1
0.0542306 1 1
0.216266 1 1
0.335653 1 0.9832
0.508034 0.972915 0.941115
0.684932 0.949645 0.903059
0.835554 0.937484 0.870939
0.962661 0.931899 0.853513
1 0.923919 0.832212
0.171435 1 1
0.264393 1 1
0.345815 1 1
0.464652 1 0.992508
0.611536 1 0.953765
0.762768 1 0.914702
0.862547 1 0.852735
0.988769 1 0.811032
1 1 0.796109
0 0 1
0 0 1
0 0 1
0.147707 0 1
0.550607 0 1
0.846052 0 1
1 0 1
1 0 1
1 0 1
0 0 1
0 0 1
0 0 1
0.15082 0 1
0.551736 0 1
0.846662 0 1
1 0 1
1 0 1
1 0 1
0 0 1
0 0 1
0 0 1
0.155169 0 1
0.55375 0 1
0.847532 0 1
1 0 1
1 0 1
1 0 1
0 0 1
0 0 1
0 0 1
0.163043 0 1
0.557168 0 1
0.849042 0 1
1 0 1
1 0 1
1 0 1
0 0.307179 1
0 0.305806 1
0 0.303792 1
0.124468 0.328725 1
0.491005 0.341787 1
0.793118 0.317143 1
1 0.285054 1
1 0.251148 1
1 0.203357 1
0 0.636942 1
0 0.636469 1
0 0.635782 1
0.164813 0.65507 1
0.42974 0.632044 1
0.682536 0.628183 1
0.906966 0.608942 1
1 0.59382 1
1 0.586709 1
0.0281987 0.858412 1
0.0279088 0.858228 1
0.0274968 0.857939 1
0.275257 0.866667 1
0.448493 0.834958 1
0.653452 0.813748 1
0.833326 0.80734 0.984009
0.998352 0.794614 0.971267
1 0.793057 0.965545
0.244205 1 1
0.244114 1 1
0.243977 1 1
0.391318 1 1
0.52253 0.977188 1
0.682429 0.952651 0.968673
0.826154 0.939437 0.944076
0.9552 0.93254 0.92578
1 0.927459 0.920516
0.182422 1 1
0.182422 1 1
0.252506 1 1
0.383917 1 1
0.55201 1 1
0.712871 1 0.99472
0.857588 1 0.962478
0.959274 1 0.937163
1 1 0.925582
