public/textures/grade/Canon/Licorice-CLog.cube
TITLE "Generated by Resolve"
LUT_3D_SIZE 5
0 0 0.0439918
0.355169 0 0.019913
0.80235 0 0
1 0 0
1 0 0
0 0.261692 0.193362
0.17525 0.252262 0.0964523
0.74522 0.142931 0
1 0.0463264 0
1 0 0
0 0.573373 0.394949
0.129809 0.61323 0.339376
0.565194 0.548791 0.140047
1 0.4701 0.0167086
1 0.435187 0.00798047
0.180819 0.906218 0.584405
0.244556 0.921813 0.533013
0.477867 0.866712 0.45008
0.923964 0.808133 0.2645
1 0.773632 0.217533
0.354818 1 0.705974
0.361929 1 0.654841
0.580682 1 0.597894
0.926055 1 0.462531
1 0.99353 0.394293
0 0 0.435874
0.297719 0 0.372122
0.779782 0 0.25069
1 0 0.196063
1 0 0.187823
0 0.25185 0.303349
0.224918 0.247807 0.255833
0.770916 0.164858 0.167987
1 0.089662 0.156909
1 0 0.168841
0 0.573312 0.409171
0.173556 0.608576 0.374975
0.577371 0.555413 0.197238
1 0.479026 0.108843
1 0.446052 0.102373
0.17116 0.900694 0.583993
0.243549 0.920974 0.534585
0.474372 0.866026 0.449729
0.92314 0.806989 0.263767
1 0.772351 0.216495
0.354101 1 0.708278
0.36173 1 0.656474
0.577371 1 0.598306
0.925155 1 0.463279
1 0.99353 0.394293
0 0 0.853376
0.235569 0 0.798398
0.726131 0 0.714656
1 0 0.637095
1 0 0.614038
0 0.148882 0.758404
0.196002 0.170626 0.738262
0.70518 0.123049 0.679805
1 0.0350042 0.627787
1 0 0.610178
0 0.579629 0.603296
0.174212 0.59266 0.596139
0.559762 0.56228 0.527382
1 0.501472 0.429374
1 0.485054 0.450355
0.179446 0.872694 0.683894
0.381048 0.877272 0.676844
0.461036 0.875807 0.546258
0.930694 0.813565 0.403784
1 0.785 0.370733
0.351904 1 0.715023
0.361379 1 0.661219
0.568017 1 0.599451
0.922637 1 0.465324
1 0.99353 0.394293
0 0 1
0.114565 0 1
0.673915 0 1
1 0 1
1 0 0.986313
0 0 1
0.123629 0 1
0.688548 0 1
1 0 0.999603
1 0 0.982025
0 0.513619 0.984115
0.0871901 0.534783 0.989425
0.539803 0.515496 0.922164
0.979995 0.475624 0.886397
1 0.445579 0.895293
0 0.892576 0.901473
0.194125 0.901595 0.895903
0.49308 0.854551 0.826047
0.848966 0.827665 0.761837
1 0.802319 0.694926
0.3458 1 0.962341
0.457633 1 0.91722
0.649577 1 0.840055
0.896773 1 0.694606
1 0.987015 0.624872
0 0 1
0 0 1
0.550607 0 1
1 0 1
1 0 1
0 0 1
0 0 1
0.55375 0 1
1 0 1
1 0 1
0 0.307179 1
0 0.303792 1
0.491005 0.341787 1
1 0.285054 1
1 0.203357 1
0.0281987 0.858412 1
0.0274968 0.857939 1
0.448493 0.834958 1
0.833326 0.80734 0.984009
1 0.793057 0.965545
0.182422 1 1
0.252506 1 1
0.55201 1 1
0.857588 1 0.962478
1 1 0.925582
