public/textures/grade/Canon/Licorice-CLog.cube
TITLE "Generated by Resolve"
LUT_3D_SIZE 33
0 0 0.0439918
0 0 0.0439918
0 0 0.0346838
0.0325322 0 0.0339055
0.0864881 0 0.0359045
0.14725 0 0.0371557
0.216419 0 0.0336156
0.287648 0 0.0264439
0.355169 0 0.019913
0.417105 0 0.0135653
0.475532 0 0.00703441
0.532555 0 0.000610361
0.588922 0 0
0.644114 0 0
0.697917 0 0
0.750744 0 0
0.80235 0 0
0.852384 0 0
0.900816 0 0
0.947829 0 0
0.993622 0 0
1 0 0
1 0 0
1 0 0
1 0 0
1 0 0
1 0 0
1 0 0
1 0 0
1 0 0
1 0 0
1 0 0
1 0 0
0 0 0.0438087
0 0 0.0439918
0 0 0.0345006
0.0338598 0 0.0339361
0.0878004 0 0.0359503
0.148562 0 0.0371405
0.2177 0 0.0334783
0.288731 0 0.0263371
0.356039 0 0.0198367
0.417639 0 0.0135042
0.476127 0 0.00697337
0.533059 0 0.000564584
0.589349 0 0
0.644404 0 0
0.698238 0 0
0.751003 0 0
0.802579 0 0
0.852598 0 0
0.900954 0 0
0.947967 0 0
0.993729 0 0
1 0 0
1 0 0
1 0 0
1 0 0
1 0 0
1 0 0
1 0 0
1 0 0
1 0 0
1 0 0
1 0 0
1 0 0
0 0.0231174 0.0372168
0 0.0222477 0.037232
0 0.0204166 0.0310063
0.0194858 0.0167849 0.0286412
0.0725872 0.00802625 0.0328832
0.133654 0 0.0375525
0.203647 0 0.0374609
0.27808 0 0.0306706
0.349584 0 0.0239719
0.414755 0 0.0174563
0.474861 0 0.010605
0.533303 0 0.00415045
0.590768 0 0
0.646296 0 0
0.700801 0 0
0.753948 0 0
0.805493 0 0
0.8551 0 0
0.902647 0 0
0.948409 0 0
0.993835 0 0
1 0 0
1 0 0
1 0 0
1 0 0
1 0 0
1 0 0
1 0 0
1 0 0
1 0 0
1 0 0
1 0 0
1 0 0
0 0.0616007 0.0580911
0 0.0608988 0.0574502
0 0.060502 0.0502785
0 0.0574655 0.0440375
0.0432288 0.0555886 0.0371252
0.106813 0.0462348 0.0362249
0.175097 0.0342412 0.0375372
0.252369 0.0185702 0.0328527
0.329458 0.0027924 0.0264286
0.400443 0 0.0201877
0.46508 0 0.0133669
0.525154 0 0.00613413
0.584436 0 0
0.641367 0 0
0.698711 0 0
0.753475 0 0
0.806714 0 0
0.858335 0 0
0.907515 0 0
0.955108 0 0
1 0 0
1 0 0
1 0 0
1 0 0
1 0 0
1 0 0
1 0 0
1 0 0
1 0 0
1 0 0
1 0 0
1 0 0
1 0 0
0 0.102266 0.092607
0 0.101793 0.0919051
0 0.103029 0.0847181
0 0.101076 0.0754253
0.0165408 0.0976577 0.0671855
0.0713359 0.0944076 0.0485084
0.144152 0.082475 0.0426947
0.222675 0.066453 0.0363317
0.302174 0.0504768 0.0285801
0.377127 0.035874 0.0220951
0.446723 0.0225223 0.015671
0.510811 0.00988785 0.00909438
0.573373 0 0.00294499
0.632792 0 0
0.69131 0 0
0.747692 0 0
0.801724 0 0
0.854246 0 0
0.905119 0 0
0.954223 0 0
1 0 0
1 0 0
1 0 0
1 0 0
1 0 0
1 0 0
1 0 0
1 0 0
1 0 0
1 0 0
1 0 0
1 0 0
1 0 0
0 0.143908 0.126848
0 0.143709 0.126421
0 0.147036 0.123033
0 0.146593 0.115282
0 0.144213 0.105516
0.0398413 0.140093 0.0864118
0.10721 0.132601 0.058381
0.189471 0.118181 0.0427558
0.271382 0.100404 0.0315251
0.34934 0.0833906 0.0234836
0.422889 0.0680095 0.0166934
0.490364 0.0551003 0.0100557
0.555611 0.042649 0.00390631
0.61767 0.0304265 0
0.678508 0.0184787 0
0.73698 0.00639353 0
0.793591 0 0
0.84831 0 0
0.900725 0 0
0.951553 0 0
1 0 0
1 0 0
1 0 0
1 0 0
1 0 0
1 0 0
1 0 0
1 0 0
1 0 0
1 0 0
1 0 0
1 0 0
1 0 0
0 0.183459 0.150286
0 0.18378 0.150546
0 0.189487 0.15314
0 0.190555 0.149096
0 0.189258 0.140948
0.0193332 0.18471 0.127031
0.0675975 0.182879 0.086305
0.153628 0.169711 0.0544594
0.238651 0.153841 0.0392462
0.31899 0.136507 0.0271153
0.395026 0.11986 0.0178225
0.465888 0.105104 0.0102388
0.533379 0.0906691 0.00326543
0.598001 0.0764019 0
0.661082 0.0635538 0
0.721675 0.0517586 0
0.780331 0.0402533 0
0.836698 0.0290074 0
0.890639 0.0175021 0
0.942962 0.0061799 0
0.993927 0 0
1 0 0
1 0 0
1 0 0
1 0 0
1 0 0
1 0 0
1 0 0
1 0 0
1 0 0
1 0 0
1 0 0
1 0 0
0 0.222446 0.170977
0 0.223148 0.17145
0 0.229419 0.174487
0 0.231144 0.172519
0 0.230762 0.167117
0.0117342 0.227558 0.156313
0.0502174 0.228092 0.120989
0.12491 0.216434 0.0923781
0.20206 0.206653 0.0508888
0.286656 0.19028 0.0365606
0.36553 0.173495 0.0230716
0.438727 0.157824 0.0125124
0.509407 0.143221 0.00418097
0.576226 0.129274 0
0.641245 0.115938 0
0.703288 0.102815 0
0.763668 0.0899825 0
0.821591 0.076463 0
0.877317 0.0643626 0
0.930694 0.0525216 0
0.982956 0.041474 0
1 0.030808 0
1 0.0192874 0
1 0.00779736 0
1 0 0
1 0 0
1 0 0
1 0 0
1 0 0
1 0 0
1 0 0
1 0 0
1 0 0
0 0.261692 0.193362
0 0.262943 0.194202
0 0.269062 0.196872
0 0.271275 0.195682
0 0.271321 0.191424
0.0138247 0.269032 0.183215
0.0484932 0.270268 0.156176
0.0956588 0.266728 0.119539
0.17525 0.252262 0.0964523
0.251698 0.243412 0.0509957
0.334356 0.2271 0.0349889
0.410864 0.211215 0.0202945
0.483864 0.19617 0.0087129
0.552728 0.181857 0
0.619486 0.168368 0
0.683619 0.155505 0
0.74522 0.142931 0
0.80441 0.131212 0
0.861234 0.119432 0
0.916472 0.107607 0
0.969833 0.0957504 0
1 0.0831922 0
1 0.0704814 0
1 0.0584726 0
1 0.0463264 0
1 0.0343481 0
1 0.0225223 0
1 0.00965896 0
1 0 0
1 0 0
1 0 0
1 0 0
1 0 0
0 0.300847 0.216709
0 0.30251 0.217746
0 0.308904 0.220691
0 0.311589 0.220096
0 0.311894 0.216709
0.0212558 0.310323 0.210254
0.0490272 0.312749 0.186938
0.0625772 0.316106 0.144488
0.149645 0.30132 0.130739
0.224155 0.289433 0.0993668
0.300221 0.280201 0.0525673
0.381476 0.264485 0.0352789
0.457496 0.249119 0.0194095
0.528344 0.234485 0.00654612
0.597055 0.220813 0
0.662608 0.207645 0
0.725826 0.195331 0
0.786084 0.18381 0
0.843915 0.172519 0
0.900389 0.161761 0
0.954833 0.151202 0
1 0.140414 0
1 0.129854 0
1 0.118654 0
1 0.107576 0
1 0.0955825 0
1 0.082414 0
1 0.0678721 0
1 0.0534981 0
1 0.0388495 0
1 0.0231327 0
1 0.00598154 0
1 0 0
0 0.339788 0.240574
0 0.341848 0.24184
0 0.348898 0.245441
0 0.351888 0.24535
0 0.352728 0.242817
0.032639 0.351995 0.237415
0.0518349 0.355795 0.215763
0.0658427 0.358602 0.182559
0.125689 0.350729 0.158648
0.200198 0.336477 0.141329
0.273121 0.327062 0.100938
0.349828 0.317098 0.0563668
0.429068 0.301869 0.0376135
0.503578 0.287083 0.0205997
0.573861 0.272999 0.00660716
0.640833 0.259525 0
0.705379 0.247303 0
0.766674 0.235599 0
0.8262 0.224796 0
0.883268 0.214099 0
0.938613 0.204135 0
0.991409 0.194141 0
1 0.184848 0
1 0.175097 0
1 0.165957 0
1 0.156222 0
1 0.145861 0
1 0.135195 0
1 0.123568 0
1 0.110613 0
1 0.0958114 0
1 0.0778058 0
1 0.057023 0
0 0.3785 0.265003
0 0.381506 0.266972
0 0.389059 0.271061
0 0.392142 0.27126
0 0.39324 0.269291
0.0375067 0.394522 0.261616
0.0563821 0.39823 0.242924
0.0708171 0.401083 0.216114
0.101946 0.399161 0.184833
0.177829 0.385489 0.173175
0.250553 0.372503 0.151324
0.322255 0.364584 0.10042
0.398703 0.354116 0.0624247
0.47631 0.339483 0.0422522
0.549386 0.325109 0.0238499
0.618616 0.311772 0.00895705
0.684184 0.298848 0
0.747112 0.287236 0
0.807355 0.275975 0
0.865431 0.265431 0
0.921553 0.255695 0
0.974701 0.246281 0
1 0.237507 0
1 0.228626 0
1 0.220523 0
1 0.212253 0
1 0.20351 0
1 0.195071 0
1 0.186206 0
1 0.176226 0
1 0.165866 0
1 0.154238 0
1 0.139849 0
0 0.417517 0.290227
0 0.421469 0.292882
0 0.429236 0.297215
0 0.432731 0.297932
0.0147097 0.434073 0.296407
0.0444495 0.4374 0.286015
0.0630655 0.441123 0.269795
0.0776989 0.443854 0.247059
0.0877241 0.445319 0.214633
0.156512 0.434348 0.201251
0.228611 0.42031 0.187381
0.300526 0.409094 0.160037
0.370611 0.402777 0.100389
0.447211 0.390784 0.0702525
0.52372 0.376806 0.0492103
0.595422 0.363027 0.0298314
0.663371 0.350286 0.014023
0.726848 0.338201 0.0010071
0.788098 0.326726 0
0.84686 0.316548 0
0.90338 0.306508 0
0.958083 0.297475 0
1 0.28867 0
1 0.28069 0
1 0.272908 0
1 0.265461 0
1 0.257893 0
1 0.250782 0
1 0.243717 0
1 0.235767 0
1 0.228153 0
1 0.219944 0
1 0.210025 0
0 0.456306 0.31577
0 0.461265 0.319142
0 0.469551 0.323964
0 0.472969 0.324742
0.0319219 0.47567 0.321401
0.0536355 0.479957 0.310277
0.0719463 0.483497 0.29572
0.0866712 0.486091 0.275975
0.0965896 0.487511 0.248966
0.139971 0.482033 0.228092
0.20824 0.468772 0.217731
0.280262 0.455268 0.2009
0.349996 0.445975 0.167803
0.419303 0.440436 0.103822
0.495399 0.427527 0.080766
0.570169 0.414221 0.0588235
0.640284 0.401007 0.0384833
0.706096 0.388998 0.021973
0.768582 0.377508 0.00807202
0.828199 0.366674 0
0.885878 0.356909 0
0.940749 0.347494 0
0.99324 0.33933 0
1 0.331197 0
1 0.324025 0
1 0.316762 0
1 0.310369 0
1 0.303792 0
1 0.297871 0
1 0.291447 0
1 0.285603 0
1 0.279622 0
1 0.272145 0
0 0.49546 0.341955
0 0.501778 0.346303
0 0.509834 0.350988
0.0167849 0.513573 0.352148
0.0439612 0.518578 0.344915
0.0650797 0.522713 0.334691
0.0832532 0.526009 0.321386
0.0970626 0.528511 0.304006
0.106752 0.529946 0.280964
0.123156 0.528542 0.254063
0.190112 0.516838 0.245701
0.260533 0.502907 0.233951
0.330587 0.4907 0.213672
0.399725 0.482765 0.173816
0.468315 0.477073 0.113878
0.543832 0.463951 0.0937667
0.616678 0.451209 0.0712291
0.684123 0.438926 0.0503853
0.748562 0.427512 0.032929
0.8094 0.416587 0.0182498
0.867338 0.406394 0.0061799
0.923247 0.397314 0
0.976303 0.388586 0
1 0.380926 0
1 0.373724 0
1 0.367163 0
1 0.360678 0
1 0.355077 0
1 0.349599 0
1 0.344518 0
1 0.339666 0
1 0.335164 0
1 0.329854 0
0 0.5346 0.36846
0 0.54197 0.37351
0 0.550301 0.378454
0.0340734 0.555703 0.375448
0.0578012 0.56083 0.368215
0.0784772 0.564828 0.358679
0.0956588 0.567956 0.346502
0.108461 0.570367 0.330983
0.117952 0.571954 0.310994
0.124193 0.57203 0.284886
0.175937 0.563241 0.272236
0.241978 0.550576 0.263325
0.312367 0.537041 0.249683
0.381231 0.52607 0.224811
0.449042 0.519539 0.178744
0.517021 0.513268 0.125185
0.590784 0.500328 0.107912
0.661326 0.488289 0.0869154
0.727642 0.476402 0.0650797
0.790311 0.465339 0.0467689
0.8495 0.455329 0.031693
0.905379 0.445884 0.0190127
0.95935 0.437476 0.00924697
1 0.429465 0.00117494
1 0.422538 0
1 0.415763 0
1 0.409888 0
1 0.404517 0
1 0.399588 0
1 0.395087 0
1 0.391028 0
1 0.387717 0
1 0.38381 0
0 0.573373 0.394949
0 0.582635 0.401358
0.024979 0.591714 0.403388
0.0517739 0.598352 0.398505
0.0747234 0.603174 0.391592
0.0943923 0.606958 0.382757
0.109483 0.609888 0.371527
0.121096 0.612039 0.357427
0.129809 0.61323 0.339376
0.136324 0.613657 0.316899
0.166171 0.608606 0.298283
0.226062 0.596857 0.290425
0.294972 0.583597 0.280537
0.364401 0.570871 0.264088
0.431556 0.561379 0.234455
0.497826 0.55613 0.182727
0.565194 0.548791 0.140047
0.637034 0.536339 0.123064
0.705562 0.524849 0.103456
0.769833 0.513603 0.0829328
0.831006 0.50341 0.0641337
0.888411 0.493706 0.0482795
0.942565 0.484901 0.0352483
0.994018 0.477424 0.0251316
1 0.4701 0.0167086
1 0.463706 0.0105287
1 0.457618 0.00556954
1 0.452415 0.00250248
1 0.448066 0.000869764
1 0.443839 0.000427253
1 0.440635 0.00190738
1 0.437842 0.00436408
1 0.435187 0.00798047
0 0.6121 0.421653
0.00898756 0.623011 0.428641
0.04654 0.634318 0.426078
0.071931 0.640269 0.42121
0.0935988 0.644709 0.414618
0.110719 0.648341 0.406287
0.124254 0.65124 0.395926
0.134752 0.653193 0.382971
0.142855 0.654307 0.366918
0.148775 0.654322 0.346654
0.158129 0.652766 0.32372
0.214649 0.642069 0.31667
0.279271 0.629129 0.308339
0.348547 0.616037 0.296834
0.415976 0.604578 0.277043
0.480949 0.596613 0.242985
0.546014 0.592355 0.185809
0.613306 0.583642 0.155138
0.682658 0.571847 0.138842
0.748943 0.560983 0.120699
0.811185 0.550362 0.102007
0.870359 0.54081 0.0844892
0.925765 0.531762 0.06804
0.977874 0.523674 0.0548409
1 0.516686 0.0444495
1 0.510048 0.0356909
1 0.504479 0.0292973
1 0.499214 0.0244297
1 0.494682 0.0212863
1 0.491035 0.0200198
1 0.488045 0.0200046
1 0.485832 0.0220188
1 0.48394 0.0247349
0 0.650828 0.448554
0.0345006 0.666239 0.451469
0.0702678 0.676326 0.448478
0.0944228 0.682033 0.44387
0.11281 0.686152 0.437537
0.127413 0.689387 0.429603
0.139284 0.691798 0.419791
0.148898 0.693614 0.407752
0.156588 0.694759 0.39324
0.162188 0.694652 0.375006
0.16614 0.693446 0.352987
0.207431 0.685649 0.342061
0.267369 0.673594 0.334737
0.334035 0.660319 0.325612
0.40174 0.648142 0.311925
0.467384 0.637995 0.288212
0.53109 0.631266 0.248981
0.594339 0.627787 0.188754
0.660685 0.617884 0.170565
0.727764 0.606928 0.155215
0.791516 0.59649 0.138247
0.851606 0.586542 0.121263
0.908629 0.577691 0.105653
0.961624 0.569421 0.0911116
1 0.56199 0.0777295
1 0.555383 0.0667887
1 0.549416 0.0579385
1 0.544701 0.0516823
1 0.540291 0.0469368
1 0.536522 0.0439307
1 0.533913 0.0432288
1 0.532006 0.0438697
1 0.530312 0.045716
0.0171817 0.692363 0.472282
0.0631266 0.708934 0.473976
0.0967575 0.718273 0.470863
0.116487 0.7234 0.4663
0.132006 0.727169 0.460227
0.144717 0.730007 0.452598
0.155108 0.732128 0.44329
0.163592 0.733577 0.43209
0.170428 0.734234 0.418433
0.175937 0.734462 0.402274
0.179751 0.733166 0.382284
0.203296 0.727733 0.366598
0.258335 0.716915 0.360128
0.321569 0.70425 0.352575
0.388464 0.691096 0.341909
0.454688 0.67985 0.325216
0.518303 0.671138 0.297398
0.580331 0.665614 0.253605
0.64181 0.661692 0.201755
0.707622 0.651408 0.18613
0.772335 0.641138 0.171618
0.833204 0.631251 0.15584
0.890822 0.622034 0.140475
0.945281 0.614008 0.126726
0.996796 0.606271 0.113649
1 0.599649 0.102388
1 0.593545 0.0922866
1 0.588296 0.0838483
1 0.584237 0.0775616
1 0.580774 0.0730144
1 0.578012 0.0705882
1 0.576501 0.0706493
1 0.575128 0.071519
0.0492714 0.736019 0.495583
0.0950332 0.751553 0.496406
0.12137 0.759396 0.492836
0.137636 0.763851 0.488182
0.150774 0.767178 0.482292
0.161746 0.76965 0.474952
0.171237 0.771756 0.466209
0.178851 0.772976 0.455711
0.185016 0.77348 0.443168
0.189776 0.773114 0.427939
0.193668 0.772091 0.41001
0.202029 0.768795 0.390677
0.251713 0.758663 0.384543
0.312291 0.746807 0.378027
0.377462 0.73373 0.369467
0.443122 0.721294 0.356725
0.507057 0.711269 0.336583
0.568566 0.703883 0.304616
0.628992 0.699611 0.256825
0.68867 0.694774 0.214542
0.753201 0.684367 0.201709
0.815549 0.674662 0.188037
0.873884 0.665385 0.173602
0.928725 0.656947 0.159777
0.981155 0.64947 0.147173
1 0.64239 0.135515
1 0.636347 0.125566
1 0.631144 0.117144
1 0.626627 0.110124
1 0.623285 0.10518
1 0.620645 0.101686
1 0.619043 0.100313
1 0.617945 0.100587
0.0849622 0.779171 0.518547
0.12401 0.793256 0.518257
0.145251 0.800198 0.514534
0.158724 0.804044 0.50988
0.169879 0.806912 0.504112
0.179355 0.808988 0.496986
0.18735 0.810452 0.488563
0.194034 0.811322 0.478538
0.199802 0.811917 0.466896
0.20415 0.811383 0.452796
0.207477 0.810025 0.436286
0.210132 0.807874 0.41706
0.249042 0.799207 0.408392
0.305348 0.787655 0.402152
0.368551 0.775204 0.395056
0.433295 0.762432 0.385
0.496849 0.751064 0.36965
0.558694 0.742397 0.345922
0.618082 0.736248 0.310063
0.676738 0.732952 0.25864
0.735271 0.726711 0.228305
0.79765 0.716548 0.217197
0.856886 0.707652 0.204608
0.912902 0.699016 0.191363
0.96614 0.691234 0.178836
1 0.684077 0.167224
1 0.677836 0.156939
1 0.67245 0.148165
1 0.667994 0.141085
1 0.664317 0.135515
1 0.661585 0.131731
1 0.660182 0.13019
1 0.659266 0.129946
0.119554 0.822049 0.541131
0.150774 0.834272 0.539666
0.16788 0.84004 0.535637
0.178973 0.84329 0.531014
0.188373 0.845594 0.525216
0.196582 0.847395 0.518395
0.203784 0.848814 0.510475
0.209674 0.849348 0.500877
0.214527 0.849287 0.489632
0.218677 0.84892 0.476814
0.221653 0.847333 0.461372
0.223819 0.8448 0.443427
0.249149 0.838422 0.431586
0.301839 0.827512 0.425727
0.361852 0.815183 0.419181
0.425498 0.80267 0.411048
0.488746 0.790539 0.398901
0.550072 0.780484 0.380606
0.60943 0.773083 0.353185
0.666789 0.768093 0.313726
0.723613 0.76553 0.258946
0.781445 0.75758 0.243488
0.840482 0.74815 0.232761
0.897414 0.739696 0.220859
0.951003 0.73167 0.208728
1 0.724346 0.197299
1 0.718166 0.187396
1 0.712383 0.178378
1 0.707637 0.171069
1 0.704097 0.165576
1 0.701366 0.161639
1 0.699733 0.159594
1 0.699107 0.159411
0.151369 0.864424 0.563134
0.176104 0.87451 0.56054
0.189685 0.879072 0.556207
0.199008 0.881773 0.551583
0.207202 0.883864 0.546059
0.214084 0.8851 0.53933
0.22002 0.885801 0.53135
0.22536 0.886366 0.522438
0.229679 0.886107 0.511818
0.233127 0.885161 0.499443
0.236027 0.883726 0.485222
0.237919 0.881056 0.468513
0.251575 0.875822 0.453758
0.301335 0.865736 0.448417
0.358694 0.85391 0.442451
0.420172 0.841306 0.435233
0.482948 0.82919 0.425483
0.543801 0.818143 0.410788
0.602777 0.80943 0.389136
0.659617 0.803143 0.358022
0.714946 0.799115 0.315175
0.769284 0.795926 0.271443
0.826062 0.787732 0.258656
0.882734 0.778775 0.248341
0.936843 0.77084 0.237476
0.987762 0.763348 0.226581
1 0.756771 0.216709
1 0.751217 0.208209
1 0.746334 0.200916
1 0.742321 0.195102
1 0.73959 0.191241
1 0.737835 0.188998
1 0.737102 0.188434
0.180819 0.906218 0.584405
0.200076 0.914107 0.580957
0.211109 0.917662 0.576379
0.218723 0.919631 0.571694
0.225315 0.921019 0.566079
0.231189 0.92192 0.559564
0.236591 0.922576 0.552102
0.240909 0.922438 0.543175
0.244556 0.921813 0.533013
0.247807 0.920974 0.521553
0.250141 0.919081 0.508064
0.25185 0.91635 0.492515
0.256062 0.912703 0.475776
0.30248 0.902739 0.470451
0.357382 0.891569 0.465019
0.416693 0.879194 0.458488
0.477867 0.866712 0.45008
0.539071 0.855283 0.438178
0.597238 0.845502 0.420768
0.653864 0.838026 0.395895
0.708553 0.832731 0.36144
0.761929 0.829343 0.315541
0.814466 0.82501 0.283986
0.870237 0.816419 0.274037
0.923964 0.808133 0.2645
0.975265 0.800809 0.25481
1 0.794125 0.245472
1 0.788159 0.236957
1 0.783398 0.230121
1 0.779339 0.22446
1 0.776303 0.220401
1 0.77435 0.218036
1 0.773632 0.217533
0.207935 0.946746 0.604913
0.222705 0.95256 0.60061
0.231647 0.955184 0.595911
0.237766 0.956527 0.591073
0.243366 0.957504 0.585657
0.248356 0.95816 0.579309
0.252689 0.95819 0.571893
0.256458 0.957763 0.563378
0.25977 0.957153 0.553735
0.262287 0.955673 0.542535
0.264469 0.953811 0.5299
0.265888 0.950881 0.515267
0.267094 0.947188 0.498527
0.306981 0.938491 0.49189
0.359213 0.927382 0.486549
0.416846 0.915404 0.48072
0.476616 0.902922 0.473304
0.536294 0.890837 0.46305
0.594659 0.880491 0.448722
0.650584 0.871839 0.428153
0.704555 0.865385 0.399878
0.757397 0.86125 0.362493
0.808438 0.858534 0.314321
0.859129 0.852552 0.297536
0.912566 0.844083 0.290074
0.963195 0.836393 0.281468
1 0.829694 0.273075
1 0.823758 0.265278
1 0.81857 0.258442
1 0.814298 0.252872
1 0.811322 0.249104
1 0.809445 0.246815
1 0.808438 0.246006
0.233265 0.985916 0.624567
0.24448 0.989929 0.619608
0.251438 0.99173 0.614633
0.256565 0.992569 0.609949
0.261219 0.993286 0.604562
0.265263 0.993255 0.59823
0.268772 0.992935 0.590982
0.272068 0.992416 0.582895
0.274708 0.99118 0.573465
0.277028 0.98967 0.56286
0.278767 0.987289 0.550713
0.280003 0.984054 0.536843
0.281346 0.98027 0.520928
0.314382 0.972 0.512383
0.364965 0.961273 0.507439
0.420676 0.949386 0.5019
0.478874 0.93695 0.495171
0.537926 0.924956 0.486397
0.595117 0.913802 0.47393
0.650477 0.904463 0.45655
0.703807 0.897154 0.432837
0.755306 0.891798 0.401389
0.805692 0.888533 0.361486
0.853864 0.885222 0.324208
0.903517 0.878126 0.313787
0.95349 0.870527 0.306981
1 0.863554 0.299458
1 0.857343 0.292195
1 0.852323 0.286091
1 0.84802 0.280873
1 0.844602 0.276844
1 0.842313 0.274311
1 0.841245 0.273365
0.256962 1 0.643473
0.26537 1 0.637949
0.270817 1 0.632853
0.274754 1 0.628
0.278645 1 0.622736
0.28191 1 0.616464
0.2851 1 0.609491
0.287617 1 0.601389
0.289921 1 0.592309
