public/textures/grade/Canon/Licorice-CLog3.cube
TITLE "Generated by Resolve"
LUT_3D_SIZE 5
0 0 0.0439918
0.274968 0 0.0276646
0.84181 0 0
1 0 0
1 0 0
0 0.219379 0.169299
0.116411 0.213581 0.0929122
0.812024 0.072755 0
1 0 0
1 0 0
0 0.604257 0.416236
0.13051 0.644175 0.379263
0.604166 0.576501 0.152071
1 0.49192 0.0221103
1 0.442832 0.0100252
0.196887 0.966247 0.625803
0.272923 0.991867 0.579736
0.530373 0.926452 0.487678
1 0.863676 0.299474
1 0.83975 0.27216
0.358465 1 0.686976
0.365362 1 0.636728
0.651804 1 0.586801
1 1 0.416556
1 0.99353 0.394293
0 0 0.386099
0.227298 0 0.337102
0.826322 0 0.193439
1 0 0.147066
1 0 0.148104
0 0.204334 0.259617
0.173342 0.19884 0.215579
0.829801 0.0937667 0.126879
1 0 0.112871
1 0 0.0959029
0 0.600778 0.413855
0.126925 0.640101 0.380468
0.601556 0.572946 0.150134
1 0.487495 0.0198367
1 0.437751 0.00859083
0.190448 0.961593 0.624216
0.271931 0.991379 0.58143
0.527169 0.926421 0.487739
1 0.863172 0.299077
1 0.839124 0.271626
0.358083 1 0.689128
0.364904 1 0.638605
0.649256 1 0.587274
1 1 0.416648
1 0.99353 0.394293
0 0 0.890867
0.145937 0 0.853239
0.766064 0 0.745968
1 0 0.666575
1 0 0.655909
0 0.0393378 0.824704
0.1308 0.0654002 0.810285
0.770336 0.00979629 0.732998
1 0 0.665599
1 0 0.641184
0 0.611765 0.63415
0.134218 0.628809 0.635035
0.591318 0.591424 0.553857
1 0.52723 0.455573
1 0.494545 0.486519
0.288243 0.944762 0.692607
0.353735 0.967773 0.659556
0.52076 0.934646 0.536629
1 0.868025 0.375494
1 0.846128 0.352697
0.356863 1 0.697078
0.363607 1 0.645197
0.640589 1 0.588876
1 1 0.416938
1 0.99353 0.394293
0 0 1
0 0 1
0.695827 0 1
1 0 1
1 0 1
0 0 1
0 0 1
0.698177 0 1
1 0 1
1 0 1
0 0.519646 1
0 0.518532 1
0.56286 0.52311 0.984955
1 0.472877 0.951965
1 0.406897 0.985092
0.00663767 0.968338 0.973602
0.153903 0.980453 0.977096
0.52932 0.914794 0.882536
0.911528 0.885023 0.812284
1 0.867781 0.769177
0.316732 1 0.991928
0.444572 1 0.942184
0.689174 1 0.860731
0.973571 1 0.684855
1 0.987106 0.659937
0 0 1
0 0 1
0.472557 0 1
1 0 1
1 0 1
0 0 1
0 0 1
0.47689 0 1
1 0 1
1 0 1
0 0 1
0 0 1
0.488014 0.0813306 1
1 0 1
1 0 1
0.14583 0.940505 1
0.14551 0.940261 1
0.446754 0.911696 1
0.896544 0.869963 0.950607
1 0.859251 0.938827
0.182452 1 1
0.182467 1 1
0.558297 1 1
0.907607 1 0.944381
1 1 0.925582
