public/textures/grade/Canon/Licorice-CLog3.cube
TITLE "Generated by Resolve"
LUT_3D_SIZE 9
0 0 0.0439918
0.00239567 0 0.0337835
0.274968 0 0.0276646
0.573053 0 0
0.84181 0 0
1 0 0
1 0 0
1 0 0
1 0 0
0 0.0460517 0.0471046
0 0.0408484 0.0360113
0.255009 0 0.0332341
0.573205 0 0.00122072
0.847303 0 0
1 0 0
1 0 0
1 0 0
1 0 0
0 0.219379 0.169299
0 0.226368 0.171679
0.116411 0.213581 0.0929122
0.493721 0.141176 0.00595102
0.812024 0.072755 0
1 0.0133364 0
1 0 0
1 0 0
1 0 0
0 0.407843 0.283925
0 0.420829 0.291066
0.0736858 0.432456 0.243091
0.357168 0.393332 0.102098
0.719493 0.327596 0
0.999466 0.276661 0
1 0.235096 0
1 0.180682 0
1 0.0725109 0
0 0.604257 0.416236
0.0552529 0.628611 0.418952
0.13051 0.644175 0.379263
0.264805 0.623255 0.305226
0.604166 0.576501 0.152071
0.912795 0.524742 0.0651408
1 0.49192 0.0221103
1 0.468864 0.0112154
1 0.442832 0.0100252
0.082414 0.797024 0.531243
0.168841 0.829221 0.525414
0.204379 0.836851 0.493858
0.238285 0.827771 0.425254
0.540368 0.769741 0.374487
0.827451 0.738033 0.22771
1 0.704479 0.176791
1 0.686702 0.151247
1 0.677211 0.143069
0.196887 0.966247 0.625803
0.258137 0.992508 0.607858
0.272923 0.991867 0.579736
0.281132 0.980301 0.521767
0.530373 0.926452 0.487678
0.791089 0.88957 0.374456
1 0.863676 0.299474
1 0.84622 0.278706
1 0.83975 0.27216
0.309117 1 0.684779
0.322957 1 0.655055
0.328267 1 0.629114
0.34699 1 0.579736
0.579278 1 0.555276
0.809964 0.982956 0.479377
0.989197 0.96553 0.377707
1 0.94754 0.361959
1 0.941085 0.354757
0.358465 1 0.686976
0.361395 1 0.660929
0.365362 1 0.636728
0.455894 1 0.610544
0.651804 1 0.586801
0.846525 1 0.518044
1 1 0.416556
1 1 0.401465
1 0.99353 0.394293
0 0 0.154604
0 0 0.143465
0.264485 0 0.090898
0.571603 0 0.0457465
0.840543 0 0.0292668
1 0 0.0157778
1 0 0.00810254
1 0 0.00753796
1 0 0.0116884
0 0.0293126 0.0859693
0 0.0238804 0.075227
0.258854 0 0.0565805
0.575662 0 0.0273594
0.845701 0 0.00222782
1 0 0
1 0 0
1 0 0
1 0 0
0 0.212024 0.165484
0 0.218021 0.167971
0.111757 0.205646 0.0906539
0.494636 0.131975 0.00674449
0.813413 0.0630961 0
1 0.00425727 0
1 0 0
1 0 0
1 0 0
0 0.40412 0.281483
0 0.416236 0.28838
0.0716411 0.428229 0.243732
0.355306 0.389258 0.098497
0.719203 0.322957 0
1 0.271855 0
1 0.229709 0
1 0.173846 0
1 0.061738 0
0 0.602609 0.415106
0.0487068 0.625422 0.419028
0.128939 0.642359 0.380041
0.261219 0.621927 0.304509
0.602945 0.574701 0.15111
0.912886 0.522637 0.0636454
1 0.489708 0.0209812
1 0.466529 0.0102846
1 0.440208 0.00920119
0.0820172 0.796338 0.530846
0.165774 0.827573 0.525979
0.203326 0.835889 0.49456
0.235355 0.827543 0.425116
0.538827 0.769253 0.374502
0.827054 0.73727 0.227268
1 0.703731 0.176272
1 0.685847 0.150607
1 0.67631 0.142397
0.191928 0.962783 0.624689
0.256992 0.991974 0.608713
0.272435 0.991623 0.580575
0.280858 0.98024 0.522637
0.528939 0.92639 0.487663
0.790433 0.889326 0.37464
1 0.863432 0.299275
1 0.84596 0.278508
1 0.839445 0.271885
0.30808 1 0.685863
0.322515 1 0.656016
0.328054 1 0.629892
0.344503 1 0.579889
0.577691 1 0.555428
0.809308 0.982925 0.479637
0.988922 0.965469 0.377646
1 0.947448 0.361883
1 0.940963 0.354665
0.358282 1 0.688106
0.361379 1 0.661906
0.365133 1 0.637705
0.453773 1 0.610758
0.650523 1 0.58703
0.845991 1 0.518349
1 1 0.416602
1 1 0.40148
1 0.99353 0.394293
0 0 0.386099
0 0 0.380713
0.227298 0 0.337102
0.541695 0 0.25098
0.826322 0 0.193439
1 0 0.161822
1 0 0.147066
1 0 0.144137
1 0 0.148104
0 0 0.346441
0 0 0.342504
0.233753 0 0.300481
0.553002 0 0.215564
0.831189 0 0.163455
1 0 0.133974
1 0 0.12076
1 0 0.118303
1 0 0.122194
0 0.204334 0.259617
0 0.208087 0.257954
0.173342 0.19884 0.215579
0.518059 0.149767 0.158145
0.829801 0.0937667 0.126879
1 0.0380102 0.117891
1 0 0.112871
1 0 0.0918898
1 0 0.0959029
0 0.403708 0.312337
0 0.414328 0.319554
0.149294 0.416281 0.310567
0.367254 0.398856 0.187625
0.737438 0.334722 0.11986
1 0.289006 0.0931563
1 0.250706 0.0859998
1 0.198413 0.0863813
1 0.0937362 0.0854963
0 0.600778 0.413855
0.0413214 0.621698 0.418845
0.126925 0.640101 0.380468
0.257603 0.620584 0.303777
0.601556 0.572946 0.150134
0.912978 0.520516 0.0621653
1 0.487495 0.0198367
1 0.464286 0.00924697
1 0.437751 0.00859083
0.0814984 0.79556 0.530419
0.16286 0.826154 0.526665
0.202228 0.834989 0.495354
0.232441 0.827298 0.424964
0.537774 0.768765 0.374411
0.826978 0.736599 0.226902
1 0.702876 0.175662
1 0.684977 0.149966
1 0.67541 0.141741
0.190448 0.961593 0.624216
0.255787 0.991485 0.609628
0.271931 0.991379 0.58143
0.280598 0.980194 0.523491
0.527169 0.926421 0.487739
0.789746 0.889082 0.374823
1 0.863172 0.299077
1 0.845716 0.278325
1 0.839124 0.271626
0.306966 1 0.686931
0.322118 1 0.657008
0.32784 1 0.630793
0.342016 1 0.580056
0.576059 1 0.555581
0.808682 0.982879 0.479881
0.988678 0.965393 0.3776
1 0.947356 0.361807
1 0.940856 0.354589
0.358083 1 0.689128
0.361349 1 0.662882
0.364904 1 0.638605
0.451621 1 0.610971
0.649256 1 0.587274
0.845457 1 0.518654
1 1 0.416648
1 1 0.401495
1 0.99353 0.394293
0 0 0.642863
0 0 0.641108
0.194018 0 0.597375
0.497414 0 0.543236
0.796628 0 0.470481
1 0 0.420172
1 0 0.394064
1 0 0.385779
1 0 0.387533
0 0 0.625849
0 0 0.62414
0.199481 0 0.581094
0.501442 0 0.525704
0.799222 0 0.452522
1 0 0.402991
1 0 0.377554
1 0 0.369467
1 0 0.371649
0 0.146685 0.54313
0 0.150286 0.546044
0.157015 0.158907 0.523384
0.468711 0.130907 0.483726
0.799542 0.0766918 0.416907
1 0.0177462 0.387762
1 0 0.37821
1 0 0.352499
1 0 0.35491
0 0.40383 0.438315
0 0.412207 0.442329
0.144396 0.413901 0.42591
0.380148 0.396262 0.38436
0.740276 0.344869 0.306127
1 0.307439 0.281712
1 0.276844 0.285542
1 0.233051 0.303136
1 0.122591 0.338079
0 0.604166 0.489464
0 0.618433 0.499901
0.210437 0.619272 0.493156
0.311238 0.61709 0.439948
0.618189 0.587152 0.313817
0.929152 0.53962 0.257557
1 0.511849 0.233402
1 0.492927 0.227955
1 0.469596 0.229999
0.108721 0.796094 0.538659
0.175769 0.823896 0.537484
0.217914 0.834607 0.5084
0.237598 0.830716 0.439673
0.541726 0.773785 0.388785
0.834287 0.740963 0.248692
1 0.7075 0.202472
1 0.69012 0.181384
1 0.680644 0.175692
0.18999 0.96083 0.623789
0.253223 0.990509 0.611505
0.270848 0.990829 0.583246
0.280079 0.980041 0.525231
0.523369 0.926497 0.487907
0.788235 0.888594 0.37528
1 0.862577 0.29865
1 0.845106 0.277836
1 0.838483 0.271077
0.304509 1 0.689357
0.321202 1 0.659159
0.327443 1 0.63267
0.336706 1 0.580392
0.57261 1 0.555901
0.807294 0.982803 0.48043
0.988235 0.96527 0.377508
1 0.947143 0.361639
1 0.940612 0.354391
0.357824 1 0.691722
0.36112 1 0.66479
0.364538 1 0.640833
0.446937 1 0.611399
0.646525 1 0.587777
0.844358 1 0.51931
1 1 0.416739
1 1 0.401526
1 0.99353 0.394293
0 0 0.890867
0 0 0.890883
0.145937 0 0.853239
0.46186 0 0.799908
0.766064 0 0.745968
1 0 0.696239
1 0 0.666575
1 0 0.655604
1 0 0.655909
0 0 0.884489
0 0 0.884504
0.150729 0 0.845869
0.464515 0 0.793194
0.767529 0 0.738994
1 0 0.689143
1 0 0.659495
1 0 0.648569
1 0 0.648875
0 0.0393378 0.824704
0 0.0352789 0.825879
0.1308 0.0654002 0.810285
0.451591 0.0678569 0.770275
0.770336 0.00979629 0.732998
1 0 0.695048
1 0 0.665599
1 0 0.640864
1 0 0.641184
0 0.35758 0.721782
0 0.3561 0.722118
0.0966964 0.373404 0.721431
0.367697 0.363821 0.683482
0.68333 0.333654 0.649042
0.971847 0.295262 0.603571
1 0.257786 0.596139
1 0.195956 0.616953
1 0.0604105 0.654795
0 0.611765 0.63415
0 0.61799 0.638895
0.134218 0.628809 0.635035
0.316976 0.609827 0.600931
0.591318 0.591424 0.553857
0.902876 0.549966 0.478691
1 0.52723 0.455573
1 0.513558 0.465385
1 0.494545 0.486519
0 0.794507 0.678782
0.0781415 0.809293 0.689433
0.253132 0.805264 0.677775
0.382437 0.783734 0.646662
0.523323 0.783581 0.551705
0.834333 0.746899 0.454307
1 0.71812 0.416892
1 0.705806 0.404059
1 0.699809 0.404135
0.288243 0.944762 0.692607
0.336599 0.968154 0.687831
0.353735 0.967773 0.659556
0.359564 0.962509 0.604257
0.52076 0.934646 0.536629
0.796262 0.894499 0.438178
1 0.868025 0.375494
1 0.851667 0.358175
1 0.846128 0.352697
0.297597 1 0.694011
0.319142 1 0.663828
0.326513 1 0.636912
0.33373 1 0.584207
0.565667 1 0.556481
0.804715 0.982696 0.481498
0.987121 0.965072 0.377356
1 0.946654 0.361288
1 0.940108 0.353994
0.356863 1 0.697078
0.360662 1 0.669139
0.363607 1 0.645197
0.437049 1 0.612222
0.640589 1 0.588876
0.842084 1 0.520653
1 1 0.416938
1 1 0.401572
1 0.99353 0.394293
0 0 1
0 0 1
0.0592355 0 1
0.411246 0 1
0.73666 0 0.963806
1 0 0.922194
1 0 0.895903
1 0 0.885908
1 0 0.886809
0 0 1
0 0 1
0.0649271 0 1
0.413962 0 1
0.737819 0 0.961074
1 0 0.919463
1 0 0.893126
1 0 0.883131
1 0 0.883986
0 0 1
0 0 1
0.0721599 0 1
0.422782 0 1
0.744076 0 0.962325
1 0 0.917021
1 0 0.890639
1 0 0.880629
1 0 0.881422
0 0.277409 0.964111
0 0.275502 0.964538
0.00582895 0.29723 0.970626
0.344884 0.297963 0.93283
0.677485 0.275395 0.898024
0.964584 0.233585 0.878401
1 0.184817 0.873503
1 0.0990616 0.892393
1 0 0.909056
0 0.579065 0.869734
0 0.578347 0.869917
0.0748913 0.600076 0.875013
0.307866 0.582223 0.843778
0.579477 0.569604 0.799222
0.84979 0.544411 0.774105
1 0.521553 0.747234
1 0.502617 0.750622
1 0.473869 0.772976
0 0.806165 0.819409
0 0.80592 0.819318
0.143633 0.822278 0.822568
0.296757 0.799191 0.787076
0.541299 0.772793 0.741604
0.773861 0.758801 0.701274
1 0.731838 0.64506
1 0.719005 0.622171
1 0.71548 0.627192
0.0136873 0.957107 0.859419
0.14139 0.969223 0.867063
0.275151 0.957931 0.848325
0.3953 0.929259 0.810987
0.597726 0.897368 0.762905
0.771939 0.891508 0.658122
0.986999 0.868452 0.596963
1 0.854566 0.579355
1 0.851972 0.577432
0.324361 1 0.855055
0.419867 1 0.842237
0.460777 1 0.822919
0.514427 1 0.781659
0.551156 1 0.678584
0.795621 0.982055 0.620233
0.98294 0.963088 0.537545
1 0.945434 0.523629
1 0.939757 0.518029
0.353948 1 0.708782
0.359731 1 0.678706
0.362066 1 0.654032
0.415381 1 0.614038
0.628336 1 0.590967
0.837293 1 0.523415
0.998886 1 0.417365
1 1 0.401679
1 0.99353 0.394293
0 0 1
0 0 1
0 0 1
0.31426 0 1
0.695827 0 1
0.984497 0 1
1 0 1
1 0 1
1 0 1
0 0 1
0 0 1
0 0 1
0.317342 0 1
0.697002 0 1
0.984924 0 1
1 0 1
1 0 1
1 0 1
0 0 1
0 0 1
0 0 1
0.320424 0 1
0.698177 0 1
0.98529 0 1
1 0 1
1 0 1
1 0 1
0 0.0750286 1
0 0.0704662 1
0 0.0660105 1
0.297902 0.125963 1
0.687526 0.11725 1
0.993576 0.0567941 1
1 0 1
1 0 1
1 0 1
0 0.519646 1
0 0.518898 1
0 0.518532 1
0.237446 0.530938 1
0.56286 0.52311 0.984955
0.852445 0.497902 0.959426
1 0.472877 0.951965
1 0.447059 0.959747
1 0.406897 0.985092
0 0.786496 0.980591
0 0.786221 0.980652
0.0598001 0.799207 0.987198
0.30837 0.788083 0.951995
0.53492 0.76054 0.908583
0.761837 0.748775 0.869734
0.96202 0.730968 0.854475
1 0.72079 0.837705
1 0.714931 0.84065
0.00663767 0.968338 0.973602
0.00683604 0.968231 0.973556
0.153903 0.980453 0.977096
0.302937 0.949432 0.9337
0.52932 0.914794 0.882536
0.754513 0.889799 0.840757
0.911528 0.885023 0.812284
1 0.87303 0.786145
1 0.867781 0.769177
0.0834058 1 1
0.184329 1 1
0.295262 1 0.980545
0.421103 1 0.938247
0.6168 0.992905 0.889525
0.760967 0.986557 0.81059
0.93341 0.968597 0.763928
1 0.956024 0.746532
1 0.949523 0.731426
0.316732 1 0.991928
0.387625 1 0.963714
0.444572 1 0.942184
0.554818 1 0.909926
0.689174 1 0.860731
0.801556 1 0.775219
0.973571 1 0.684855
1 0.994354 0.668833
1 0.987106 0.659937
0 0 1
0 0 1
0 0 1
0.0968185 0 1
0.62089 0 1
0.958129 0 1
1 0 1
1 0 1
1 0 1
0 0 1
0 0 1
0 0 1
0.101808 0 1
0.622339 0 1
0.958587 0 1
1 0 1
1 0 1
1 0 1
0 0 1
0 0 1
0 0 1
0.106279 0 1
0.623774 0 1
0.959045 0 1
1 0 1
1 0 1
1 0 1
0 0 1
0 0 1
0 0 1
0.115312 0 1
0.62681 0 1
0.960037 0 1
1 0 1
1 0 1
1 0 1
0 0.396506 1
0 0.395193 1
0 0.393881 1
0.0679942 0.417441 1
0.532143 0.419165 1
0.876295 0.385992 1
1 0.3514 1
1 0.305913 1
1 0.223468 1
0 0.750195 1
0 0.749859 1
0 0.749508 1
0.194812 0.766613 1
0.48014 0.731579 1
0.752773 0.720562 0.987915
0.966796 0.701289 0.97232
1 0.690028 0.969162
1 0.681422 0.976104
0.180087 0.959136 1
0.17998 0.95906 1
0.179889 0.958968 1
0.343297 0.959365 1
0.533852 0.915526 0.967697
0.744137 0.891585 0.925109
0.902052 0.884077 0.901976
1 0.876112 0.894316
1 0.873991 0.886229
0.106889 1 1
0.106935 1 1
0.12256 1 1
0.321782 1 1
0.548577 1 0.974304
0.760067 0.980819 0.927611
0.901549 0.972274 0.896117
1 0.967346 0.884688
1 0.963241 0.87599
0.157137 1 1
0.192081 1 1
0.3075 1 1
0.441306 1 1
0.628595 1 0.974899
0.811154 1 0.928893
0.922927 1 0.883299
1 1 0.865003
1 1 0.856413
0 0 1
0 0 1
0 0 1
0 0 1
0.472557 0 1
0.916533 0 1
1 0 1
1 0 1
1 0 1
0 0 1
0 0 1
0 0 1
0 0 1
0.474723 0 1
0.917082 0 1
1 0 1
1 0 1
1 0 1
0 0 1
0 0 1
0 0 1
0 0 1
0.47689 0 1
0.917617 0 1
1 0 1
1 0 1
1 0 1
0 0 1
0 0 1
0 0 1
0 0 1
0.481392 0 1
0.918791 0 1
1 0 1
1 0 1
1 0 1
0 0 1
0 0 1
0 0 1
0 0 1
0.488014 0.0813306 1
0.941939 0 1
1 0 1
1 0 1
1 0 1
0 0.684916 1
0 0.684459 1
0 0.684001 1
0 0.683024 1
0.374945 0.679362 1
0.735698 0.666926 1
0.982406 0.64329 1
1 0.628412 1
1 0.61387 1
0.14583 0.940505 1
0.145678 0.940383 1
0.14551 0.940261 1
0.145174 0.940002 1
0.446754 0.911696 1
0.713115 0.878401 0.984115
0.896544 0.869963 0.950607
1 0.861295 0.942275
1 0.859251 0.938827
0.238331 1 1
0.238376 1 1
0.238437 1 1
0.273579 1 1
0.487144 1 1
0.723857 0.987137 0.96878
0.894026 0.970108 0.942489
0.996689 0.967025 0.923369
1 0.963638 0.920058
0.182452 1 1
0.182467 1 1
0.182467 1 1
0.318166 1 1
0.558297 1 1
0.768444 1 0.981643
0.907607 1 0.944381
0.997345 1 0.92781
1 1 0.925582
