public/textures/grade/Canon/Parasitic-CLog3.cube
TITLE "Generated by Resolve"
LUT_3D_SIZE 33
0 0 0
0 0 0
0 0 0
0 0 0
0.0587472 0 0
0.141131 0 0
0.212512 0 0
0.281849 0 0
0.348669 0 0
0.413123 0 0
0.474998 0 0
0.534401 0 0
0.590906 0 0
0.643778 0 0
0.693019 0 0
0.737133 0 0
0.775601 0 0
0.819745 0 0
0.877272 0 0
0.932235 0 0
0.983474 0 0
1 0 0
1 0 0
1 0 0
1 0 0
1 0 0
1 0 0
1 0 0
1 0 0
1 0 0
1 0 0
1 0 0
1 0 0
0 0 0
0 0 0
0 0 0
0 0 0
0.0621195 0 0
0.143832 0 0
0.214633 0 0
0.283558 0 0
0.349996 0 0
0.414176 0 0
0.475837 0 0
0.535073 0 0
0.591379 0 0
0.644175 0 0
0.693339 0 0
0.737362 0 0
0.775769 0 0
0.819974 0 0
0.877455 0 0
0.932372 0 0
0.983581 0 0
1 0 0
1 0 0
1 0 0
1 0 0
1 0 0
1 0 0
1 0 0
1 0 0
1 0 0
1 0 0
1 0 0
1 0 0
0 0 0
0 0 0
0 0 0
0 0 0
0.0649119 0 0
0.146014 0 0
0.216358 0 0
0.284962 0 0
0.351003 0 0
0.415045 0 0
0.476539 0 0
0.535622 0 0
0.591699 0 0
0.644526 0 0
0.693584 0 0
0.737545 0 0
0.775891 0 0
0.820157 0 0
0.877592 0 0
0.932494 0 0
0.983673 0 0
1 0 0
1 0 0
1 0 0
1 0 0
1 0 0
1 0 0
1 0 0
1 0 0
1 0 0
1 0 0
1 0 0
1 0 0
0 0.00943008 0
0 0.00816358 0
0 0.00712596 0
0 0.00476081 0
0.0476844 0 0
0.132708 0 0
0.205081 0 0
0.274983 0 0
0.342443 0 0
0.408179 0 0
0.47129 0 0
0.531823 0 0
0.589151 0 0
0.643977 0 0
0.693797 0 0
0.737697 0 0
0.775998 0 0
0.82031 0 0
0.877714 0 0
0.932555 0 0
0.983749 0 0
1 0 0
1 0 0
1 0 0
1 0 0
1 0 0
1 0 0
1 0 0
1 0 0
1 0 0
1 0 0
1 0 0
1 0 0
0 0.0561379 0
0 0.0548104 0
0 0.053727 0
0 0.0511482 0
0 0.0427405 0
0.0843977 0.0271 0
0.163989 0.0118868 0
0.239872 0 0
0.311818 0 0
0.380301 0 0
0.446174 0 0
0.509285 0 0
0.569055 0 0
0.62565 0 0
0.678767 0 0
0.727123 0 0
0.769558 0 0
0.805631 0 0
0.865782 0 0
0.92694 0 0
0.98381 0 0
1 0 0
1 0 0
1 0 0
1 0 0
1 0 0
1 0 0
1 0 0
1 0 0
1 0 0
1 0 0
1 0 0
1 0 0
0 0.0978866 0
0 0.0967727 0
0 0.0958572 0
0 0.0937972 0
0 0.0895552 0
0.0398871 0.0783246 0
0.117891 0.0654154 0
0.196735 0.051133 0
0.27335 0.0367132 0
0.346853 0.0226749 0
0.416373 0.00921645 0
0.48246 0 0
0.544335 0 0
0.602213 0 0
0.657053 0 0
0.70808 0 0
0.75436 0 0
0.795224 0 0
0.830289 0 0
0.890288 0 0
0.950118 0 0
1 0 0
1 0 0
1 0 0
1 0 0
1 0 0
1 0 0
1 0 0
1 0 0
1 0 0
1 0 0
1 0 0
1 0 0
0 0.137316 0
0 0.136385 0
0 0.135607 0
0 0.134081 0
0 0.132006 0
0.00480659 0.124575 0
0.0781872 0.114275 0
0.155047 0.101823 0
0.233021 0.0884718 0
0.309239 0.0749218 0
0.381994 0.0616922 0
0.451362 0.0487678 0
0.51606 0.0366217 0
0.5776 0.0250706 0
0.634974 0.0137331 0
0.688212 0.00303655 0
0.736812 0 0
0.780194 0 0
0.818769 0 0
0.852247 0 0
0.906294 0 0
0.960555 0 0
1 0 0
1 0 0
1 0 0
1 0 0
1 0 0
1 0 0
1 0 0
1 0 0
1 0 0
1 0 0
1 0 0
0 0.177371 0
0 0.176593 0
0 0.175952 0
0 0.174975 0
0 0.174548 0
0 0.170657 0
0.0452888 0.161761 0
0.118135 0.151705 0
0.193896 0.140139 0
0.270283 0.127779 0
0.344869 0.115267 0
0.416953 0.102739 0
0.484962 0.0908064 0
0.549661 0.0796216 0
0.609827 0.068864 0
0.666239 0.0584115 0
0.718486 0.0485542 0
0.765911 0.0386206 0
0.808164 0.0289921 0
0.845273 0.0191043 0
0.878065 0.00823987 0
0.926619 0 0
0.974105 0 0
1 0 0
1 0 0
1 0 0
1 0 0
1 0 0
1 0 0
1 0 0
1 0 0
1 0 0
1 0 0
0 0.217853 0
0 0.217288 0
0 0.216815 0
0 0.21648 0
0 0.217533 0
0 0.215457 0
0.0175784 0.208698 0
0.0868086 0.200717 0
0.158999 0.191211 0
0.233616 0.180499 0
0.309102 0.168917 0
0.382818 0.157122 0
0.45333 0.145708 0
0.521096 0.134752 0
0.584741 0.124193 0
0.644266 0.114168 0
0.699565 0.104952 0
0.750423 0.0956436 0
0.796399 0.0869459 0
0.83743 0.078233 0
0.873182 0.0689097 0
0.909697 0.0578164 0
0.955596 0.0421302 0
0.998795 0.0232853 0
1 0.00112917 0
1 0 0
1 0 0
1 0 0
1 0 0
1 0 0
1 0 0
1 0 0
1 0 0
0 0.258976 0
0 0.258427 0
0 0.257984 0
0 0.258335 0
0 0.260975 0
0 0.260639 0
0 0.256138 0
0.0600748 0.249592 0
0.128771 0.241947 0
0.200839 0.23331 0
0.274952 0.223255 0
0.349401 0.212436 0
0.421988 0.20145 0
0.49221 0.190585 0
0.55906 0.180362 0
0.622003 0.170764 0
0.680217 0.161654 0
0.734462 0.153048 0
0.783856 0.144732 0
0.828199 0.136919 0
0.867323 0.128923 0
0.901884 0.120775 0
0.945296 0.108736 0
0.988464 0.0942092 0
1 0.0770581 0
1 0.0568093 0
1 0.0318608 0
1 0.000656138 0
1 0 0
1 0 0
1 0 0
1 0 0
1 0 0
0 0.300862 0
0 0.300465 0
0 0.30013 0
0 0.301457 0
0 0.305867 0
0 0.306767 0
0 0.304814 0
0.0359808 0.299275 0
0.102068 0.293355 0
0.171237 0.286 0
0.243702 0.277302 0
0.317342 0.267765 0
0.391318 0.257877 0
0.463371 0.247517 0
0.532586 0.23743 0
0.597894 0.228 0
0.659846 0.219333 0
0.717021 0.210895 0
0.769375 0.202945 0
0.81677 0.19588 0
0.859113 0.188632 0
0.896437 0.181872 0
0.936538 0.173129 0
0.980911 0.161532 0
1 0.148287 0
1 0.132647 0
1 0.114168 0
1 0.0916609 0
1 0.0643931 0
1 0.0299535 0
1 0 0
1 0 0
1 0 0
0 0.343984 0
0 0.343603 0
0 0.343282 0
0 0.345785 0
0 0.351888 0
0 0.354284 0
0 0.353948 0
0.0135958 0.349859 0
0.0781567 0.34522 0
0.145052 0.3393 0
0.215427 0.331945 0
0.287602 0.323674 0
0.360967 0.31458 0
0.434028 0.305089 0
0.505119 0.295613 0
0.572931 0.28629 0
0.636942 0.277531 0
0.696986 0.269734 0
0.751583 0.262348 0
0.801602 0.255314 0
0.847028 0.249042 0
0.886702 0.242863 0
0.925872 0.236164 0
0.970657 0.227008 0
1 0.216709 0
1 0.204715 0
1 0.190631 0
1 0.173938 0
1 0.154116 0
1 0.130144 0
1 0.100587 0
1 0.0646372 0
1 0.0199435 0
0 0.388449 0
0 0.388159 0
0 0.3879 0
0 0.39234 0
0 0.399695 0
0 0.403403 0
0 0.404395 0
0 0.401846 0
0.0550393 0.398108 0
0.120668 0.393317 0
0.189288 0.387091 0
0.26006 0.379797 0
0.332891 0.371511 0
0.405905 0.362692 0
0.477821 0.353857 0
0.547021 0.345068 0
0.612421 0.336706 0
0.674113 0.328801 0
0.731609 0.32195 0
0.783856 0.315343 0
0.831006 0.309361 0
0.873732 0.304067 0
0.913207 0.298283 0
0.958312 0.29099 0
1 0.282979 0
1 0.273732 0
1 0.263111 0
1 0.250629 0
1 0.236072 0
1 0.218647 0
1 0.198016 0
1 0.17351 0
1 0.144305 0
0 0.434485 0
0 0.434241 0
0 0.433997 0
0 0.440803 0
0 0.449378 0
0 0.453941 0
0 0.455909 0
0 0.455253 0
0.0341802 0.451423 0
0.0988022 0.447379 0
0.165606 0.442237 0
0.235309 0.435782 0
0.306889 0.428336 0
0.379232 0.420264 0
0.451011 0.411917 0
0.521157 0.403845 0
0.588037 0.395697 0
0.651164 0.388052 0
0.709743 0.38146 0
0.763912 0.375326 0
0.813428 0.369574 0
0.858091 0.364828 0
0.899321 0.359884 0
0.944976 0.353902 0
0.986694 0.347265 0
1 0.3402 0
1 0.332235 0
1 0.322988 0
1 0.31223 0
1 0.299535 0
1 0.284642 0
1 0.267704 0
1 0.247578 0
0 0.481788 0
0 0.48159 0
0 0.481453 0
0 0.491051 0
0 0.50045 0
0 0.505257 0
0 0.50779 0
0 0.508095 0
0.0160372 0.504875 0
0.0798352 0.501289 0
0.145327 0.496864 0
0.213626 0.491264 0
0.283864 0.484627 0
0.355138 0.477241 0
0.426398 0.46952 0
0.496605 0.461967 0
0.564019 0.454261 0
0.628046 0.446937 0
0.687984 0.440192 0
0.743709 0.434501 0
0.794324 0.429191 0
0.840269 0.42443 0
0.885039 0.420157 0
0.930358 0.415 0
0.972564 0.410071 0
1 0.404211 0
1 0.39823 0
1 0.391394 0
1 0.38349 0
1 0.374304 0
1 0.363668 0
1 0.3514 0
1 0.337392 0
0 0.530587 0
0 0.530373 0
0 0.530205 0
0 0.542473 0
0 0.551949 0
0 0.556893 0
0 0.559625 0
0 0.560555 0
0.000854505 0.558114 0
0.0637827 0.554925 0
0.128298 0.550912 0
0.195102 0.545953 0
0.264012 0.540032 0
0.334142 0.533318 0
0.404471 0.526085 0
0.474266 0.519036 0
0.541695 0.511711 0
0.606134 0.504707 0
0.666789 0.498222 0
0.723476 0.492744 0
0.775586 0.48748 0
0.822385 0.483101 0
0.870161 0.479164 0
0.91574 0.474769 0
0.95816 0.470802 0
0.997086 0.466331 0
1 0.461738 0
1 0.456382 0
1 0.450599 0
1 0.444022 0
1 0.436469 0
1 0.427817 0
1 0.417441 0
0 0.579217 0
0 0.579049 0
0 0.579995 0
0 0.594095 0
0 0.60354 0
0 0.60853 0
0 0.611353 0
0 0.612512 0
0 0.611276 0
0.0512245 0.607843 0
0.114611 0.604212 0
0.180041 0.599664 0
0.247318 0.594293 0
0.316106 0.588129 0
0.385733 0.581598 0
0.454734 0.574731 0
0.521798 0.567712 0
0.586191 0.560967 0
0.647135 0.554665 0
0.704372 0.549386 0
0.757229 0.544274 0
0.806973 0.539971 0
0.855589 0.536553 0
0.901106 0.532784 0
0.943404 0.529442 0
0.982681 0.525841 0
1 0.522469 0
1 0.518364 0
1 0.514244 0
1 0.50956 0
1 0.503868 0
1 0.497673 0
1 0.490394 0
0 0.627512 0
0 0.62739 0
0 0.630838 0
0 0.646128 0
0 0.654795 0
0 0.659632 0
0 0.662486 0
0 0.663798 0
0 0.663096 0
0.0420081 0.659739 0
0.103853 0.656474 0
0.167987 0.652262 0
0.234073 0.647196 0
0.301793 0.641581 0
0.370077 0.635401 0
0.438025 0.628702 0
0.504753 0.621897 0
0.568826 0.615366 0
0.63006 0.609598 0
0.687129 0.604028 0
0.741009 0.59913 0
0.792798 0.595178 0
0.841733 0.591974 0
0.886976 0.588739 0
0.929229 0.585931 0
0.968368 0.582956 0
1 0.579934 0
1 0.577234 0
1 0.574243 0
1 0.570489 0
1 0.566812 0
1 0.562509 0
1 0.557397 0
0 0.67689 0
0 0.676768 0
0 0.682994 0
0 0.697551 0
0 0.705409 0
0 0.709804 0
0 0.712489 0
0 0.713878 0
0 0.713451 0
0.0364385 0.710262 0
0.0973373 0.707042 0
0.160037 0.703059 0
0.224689 0.698253 0
0.291188 0.693111 0
0.358038 0.687022 0
0.424735 0.680583 0
0.490547 0.673976 0
0.554269 0.667552 0
0.615213 0.661921 0
0.672541 0.656657 0
0.727596 0.652308 0
0.77966 0.648569 0
0.828367 0.645335 0
0.873747 0.642298 0
0.915648 0.639796 0
0.954787 0.6374 0
0.990646 0.634974 0
1 0.632792 0
1 0.630625 0
1 0.627985 0
1 0.62536 0
1 0.622507 0
1 0.618494 0
0 0.726757 0
0 0.72668 0
0 0.737408 0
0 0.750469 0
0 0.756237 0
0 0.759274 0
0 0.761196 0
0 0.762356 0
0 0.762005 0
0.0351873 0.759014 0
0.0946059 0.755856 0
0.155932 0.752178 0
0.219211 0.747692 0
0.283864 0.742336 0
0.349386 0.736431 0
0.414908 0.73019 0
0.47953 0.723812 0
0.542977 0.717693 0
0.603021 0.712337 0
0.660548 0.707637 0
0.715328 0.70338 0
0.767697 0.699825 0
0.816083 0.696422 0
0.861265 0.693477 0
0.903243 0.691341 0
0.942046 0.689036 0
0.977661 0.686931 0
1 0.685313 0
1 0.683726 0
1 0.681804 0
1 0.679973 0
1 0.677638 0
1 0.675196 0
0 0.775753 0
0 0.775677 0
0 0.791379 0
0 0.802487 0
0 0.807111 0
0 0.809857 0
0 0.811032 0
0 0.811002 0
0 0.809552 0
0.0374762 0.805829 0
0.095201 0.802747 0
0.154986 0.799268 0
0.216449 0.79469 0
0.279942 0.789273 0
0.343984 0.783413 0
0.408209 0.777234 0
0.471336 0.772 0
0.53286 0.766522 0
0.592798 0.761196 0
0.650004 0.756344 0
0.70486 0.752361 0
0.756725 0.748409 0
0.804791 0.745144 0
0.850233 0.742443 0
0.891814 0.740001 0
0.930343 0.737758 0
0.966018 0.736202 0
0.998108 0.734569 0
1 0.733288 0
1 0.731991 0
1 0.730739 0
1 0.729076 0
1 0.727306 0
0 0.823377 0
0 0.826062 0
0 0.844495 0
0 0.852644 0
0 0.856428 0
0 0.858534 0
0 0.859281 0
0 0.858915 0
0 0.857252 0
0.0381018 0.853422 0
0.0955825 0.849638 0
0.154391 0.845319 0
0.214633 0.840589 0
0.276188 0.835416 0
0.339071 0.830167 0
0.401785 0.824384 0
0.463722 0.818662 0
0.524559 0.813107 0
0.58407 0.807736 0
0.641138 0.803174 0
0.695308 0.798611 0
0.746868 0.794476 0
0.794903 0.791012 0
0.840192 0.788357 0
0.881636 0.785855 0
0.920058 0.78381 0
0.955261 0.782132 0
0.987015 0.780591 0
1 0.779629 0
1 0.778515 0
1 0.777661 0
1 0.776516 0
1 0.775311 0
0 0.869871 0
0 0.878996 0
0 0.895445 0
0 0.901244 0
0 0.903883 0
0 0.905409 0
0 0.905531 0
0 0.904738 0
0 0.902708 0
0.0414435 0.898787 0
0.0969406 0.894804 0
0.153872 0.89041 0
0.21294 0.885405 0
0.273655 0.88043 0
0.334905 0.8748 0
0.396643 0.86894 0
0.458061 0.862943 0
0.518364 0.857328 0
0.57705 0.851957 0
0.633844 0.846769 0
0.687663 0.842115 0
0.739101 0.838071 0
0.786847 0.83447 0
0.831296 0.831312 0
0.872618 0.828672 0
0.910994 0.826825 0
0.945739 0.825055 0
0.977401 0.823941 0
1 0.822705 0
1 0.821775 0
1 0.820951 0
1 0.820386 0
1 0.819272 0
0 0.914443 0
0 0.93164 0
0 0.943175 0
0 0.947188 0
0 0.948791 0
0 0.949645 0
0 0.949386 0
0 0.948074 0
0 0.945785 0
0.0483558 0.941253 0
0.101488 0.937224 0
0.157031 0.932647 0
0.214496 0.927993 0
0.273259 0.922484 0
0.333593 0.916518 0
0.394003 0.910521 0
0.454902 0.904753 0
0.514321 0.898802 0
0.572076 0.893065 0
0.628183 0.887572 0
0.681758 0.883009 0
0.732372 0.878645 0
0.779934 0.8748 0
0.824018 0.871672 0
0.865049 0.869032 0
0.902724 0.866682 0
0.937102 0.864897 0
0.968765 0.863661 0
0.997147 0.86247 0
1 0.861799 0
1 0.860914 0
1 0.860456 0
1 0.859846 0
0 0.960525 0
0 0.981231 0
0 0.988159 0
0 0.990524 0
0 0.991119 0
0 0.991211 0
0 0.990356 0
0 0.988876 0
0.00682078 0.985733 0
0.0580758 0.981201 0
0.109148 0.977234 0
0.162676 0.972534 0
0.218219 0.967361 0
0.275593 0.96173 0
0.33434 0.9561 0
0.393835 0.949752 0
0.452857 0.943481 0
0.51165 0.937255 0
0.56878 0.931579 0
0.624079 0.926162 0
0.676966 0.920943 0
0.726833 0.916289 0
0.77435 0.912474 0
0.818067 0.909041 0
0.858793 0.906081 0
0.896452 0.903883 0
0.930358 0.901869 0
0.961471 0.900191 0
0.989792 0.899199 0
1 0.898268 0
1 0.897749 0
1 0.897246 0
1 0.896803 0
0 1 0
0 1 0
0 1 0
0 1 0
0 1 0
0 1 0
0 1 0
0 1 0
0.0242618 1 0
0.0708629 1 0
0.119875 1 0
0.171191 1 0
0.225025 1 0
0.280491 0.998215 0
0.337728 0.99205 0
0.395407 0.985763 0
0.45391 0.979553 0
0.511055 0.973175 0
0.567407 0.966934 0
0.621607 0.961212 0
0.674159 0.956024 0
0.723568 0.951339 0
0.77026 0.946944 0
0.813443 0.943206 0
0.853986 0.940291 0
0.890944 0.937713 0
0.924498 0.935699 0
0.955581 0.934218 0
0.983322 0.932799 0
1 0.931991 0
1 0.931121 0
1 0.93077 0
1 0.930144 0
0 1 0
0 1 0
0 1 0
0 1 0
0 1 0
0 1 0
0 1 0
0 1 0
0.0432441 1 0
0.086656 1 0
0.132876 1 0
0.18233 1 0
0.233982 1 0
0.287724 1 0
0.343099 1 0
0.399405 1 0
0.456077 1 0
0.512215 1 0
0.567758 0.999771 0
0.620951 0.993774 0
0.672419 0.988113 0
0.721065 0.983093 0
0.767514 0.978866 0
0.810269 0.97499 0
0.850111 0.971542 0
0.886748 0.968963 0
0.920165 0.966613 0
0.950713 0.964721 0
0.978454 0.963531 0
1 0.962417 0
1 0.961807 0
1 0.961151 0
1 0.960769 0
0 1 0
0 1 0
0 1 0
0 1 0
0 1 0
0 1 0
0 1 0
0.0258183 1 0
0.0644236 1 0
