public/textures/grade/Canon/Parasitic-Clog.cube
TITLE "Generated by Resolve"
LUT_3D_SIZE 33
0 0 0
0 0 0
0.0241093 0 0
0.105852 0 0
0.176165 0 0
0.241062 0 0
0.301427 0 0
0.358602 0 0
0.412802 0 0
0.464134 0 0
0.512779 0 0
0.559136 0 0
0.603281 0 0
0.644587 0 0
0.68368 0 0
0.719692 0 0
0.752392 0 0
0.781384 0 0
0.817349 0 0
0.863996 0 0
0.909316 0 0
0.953277 0 0
0.995834 0 0
1 0 0
1 0 0
1 0 0
1 0 0
1 0 0
1 0 0
1 0 0
1 0 0
1 0 0
1 0 0
0 0 0
0 0 0
0.0267796 0 0
0.107774 0 0
0.177722 0 0
0.242313 0 0
0.302434 0 0
0.359442 0 0
0.413504 0 0
0.464714 0 0
0.513176 0 0
0.559533 0 0
0.603616 0 0
0.644862 0 0
0.683894 0 0
0.719875 0 0
0.752529 0 0
0.781476 0 0
0.817502 0 0
0.864134 0 0
0.909438 0 0
0.953368 0 0
0.995911 0 0
1 0 0
1 0 0
1 0 0
1 0 0
1 0 0
1 0 0
1 0 0
1 0 0
1 0 0
1 0 0
0 0.0322118 0
0 0.0313726 0
0 0.0242466 0
0.0656138 0.00848402 0
0.14287 0 0
0.21239 0 0
0.275578 0 0
0.335485 0 0
0.392325 0 0
0.446113 0 0
0.496971 0 0
0.54551 0 0
0.591379 0 0
0.634745 0 0
0.6757 0 0
0.713802 0 0
0.748379 0 0
0.779065 0 0
0.812467 0 0
0.86305 0 0
0.909545 0 0
0.95346 0 0
0.995987 0 0
1 0 0
1 0 0
1 0 0
1 0 0
1 0 0
1 0 0
1 0 0
1 0 0
1 0 0
1 0 0
0 0.0724193 0
0 0.0715343 0
0 0.0667582 0
0.0222019 0.0569772 0
0.0985733 0.0436561 0
0.172595 0.0297704 0
0.24123 0.0167544 0
0.305211 0.00425727 0
0.364981 0 0
0.421073 0 0
0.473457 0 0
0.523476 0 0
0.571023 0 0
0.615885 0 0
0.658686 0 0
0.699062 0 0
0.73637 0 0
0.770092 0 0
0.800412 0 0
0.83534 0 0
0.884001 0 0
0.932601 0 0
0.981018 0 0
1 0 0
1 0 0
1 0 0
1 0 0
1 0 0
1 0 0
1 0 0
1 0 0
1 0 0
1 0 0
0 0.110933 0
0 0.110124 0
0 0.107271 0
0 0.101961 0
0.058381 0.0909133 0
0.1308 0.0789349 0
0.20119 0.0665293 0
0.267933 0.0543679 0
0.330678 0.0425879 0
0.389853 0.0315099 0
0.445426 0.0207828 0
0.498253 0.0107271 0
0.547402 0.00109865 0
0.594049 0 0
0.638071 0 0
0.679149 0 0
0.718074 0 0
0.753979 0 0
0.787137 0 0
0.817258 0 0
0.847044 0 0
0.893431 0 0
0.940261 0 0
0.987839 0 0
1 0 0
1 0 0
1 0 0
1 0 0
1 0 0
1 0 0
1 0 0
1 0 0
1 0 0
0 0.148409 0
0 0.147799 0
0 0.146242 0
0 0.14342 0
0.0260319 0.134813 0
0.0943008 0.125078 0
0.162768 0.114351 0
0.230152 0.103044 0
0.294636 0.0917372 0
0.355932 0.0809949 0
0.413672 0.0705425 0
0.468482 0.0607462 0
0.520104 0.0514076 0
0.568887 0.042359 0
0.615274 0.0338445 0
0.658763 0.025391 0
0.700099 0.0173342 0
0.738262 0.0096437 0
0.773754 0.00173953 0
0.806043 0 0
0.835019 0 0
0.861448 0 0
0.904433 0 0
0.947646 0 0
0.990646 0 0
1 0 0
1 0 0
1 0 0
1 0 0
1 0 0
1 0 0
1 0 0
1 0 0
0 0.184939 0
0 0.18439 0
0 0.183993 0
0 0.182864 0
0 0.176577 0
0.06421 0.168505 0
0.129976 0.15967 0
0.195651 0.149813 0
0.260121 0.139513 0
0.322347 0.129137 0
0.381781 0.119112 0
0.438712 0.109545 0
0.492348 0.100328 0
0.543709 0.091722 0
0.592126 0.083238 0
0.638041 0.0753796 0
0.681163 0.0675517 0
0.721859 0.0602579 0
0.759793 0.052903 0
0.795346 0.0459297 0
0.827695 0.0391546 0
0.857221 0.0322728 0
0.884535 0.0250248 0
0.925689 0.013138 0
0.965316 7.62951e-05 0
1 0 0
1 0 0
1 0 0
1 0 0
1 0 0
1 0 0
1 0 0
1 0 0
0 0.220569 0
0 0.220279 0
0 0.22118 0
0 0.221118 0
0 0.217517 0
0.0396124 0.210315 0
0.101976 0.202869 0
0.165057 0.194797 0
0.228382 0.185718 0
0.290745 0.176242 0
0.351141 0.16669 0
0.409995 0.157427 0
0.465507 0.148379 0
0.518868 0.139681 0
0.569406 0.131731 0
0.617517 0.123781 0
0.663203 0.116487 0
0.705943 0.109224 0
0.746395 0.102571 0
0.784237 0.0958572 0
0.819211 0.0895247 0
0.851408 0.0834058 0
0.880659 0.0773175 0
0.913191 0.0694133 0
0.953201 0.0585184 0
0.992737 0.0465553 0
1 0.0331426 0
1 0.0174105 0
1 0 0
1 0 0
1 0 0
1 0 0
1 0 0
0 0.255619 0
0 0.255512 0
0 0.25771 0
0 0.258747 0
0 0.256779 0
0.0184329 0.251041 0
0.0785687 0.245014 0
0.138842 0.238224 0
0.200168 0.230518 0
0.261875 0.222019 0
0.322423 0.213306 0
0.382208 0.204623 0
0.43917 0.195865 0
0.494255 0.187259 0
0.547219 0.179324 0
0.597375 0.171527 0
0.644953 0.164553 0
0.689998 0.157534 0
0.732952 0.151064 0
0.772931 0.144625 0
0.810239 0.138827 0
0.844678 0.132876 0
0.876432 0.127459 0
0.905745 0.12195 0
0.945556 0.113298 0
0.985672 0.103456 0
1 0.0923934 0
1 0.0801099 0
1 0.0656596 0
1 0.0487221 0
1 0.0285039 0
1 0.00358587 0
1 0 0
0 0.29073 0
0 0.290852 0
0 0.294209 0
0 0.296422 0
0 0.295827 0
0 0.291585 0
0.0578927 0.286763 0
0.116335 0.281086 0
0.17554 0.274434 0
0.235798 0.266896 0
0.295933 0.259205 0
0.355764 0.250996 0
0.413672 0.242756 0
0.470314 0.234638 0
0.524804 0.226703 0
0.576883 0.218921 0
0.626261 0.2121 0
0.673411 0.205188 0
0.718547 0.198947 0
0.760739 0.192737 0
0.800092 0.18735 0
0.836622 0.181796 0
0.870771 0.176806 0
0.901961 0.172061 0
0.938643 0.165148 0
0.979416 0.157 0
1 0.148089 0
1 0.138186 0
1 0.126879 0
1 0.11368 0
1 0.0982223 0
1 0.0799268 0
1 0.0564889 0
0 0.325628 0
0 0.326253 0
0 0.331106 0
0 0.334218 0
0 0.334874 0
0 0.332418 0
0.0387579 0.327962 0
0.0956741 0.323293 0
0.153307 0.317784 0
0.212284 0.311452 0
0.271412 0.304479 0
0.330755 0.296803 0
0.38909 0.289219 0
0.446662 0.281544 0
0.502098 0.273884 0
0.555901 0.266712 0
0.606867 0.259556 0
0.655772 0.252674 0
0.702586 0.24654 0
0.746563 0.240543 0
0.787671 0.235386 0
0.826139 0.230243 0
0.862181 0.225635 0
0.895323 0.221424 0
0.930358 0.216007 0
0.971618 0.209186 0
1 0.201648 0
1 0.1935 0
1 0.184604 0
1 0.174395 0
1 0.162585 0
1 0.14873 0
1 0.13164 0
0 0.360815 0
0 0.362356 0
0 0.36878 0
0 0.372488 0
0 0.37409 0
0 0.373358 0
0.0208286 0.369436 0
0.0764324 0.36556 0
0.132769 0.361181 0
0.189822 0.355764 0
0.248188 0.349462 0
0.306981 0.342748 0
0.365316 0.335607 0
0.42295 0.328099 0
0.479667 0.320958 0
0.534249 0.31368 0
0.586618 0.306737 0
0.637339 0.300389 0
0.685298 0.294041 0
0.730694 0.288594 0
0.773434 0.283131 0
0.813809 0.278462 0
0.851255 0.273854 0
0.886107 0.270085 0
0.920913 0.265644 0
0.962707 0.259876 0
1 0.253727 0
1 0.247044 0
1 0.240009 0
1 0.232136 0
1 0.222812 0
1 0.212497 0
1 0.199695 0
0 0.397131 0
0 0.399329 0
0 0.407034 0
0 0.411917 0
0 0.414298 0
0 0.414572 0
0.00335698 0.411566 0
0.0586252 0.40827 0
0.113771 0.404227 0
0.169787 0.399359 0
0.227497 0.394003 0
0.285069 0.387854 0
0.343175 0.38114 0
0.401114 0.374472 0
0.457755 0.36733 0
0.51252 0.360388 0
0.566018 0.354009 0
0.617487 0.347463 0
0.667048 0.341665 0
0.713863 0.335897 0
0.758328 0.330953 0
0.799802 0.326085 0
0.838483 0.321935 0
0.875029 0.31812 0
0.910933 0.31458 0
0.952453 0.309438 0
0.993439 0.304479 0
1 0.298894 0
1 0.293385 0
1 0.287129 0
1 0.28011 0
1 0.272557 0
1 0.263066 0
0 0.433982 0
0 0.437491 0
0 0.446525 0
0 0.451759 0
0 0.454765 0
0 0.455756 0
0 0.453696 0
0.0421302 0.450828 0
0.0966354 0.447364 0
0.151781 0.443153 0
0.208133 0.438041 0
0.265064 0.43267 0
0.32253 0.426505 0
0.379767 0.419974 0
0.436774 0.413657 0
0.491905 0.40705 0
0.545968 0.400427 0
0.598505 0.3944 0
0.648615 0.388327 0
0.696544 0.383124 0
0.741665 0.378027 0
0.784634 0.373571 0
0.824948 0.369436 0
0.862654 0.365621 0
0.899931 0.362402 0
0.941588 0.357961 0
0.982879 0.353796 0
1 0.349462 0
1 0.3449 0
1 0.340154 0
1 0.334813 0
1 0.329412 0
1 0.322545 0
0 0.47129 0
0 0.476143 0
0 0.486412 0
0 0.492134 0
0 0.495521 0
0 0.496956 0
0 0.496239 0
0.027451 0.492912 0
0.0812543 0.489754 0
0.135805 0.486351 0
0.191165 0.481834 0
0.246906 0.476799 0
0.303746 0.47126 0
0.360555 0.465324 0
0.416846 0.458976 0
0.472282 0.453071 0
0.526604 0.446723 0
0.579263 0.440574 0
0.630396 0.435065 0
0.678965 0.429526 0
0.72549 0.424796 0
0.769192 0.420188 0
0.810346 0.416449 0
0.849226 0.412909 0
0.888457 0.4094 0
0.930816 0.405859 0
0.971862 0.401999 0
1 0.398718 0
1 0.394842 0
1 0.391348 0
1 0.387228 0
1 0.383505 0
1 0.378561 0
0 0.509712 0
0 0.516518 0
0 0.527077 0
0 0.533059 0
0 0.53637 0
0 0.538079 0
0 0.538216 0
0.0141909 0.535317 0
0.0680705 0.532387 0
0.121553 0.528969 0
0.17586 0.525017 0
0.231357 0.520455 0
0.287236 0.515175 0
0.343496 0.509758 0
0.399237 0.504021 0
0.453971 0.498085 0
0.508415 0.492393 0
0.561273 0.486442 0
0.612375 0.48072 0
0.661875 0.4757 0
0.708736 0.470726 0
0.753582 0.46659 0
0.795727 0.462531 0
0.835416 0.458976 0
0.877333 0.455894 0
0.919097 0.452567 0
0.96054 0.449638 0
1 0.446448 0
1 0.443793 0
1 0.440742 0
1 0.438087 0
1 0.435264 0
1 0.431937 0
0 0.548501 0
0 0.55697 0
0 0.567803 0
0 0.573693 0
0 0.577356 0
0 0.579385 0
0 0.579644 0
0.00239567 0.577188 0
0.0560922 0.574807 0
0.10927 0.571618 0
0.1626 0.567926 0
0.217243 0.563668 0
0.27248 0.558938 0
0.327749 0.553597 0
0.382895 0.548486 0
0.437736 0.542687 0
0.491798 0.536858 0
0.544976 0.531472 0
0.596231 0.525902 0
0.64564 0.520607 0
0.693004 0.516197 0
0.737972 0.511772 0
0.78114 0.508171 0
0.822293 0.504677 0
0.865599 0.501503 0
0.90808 0.498634 0
0.949142 0.495766 0
0.98941 0.493538 0
1 0.491005 0
1 0.48893 0
1 0.48687 0
1 0.484916 0
1 0.482872 0
0 0.587076 0
0 0.598154 0
0 0.608927 0
0 0.614755 0
0 0.618448 0
0 0.620508 0
0 0.621088 0
0 0.619318 0
0.0462043 0.616556 0
0.0990311 0.61387 0
0.151537 0.610452 0
0.205158 0.606317 0
0.259709 0.601999 0
0.313924 0.597162 0
0.368399 0.591836 0
0.423011 0.586572 0
0.476768 0.581018 0
0.529381 0.575433 0
0.580957 0.570367 0
0.630533 0.565194 0
0.678248 0.56051 0
0.723918 0.556359 0
0.767025 0.552483 0
0.810788 0.549554 0
0.854139 0.546426 0
0.896696 0.543816 0
0.937881 0.541329 0
0.978164 0.538964 0
1 0.537408 0
1 0.5355 0
1 0.534127 0
1 0.533196 0
1 0.531533 0
0 0.625879 0
0 0.639399 0
0 0.649744 0
0 0.655329 0
0 0.659052 0
0 0.661204 0
0 0.662165 0
0 0.66125 0
0.0388495 0.658183 0
0.0902266 0.655467 0
0.142672 0.652491 0
0.195453 0.648585 0
0.248463 0.644282 0
0.302495 0.639872 0
0.356329 0.63476 0
0.410056 0.629419 0
0.46363 0.624338 0
0.515892 0.618906 0
0.566934 0.613596 0
0.616815 0.608865 0
0.664485 0.604089 0
0.710491 0.600076 0
0.755367 0.596338 0
0.799634 0.593133 0
0.843275 0.5906 0
0.885435 0.587961 0
0.926802 0.585962 0
0.967086 0.58381 0
1 0.58201 0
1 0.58085 0
1 0.579904 0
1 0.579263 0
1 0.578683 0
0 0.666911 0
0 0.681025 0
0 0.690898 0
0 0.696193 0
0 0.699718 0
0 0.701885 0
0 0.702693 0
0 0.701991 0
0.0335393 0.699458 0
0.0843824 0.696757 0
0.135561 0.693568 0
0.187411 0.690318 0
0.239933 0.686091 0
0.292866 0.681483 0
0.346303 0.676936 0
0.399344 0.671748 0
0.451972 0.666423 0
0.504158 0.661463 0
0.554879 0.656229 0
0.604334 0.651286 0
0.652232 0.646845 0
0.698634 0.642802 0
0.744579 0.639673 0
0.788922 0.636454 0
0.832395 0.633478 0
0.875044 0.631235 0
0.915755 0.629129 0
0.9561 0.627344 0
0.99556 0.626017 0
1 0.62472 0
1 0.624186 0
1 0.624033 0
1 0.623713 0
0 0.710246 0
0 0.724666 0
0 0.732433 0
0 0.736599 0
0 0.739986 0
0 0.742321 0
0 0.743114 0
0 0.742458 0
0.0305943 0.739712 0
0.0811475 0.737408 0
0.131228 0.734356 0
0.181872 0.730831 0
0.233814 0.727123 0
0.285832 0.722637 0
0.338048 0.717845 0
0.390631 0.713176 0
0.442618 0.708003 0
0.493935 0.70277 0
0.544594 0.697963 0
0.593637 0.692927 0
0.641733 0.689113 0
0.688457 0.685298 0
0.733883 0.681849 0
0.778744 0.679011 0
0.822217 0.676066 0
0.864622 0.673609 0
0.905669 0.671611 0
0.945891 0.669688 0
0.985138 0.66836 0
1 0.667674 0
1 0.667109 0
1 0.667063 0
1 0.667292 0
0 0.75436 0
0 0.768734 0
0 0.775982 0
0 0.779644 0
0 0.781872 0
0 0.78291 0
0 0.782818 0
0 0.782635 0
0.0302586 0.779904 0
0.079118 0.77731 0
0.128756 0.774639 0
0.178683 0.771099 0
0.229374 0.767086 0
0.280964 0.763058 0
0.332403 0.758312 0
0.383902 0.753307 0
0.435538 0.748486 0
0.486244 0.743267 0
0.535897 0.738628 0
0.584802 0.734615 0
0.632456 0.730541 0
0.679164 0.727108 0
0.724376 0.723598 0
0.768856 0.720272 0
0.812573 0.717647 0
0.85481 0.715038 0
0.895644 0.712886 0
0.936095 0.71136 0
0.975052 0.709895 0
1 0.708843 0
1 0.708751 0
1 0.708995 0
1 0.709163 0
0 0.799664 0
0 0.813138 0
0 0.819089 0
0 0.822232 0
0 0.824277 0
0 0.825254 0
0 0.824964 0
0 0.823484 0
0.0305028 0.820294 0
0.0799878 0.817029 0
0.128511 0.813855 0
0.177752 0.810697 0
0.227405 0.806683 0
0.277653 0.802274 0
0.328573 0.797925 0
0.378805 0.793347 0
0.428687 0.788754 0
0.478782 0.784466 0
0.527855 0.779904 0
0.576516 0.775738 0
0.623758 0.771679 0
0.670192 0.767758 0
0.71603 0.764446 0
0.760479 0.761044 0
0.803738 0.757946 0
0.845899 0.755627 0
0.886442 0.753399 0
0.926421 0.751492 0
0.965591 0.750423 0
1 0.749432 0
1 0.748943 0
1 0.749142 0
1 0.749722 0
0 0.845899 0
0 0.857328 0
0 0.86247 0
0 0.865049 0
0 0.866545 0
0 0.867002 0
0 0.866697 0
0 0.865263 0
0.0291142 0.861555 0
0.0778821 0.858274 0
0.126009 0.855039 0
0.174365 0.851316 0
0.223438 0.847395 0
0.27306 0.843275 0
0.322621 0.838727 0
0.372564 0.834394 0
0.422141 0.829648 0
0.471427 0.824933 0
0.520607 0.820661 0
0.568872 0.816114 0
0.616312 0.812146 0
0.662577 0.808026 0
0.70782 0.80415 0
0.752407 0.800961 0
0.79556 0.797787 0
0.837522 0.79501 0
0.878294 0.792996 0
0.918044 0.790921 0
0.95642 0.78941 0
0.994415 0.788739 0
1 0.788266 0
1 0.788403 0
1 0.788663 0
0 0.892195 0
0 0.901183 0
0 0.905379 0
0 0.907378 0
0 0.908385 0
0 0.908782 0
0 0.907988 0
0 0.906172 0
0.0301671 0.902739 0
0.0776684 0.899245 0
0.12491 0.895598 0
0.172824 0.892042 0
0.220935 0.887846 0
0.269642 0.883436 0
0.318914 0.879164 0
0.367956 0.874434 0
0.417288 0.869947 0
0.466056 0.865064 0
0.514382 0.860243 0
0.562493 0.855909 0
0.609522 0.851438 0
0.655619 0.847272 0
0.700938 0.84358 0
0.744945 0.839857 0
0.788113 0.836774 0
0.829816 0.833783 0
0.870115 0.831312 0
0.909957 0.82945 0
0.948379 0.827848 0
0.985901 0.826627 0
1 0.825925 0
1 0.82623 0
1 0.826627 0
0 0.937942 0
0 0.945006 0
0 0.948043 0
0 0.949477 0
0 0.950408 0
0 0.950103 0
0 0.948913 0
0 0.947036 0
0.0331579 0.943023 0
0.0791791 0.939529 0
0.126009 0.936034 0
0.172717 0.932006 0
0.220295 0.928038 0
0.268147 0.923415 0
0.316381 0.918593 0
0.365118 0.914031 0
0.413611 0.909072 0
0.462043 0.904204 0
0.51017 0.899489 0
0.557519 0.894621 0
0.60441 0.890242 0
0.65008 0.885786 0
0.694835 0.881636 0
0.738918 0.878126 0
0.781598 0.874601 0
0.82295 0.871702 0
0.863096 0.869093 0
0.902358 0.866697 0
0.940475 0.864881 0
0.978073 0.863874 0
1 0.863066 0
1 0.862837 0
1 0.862898 0
0 0.983291 0
0 0.988495 0
0 0.99057 0
0 0.991638 0
0 0.991653 0
0 0.990982 0
0 0.989837 0
0 0.987259 0
0.0385443 0.983261 0
0.083238 0.979644 0
0.128267 0.975677 0
0.174289 0.971817 0
0.220584 0.967407 0
0.267567 0.962707 0
0.315755 0.957992 0
0.363455 0.95288 0
0.411521 0.948013 0
0.459205 0.942809 0
0.506569 0.937713 0
0.55378 0.933059 0
0.599985 0.928206 0
0.645594 0.923873 0
0.689891 0.919463 0
0.733272 0.915328 0
0.775937 0.911879 0
0.816846 0.908629 0
0.856947 0.905669 0
0.896239 0.90338 0
0.934005 0.901259 0
0.970947 0.899626 0
1 0.898604 0
1 0.898253 0
1 0.898543 0
0 1 0
0 1 0
0 1 0
0 1 0
0 1 0
0 1 0
0 1 0
0.000991836 1 0
0.0465705 1 0
