public/textures/grade/Canon/Parasitic-CLog3.cube
TITLE "Generated by Resolve"
LUT_3D_SIZE 9
0 0 0
0.0587472 0 0
0.348669 0 0
0.590906 0 0
0.775601 0 0
0.983474 0 0
1 0 0
1 0 0
1 0 0
0 0.0561379 0
0 0.0427405 0
0.311818 0 0
0.569055 0 0
0.769558 0 0
0.98381 0 0
1 0 0
1 0 0
1 0 0
0 0.217853 0
0 0.217533 0
0.158999 0.191211 0
0.45333 0.145708 0
0.699565 0.104952 0
0.873182 0.0689097 0
1 0.00112917 0
1 0 0
1 0 0
0 0.388449 0
0 0.399695 0
0.0550393 0.398108 0
0.332891 0.371511 0
0.612421 0.336706 0
0.831006 0.309361 0
1 0.282979 0
1 0.236072 0
1 0.144305 0
0 0.579217 0
0 0.60354 0
0 0.611276 0
0.247318 0.594293 0
0.521798 0.567712 0
0.757229 0.544274 0
0.943404 0.529442 0
1 0.514244 0
1 0.490394 0
0 0.775753 0
0 0.807111 0
0 0.809552 0
0.216449 0.79469 0
0.471336 0.772 0
0.70486 0.752361 0
0.891814 0.740001 0
1 0.733288 0
1 0.727306 0
0 0.960525 0
0 0.991119 0
0.00682078 0.985733 0
0.218219 0.967361 0
0.452857 0.943481 0
0.676966 0.920943 0
0.858793 0.906081 0
0.989792 0.899199 0
1 0.896803 0
0 1 0
0 1 0
0.0869459 1 0
0.25803 1 0
0.465858 1 0
0.672908 1 0
0.845808 1 0
0.971099 1 0
1 1 0
0 1 0
0.100099 1 0
0.187198 1 0
0.322271 1 0
0.498909 1 0
0.685573 1 0
0.847257 1 0
0.96669 1 0
1 1 0
0 0 0.120821
0.0146639 0 0.117815
0.328939 0 0.0627909
0.591562 0 0
0.790143 0 0
0.974929 0 0
1 0 0
1 0 0
1 0 0
0 0.0353704 0.016144
0 0.0245365 0.0119478
0.31664 0 0
0.577951 0 0
0.780377 0 0
0.979156 0 0
1 0 0
1 0 0
1 0 0
0 0.210925 0
0 0.210208 0
0.15697 0.183719 0
0.455833 0.136889 0
0.701885 0.0955062 0
0.87422 0.0588998 0
1 0 0
1 0 0
1 0 0
0 0.384878 0
0 0.394858 0
0.0501564 0.394141 0
0.331319 0.367544 0
0.612924 0.332113 0
0.832197 0.304921 0
1 0.27779 0
1 0.22977 0
1 0.135378 0
0 0.577508 0
0 0.600259 0
0 0.609689 0
0.244587 0.592508 0
0.520928 0.565789 0
0.757321 0.542214 0
0.943786 0.527382 0
1 0.512016 0
1 0.488151 0
0 0.774868 0
0 0.8056 0
0 0.808881 0
0.213764 0.793957 0
0.470008 0.771237 0
0.704402 0.751522 0
0.891768 0.739132 0
1 0.732555 0
1 0.726406 0
0 0.957366 0
0 0.990967 0
0.00103761 0.985855 0
0.215503 0.967208 0
0.451469 0.943267 0
0.676417 0.920638 0
0.85861 0.905745 0
0.989761 0.898863 0
1 0.896468 0
0 1 0
0 1 0
0.0829328 1 0
0.255726 1 0
0.464546 1 0
0.672374 1 0
0.84564 1 0
0.971023 1 0
1 1 0
0 1 0
0.0961318 1 0
0.184146 1 0
0.320378 1 0
0.497749 1 0
0.685039 1 0
0.847028 1 0
0.966598 1 0
1 1 0
0 0 0.413413
0 0 0.411246
0.254215 0 0.382284
0.55848 0 0.305715
0.792065 0 0.219806
0.959854 0 0.162036
1 0 0.13402
1 0 0.121431
1 0 0.119997
0 0.00526436 0.346303
0 0 0.345678
0.251316 0 0.322148
0.560098 0 0.251209
0.792981 0 0.176684
0.962402 0 0.125277
1 0 0.0985275
1 0 0.0868544
1 0 0.0859998
0 0.186755 0.169497
0 0.185977 0.172183
0.125216 0.177584 0.167651
0.483314 0.119387 0.110353
0.738445 0.0796674 0.0896773
0.921782 0.0420081 0.0848249
1 0 0.084535
1 0 0.050309
1 0 0.050309
0 0.380362 0
0 0.390448 0
0.0482185 0.396994 0
0.336477 0.372549 0
0.641215 0.333242 0
0.873106 0.303471 0
1 0.279545 0
1 0.234531 0.0019379
1 0.136675 0.0238499
0 0.575677 0
0 0.597025 0
0 0.60798 0
0.241917 0.590997 0
0.520073 0.563836 0
0.757244 0.5402 0
0.944091 0.525216 0
1 0.509667 0
1 0.485542 0
0 0.773983 0
0 0.803784 0
0 0.808103 0
0.210605 0.793362 0
0.468681 0.770474 0
0.703838 0.750744 0
0.891722 0.738277 0
1 0.731716 0
1 0.725567 0
0 0.956344 0
0 0.990387 0
0 0.985901 0
0.212573 0.967102 0
0.45005 0.943053 0
0.675853 0.920333 0
0.858427 0.905409 0
0.989731 0.898512 0
1 0.896117 0
0 1 0
0 1 0
0.0792859 1 0
0.253437 1 0
0.463233 1 0
0.671809 1 0
0.845441 1 0
0.970947 1 0
1 1 0
0 1 0
0.0921035 1 0
0.181048 1 0
0.318288 1 0
0.49659 1 0
0.684489 1 0
0.846815 1 0
0.966506 1 0
1 1 0
0 0 0.742214
0 0 0.740353
0.186603 0 0.708156
0.483284 0 0.646723
0.751446 0 0.553246
0.940291 0 0.469841
1 0 0.431952
1 0 0.411231
1 0 0.403342
0 0 0.717144
0 0 0.716243
0.192554 0 0.686595
0.48957 0 0.6262
0.755535 0 0.532662
0.941802 0 0.449958
1 0 0.412772
1 0 0.392569
1 0 0.385077
0 0.154284 0.526223
0 0.152682 0.52546
0.11075 0.14435 0.516274
0.413855 0.0991073 0.505516
0.718837 0.0462806 0.461448
0.927733 0.0019379 0.417731
1 0 0.38471
1 0 0.373159
1 0 0.366079
0 0.356664 0.348623
0 0.362676 0.356451
0.0418708 0.375235 0.370779
0.290181 0.361639 0.360479
0.672511 0.304814 0.305913
0.918059 0.27512 0.2963
1 0.249851 0.308202
1 0.209003 0.335256
1 0.112184 0.36054
0 0.575708 0.150973
0 0.593088 0.167178
0 0.610742 0.176074
0.22327 0.60174 0.141833
0.525902 0.574228 0.0814527
0.805341 0.542535 0.0666361
1 0.523186 0.0895399
1 0.507729 0.124788
1 0.485664 0.164034
0 0.777935 0
0 0.80589 0
0 0.813901 0
0.20322 0.800641 0
0.468223 0.776745 0
0.707881 0.754253 0
0.896223 0.74139 0
1 0.734661 0
1 0.728359 0
0 0.955642 0
0 0.989151 0
0 0.985809 0
0.206241 0.966888 0
0.447486 0.942473 0
0.674662 0.919707 0
0.85803 0.904707 0
0.989654 0.897795 0
1 0.895399 0
0 1 0
0 1 0
0.0702525 1 0
0.247974 1 0
0.460548 1 0
0.670573 1 0
0.844968 1 0
0.970764 1 0
1 1 0
0 1 0
0.0838026 1 0
0.174792 1 0
0.313802 1 0
0.494133 1 0
0.68333 1 0
0.846326 1 0
0.966308 1 0
1 1 0
0 0 1
0 0 1
0.118883 0 1
0.408713 0 0.950057
0.684504 0 0.861173
0.918288 0 0.793072
1 0 0.744747
1 0 0.715373
1 0 0.701122
0 0 1
0 0 1
0.123964 0 1
0.412024 0 0.942336
0.685985 0 0.852308
0.919142 0 0.784634
1 0 0.736614
1 0 0.707469
1 0 0.693385
0 0.095079 0.893797
0 0.0922713 0.896529
0.0796674 0.0846265 0.864912
0.367422 0.046128 0.835325
0.6598 0 0.794965
0.884398 0 0.738735
1 0 0.706142
1 0 0.698833
1 0 0.684916
0 0.325353 0.691127
0 0.324193 0.69192
0.00773632 0.344472 0.714641
0.279271 0.327993 0.716335
0.604791 0.283299 0.721172
0.896483 0.240635 0.70103
1 0.209094 0.684962
1 0.161761 0.686198
1 0.0514839 0.686931
0 0.554009 0.556924
0 0.559106 0.562844
0 0.586542 0.591089
0.204471 0.578851 0.585153
0.478355 0.557412 0.567498
0.832303 0.507057 0.523217
1 0.485069 0.520211
1 0.468681 0.536797
1 0.4448 0.565805
0 0.770947 0.392065
0 0.791485 0.412024
0 0.80853 0.424979
0.157305 0.800153 0.406714
0.421973 0.780026 0.35967
0.698344 0.752071 0.292638
0.925505 0.727932 0.274083
1 0.714275 0.286793
1 0.705196 0.307897
0 0.964248 0
0 0.994842 0.0138857
0 0.993851 0.0117037
0.181537 0.978973 0
0.429053 0.953887 0
0.668925 0.926024 0
0.858793 0.905669 0
0.989685 0.896239 0
1 0.892683 0
0 1 0
0 1 0
0.050721 1 0
0.236713 1 0
0.45452 1 0
0.66804 1 0
0.843946 1 0
0.970397 1 0
1 1 0
0 1 0
0.0649119 1 0
0.160372 1 0
0.304448 1 0
0.488869 1 0
0.680842 1 0
0.845304 1 0
0.965881 1 0
1 1 0
0 0 1
0 0 1
0.0182193 0 1
0.349325 0 1
0.650431 0 1
0.895476 0 1
1 0 1
1 0 0.976486
1 0 0.957259
0 0 1
0 0 1
0.0241703 0 1
0.351873 0 1
0.651621 0 1
0.895949 0 1
1 0 1
1 0 0.973449
1 0 0.954238
0 0 1
0 0 1
0.0186923 0 1
0.343191 0 1
0.643809 0 1
0.896406 0 1
1 0 1
1 0 0.970489
1 0 0.951385
0 0.271199 0.982101
0 0.269703 0.983032
0 0.286397 0.995789
0.255299 0.271565 1
0.570504 0.232517 1
0.852247 0.189929 0.989853
1 0.14934 0.970367
1 0.0849775 0.949279
1 0 0.935378
0 0.52636 0.859876
0 0.525826 0.860197
0 0.556115 0.891936
0.171313 0.55285 0.893477
0.467979 0.527825 0.886671
0.775296 0.487022 0.899351
1 0.454444 0.897322
1 0.433249 0.899733
1 0.405951 0.915816
0 0.753353 0.765133
0 0.753124 0.765225
0 0.787961 0.800443
0.122972 0.780972 0.794217
0.401907 0.757855 0.772473
0.658808 0.73228 0.749844
0.940368 0.692866 0.721416
1 0.676631 0.718624
1 0.666209 0.730159
0 0.944686 0.657511
0 0.96582 0.677745
0 0.97406 0.684794
0.117876 0.959808 0.667308
0.371496 0.934081 0.634577
0.614389 0.907942 0.585122
0.831846 0.885237 0.522972
0.99617 0.867552 0.500938
1 0.858412 0.503548
0 1 0.384878
0 1 0.398703
0 1 0.388357
0.169223 1 0.356344
0.392462 1 0.307973
0.619837 1 0.25333
0.813794 1 0.217395
0.952819 0.998459 0.206546
1 0.991165 0.208148
0 1 0
0.021561 1 0
0.128267 1 0
0.283452 1 0
0.47776 1 0
0.675959 1 0
0.843137 1 0
0.964996 1 0
1 1 0
0 0 1
0 0 1
0 0 1
0.252872 0 1
0.604257 0 1
0.870298 0 1
1 0 1
1 0 1
1 0 1
0 0 1
0 0 1
0 0 1
0.255451 0 1
0.605386 0 1
0.870756 0 1
1 0 1
1 0 1
1 0 1
0 0 1
0 0 1
0 0 1
0.258335 0 1
0.606531 0 1
0.871199 0 1
1 0 1
1 0 1
1 0 1
0 0.147112 1
0 0.144823 1
0 0.142779 1
0.210559 0.138262 1
0.547463 0.0953689 1
0.815106 0.0451972 1
1 0 1
1 0 1
1 0 1
0 0.479744 1
0 0.478981 1
0 0.478614 1
0.109407 0.507088 1
0.450919 0.480308 1
0.757244 0.443259 1
0.996826 0.411566 1
1 0.384802 1
1 0.348791 1
0 0.733333 0.996017
0 0.733028 0.996078
0 0.748104 1
0.0524147 0.764538 1
0.371023 0.739788 1
0.650752 0.709911 0.997803
0.898711 0.676997 1
1 0.653574 1
1 0.640009 1
0 0.932631 0.948379
0 0.932509 0.948379
0 0.959533 0.975616
0.0485847 0.950805 0.967239
0.33933 0.920638 0.937728
0.599863 0.889555 0.907912
0.80679 0.866178 0.887053
0.99881 0.839521 0.873213
1 0.828244 0.870085
0 1 0.895033
0 1 0.910613
0 1 0.91078
0.0946059 1 0.888487
0.34519 1 0.854353
0.58172 1 0.817365
0.77322 0.987716 0.777676
0.922713 0.972107 0.729366
1 0.961059 0.709667
0 1 0.783093
0 1 0.775662
0.00309758 1 0.762295
0.172778 1 0.736721
0.379416 1 0.698878
0.588342 1 0.650355
0.769162 1 0.595315
0.908644 1 0.553582
0.996872 1 0.535546
0 0 1
0 0 1
0 0 1
0.0287327 0 1
0.527947 0 1
0.839155 0 1
1 0 1
1 0 1
1 0 1
0 0 1
0 0 1
0 0 1
0.0337072 0 1
0.529305 0 1
0.839597 0 1
1 0 1
1 0 1
1 0 1
0 0 1
0 0 1
0 0 1
0.03888 0 1
0.530648 0 1
0.840055 0 1
1 0 1
1 0 1
1 0 1
0 0 1
0 0 1
0 0 1
0.0493629 0 1
0.533516 0 1
0.841001 0 1
1 0 1
1 0 1
1 0 1
0 0.378622 1
0 0.377661 1
0 0.376745 1
0 0.402228 1
0.422339 0.376379 1
0.759182 0.33666 1
0.996338 0.302815 1
1 0.264912 1
1 0.19115 1
0 0.699748 1
0 0.699397 1
0 0.699062 1
0 0.734066 1
0.318303 0.711833 1
0.639765 0.677775 1
0.892088 0.64622 1
1 0.623285 1
1 0.607492 1
0 0.92015 1
0 0.920027 1
0 0.919905 1
0 0.947066 1
0.280034 0.914366 1
0.577188 0.878599 1
0.800137 0.851881 1
0.972427 0.828702 1
1 0.813245 1
0 1 1
0 1 1
0 1 1
0 1 1
0.288045 1 1
0.558724 1 1
0.76672 0.974578 0.992264
0.91162 0.957031 0.976486
1 0.942031 0.973663
0 1 1
0 1 1
0 1 1
0.0691386 1 1
0.325322 1 1
0.564538 1 0.973907
0.755886 1 0.942855
0.890745 1 0.9178
0.977493 1 0.88867
0 0 1
0 0 1
0 0 1
0 0 1
0.3888 0 1
0.797147 0 1
1 0 1
1 0 1
1 0 1
0 0 1
0 0 1
0 0 1
0 0 1
0.390768 0 1
0.79765 0 1
1 0 1
1 0 1
1 0 1
0 0 1
0 0 1
0 0 1
0 0 1
0.392737 0 1
0.798154 0 1
1 0 1
1 0 1
1 0 1
0 0 1
0 0 1
0 0 1
0 0 1
0.396445 0 1
0.799207 0 1
1 0 1
1 0 1
1 0 1
0 0.0992447 1
0 0.0966201 1
0 0.0937819 1
0 0.0874342 1
0.366522 0.0580911 1
0.755886 0 1
0.986603 0 1
1 0 1
1 0 1
0 0.637476 1
0 0.637049 1
0 0.636606 1
0 0.63566 1
0.216373 0.659007 1
0.623301 0.619165 1
0.901427 0.585382 1
1 0.562295 1
1 0.542992 1
0 0.900282 1
0 0.900145 1
0 0.900008 1
0 0.899702 1
0.170657 0.907576 1
0.543496 0.864439 1
0.793576 0.834073 1
0.970886 0.810987 1
1 0.795712 1
0 1 1
0 1 1
0 1 1
0 1 1
0.188006 1 1
0.522652 1 1
0.753384 0.968399 1
0.906416 0.949065 1
1 0.934997 1
0 1 1
0 1 1
0 1 1
0 1 1
0.238575 1 1
0.529213 1 1
0.742947 1 1
0.887541 1 1
0.977172 1 1
