public/textures/grade/Canon/Parasitic-Clog.cube
TITLE "Generated by Resolve"
LUT_3D_SIZE 9
0 0 0
0.176165 0 0
0.412802 0 0
0.603281 0 0
0.752392 0 0
0.909316 0 0
1 0 0
1 0 0
1 0 0
0 0.110933 0
0.058381 0.0909133 0
0.330678 0.0425879 0
0.547402 0.00109865 0
0.718074 0 0
0.847044 0 0
1 0 0
1 0 0
1 0 0
0 0.255619 0
0 0.256779 0
0.200168 0.230518 0
0.43917 0.195865 0
0.644953 0.164553 0
0.810239 0.138827 0
0.945556 0.113298 0
1 0.0656596 0
1 0 0
0 0.397131 0
0 0.414298 0
0.113771 0.404227 0
0.343175 0.38114 0
0.566018 0.354009 0
0.758328 0.330953 0
0.910933 0.31458 0
1 0.293385 0
1 0.263066 0
0 0.548501 0
0 0.577356 0
0.0560922 0.574807 0
0.27248 0.558938 0
0.491798 0.536858 0
0.693004 0.516197 0
0.865599 0.501503 0
1 0.491005 0
1 0.482872 0
0 0.710246 0
0 0.739986 0
0.0305943 0.739712 0
0.233814 0.727123 0
0.442618 0.708003 0
0.641733 0.689113 0
0.822217 0.676066 0
0.985138 0.66836 0
1 0.667292 0
0 0.892195 0
0 0.908385 0
0.0301671 0.902739 0
0.220935 0.887846 0
0.417288 0.869947 0
0.609522 0.851438 0
0.788113 0.836774 0
0.948379 0.827848 0
1 0.826627 0
0 1 0
0 1 0
0.0568704 1 0
0.228702 1 0
0.411749 1 0
0.595666 1 0
0.767773 0.98381 0
0.922957 0.971176 0
1 0.966049 0
0 1 0
0 1 0
0.124941 1 0
0.271077 1 0
0.434913 1 0
0.604318 1 0
0.766369 1 0
0.914549 1 0
1 1 0
0 0 0.19556
0.118227 0 0.184482
0.389685 0 0.12784
0.603021 0 0.0679484
0.767636 0 0.0222477
0.897856 0 0
1 0 0
1 0 0
1 0 0
0 0.0908675 0.0737774
0.0401617 0.0799573 0.0669413
0.342519 0.0260624 0.0147097
0.561639 0 0
0.735592 0 0
0.869017 0 0
1 0 0
1 0 0
1 0 0
0 0.248829 0
0 0.252125 0
0.201221 0.228016 0
0.45005 0.191806 0
0.660655 0.15996 0
0.828565 0.133928 0
0.953506 0.110933 0
1 0.0626688 0
1 0 0
0 0.394385 0
0 0.410986 0
0.110582 0.401312 0
0.342031 0.378454 0
0.566217 0.350576 0
0.758877 0.327413 0
0.911345 0.310918 0
1 0.289403 0
1 0.258564 0
0 0.546807 0
0 0.575113 0
0.0525673 0.573083 0
0.270466 0.55726 0
0.49102 0.535042 0
0.692851 0.514321 0
0.86595 0.499779 0
1 0.488945 0
1 0.48069 0
0 0.707256 0
0 0.738857 0
0.0263523 0.73904 0
0.231266 0.72636 0
0.441398 0.707088 0
0.64123 0.68809 0
0.822065 0.675013 0
0.985138 0.667567 0
1 0.666209 0
0 0.88957 0
0 0.907988 0
0.0260014 0.902464 0
0.218509 0.887495 0
0.415961 0.869505 0
0.60885 0.850919 0
0.787823 0.83624 0
0.948287 0.827298 0
1 0.826078 0
0 1 0
0 1 0
0.0533913 1 0
0.226764 1 0
0.410452 1 0
0.594949 1 0
0.767422 0.983536 0
0.922866 0.970947 0
1 0.965774 0
0 1 0
0 1 0
0.122148 1 0
0.269139 1 0
0.433707 1 0
0.603616 1 0
0.766003 1 0
0.914397 1 0
1 1 0
0 0 0.47628
0.069337 0 0.46714
0.319997 0 0.431998
0.56289 0 0.367605
0.756481 0 0.295888
0.892592 0 0.235401
1 0 0.200961
1 0 0.178973
1 0 0.17023
0 0.0647288 0.371618
0.0246433 0.0530098 0.366445
0.278981 0.0104067 0.350301
0.537041 0 0.301854
0.736675 0 0.248554
0.886336 0 0.207294
1 0 0.175509
1 0 0.155108
1 0 0.147173
0 0.226337 0.21239
0 0.23122 0.219974
0.164508 0.221653 0.213687
0.47306 0.172259 0.162036
0.690486 0.141283 0.143282
0.86511 0.115816 0.13611
0.999893 0.0914473 0.139635
1 0.052842 0.149599
1 0 0.145098
0 0.387015 0.0592966
0 0.406104 0.0754253
0.105165 0.404532 0.0556497
0.345464 0.383154 0.00729381
0.59855 0.350927 0
0.806516 0.32517 0
0.970489 0.306996 0.0158694
1 0.293187 0.0526131
1 0.264439 0.0836652
0 0.551141 0
0 0.580072 0
0.0498512 0.581109 0
0.269871 0.566522 0
0.498512 0.543618 0
0.711162 0.520943 0
0.887739 0.504631 0
1 0.495293 0
1 0.486839 0
0 0.704417 0
0 0.736767 0
0.0207065 0.738094 0
0.227955 0.725124 0
0.439628 0.705776 0
0.640497 0.686625 0
0.821866 0.673487 0
0.985168 0.666102 0
1 0.664775 0
0 0.885557 0
0 0.90695 0
0.020264 0.901976 0
0.215137 0.886931 0
0.414084 0.868833 0
0.607889 0.850172 0
0.787396 0.835462 0
0.948165 0.826505 0
1 0.825284 0
0 1 0
0 1 0
0.0486915 1 0
0.223789 1 0
0.408667 1 0
0.593942 1 0
0.766827 0.983185 0
0.922698 0.970611 0
1 0.965423 0
0 1 0
0 1 0
0.11812 1 0
0.266361 1 0
0.431952 1 0
0.602609 1 0
0.765469 1 0
0.914183 1 0
1 1 0
0 0 0.753246
0.0245365 0 0.74226
0.259205 0 0.70634
0.498924 0 0.652659
0.713008 0 0.579828
0.872892 0 0.503288
1 0 0.459068
1 0 0.429435
1 0 0.412421
0 0.0235294 0.679683
0 0.0124666 0.670115
0.234852 0 0.645289
0.481025 0 0.606546
0.703334 0 0.548379
0.872465 0 0.485084
1 0 0.444205
1 0 0.41503
1 0 0.398505
0 0.20177 0.497826
0 0.207385 0.498573
0.155764 0.196323 0.495216
0.406256 0.16025 0.492912
0.665293 0.1178 0.46627
0.864179 0.0870375 0.433677
1 0.0592203 0.412741
1 0.0209659 0.400351
1 0 0.389013
0 0.367132 0.36054
0 0.384604 0.37937
0.09691 0.386114 0.382788
0.30103 0.373388 0.372885
0.619257 0.32488 0.323552
0.836667 0.29897 0.309987
1 0.280995 0.311284
1 0.265629 0.327169
1 0.244892 0.360922
0 0.540078 0.215549
0 0.567147 0.240711
0.0391699 0.572717 0.23917
0.248173 0.563333 0.210758
0.492134 0.540505 0.155093
0.738216 0.511498 0.129519
0.935454 0.490852 0.13933
1 0.479713 0.166812
1 0.47451 0.210773
0 0.712398 0.0031281
0 0.747204 0.0282444
0.00572213 0.751888 0.017319
0.210742 0.741909 0
0.430686 0.723415 0
0.65037 0.700465 0
0.845365 0.681392 0
1 0.670726 0
1 0.669398 0.0152438
0 0.878614 0
0 0.90486 0
0.0089723 0.901427 0
0.209781 0.885832 0
0.411292 0.867567 0
0.606439 0.848829 0
0.786679 0.834104 0
0.947936 0.825116 0
1 0.823911 0
0 1 0
0 1 0
0.0396277 1 0
0.21825 1 0
0.405722 1 0
0.592035 1 0
0.765927 0.982513 0
0.922301 0.969894 0
1 0.964828 0
0 1 0
0 1 0
0.111376 1 0
0.261616 1 0
0.428901 1 0
0.600885 1 0
0.764538 1 0
0.913756 1 0
1 1 0
0 0 1
0 0 1
0.204974 0 0.955917
0.438651 0 0.901198
0.655528 0 0.830686
0.84596 0 0.764904
1 0 0.717433
1 0 0.68014
1 0 0.654871
0 0 0.988388
0 0 0.972351
0.201053 0 0.931914
0.436652 0 0.884123
0.656352 0 0.820462
0.846922 0 0.756069
1 0 0.708873
1 0 0.671885
1 0 0.646876
0 0.165637 0.778317
0 0.169848 0.772747
0.136553 0.159869 0.762753
0.369848 0.130282 0.756374
0.613245 0.0908522 0.741482
0.826902 0.0534066 0.710201
0.988815 0.0183719 0.675807
1 0 0.640558
1 0 0.629847
0 0.344198 0.63357
0 0.358633 0.648569
0.0751507 0.36408 0.65803
0.29366 0.348211 0.656657
0.553079 0.312932 0.661952
0.810498 0.275196 0.646387
1 0.251728 0.626261
1 0.233829 0.621637
1 0.209369 0.635599
0 0.52224 0.523598
0 0.544976 0.547082
0.0244602 0.553399 0.556619
0.234134 0.544381 0.549508
0.448249 0.52755 0.535454
0.75523 0.482399 0.493233
0.963653 0.460945 0.48368
1 0.448844 0.490745
1 0.442847 0.517861
0 0.69929 0.396475
0 0.72929 0.425162
0 0.736614 0.429541
0.187671 0.728222 0.41416
0.399878 0.712428 0.379049
0.635111 0.689601 0.319402
0.862821 0.66389 0.291737
1 0.647745 0.301396
1 0.643153 0.330755
0 0.875029 0.197604
0 0.907698 0.22678
0 0.910597 0.218311
0.170016 0.89987 0.189731
0.374411 0.882185 0.149554
0.586404 0.860258 0.108782
0.787137 0.838514 0.0871748
0.960662 0.823041 0.0904707
1 0.817182 0.11426
0 1 0
0 1 0
0.0237125 1 0
0.208759 1 0
0.400092 1 0
0.588876 1 0
0.764508 0.981476 0
0.92163 0.968658 0
1 0.963684 0
0 1 0
0 1 0
0.0988937 1 0
0.253605 1 0
0.423606 1 0
0.597879 1 0
0.762951 1 0
0.912902 1 0
1 1 0
0 0 1
0 0 1
0.149783 0 1
0.392676 0 1
0.620813 0 1
0.824933 0 1
0.997513 0 0.954559
1 0 0.91017
1 0 0.877546
0 0 1
0 0 1
0.15314 0 1
0.394629 0 1
0.621988 0 1
0.825666 0 1
0.997986 0 0.950195
1 0 0.905959
1 0 0.873472
0 0.107088 1
0 0.10573 1
0.108721 0.100023 1
0.344823 0.0712596 0.986679
0.576074 0.0336767 0.961776
0.781994 0 0.92668
0.939971 0 0.881224
1 0 0.865492
1 0 0.867491
0 0.311208 0.877485
0 0.316289 0.882582
0.045655 0.330159 0.903365
0.278325 0.31426 0.905531
0.523278 0.284566 0.909224
0.7673 0.249699 0.905821
0.973861 0.221241 0.891051
1 0.197604 0.878599
1 0.166629 0.876371
0 0.500847 0.781445
0 0.513405 0.794888
0 0.532784 0.81622
0.213123 0.524285 0.811933
0.441398 0.504265 0.806592
0.696071 0.470466 0.81593
0.93843 0.438178 0.810483
1 0.421439 0.803037
1 0.412863 0.814313
0 0.683955 0.692439
0 0.705486 0.714366
0 0.71989 0.729412
0.168048 0.711131 0.721706
0.384817 0.693935 0.70631
0.597314 0.674098 0.689601
0.87512 0.634104 0.657267
1 0.616953 0.650187
1 0.611093 0.662791
0 0.860395 0.593317
0 0.889128 0.621073
0 0.893828 0.624201
0.141802 0.882475 0.609964
0.34696 0.864012 0.585657
0.5523 0.843748 0.547051
0.76614 0.821927 0.486885
0.970169 0.799847 0.459831
1 0.788891 0.468956
0 1 0.431052
0 1 0.445823
0 1 0.436698
0.149706 1 0.410483
0.339544 1 0.372976
0.534966 0.998108 0.325521
0.728008 0.975006 0.280369
0.905196 0.954787 0.255756
1 0.942626 0.255497
0 1 0
0 1 0
0.0772869 1 0
0.239887 1 0
0.415808 1 0
0.593698 1 0
0.761135 1 0
0.91194 1 0
1 1 0
0 0 1
0 0 1
0.0644999 0 1
0.341253 0 1
0.586877 0 1
0.801755 0 1
0.97969 0 1
1 0 1
1 0 1
0 0 1
0 0 1
0.0679332 0 1
0.343221 0 1
0.587961 0 1
0.80235 0 1
0.980056 0 1
1 0 1
1 0 1
0 0 1
0 0 1
0.057145 0 1
0.325658 0 1
0.563943 0 1
0.782361 0 1
0.98056 0 1
1 0 1
1 0 1
0 0.257496 1
0 0.256275 1
0 0.273426 1
0.256443 0.258396 1
0.505486 0.229847 1
0.741131 0.19736 1
0.942351 0.166964 1
1 0.136995 1
1 0.0777447 1
0 0.471199 0.998047
0 0.470573 0.998276
0 0.500908 1
0.185672 0.494636 1
0.429129 0.473823 1
0.673518 0.444373 1
0.905333 0.414908 1
1 0.394308 1
1 0.381323 1
0 0.665782 0.922515
0 0.665431 0.922606
0 0.700832 0.959609
0.133944 0.695048 0.956115
0.365118 0.676829 0.942458
0.590555 0.654002 0.934539
0.826154 0.622675 0.946944
1 0.596368 0.950256
1 0.58645 0.953994
0 0.847883 0.861189
0 0.859205 0.87274
0 0.880644 0.89456
0.105882 0.869734 0.88423
0.326558 0.849195 0.864652
0.540322 0.826291 0.843351
0.738354 0.804959 0.824796
0.97583 0.772168 0.803006
1 0.759441 0.79971
0 1 0.794659
0 1 0.816648
0 1 0.814282
0.108278 1 0.796323
0.310918 1 0.770687
0.510018 0.976745 0.740536
0.697688 0.954513 0.702129
0.882872 0.934859 0.645136
1 0.917296 0.620905
0 1 0.675761
0 1 0.672129
0 1 0.657755
0.152453 1 0.632136
0.330053 1 0.597559
0.511086 1 0.554147
0.687755 1 0.502953
0.855512 1 0.455329
1 1 0.429007
0 0 1
0 0 1
0 0 1
0.256794 0 1
0.539391 0 1
0.772595 0 1
0.960189 0 1
1 0 1
1 0 1
0 0 1
0 0 1
0 0 1
0.259007 0 1
0.540505 0 1
0.773159 0 1
0.960494 0 1
1 0 1
1 0 1
0 0 1
0 0 1
0 0 1
0.262196 0 1
0.541878 0 1
0.773968 0 1
0.960922 0 1
1 0 1
1 0 1
0 0.145449 1
0 0.143679 1
0 0.147829 1
0.217578 0.138354 1
0.486 0.10663 1
0.719387 0.0693523 1
0.917739 0.0252689 1
1 0 1
1 0 1
0 0.42002 1
0 0.419379 1
0 0.435615 1
0.138003 0.443839 1
0.411856 0.422278 1
0.665461 0.39379 1
0.891752 0.366445 1
1 0.34464 1
1 0.327398 1
0 0.640436 1
0 0.640055 1
0 0.665019 1
0.0762493 0.672053 1
0.338598 0.653071 1
0.580896 0.628031 1
0.811872 0.600244 1
1 0.575677 1
1 0.562783 1
0 0.8336 1
0 0.833417 1
0 0.86276 1
0.0446174 0.859464 1
0.29305 0.837797 1
0.52224 0.812863 1
0.731487 0.788617 1
0.939681 0.761196 1
1 0.741482 1
0 1 1
0 1 1
0 1 1
0.0471046 1 1
0.275608 0.993164 1
0.49163 0.964416 0.981109
0.689204 0.938125 0.956191
0.8654 0.917327 0.937804
1 0.892729 0.926299
0 1 0.991958
0 1 1
0 1 0.99443
0.0911574 1 0.97023
0.290501 1 0.939681
0.486366 1 0.906889
0.668421 1 0.874525
0.831067 1 0.837644
0.982559 1 0.78648
0 0 1
0 0 1
0 0 1
0.0798657 0 1
0.459648 0 1
0.732677 0 1
0.938628 0 1
1 0 1
1 0 1
0 0 1
0 0 1
0 0 1
0.0831769 0 1
0.460945 0 1
0.733227 0 1
0.938872 0 1
1 0 1
1 0 1
0 0 1
0 0 1
0 0 1
0.0878004 0 1
0.462776 0 1
0.734035 0 1
0.939223 0 1
1 0 1
1 0 1
0 0 1
0 0 1
0 0 1
0.0955673 0 1
0.465934 0 1
0.735409 0 1
0.939834 0 1
1 0 1
1 0 1
0 0.308476 1
0 0.307408 1
0 0.305974 1
0.0221714 0.32784 1
0.380652 0.305943 1
0.660868 0.274678 1
0.889616 0.24567 1
1 0.217121 1
1 0.17171 1
0 0.592233 1
0 0.591867 1
0 0.591333 1
0 0.626154 1
0.289342 0.609827 1
0.56762 0.582406 1
0.811292 0.553979 1
1 0.53077 1
1 0.517296 1
0 0.811872 1
0 0.811658 1
0 0.811353 1
0 0.84361 1
0.23389 0.822553 1
0.496406 0.794247 1
0.724147 0.767559 1
0.932464 0.741756 1
1 0.722591 1
0 1 1
0 1 1
0 1 1
0 1 1
0.213916 0.98912 1
0.460166 0.956725 1
0.673136 0.928069 1
0.858564 0.904677 1
1 0.881514 1
0 1 1
0 1 1
0 1 1
0 1 1
0.22945 1 1
0.452918 1 1
0.651911 1 1
0.825162 1 1
0.977172 1 1
