public/textures/grade/Canon/Parasitic-CLog2.cube
TITLE "Generated by Resolve"
LUT_3D_SIZE 9
0 0.0158846 0.00392157
0.0815747 0 0
0.250355 0 0
0.485878 0 0
0.728359 0 0
0.956466 0 0
1 0 0
1 0 0
1 0 0
0 0.0673686 0
0.0264591 0.0582284 0
0.209735 0.024918 0
0.458747 0 0
0.710369 0 0
0.938689 0 0
1 0 0
1 0 0
1 0 0
0 0.165469 0
0 0.162844 0
0.114885 0.142458 0
0.379873 0.0986191 0
0.658579 0.0485542 0
0.864866 0.000457771 0
1 0 0
1 0 0
1 0 0
0 0.318654 0
0 0.321721 0
0.0191958 0.316152 0
0.261006 0.291859 0
0.57377 0.249088 0
0.835508 0.21146 0
1 0.166781 0
1 0.0769818 0
1 0 0
0 0.534829 0
0 0.54168 0
0 0.546685 0
0.156405 0.534691 0
0.462745 0.505821 0
0.756191 0.474464 0
0.972717 0.453391 0
1 0.428885 0
1 0.397024 0
0 0.780636 0
0 0.784375 0
0 0.786923 0
0.116091 0.779309 0
0.394888 0.756451 0
0.683772 0.730785 0
0.908141 0.716106 0
1 0.708659 0
1 0.7028 0
0 1 0
0 1 0
0 0.99971 0
0.130831 0.985824 0
0.37937 0.961166 0
0.65124 0.933211 0
0.867964 0.91487 0
1 0.908156 0
1 0.906157 0
0 1 0
0 1 0
0.0637217 1 0
0.193179 1 0
0.40441 1 0
0.651194 1 0
0.85536 1 0
0.984298 1 0
1 1 0
0.0914626 1 0
0.111391 1 0
0.157748 1 0
0.260624 1 0
0.440482 1 0
0.664088 1 0
0.85684 1 0
0.980804 1 0
1 1 0
0 0.00996414 0.0872053
0.0554818 0 0.0827192
0.239872 0 0.0514687
0.48574 0 0.00140383
0.734096 0 0
0.952132 0 0
1 0 0
1 0 0
1 0 0
0 0.0585641 0.0446937
0.0184329 0.0537118 0.0408637
0.213443 0.0181582 0.0040589
0.462409 0 0
0.717464 0 0
0.936309 0 0
1 0 0
1 0 0
1 0 0
0 0.159884 0
0 0.158801 0
0.11313 0.140993 0
0.388052 0.0958419 0
0.66891 0.0464027 0
0.878676 0 0
1 0 0
1 0 0
1 0 0
0 0.317678 0
0 0.320653 0
0.0181735 0.315129 0
0.26041 0.290867 0
0.574014 0.247944 0
0.83563 0.210422 0
1 0.165484 0
1 0.0749981 0
1 0 0
0 0.534112 0
0 0.541024 0
0 0.546166 0
0.155856 0.534188 0
0.462531 0.505318 0
0.756176 0.473945 0
0.972824 0.452811 0
1 0.428244 0
1 0.396399 0
0 0.78024 0
0 0.784146 0
0 0.786831 0
0.115297 0.779202 0
0.394522 0.756298 0
0.68368 0.730602 0
0.908156 0.715908 0
1 0.708461 0
1 0.702617 0
0 1 0
0 1 0
0 0.999695 0
0.130129 0.985855 0
0.379019 0.961135 0
0.651133 0.93315 0
0.867918 0.914809 0
1 0.908095 0
1 0.906096 0
0 1 0
0 1 0
0.0628824 1 0
0.192584 1 0
0.404166 1 0
0.651072 1 0
0.855314 1 0
0.984283 1 0
1 1 0
0.0906539 1 0
0.110643 1 0
0.157092 1 0
0.260136 1 0
0.440192 1 0
0.663966 1 0
0.856794 1 0
0.980774 1 0
1 1 0
0 0 0.266621
0.0349126 0 0.263432
0.193256 0 0.249699
0.466148 0 0.192645
0.73666 0 0.114687
0.943648 0 0.0577249
1 0 0.0287327
1 0 0.0203555
1 0 0.0217594
0 0.0447852 0.220264
0.00914015 0.0390326 0.218463
0.165087 0.0125124 0.210407
0.448539 0 0.159258
0.723003 0 0.0957504
0.933059 0 0.0489967
1 0 0.020798
1 0 0.0129702
1 0 0.0144808
0 0.144228 0.129183
0 0.143648 0.129671
0.0879835 0.135515 0.123812
0.398871 0.0831159 0.0708324
0.683146 0.0356146 0.0430457
0.899901 0 0.0307469
1 0 0.0125124
1 0 0
1 0 0
0 0.311971 0
0 0.31693 0
0.0202335 0.315663 0
0.26305 0.293889 0
0.598199 0.247791 0
0.869856 0.208988 0
1 0.170275 0
1 0.0771801 0
1 0 0
0 0.532067 0
0 0.539193 0
0 0.544854 0
0.153948 0.533013 0
0.462013 0.504036 0
0.755993 0.472663 0
0.97319 0.451469 0
1 0.426566 0
1 0.394537 0
0 0.779553 0
0 0.783658 0
0 0.786587 0
0.113161 0.778836 0
0.393591 0.755901 0
0.683421 0.730114 0
0.908156 0.715404 0
1 0.708003 0
1 0.702113 0
0 1 0
0 1 0
0 0.999649 0
0.128267 0.985885 0
0.378088 0.961044 0
0.650889 0.932982 0
0.867826 0.914641 0
1 0.907927 0
1 0.905928 0
0 1 0
0 1 0
0.0606851 1 0
0.191196 1 0
0.403479 1 0
0.650752 1 0
0.855207 1 0
0.984268 1 0
1 1 0
0.0885328 1 0
0.108644 1 0
0.155337 1 0
0.258885 1 0
0.43946 1 0
0.663661 1 0
0.856687 1 0
0.980743 1 0
1 1 0
0 0 0.577417
0.00366217 0 0.572793
0.144381 0 0.558541
0.402869 0 0.517937
0.708263 0 0.421576
0.926818 0 0.323308
1 0 0.283528
1 0 0.267216
1 0 0.263722
0 0.0081178 0.536889
0 0.00257877 0.533623
0.124559 0 0.52256
0.385489 0 0.489921
0.700755 0 0.40679
0.927184 0 0.318318
1 0 0.278614
1 0 0.262196
1 0 0.258671
0 0.117388 0.430777
0 0.117723 0.429007
0.0749981 0.108232 0.422766
0.333532 0.0683299 0.410559
0.669398 0.00788891 0.354345
0.911711 0 0.297047
1 0 0.26334
1 0 0.248951
1 0 0.245792
0 0.288441 0.278523
0 0.29424 0.284871
0.0195926 0.296666 0.288579
0.221942 0.285939 0.280934
0.624445 0.225101 0.2224
0.907225 0.186801 0.21062
1 0.147234 0.225727
1 0.0602731 0.244083
1 0 0.221302
0 0.530053 0.0617227
0 0.539101 0.0684977
0 0.54757 0.070161
0.1449 0.542962 0.043534
0.469581 0.51429 0
0.800839 0.476387 0
1 0.453132 0.0185092
1 0.432395 0.0648051
1 0.401694 0.0950332
0 0.776272 0
0 0.781231 0
0 0.785077 0
0.107362 0.777798 0
0.390997 0.754818 0
0.682841 0.728893 0
0.908156 0.714015 0
1 0.706584 0
1 0.700633 0
0 1 0
0 1 0
0 0.99942 0
0.122957 0.98584 0
0.37554 0.96083 0
0.65008 0.932586 0
0.867582 0.914214 0
1 0.907485 0
1 0.905486 0
0 1 0
0 1 0
0.0545205 1 0
0.187121 1 0
0.40119 1 0
0.649866 1 0
0.854902 1 0
0.984192 1 0
1 1 0
0.0831159 1 0
0.103136 1 0
0.150515 1 0
0.255787 1 0
0.43743 1 0
0.662821 1 0
0.856397 1 0
0.980621 1 0
1 1 0
0 0 0.960891
0 0 0.954055
0.0766766 0 0.929198
0.3187 0 0.882002
0.630686 0 0.793225
0.902327 0 0.692576
1 0 0.638788
1 0 0.612055
1 0 0.602487
0 0 0.956527
0 0 0.948959
0.0777142 0 0.926528
0.319615 0 0.879713
0.631403 0 0.790982
0.902541 0 0.690166
1 0 0.636484
1 0 0.609827
1 0 0.60029
0 0.0558328 0.846799
0 0.0543679 0.840345
0.0408637 0.0462959 0.822507
0.282551 0.0129091 0.792401
0.604486 0 0.739895
0.878843 0 0.661997
1 0 0.630426
1 0 0.603937
1 0 0.594522
0 0.248936 0.655329
0 0.254627 0.657679
0 0.261616 0.663264
0.20827 0.248631 0.664958
0.554192 0.199802 0.666255
0.891432 0.146578 0.631327
1 0.0985428 0.606775
1 0.000823987 0.590463
1 0 0.578729
0 0.495872 0.496315
0 0.508049 0.50869
0 0.520241 0.521416
0.127199 0.518929 0.521599
0.419791 0.498543 0.505318
0.83798 0.439673 0.454154
1 0.414832 0.456779
1 0.391272 0.481987
1 0.360616 0.510735
0 0.772625 0.285664
0 0.781445 0.293034
0 0.789654 0.297673
0.0708324 0.788006 0.284703
0.353475 0.769757 0.235737
0.684489 0.737591 0.168276
0.942931 0.710811 0.160937
1 0.698466 0.182406
1 0.690883 0.202991
0 0.998718 0
0 0.999741 0
0 0.999039 0
0.108614 0.985595 0
0.368872 0.960571 0
0.647623 0.931548 0
0.867124 0.913237 0
1 0.906325 0
1 0.904265 0
0 1 0
0 1 0
0.0370794 1 0
0.175463 1 0
0.394919 1 0
0.64744 1 0
0.854109 1 0
0.983948 1 0
1 1 0
0.0673533 1 0
0.0882429 1 0
0.137652 1 0
0.246006 1 0
0.432364 1 0
0.660548 1 0
0.855604 1 0
0.980316 1 0
1 1 0
0 0 1
0 0 1
0 0 1
0.235584 0 1
0.569528 0 1
0.873701 0 1
1 0 0.978805
1 0 0.942428
1 0 0.927535
0 0 1
0 0 1
0 0 1
0.236255 0 1
0.569833 0 1
0.873838 0 1
1 0 0.978058
1 0 0.941695
1 0 0.926818
0 0 1
0 0 1
0 0 1
0.238056 0 1
0.570642 0 1
0.874174 0 1
1 0 0.976089
1 0 0.939788
1 0 0.924941
0 0.172061 1
0 0.171679 1
0 0.17937 1
0.173342 0.169268 1
0.507973 0.126574 1
0.832578 0.069398 0.970855
1 0.00030518 0.920851
1 0 0.9178
1 0 0.92015
0 0.455192 0.862821
0 0.455055 0.862913
0 0.477134 0.885908
0.0817426 0.48336 0.896788
0.406821 0.459434 0.894087
0.776898 0.410636 0.905303
1 0.373419 0.899458
1 0.344106 0.903838
1 0.30811 0.917159
0 0.730587 0.74165
0 0.738354 0.749493
0 0.762097 0.773465
0.0244755 0.764324 0.776272
0.325689 0.743725 0.757168
0.639429 0.713664 0.730877
0.968368 0.668803 0.698207
1 0.653178 0.70013
1 0.643977 0.712139
0 0.981247 0.617517
0 0.985458 0.621286
0 0.987961 0.623056
0.0322881 0.980117 0.611856
0.29691 0.955642 0.578271
0.588479 0.92459 0.516518
0.844602 0.897078 0.448218
1 0.880446 0.43183
1 0.873442 0.434791
0 1 0.134707
0 1 0.132708
0 1 0.126726
0.130953 1 0.10985
0.357473 1 0.0674907
0.623545 1 0.0247044
0.841856 1 0.0125124
0.973526 1 0.0221561
1 1 0.0226596
0.0230106 1 0
0.0474708 1 0
0.102556 1 0
0.220508 1 0
0.418387 1 0
0.654627 1 0
0.85362 1 0
0.979507 1 0
1 1 0
0 0 1
0 0 1
0 0 1
0.0775464 0 1
0.501717 0 1
0.842252 0 1
1 0 1
1 0 1
1 0 1
0 0 1
0 0 1
0 0 1
0.0784619 0 1
0.502022 0 1
0.842329 0 1
1 0 1
1 0 1
1 0 1
0 0 1
0 0 1
0 0 1
0.0808728 0 1
0.502815 0 1
0.842542 0 1
1 0 1
1 0 1
1 0 1
0 0 1
0 0 1
0 0 1
0.0840467 0 1
0.504997 0 1
0.843244 0 1
1 0 1
1 0 1
1 0 1
0 0.381674 1
0 0.38146 1
0 0.380926 1
0 0.407507 1
0.379797 0.384085 1
0.756298 0.33875 1
1 0.299184 1
1 0.257481 1
1 0.199725 1
0 0.70454 1
0 0.704479 1
0 0.704311 1
0 0.739788 1
0.279484 0.721126 1
0.628855 0.685283 1
0.925032 0.646586 1
1 0.623499 1
1 0.611246 1
0 0.943755 0.959548
0 0.94374 0.959548
0 0.960815 0.97673
0 0.969329 0.985519
0.248066 0.940887 0.957595
0.568566 0.902464 0.920378
0.81561 0.87396 0.894621
1 0.846784 0.880537
1 0.837766 0.878294
0 1 0.919738
0 1 0.921752
0 1 0.920195
0.00688182 1 0.905089
0.269535 1 0.870558
0.554009 1 0.826032
0.781369 0.999527 0.778897
0.935042 0.983261 0.729076
1 0.974258 0.712383
0 1 0.812787
0 1 0.810285
0 1 0.803418
0.0932937 1 0.785275
0.310262 1 0.748913
0.562936 1 0.696162
0.7776 1 0.633265
0.922545 1 0.588739
0.99469 1 0.57319
0 0 1
0 0 1
0 0 1
0 0 1
0.381765 0 1
0.803647 0 1
1 0 1
1 0 1
1 0 1
0 0 1
0 0 1
0 0 1
0 0 1
0.382162 0 1
0.803723 0 1
1 0 1
1 0 1
1 0 1
0 0 1
0 0 1
0 0 1
0 0 1
0.383215 0 1
0.803937 0 1
1 0 1
1 0 1
1 0 1
0 0 1
0 0 1
0 0 1
0 0 1
0.386114 0 1
0.804593 0 1
1 0 1
1 0 1
1 0 1
0 0.199512 1
0 0.199176 1
0 0.198306 1
0 0.195483 1
0.330938 0.18735 1
0.751247 0.130022 1
1 0.0571908 1
1 0 1
1 0 1
0 0.660258 1
0 0.660182 1
0 0.659968 1
0 0.659403 1
0.193286 0.684459 1
0.615091 0.643259 1
0.921645 0.605615 1
1 0.581918 1
1 0.567178 1
0 0.930571 1
0 0.930556 1
0 0.930495 1
0 0.944884 1
0.156924 0.936797 1
0.539498 0.891707 1
0.808606 0.859007 1
0.986969 0.834913 1
1 0.822599 1
0 1 1
0 1 1
0 1 1
0 1 1
0.186252 1 1
0.525093 1 1
0.774365 0.985504 1
0.923842 0.967361 0.986679
1 0.95555 0.985702
0 1 1
0 1 1
0 1 1
0 1 1
0.233936 1 1
0.533761 1 1
0.766308 1 0.965911
0.906874 1 0.94258
0.97641 1 0.920943
0 0 1
0 0 1
0 0 1
0 0 1
0.19173 0 1
0.762188 0 1
1 0 1
1 0 1
1 0 1
0 0 1
0 0 1
0 0 1
0 0 1
0.192309 0 1
0.762295 0 1
1 0 1
1 0 1
1 0 1
0 0 1
0 0 1
0 0 1
0 0 1
0.194003 0 1
0.7626 0 1
1 0 1
1 0 1
1 0 1
0 0 1
0 0 1
0 0 1
0 0 1
0.198627 0 1
0.763424 0 1
1 0 1
1 0 1
1 0 1
0 0 1
0 0 1
0 0 1
0 0 1
0.210391 0 1
0.765606 0 1
1 0 1
1 0 1
1 0 1
0 0.596277 1
0 0.59617 1
0 0.595911 1
0 0.595178 1
0.0513008 0.627863 1
0.599573 0.582315 1
0.932982 0.542107 1
1 0.516869 1
1 0.498085 1
0 0.914336 1
0 0.914305 1
0 0.914229 1
0 0.914046 1
0.0174563 0.934203 1
0.505043 0.881102 1
0.802915 0.844587 1
0.985977 0.820645 1
1 0.808194 1
0 1 1
0 1 1
0 1 1
0 1 1
0.0682231 1 1
0.489296 1 1
0.763256 0.98088 1
0.919722 0.961151 1
1 0.950103 1
0 1 1
0 1 1
0 1 1
0 1 1
0.133822 1 1
0.499382 1 1
0.75494 1 1
0.904173 1 1
0.977172 1 1
