public/textures/grade/Canon/Parasitic-CLog2.cube
TITLE "Generated by Resolve"
LUT_3D_SIZE 33
0 0.0158846 0.00392157
9.15541e-05 0.0142061 0.00198367
0.0209659 0.0104829 0
0.0505379 0.00444038 0
0.0815747 0 0
0.116838 0 0
0.156802 0 0
0.201251 0 0
0.250355 0 0
0.304006 0 0
0.36173 0 0
0.422904 0 0
0.485878 0 0
0.549065 0 0
0.611276 0 0
0.67187 0 0
0.728359 0 0
0.778439 0 0
0.824338 0 0
0.89247 0 0
0.956466 0 0
1 0 0
1 0 0
1 0 0
1 0 0
1 0 0
1 0 0
1 0 0
1 0 0
1 0 0
1 0 0
1 0 0
1 0 0
0 0.0271611 0
0 0.0258488 0
0.00894179 0.0231327 0
0.035523 0.0183871 0
0.0687419 0.011902 0
0.106401 0.00462348 0
0.147799 0 0
0.193759 0 0
0.243626 0 0
0.297658 0 0
0.355962 0 0
0.417594 0 0
0.480995 0 0
0.544564 0 0
0.60705 0 0
0.668208 0 0
0.725399 0 0
0.776257 0 0
0.819089 0 0
0.892638 0 0
0.956634 0 0
1 0 0
1 0 0
1 0 0
1 0 0
1 0 0
1 0 0
1 0 0
1 0 0
1 0 0
1 0 0
1 0 0
1 0 0
0 0.0380865 0
0 0.0367895 0
0.000579843 0.0346075 0
0.0240177 0.0306859 0
0.0555581 0.024979 0
0.0940871 0.0174868 0
0.137377 0.00917067 0
0.18471 0 0
0.236011 0 0
0.291188 0 0
0.349554 0 0
0.411353 0 0
0.475425 0 0
0.539559 0 0
0.602869 0 0
0.664622 0 0
0.722255 0 0
0.773983 0 0
0.817868 0 0
0.885893 0 0
0.956802 0 0
1 0 0
1 0 0
1 0 0
1 0 0
1 0 0
1 0 0
1 0 0
1 0 0
1 0 0
1 0 0
1 0 0
1 0 0
0 0.0513619 0
0 0.0502632 0
0 0.0486 0
0.0122988 0.0450752 0
0.0411231 0.0402533 0
0.0789044 0.0335546 0
0.122972 0.0252232 0
0.171939 0.0158999 0
0.224704 0.00560006 0
0.28127 0 0
0.34139 0 0
0.404074 0 0
0.468025 0 0
0.532769 0 0
0.59646 0 0
0.658701 0 0
0.71751 0 0
0.770611 0 0
0.815778 0 0
0.877699 0 0
0.95024 0 0
1 0 0
1 0 0
1 0 0
1 0 0
1 0 0
1 0 0
1 0 0
1 0 0
1 0 0
1 0 0
1 0 0
1 0 0
0 0.0673686 0
0 0.0665141 0
0 0.0652628 0
0 0.0623331 0
0.0264591 0.0582284 0
0.0616007 0.0523537 0
0.104997 0.04448 0
0.15523 0.0352483 0
0.209735 0.024918 0
0.268086 0.0137484 0
0.329686 0.0018616 0
0.3935 0 0
0.458747 0 0
0.523751 0 0
0.58793 0 0
0.650736 0 0
0.710369 0 0
0.764874 0 0
0.812207 0 0
0.866407 0 0
0.938689 0 0
1 0 0
1 0 0
1 0 0
1 0 0
1 0 0
1 0 0
1 0 0
1 0 0
1 0 0
1 0 0
1 0 0
1 0 0
0 0.0866407 0
0 0.0859083 0
0 0.0848249 0
0 0.0829786 0
0.0104524 0.0790417 0
0.0435798 0.0741283 0
0.0849012 0.0673228 0
0.134524 0.058732 0
0.189914 0.0484932 0
0.249882 0.0372015 0
0.313222 0.0252232 0
0.378882 0.0129244 0
0.445686 0 0
0.512566 0 0
0.577554 0 0
0.640742 0 0
0.700984 0 0
0.756588 0 0
0.805905 0 0
0.849775 0 0
0.921996 0 0
0.992798 0 0
1 0 0
1 0 0
1 0 0
1 0 0
1 0 0
1 0 0
1 0 0
1 0 0
1 0 0
1 0 0
1 0 0
0 0.109239 0
0 0.108751 0
0 0.108003 0
0 0.106691 0
0 0.103517 0
0.0247196 0.0991073 0
0.0635996 0.0932784 0
0.11104 0.0855726 0
0.166247 0.0762951 0
0.227237 0.0653544 0
0.29218 0.0533455 0
0.359701 0.0406806 0
0.428367 0.027985 0
0.496895 0.0149691 0
0.563958 0.00190738 0
0.628687 0 0
0.689555 0 0
0.746151 0 0
0.797131 0 0
0.840742 0 0
0.899321 0 0
0.968566 0 0
1 0 0
1 0 0
1 0 0
1 0 0
1 0 0
1 0 0
1 0 0
1 0 0
1 0 0
1 0 0
1 0 0
0 0.135378 0
0 0.135058 0
0 0.134661 0
0 0.133562 0
0 0.131762 0
0.00491341 0.127474 0
0.0426032 0.122545 0
0.087541 0.115908 0
0.14049 0.107439 0
0.200931 0.0972457 0
0.267048 0.0859541 0
0.335866 0.0737011 0
0.406119 0.0608835 0
0.476905 0.0477607 0
0.546044 0.0350958 0
0.612741 0.022446 0
0.675929 0.00982681 0
0.734524 0 0
0.786969 0 0
0.832593 0 0
0.876539 0 0
0.941054 0 0
1 0 0
1 0 0
1 0 0
1 0 0
1 0 0
1 0 0
1 0 0
1 0 0
1 0 0
1 0 0
1 0 0
0 0.165469 0
0 0.165225 0
0 0.164981 0
0 0.164309 0
0 0.162844 0
0 0.160113 0
0.0211337 0.155123 0
0.0642252 0.149523 0
0.114885 0.142458 0
0.173266 0.133425 0
0.238087 0.122835 0
0.307958 0.111009 0
0.379873 0.0986191 0
0.452857 0.085893 0
0.524132 0.0732586 0
0.593057 0.0607614 0
0.658579 0.0485542 0
0.719753 0.0369116 0
0.77554 0.0248722 0
0.824033 0.0130465 0
0.864866 0.000457771 0
0.918257 0 0
0.977264 0 0
1 0 0
1 0 0
1 0 0
1 0 0
1 0 0
1 0 0
1 0 0
1 0 0
1 0 0
1 0 0
0 0.198459 0
0 0.198642 0
0 0.19852 0
0 0.198199 0
0 0.197223 0
0 0.195499 0
0 0.19118 0
0.0408789 0.186465 0
0.0896315 0.180545 0
0.145693 0.172869 0
0.209018 0.163409 0
0.278218 0.152483 0
0.351171 0.140764 0
0.426154 0.128481 0
0.499901 0.116075 0
0.571847 0.103685 0
0.63978 0.0918898 0
0.704051 0.0806134 0
0.762768 0.0693828 0
0.814679 0.0586099 0
0.859281 0.0471351 0
0.90341 0.0332036 0
0.958968 0.0125734 0
1 0 0
1 0 0
1 0 0
1 0 0
1 0 0
1 0 0
1 0 0
1 0 0
1 0 0
1 0 0
0 0.23476 0
0 0.235248 0
0 0.235309 0
0 0.235386 0
0 0.234974 0
0 0.234043 0
0 0.231479 0
0.0183566 0.226841 0
0.0652934 0.222034 0
0.118914 0.215747 0
0.180285 0.207736 0
0.248554 0.197971 0
0.321492 0.186969 0
0.39762 0.175463 0
0.473884 0.1635 0
0.548928 0.151446 0
0.620386 0.139788 0
0.687312 0.128725 0
0.749966 0.118227 0
0.805249 0.108019 0
0.853758 0.0981155 0
0.894972 0.0876326 0
0.947662 0.0712749 0
0.998138 0.0512551 0
1 0.0270085 0
1 0 0
1 0 0
1 0 0
1 0 0
1 0 0
1 0 0
1 0 0
1 0 0
0 0.274907 0
0 0.275441 0
0 0.275959 0
0 0.276387 0
0 0.276402 0
0 0.276219 0
0 0.274922 0
0 0.271229 0
0.0417792 0.267048 0
0.0934615 0.262196 0
0.152392 0.25565 0
0.218799 0.247395 0
0.290913 0.237629 0
0.367697 0.226551 0
0.445838 0.215106 0
0.523934 0.203647 0
0.598321 0.192477 0
0.669047 0.181598 0
0.734936 0.171191 0
0.794217 0.161944 0
0.846464 0.152621 0
0.891447 0.143679 0
0.939498 0.131609 0
0.99086 0.115724 0
1 0.0967422 0
1 0.0742046 0
1 0.0468757 0
1 0.0135348 0
1 0 0
1 0 0
1 0 0
1 0 0
1 0 0
0 0.318654 0
0 0.319722 0
0 0.320516 0
0 0.321065 0
0 0.321721 0
0 0.321935 0
0 0.321782 0
0 0.319997 0
0.0191958 0.316152 0
0.0691386 0.312016 0
0.126131 0.307012 0
0.190082 0.300267 0
0.261006 0.291859 0
0.337179 0.281987 0
0.415961 0.27129 0
0.495888 0.26009 0
0.57377 0.249088 0
0.648081 0.238819 0
0.717174 0.228962 0
0.779675 0.219837 0
0.835508 0.21146 0
0.883955 0.20351 0
0.930236 0.194522 0
0.982177 0.181552 0
1 0.166781 0
1 0.149767 0
1 0.129213 0
1 0.10518 0
1 0.0769818 0
1 0.0437629 0
1 0.00605783 0
1 0 0
1 0 0
0 0.366888 0
0 0.368353 0
0 0.369177 0
0 0.370352 0
0 0.37116 0
0 0.372122 0
0 0.372442 0
0 0.372198 0
0 0.36939 0
0.0448768 0.366155 0
0.0998398 0.361913 0
0.161898 0.356497 0
0.231418 0.349615 0
0.306798 0.340932 0
0.385824 0.331106 0
0.466636 0.320577 0
0.546777 0.309972 0
0.623453 0.299825 0
0.695262 0.290349 0
0.761028 0.281758 0
0.820005 0.274098 0
0.871519 0.266865 0
0.918303 0.259754 0
0.970901 0.249454 0
1 0.238178 0
1 0.225101 0
1 0.210025 0
1 0.192691 0
1 0.172564 0
1 0.149676 0
1 0.124941 0
1 0.097612 0
1 0.0688945 0
0 0.419379 0
0 0.420813 0
0 0.422156 0
0 0.423346 0
0 0.424811 0
0 0.425971 0
0 0.427161 0
0 0.427466 0
0 0.426612 0
0.0217288 0.423606 0
0.0755169 0.420203 0
0.136019 0.415595 0
0.203571 0.409552 0
0.277241 0.40209 0
0.355734 0.393256 0
0.436515 0.383597 0
0.518212 0.373861 0
0.596414 0.364294 0
0.670939 0.355077 0
0.739193 0.346777 0
0.800641 0.339376 0
0.855314 0.333211 0
0.903822 0.326909 0
0.956802 0.318929 0
1 0.31014 0
1 0.300389 0
1 0.289372 0
1 0.276707 0
1 0.262425 0
1 0.24683 0
1 0.229618 0
1 0.211673 0
1 0.193179 0
0 0.475593 0
0 0.477501 0
0 0.478737 0
0 0.480446 0
0 0.481895 0
0 0.483589 0
0 0.48481 0
0 0.485893 0
0 0.485817 0
0 0.483284 0
0.0532998 0.480385 0
0.112886 0.476814 0
0.178759 0.471656 0
0.250446 0.465293 0
0.327626 0.457527 0
0.407614 0.448814 0
0.489113 0.439414 0
0.568597 0.430198 0
0.644785 0.421378 0
0.715053 0.413443 0
0.779126 0.406821 0
0.835798 0.400793 0
0.887663 0.395117 0
0.941421 0.388983 0
0.9897 0.382147 0
1 0.375021 0
1 0.366949 0
1 0.357687 0
1 0.347799 0
1 0.337026 0
1 0.325277 0
1 0.313054 0
1 0.300801 0
0 0.534829 0
0 0.536782 0
0 0.538369 0
0 0.539773 0
0 0.54168 0
0 0.54316 0
0 0.54493 0
0 0.545983 0
0 0.546685 0
0 0.545602 0
0.0340887 0.542397 0
0.0923018 0.539086 0
0.156405 0.534691 0
0.226703 0.529 0
0.302647 0.522194 0
0.38175 0.514443 0
0.462745 0.505821 0
0.542367 0.497139 0
0.619074 0.488777 0
0.690837 0.481117 0
0.756191 0.474464 0
0.814679 0.468818 0
0.870817 0.46392 0
0.924407 0.458656 0
0.972717 0.453391 0
1 0.448066 0
1 0.442329 0
1 0.435737 0
1 0.428885 0
1 0.421439 0
1 0.413474 0
1 0.405295 0
1 0.397024 0
0 0.595865 0
0 0.597375 0
0 0.598901 0
0 0.600656 0
0 0.602197 0
0 0.604105 0
0 0.605585 0
0 0.607126 0
0 0.607828 0
0 0.60737 0
0.0187686 0.604852 0
0.0761578 0.601968 0
0.13904 0.598047 0
0.207828 0.59292 0
0.281804 0.586633 0
0.359365 0.5794 0
0.439246 0.571359 0
0.518349 0.56318 0
0.594919 0.55523 0
0.667521 0.547845 0
0.734005 0.541817 0
0.794293 0.536385 0
0.85333 0.531624 0
0.907073 0.52723 0
0.955871 0.5234 0
0.999207 0.519173 0
1 0.515099 0
1 0.510491 0
1 0.50576 0
1 0.500816 0
1 0.495491 0
1 0.490166 0
1 0.48452 0
0 0.657053 0
0 0.658778 0
0 0.659861 0
0 0.661494 0
0 0.663264 0
0 0.66479 0
0 0.666636 0
0 0.667842 0
0 0.668681 0
0 0.668956 0
0.00827039 0.66656 0
0.0647288 0.663752 0
0.126131 0.660182 0
0.193301 0.655558 0
0.265446 0.650156 0
0.341711 0.64332 0
0.419852 0.635843 0
0.49836 0.627985 0
0.574472 0.62034 0
0.646799 0.613184 0
0.713405 0.606958 0
0.777325 0.601968 0
0.836332 0.597681 0
0.890501 0.594217 0
0.939025 0.590677 0
0.981964 0.587472 0
1 0.584543 0
1 0.581186 0
1 0.57818 0
1 0.574853 0
1 0.571542 0
1 0.567636 0
1 0.56379 0
0 0.717784 0
0 0.719387 0
0 0.720668 0
0 0.721721 0
0 0.7234 0
0 0.725078 0
0 0.726436 0
0 0.727901 0
0 0.728679 0
0 0.728695 0
0.00315862 0.727245 0
0.0586557 0.724422 0
0.118318 0.721065 0
0.183551 0.716686 0
0.253895 0.711208 0
0.328237 0.704723 0
0.404547 0.697627 0
0.48188 0.690013 0
0.557153 0.682567 0
0.629618 0.675853 0
0.697688 0.670466 0
0.761822 0.665629 0
0.820676 0.661601 0
0.874525 0.658045 0
0.923125 0.655222 0
0.965927 0.65272 0
1 0.650156 0
1 0.648081 0
1 0.645777 0
1 0.643656 0
1 0.641489 0
1 0.639124 0
1 0.63653 0
0 0.780636 0
0 0.781735 0
0 0.782681 0
0 0.783703 0
0 0.784375 0
0 0.785519 0
0 0.786526 0
0 0.787015 0
0 0.786923 0
0 0.786801 0
0.00302129 0.785412 0
0.057969 0.782269 0
0.116091 0.779309 0
0.1794 0.775067 0
0.247807 0.769757 0
0.319982 0.763516 0
0.394888 0.756451 0
0.470619 0.748943 0
0.544305 0.742306 0
0.615961 0.736233 0
0.683772 0.730785 0
0.747662 0.725887 0
0.806592 0.722194 0
0.860227 0.718822 0
0.908141 0.716106 0
0.950866 0.713695 0
0.988846 0.71191 0
1 0.710018 0
1 0.708659 0
1 0.707042 0
1 0.705699 0
1 0.704356 0
1 0.7028 0
0 0.841672 0
0 0.842161 0
0 0.842863 0
0 0.84361 0
0 0.84445 0
0 0.844938 0
0 0.845655 0
0 0.846052 0
0 0.845914 0
0 0.844831 0
0.00543221 0.842802 0
0.0598764 0.83888 0
0.116609 0.83505 0
0.178408 0.830442 0
0.244694 0.825238 0
0.315007 0.819501 0
0.387594 0.813077 0
0.460624 0.806455 0
0.533593 0.799847 0
0.604257 0.793713 0
0.672068 0.788022 0
0.735592 0.782971 0
0.793835 0.778775 0
0.847181 0.77528 0
0.895384 0.772854 0
0.937789 0.770611 0
0.975128 0.768704 0
1 0.767452 0
1 0.766201 0
1 0.765286 0
1 0.764141 0
1 0.763333 0
1 0.76231 0
0 0.899306 0
0 0.899901 0
0 0.90042 0
0 0.900587 0
0 0.901106 0
0 0.901656 0
0 0.901884 0
0 0.901839 0
0 0.901518 0
0 0.900267 0
0.0102693 0.897292 0
0.0623789 0.893767 0
0.117525 0.889708 0
0.177356 0.884978 0
0.241932 0.879454 0
0.310475 0.873289 0
0.381338 0.866743 0
0.453986 0.860197 0
0.526009 0.853269 0
0.595819 0.846845 0
0.66302 0.840925 0
0.725841 0.835752 0
0.783841 0.831281 0
0.836713 0.827558 0
0.884001 0.824735 0
0.926284 0.822858 0
0.963287 0.821057 0
0.995254 0.819715 0
1 0.818753 0
1 0.817792 0
1 0.817212 0
1 0.816709 0
1 0.816068 0
0 0.952956 0
0 0.953323 0
0 0.953552 0
0 0.953826 0
0 0.954177 0
0 0.954009 0
0 0.953994 0
0 0.953826 0
0 0.952758 0
0 0.951385 0
0.0205692 0.947845 0
0.0689708 0.94406 0
0.122286 0.940185 0
0.180011 0.935317 0
0.242557 0.92961 0
0.309194 0.923186 0
0.378759 0.91632 0
0.449775 0.909224 0
0.520516 0.902525 0
0.589715 0.895659 0
0.656031 0.889372 0
0.718059 0.883986 0
0.775692 0.879271 0
0.828092 0.875334 0
0.875059 0.87216 0
0.91693 0.870024 0
0.953613 0.868208 0
0.98497 0.86688 0
1 0.866133 0
1 0.865248 0
1 0.864851 0
1 0.864286 0
1 0.863722 0
0 1 0
0 1 0
0 1 0
0 1 0
0 1 0
0 1 0
0 1 0
0 1 0
0 0.99971 0
0 0.997391 0
0.0350805 0.993805 0
0.0801556 0.98999 0
0.130831 0.985824 0
0.186343 0.98088 0
0.247196 0.974929 0
0.311757 0.968322 0
0.37937 0.961166 0
0.448264 0.953902 0
0.517906 0.946685 0
0.58616 0.939788 0
0.65124 0.933211 0
0.712566 0.927382 0
0.769558 0.922393 0
0.821454 0.918257 0
0.867964 0.91487 0
0.909346 0.912474 0
0.94551 0.910414 0
0.976547 0.90898 0
1 0.908156 0
1 0.907362 0
1 0.907073 0
1 0.906508 0
1 0.906157 0
0 1 0
0 1 0
0 1 0
0 1 0
0 1 0
0 1 0
0 1 0
0 1 0
0 1 0
0.0144808 1 0
0.0531319 1 0
0.0952468 1 0
0.14316 1 0
0.195972 1 0
0.254429 1 0
0.316823 1 0
0.382559 1 0
0.450156 0.993957 0
0.518029 0.986297 0
0.584787 0.978988 0
0.648646 0.972274 0
0.709209 0.966064 0
0.765332 0.960662 0
0.816556 0.956222 0
0.862654 0.952728 0
0.903563 0.950103 0
0.939315 0.947814 0
0.969833 0.946181 0
0.996414 0.945174 0
1 0.94432 0
1 0.94403 0
1 0.943557 0
1 0.943221 0
0 1 0
0 1 0
0 1 0
0 1 0
0 1 0
0 1 0
0 1 0
0 1 0
0.00694286 1 0
0.0383917 1 0
0.0731975 1 0
0.113085 1 0
0.158404 1 0
0.208927 1 0
0.264317 1 0
0.324575 1 0
0.38851 1 0
0.454063 1 0
0.519799 1 0
0.584924 1 0
0.647959 1 0
0.707591 0.999985 0
0.76318 0.994644 0
0.813565 0.989837 0
0.858885 0.985946 0
0.899062 0.982925 0
0.934478 0.980545 0
0.964904 0.979034 0
0.990829 0.977646 0
1 0.976776 0
1 0.976074 0
1 0.975738 0
1 0.975464 0
0 1 0
0 1 0
0 1 0
0 1 0
0 1 0
0 1 0
0 1 0
0.0121767 1 0
0.0361028 1 0
