public/textures/grade/Canon/Parasitic-CLog2.cube
TITLE "Generated by Resolve"
LUT_3D_SIZE 5
0 0.0158846 0.00392157
0.250355 0 0
0.728359 0 0
1 0 0
1 0 0
0 0.165469 0
0.114885 0.142458 0
0.658579 0.0485542 0
1 0 0
1 0 0
0 0.534829 0
0 0.546685 0
0.462745 0.505821 0
0.972717 0.453391 0
1 0.397024 0
0 1 0
0 0.99971 0
0.37937 0.961166 0
0.867964 0.91487 0
1 0.906157 0
0.0914626 1 0
0.157748 1 0
0.440482 1 0
0.85684 1 0
1 1 0
0 0 0.266621
0.193256 0 0.249699
0.73666 0 0.114687
1 0 0.0287327
1 0 0.0217594
0 0.144228 0.129183
0.0879835 0.135515 0.123812
0.683146 0.0356146 0.0430457
1 0 0.0125124
1 0 0
0 0.532067 0
0 0.544854 0
0.462013 0.504036 0
0.97319 0.451469 0
1 0.394537 0
0 1 0
0 0.999649 0
0.378088 0.961044 0
0.867826 0.914641 0
1 0.905928 0
0.0885328 1 0
0.155337 1 0
0.43946 1 0
0.856687 1 0
1 1 0
0 0 0.960891
0.0766766 0 0.929198
0.630686 0 0.793225
1 0 0.638788
1 0 0.602487
0 0.0558328 0.846799
0.0408637 0.0462959 0.822507
0.604486 0 0.739895
1 0 0.630426
1 0 0.594522
0 0.495872 0.496315
0 0.520241 0.521416
0.419791 0.498543 0.505318
1 0.414832 0.456779
1 0.360616 0.510735
0 0.998718 0
0 0.999039 0
0.368872 0.960571 0
0.867124 0.913237 0
1 0.904265 0
0.0673533 1 0
0.137652 1 0
0.432364 1 0
0.855604 1 0
1 1 0
0 0 1
0 0 1
0.501717 0 1
1 0 1
1 0 1
0 0 1
0 0 1
0.502815 0 1
1 0 1
1 0 1
0 0.381674 1
0 0.380926 1
0.379797 0.384085 1
1 0.299184 1
1 0.199725 1
0 0.943755 0.959548
0 0.960815 0.97673
0.248066 0.940887 0.957595
0.81561 0.87396 0.894621
1 0.837766 0.878294
0 1 0.812787
0 1 0.803418
0.310262 1 0.748913
0.7776 1 0.633265
0.99469 1 0.57319
0 0 1
0 0 1
0.19173 0 1
1 0 1
1 0 1
0 0 1
0 0 1
0.194003 0 1
1 0 1
1 0 1
0 0 1
0 0 1
0.210391 0 1
1 0 1
1 0 1
0 0.914336 1
0 0.914229 1
0.0174563 0.934203 1
0.802915 0.844587 1
1 0.808194 1
0 1 1
0 1 1
0.133822 1 1
0.75494 1 1
0.977172 1 1
