public/textures/grade/Canon/Parasitic-Clog.cube
TITLE "Generated by Resolve"
LUT_3D_SIZE 5
0 0 0
0.412802 0 0
0.752392 0 0
1 0 0
1 0 0
0 0.255619 0
0.200168 0.230518 0
0.644953 0.164553 0
0.945556 0.113298 0
1 0 0
0 0.548501 0
0.0560922 0.574807 0
0.491798 0.536858 0
0.865599 0.501503 0
1 0.482872 0
0 0.892195 0
0.0301671 0.902739 0
0.417288 0.869947 0
0.788113 0.836774 0
1 0.826627 0
0 1 0
0.124941 1 0
0.434913 1 0
0.766369 1 0
1 1 0
0 0 0.47628
0.319997 0 0.431998
0.756481 0 0.295888
1 0 0.200961
1 0 0.17023
0 0.226337 0.21239
0.164508 0.221653 0.213687
0.690486 0.141283 0.143282
0.999893 0.0914473 0.139635
1 0 0.145098
0 0.551141 0
0.0498512 0.581109 0
0.498512 0.543618 0
0.887739 0.504631 0
1 0.486839 0
0 0.885557 0
0.020264 0.901976 0
0.414084 0.868833 0
0.787396 0.835462 0
1 0.825284 0
0 1 0
0.11812 1 0
0.431952 1 0
0.765469 1 0
1 1 0
0 0 1
0.204974 0 0.955917
0.655528 0 0.830686
1 0 0.717433
1 0 0.654871
0 0.165637 0.778317
0.136553 0.159869 0.762753
0.613245 0.0908522 0.741482
0.988815 0.0183719 0.675807
1 0 0.629847
0 0.52224 0.523598
0.0244602 0.553399 0.556619
0.448249 0.52755 0.535454
0.963653 0.460945 0.48368
1 0.442847 0.517861
0 0.875029 0.197604
0 0.910597 0.218311
0.374411 0.882185 0.149554
0.787137 0.838514 0.0871748
1 0.817182 0.11426
0 1 0
0.0988937 1 0
0.423606 1 0
0.762951 1 0
1 1 0
0 0 1
0.0644999 0 1
0.586877 0 1
0.97969 0 1
1 0 1
0 0 1
0.057145 0 1
0.563943 0 1
0.98056 0 1
1 0 1
0 0.471199 0.998047
0 0.500908 1
0.429129 0.473823 1
0.905333 0.414908 1
1 0.381323 1
0 0.847883 0.861189
0 0.880644 0.89456
0.326558 0.849195 0.864652
0.738354 0.804959 0.824796
1 0.759441 0.79971
0 1 0.675761
0 1 0.657755
0.330053 1 0.597559
0.687755 1 0.502953
1 1 0.429007
0 0 1
0 0 1
0.459648 0 1
0.938628 0 1
1 0 1
0 0 1
0 0 1
0.462776 0 1
0.939223 0 1
1 0 1
0 0.308476 1
0 0.305974 1
0.380652 0.305943 1
0.889616 0.24567 1
1 0.17171 1
0 0.811872 1
0 0.811353 1
0.23389 0.822553 1
0.724147 0.767559 1
1 0.722591 1
0 1 1
0 1 1
0.22945 1 1
0.651911 1 1
0.977172 1 1
