public/textures/grade/Canon/Parasitic-CLog3.cube
TITLE "Generated by Resolve"
LUT_3D_SIZE 5
0 0 0
0.348669 0 0
0.775601 0 0
1 0 0
1 0 0
0 0.217853 0
0.158999 0.191211 0
0.699565 0.104952 0
1 0.00112917 0
1 0 0
0 0.579217 0
0 0.611276 0
0.521798 0.567712 0
0.943404 0.529442 0
1 0.490394 0
0 0.960525 0
0.00682078 0.985733 0
0.452857 0.943481 0
0.858793 0.906081 0
1 0.896803 0
0 1 0
0.187198 1 0
0.498909 1 0
0.847257 1 0
1 1 0
0 0 0.413413
0.254215 0 0.382284
0.792065 0 0.219806
1 0 0.13402
1 0 0.119997
0 0.186755 0.169497
0.125216 0.177584 0.167651
0.738445 0.0796674 0.0896773
1 0 0.084535
1 0 0.050309
0 0.575677 0
0 0.60798 0
0.520073 0.563836 0
0.944091 0.525216 0
1 0.485542 0
0 0.956344 0
0 0.985901 0
0.45005 0.943053 0
0.858427 0.905409 0
1 0.896117 0
0 1 0
0.181048 1 0
0.49659 1 0
0.846815 1 0
1 1 0
0 0 1
0.118883 0 1
0.684504 0 0.861173
1 0 0.744747
1 0 0.701122
0 0.095079 0.893797
0.0796674 0.0846265 0.864912
0.6598 0 0.794965
1 0 0.706142
1 0 0.684916
0 0.554009 0.556924
0 0.586542 0.591089
0.478355 0.557412 0.567498
1 0.485069 0.520211
1 0.4448 0.565805
0 0.964248 0
0 0.993851 0.0117037
0.429053 0.953887 0
0.858793 0.905669 0
1 0.892683 0
0 1 0
0.160372 1 0
0.488869 1 0
0.845304 1 0
1 1 0
0 0 1
0 0 1
0.604257 0 1
1 0 1
1 0 1
0 0 1
0 0 1
0.606531 0 1
1 0 1
1 0 1
0 0.479744 1
0 0.478614 1
0.450919 0.480308 1
0.996826 0.411566 1
1 0.348791 1
0 0.932631 0.948379
0 0.959533 0.975616
0.33933 0.920638 0.937728
0.80679 0.866178 0.887053
1 0.828244 0.870085
0 1 0.783093
0.00309758 1 0.762295
0.379416 1 0.698878
0.769162 1 0.595315
0.996872 1 0.535546
0 0 1
0 0 1
0.3888 0 1
1 0 1
1 0 1
0 0 1
0 0 1
0.392737 0 1
1 0 1
1 0 1
0 0.0992447 1
0 0.0937819 1
0.366522 0.0580911 1
0.986603 0 1
1 0 1
0 0.900282 1
0 0.900008 1
0.170657 0.907576 1
0.793576 0.834073 1
1 0.795712 1
0 1 1
0 1 1
0.238575 1 1
0.742947 1 1
0.977172 1 1
