public/textures/grade/Blackmagic/Bat-BMDFilm.cube
TITLE "Generated by Resolve"
LUT_3D_SIZE 33
0.0271611 0.030869 0.0205234
0.0321813 0.0311894 0.0192569
0.0411383 0.031281 0.0170901
0.0531777 0.0317693 0.0140993
0.067689 0.0323033 0.0104219
0.0850233 0.0329595 0.00602731
0.106096 0.0330663 0
0.131899 0.0340734 0
0.160586 0.0363012 0
0.192203 0.0405127 0
0.225986 0.0466621 0
0.262242 0.0552834 0
0.300343 0.0670329 0
0.340291 0.082063 0
0.381643 0.100847 0
0.423606 0.123018 0
0.466346 0.145663 0
0.509056 0.166644 0
0.552407 0.185275 0
0.594461 0.203571 0
0.635081 0.223224 0
0.672755 0.242786 0
0.707927 0.261372 0
0.74081 0.279286 0
0.770764 0.296208 0
0.797681 0.312169 0
0.821591 0.327306 0
0.843488 0.342596 0
0.864057 0.358343 0
0.884489 0.375097 0
0.905119 0.392813 0
0.927214 0.412284 0
0.950698 0.433143 0
0.0294957 0.0347448 0.0207675
0.0353552 0.0348974 0.0184939
0.0460059 0.0344701 0.0137942
0.057023 0.0349737 0.0117952
0.0713817 0.0354772 0.0081178
0.0889448 0.0360418 0.0034638
0.109834 0.03682 0
0.134966 0.0384527 0
0.162722 0.0412604 0
0.193576 0.0457923 0
0.226535 0.0523079 0
0.261967 0.061265 0
0.299001 0.0729839 0
0.337728 0.088014 0
0.377813 0.106249 0
0.418647 0.127306 0
0.460166 0.148531 0
0.502342 0.168292 0
0.544884 0.186191 0
0.586618 0.203906 0
0.627665 0.221454 0
0.665202 0.240696 0
0.700526 0.259419 0
0.733577 0.277302 0
0.763912 0.294347 0
0.791257 0.310445 0
0.816098 0.326207 0
0.838911 0.341894 0
0.86041 0.358099 0
0.881621 0.375158 0
0.903334 0.393439 0
0.926009 0.413046 0
0.95024 0.434134 0
0.0362402 0.0402991 0.0206607
0.0413825 0.0412757 0.0177768
0.0510262 0.0416724 0.0124514
0.0669413 0.0402991 0.00518807
0.0807813 0.0401465 0.00236515
0.0970932 0.0406653 0
0.116594 0.0415503 0
0.139483 0.0433967 0
0.16553 0.04654 0
0.194522 0.0510262 0
0.226276 0.0576181 0
0.260258 0.0665904 0
0.296468 0.0781567 0
0.334081 0.092607 0
0.37351 0.110933 0
0.413245 0.130159 0
0.453956 0.150561 0
0.495689 0.169696 0
0.537713 0.186984 0
0.579339 0.204227 0
0.619989 0.221286 0
0.658351 0.239002 0
0.693584 0.257633 0
0.726726 0.275502 0
0.757443 0.292638 0
0.785321 0.309133 0
0.810987 0.325338 0
0.834699 0.341543 0
0.85716 0.35816 0
0.879179 0.375555 0
0.901473 0.393896 0
0.924834 0.413687 0
0.949691 0.435065 0
0.0428473 0.0476234 0.0196536
0.0486458 0.0492561 0.016968
0.0578775 0.0501411 0.012314
0.0724804 0.0500496 0.00440986
0.0923629 0.0481575 0
0.109117 0.0475471 0
0.126421 0.0477913 0
0.146136 0.049073 0
0.169741 0.0518196 0
0.196628 0.0563211 0
0.226673 0.0626078 0
0.259205 0.0712749 0
0.294087 0.0824292 0
0.330694 0.0965744 0
0.369146 0.114137 0
0.408331 0.132784 0
0.448096 0.152056 0
0.489311 0.170977 0
0.530968 0.187716 0
0.572152 0.204456 0
0.612985 0.221164 0
0.651759 0.237385 0
0.687221 0.256016 0
0.720409 0.273945 0
0.751415 0.291234 0
0.779904 0.308019 0
0.806226 0.32459 0
0.83064 0.341146 0
0.854047 0.35816 0
0.87686 0.375875 0
0.899947 0.394583 0
0.923919 0.414588 0
0.949187 0.436027 0
0.0499886 0.0560311 0.0189822
0.0565805 0.0581521 0.0164187
0.0661784 0.0594186 0.012192
0.0796826 0.059968 0.005066
0.0972763 0.0593118 0
0.120592 0.0567636 0
0.137331 0.0559091 0
0.154726 0.0562295 0
0.175677 0.0581216 0
0.200061 0.0619364 0
0.228092 0.0679026 0
0.258793 0.0760662 0
0.292302 0.0868544 0
0.327642 0.100542 0
0.364935 0.117403 0
0.403265 0.135027 0
0.442557 0.153841 0
0.48278 0.172259 0
0.523903 0.188418 0
0.565255 0.204807 0
0.605554 0.221027 0
0.644663 0.236927 0
0.680522 0.254398 0
0.713863 0.272358 0
0.74548 0.290074 0
0.774441 0.307103 0
0.80145 0.324041 0
0.826596 0.341054 0
0.850797 0.358389 0
0.874434 0.376394 0
0.898253 0.395361 0
0.922896 0.415534 0
0.948699 0.436942 0
0.0585184 0.0660258 0.0186313
0.0659953 0.0684672 0.0159762
0.0762188 0.0700084 0.0118563
0.0889143 0.0709392 0.00544747
0.104875 0.0710307 0
0.1252 0.0699168 0
0.147768 0.0670329 0
0.164584 0.065919 0
0.183276 0.0667124 0
0.20531 0.0694133 0
0.23061 0.0743877 0
0.259419 0.0819104 0
0.29102 0.092195 0
0.324926 0.105135 0
0.360632 0.120821 0
0.398184 0.137804 0
0.4365 0.155657 0
0.47599 0.173754 0
0.51696 0.189441 0
0.557366 0.205142 0
0.597955 0.221027 0
0.636698 0.2365 0
0.673365 0.252979 0
0.706935 0.271077 0
0.738888 0.289021 0
0.768414 0.30634 0
0.796277 0.323781 0
0.822217 0.341054 0
0.847318 0.358755 0
0.87187 0.37705 0
0.896498 0.396262 0
0.921813 0.416602 0
0.94818 0.438239 0
0.0688029 0.077821 0.0188296
0.0770428 0.0803693 0.0158541
0.0877852 0.082002 0.0116426
0.10016 0.0831159 0.00567636
0.115221 0.083711 0
0.132601 0.0836347 0
0.151934 0.0821241 0
0.173419 0.078645 0
0.19173 0.0774548 0
0.211765 0.0788128 0
0.234745 0.0825971 0
0.261265 0.0890974 0
0.290578 0.0983902 0
0.32282 0.110826 0
0.35697 0.125124 0
0.39321 0.140993 0
0.430304 0.1579 0
0.46862 0.175479 0
0.509102 0.190524 0
0.54931 0.205676 0
0.589258 0.220981 0
0.628428 0.236286 0
0.665782 0.251957 0
0.699596 0.270253 0
0.731975 0.288243 0
0.762188 0.306065 0
0.790631 0.323751 0
0.817609 0.341436 0
0.843549 0.359411 0
0.869139 0.378195 0
0.894713 0.397635 0
0.920806 0.418158 0
0.947814 0.439902 0
0.0827955 0.0933394 0.0202029
0.0921035 0.0962539 0.0172885
0.103212 0.0980392 0.0131991
0.115358 0.0991226 0.00750744
0.128298 0.100053 0.000579843
0.143038 0.100313 0
0.159838 0.0996872 0
0.178149 0.0978561 0
0.200717 0.0939651 0
0.220081 0.0927138 0
0.241062 0.0945907 0
0.264912 0.0993515 0
0.291814 0.107012 0
0.321859 0.117891 0
0.354116 0.130663 0
0.388815 0.145342 0
0.424475 0.160967 0
0.461524 0.177722 0
0.501564 0.192203 0
0.541253 0.206821 0
0.580957 0.221759 0
0.62002 0.236728 0
0.657908 0.251575 0
0.691966 0.269917 0
0.724605 0.28809 0
0.755489 0.306188 0
0.784741 0.324193 0
0.812772 0.342214 0
0.839704 0.360678 0
0.866194 0.379538 0
0.892546 0.399115 0
0.919509 0.419791 0
0.947173 0.441627 0
0.10161 0.113634 0.0235142
0.11223 0.116579 0.0206302
0.122805 0.118471 0.0169223
0.133196 0.119722 0.01178
0.144137 0.120531 0.00518807
0.156527 0.120943 0
0.170855 0.121065 0
0.186801 0.12015 0
0.205173 0.118181 0
0.22916 0.113817 0
0.249729 0.11252 0
0.271382 0.115145 0
0.295995 0.120623 0
0.323217 0.128832 0
0.353292 0.139391 0
0.385657 0.152209 0
0.420035 0.166629 0
0.456046 0.181689 0
0.495109 0.195315 0
0.534096 0.209277 0
0.573251 0.223621 0
0.612131 0.238193 0
0.65005 0.252811 0
0.684428 0.27071 0
0.717464 0.289006 0
0.748821 0.307149 0
0.778866 0.325322 0
0.807691 0.343572 0
0.835691 0.36228 0
0.863218 0.381415 0
0.890532 0.40119 0
0.918471 0.422126 0
0.946944 0.444083 0
0.125444 0.136675 0.0295262
0.135058 0.139132 0.0267491
0.144289 0.140688 0.0229801
0.153231 0.142016 0.0186007
0.162478 0.142748 0.0125734
0.172976 0.143221 0.00488289
0.185 0.143572 0
0.198383 0.143206 0
0.213687 0.142229 0
0.233555 0.140627 0
0.258976 0.1364 0
0.280491 0.135317 0
0.302693 0.137865 0
0.327489 0.143465 0
0.355215 0.151858 0
0.385061 0.162478 0
0.417426 0.175189 0
0.45272 0.187747 0
0.490547 0.200336 0
0.528435 0.213352 0
0.566659 0.226978 0
0.605112 0.24097 0
0.643 0.255177 0
0.677226 0.27277 0
0.710369 0.290791 0
0.742367 0.309056 0
0.773129 0.327321 0
0.80293 0.345892 0
0.831861 0.364721 0
0.860319 0.383932 0
0.888899 0.404135 0
0.917464 0.424903 0
0.946654 0.446815 0
0.151354 0.161456 0.0383154
0.159655 0.163378 0.0361181
0.167498 0.164599 0.0324407
0.175158 0.165652 0.0282444
0.18291 0.166339 0.0228733
0.191943 0.167071 0.0163424
0.201999 0.16733 0.00772107
0.21323 0.167269 0
0.226017 0.16701 0
0.24242 0.166094 0
0.26334 0.16434 0
0.289754 0.160403 0
0.3122 0.159762 0
0.334981 0.162615 0
0.35993 0.168292 0
0.387472 0.176623 0
0.418448 0.18645 0
0.452445 0.196475 0
0.488258 0.207584 0
0.525078 0.219593 0
0.562188 0.232273 0
0.599939 0.245548 0
0.636957 0.259251 0
0.670741 0.276539 0
0.704219 0.29456 0
0.736477 0.312444 0
0.767926 0.330709 0
0.798321 0.349126 0
0.82829 0.368093 0
0.857725 0.38735 0
0.887236 0.407568 0
0.91664 0.428336 0
0.946578 0.450187 0
0.178439 0.18735 0.0515297
0.185672 0.188861 0.0490272
0.192325 0.189883 0.0455177
0.198764 0.190784 0.0416876
0.205219 0.191302 0.0367742
0.212787 0.191959 0.0309606
0.22118 0.192233 0.0233005
0.230793 0.192569 0.0145418
0.241245 0.192416 0.00395209
0.254719 0.19202 0
0.272282 0.191287 0
0.294362 0.189883 0
0.321813 0.18613 0
0.344762 0.185626 0
0.367712 0.188586 0
0.394308 0.1935 0
0.423835 0.200046 0
0.455924 0.208255 0
0.489372 0.217746 0
0.52459 0.228397 0
0.560372 0.239933 0
0.59675 0.252094 0
0.632273 0.266209 0
0.665812 0.282948 0
0.698802 0.299931 0
0.731456 0.317418 0
0.763302 0.335348 0
0.794415 0.353628 0
0.825147 0.372427 0
0.855573 0.391806 0
0.885908 0.411902 0
0.916365 0.4327 0
0.947051 0.454566 0
0.206409 0.213947 0.0682231
0.212619 0.21532 0.0660868
0.218235 0.216144 0.0627756
0.223697 0.216938 0.0594034
0.229114 0.21735 0.0549172
0.235462 0.217899 0.0496986
0.242359 0.218173 0.043061
0.250416 0.218479 0.0352026
0.259068 0.218509 0.0259098
0.270283 0.218647 0.014023
0.284947 0.21854 0
0.303502 0.217914 0
0.326375 0.216434 0
0.354498 0.213397 0
0.381659 0.211719 0
0.406821 0.213718 0
0.434058 0.217777 0
0.4636 0.223728 0
0.494774 0.231342 0
0.527947 0.24033 0
0.561776 0.25034 0
0.596246 0.261601 0
0.629526 0.276265 0
0.662501 0.291737 0
0.695201 0.30779 0
0.727916 0.324651 0
0.760006 0.342077 0
0.791638 0.35996 0
0.822995 0.378424 0
0.854231 0.397604 0
0.885359 0.417472 0
0.916411 0.437964 0
0.947814 0.459663 0
0.235187 0.241505 0.089601
0.240391 0.242588 0.08748
0.24506 0.243198 0.0844587
0.249638 0.243854 0.0814832
0.254154 0.244221 0.0776226
0.25948 0.244724 0.0731365
0.265263 0.244953 0.067216
0.271916 0.245274 0.0604562
0.279057 0.245258 0.0521553
0.288426 0.245518 0.0419165
0.300572 0.245579 0.0278935
0.316091 0.245594 0.0101778
0.335531 0.245609 0
0.358557 0.244755 0
0.38706 0.242206 0
0.416297 0.240452 0
0.445228 0.240757 0
0.474098 0.243458 0
0.503777 0.248508 0
0.534035 0.255955 0
0.565042 0.265492 0
0.596613 0.276753 0
0.628916 0.289525 0
0.661158 0.303548 0
0.69337 0.318318 0
0.725963 0.334279 0
0.758068 0.350774 0
0.790082 0.368002 0
0.821836 0.385916 0
0.853605 0.404593 0
0.88542 0.424125 0
0.917281 0.44448 0
0.94931 0.465858 0
0.264469 0.269657 0.114885
0.26865 0.270344 0.112657
0.272404 0.270695 0.109895
0.276127 0.271183 0.107347
0.279866 0.271412 0.103975
0.284215 0.271778 0.100145
0.289158 0.272129 0.095201
0.294499 0.272328 0.0894026
0.300557 0.272435 0.0824598
0.308476 0.272709 0.07364
0.318685 0.272892 0.0616007
0.33196 0.273472 0.0469215
0.348318 0.273838 0.0283055
0.368154 0.274022 0.00654612
0.39144 0.273747 0
0.420905 0.272084 0
0.450355 0.271031 0
0.47982 0.271672 0
0.509163 0.274479 0
0.538552 0.279469 0
0.568841 0.286534 0
0.599344 0.295613 0
0.63064 0.306401 0
0.661921 0.318288 0
0.693797 0.331853 0
0.725994 0.346532 0
0.758007 0.361883 0
0.790188 0.378454 0
0.822263 0.39559 0
0.854398 0.413626 0
0.886641 0.432532 0
0.918944 0.452384 0
0.951156 0.472969 0
0.293248 0.297429 0.138582
0.296529 0.29781 0.13669
0.299825 0.298238 0.134798
0.302922 0.29865 0.132982
0.305959 0.298772 0.130434
0.309621 0.299138 0.127825
0.313756 0.299535 0.124743
0.318227 0.299657 0.120455
0.323583 0.300053 0.115785
0.330373 0.300328 0.108736
0.339254 0.300725 0.098909
0.350561 0.301442 0.0860609
0.364508 0.302052 0.0697948
0.381781 0.302983 0.0509499
0.402167 0.303502 0.0290074
0.425589 0.303777 0.00601205
0.455314 0.302464 0
0.485359 0.301885 0
0.5149 0.303212 0
0.544625 0.306218 0
0.574258 0.311086 0
0.603937 0.317723 0
0.634318 0.326375 0
0.665248 0.33669 0
0.696483 0.34847 0
0.728084 0.361593 0
0.759991 0.375662 0
0.792065 0.391028 0
0.824125 0.407172 0
0.856397 0.424308 0
0.88896 0.442451 0
0.921553 0.461585 0
0.954376 0.481804 0
0.32221 0.325551 0.162921
0.32491 0.32578 0.161318
0.327611 0.326223 0.160159
0.330205 0.326543 0.158785
0.332708 0.326665 0.157015
0.335744 0.327001 0.155169
0.339117 0.327245 0.152804
0.34284 0.327489 0.150057
0.347738 0.327916 0.146487
0.353826 0.328267 0.141253
0.361852 0.328969 0.134569
0.371618 0.329641 0.125429
0.383703 0.330449 0.113252
0.398856 0.331563 0.0972152
0.416541 0.33254 0.076936
0.437217 0.333471 0.0548867
0.460853 0.334524 0.0334478
0.49102 0.333745 0
0.521279 0.33373 0
0.551095 0.335134 0
0.580575 0.338293 0
0.610483 0.343145 0
0.640284 0.349813 0
0.670726 0.358144 0
0.701381 0.368154 0
0.732418 0.379477 0
0.763958 0.392065 0
0.795773 0.406119 0
0.82771 0.421042 0
0.860334 0.437369 0
0.892897 0.454551 0
0.925658 0.472786 0
0.958694 0.492241 0
0.351095 0.353765 0.187335
0.353491 0.354147 0.18645
0.355734 0.354513 0.18555
0.357687 0.35465 0.184421
0.35993 0.354955 0.183368
0.362493 0.355261 0.182071
0.365209 0.355505 0.180484
0.368704 0.35581 0.178302
0.373251 0.356313 0.175494
0.378775 0.356695 0.171344
0.385916 0.357519 0.166491
0.394659 0.358175 0.159457
0.40557 0.35935 0.15108
0.418662 0.360403 0.139528
0.434211 0.361608 0.125063
0.452705 0.363149 0.107576
0.473655 0.364401 0.0857404
0.497154 0.365545 0.0641184
0.527672 0.365286 0.0212863
0.557992 0.365866 0
0.588235 0.367773 0
0.618112 0.371069 0
0.647822 0.376013 0
0.677852 0.382559 0
0.707988 0.390372 0
0.738689 0.400061 0
0.769787 0.411246 0
0.80148 0.423758 0
0.833219 0.437293 0
0.865629 0.452399 0
0.898085 0.468391 0
0.930999 0.485664 0
0.963928 0.504112 0
0.38027 0.382467 0.212436
0.382239 0.382818 0.211856
0.383978 0.383032 0.211063
0.385672 0.3832 0.210254
0.387533 0.383505 0.209583
0.3897 0.383871 0.208789
0.392264 0.384024 0.207202
0.395697 0.384543 0.205615
0.400015 0.385092 0.203265
0.405097 0.385565 0.199954
0.411673 0.386404 0.195987
0.419486 0.387152 0.190509
0.429282 0.388388 0.184054
0.440879 0.389548 0.175341
0.454932 0.391165 0.165057
0.471138 0.39266 0.151965
0.489876 0.394171 0.136202
0.511086 0.395712 0.117998
0.534844 0.397498 0.0991836
0.565728 0.397635 0.0522164
0.596277 0.398581 0.0101167
0.626276 0.400687 0
0.656382 0.404059 0
0.686244 0.409033 0
0.716609 0.415473 0
0.746944 0.423484 0
0.777722 0.432975 0
0.809125 0.443931 0
0.840543 0.455985 0
0.872709 0.469673 0
0.905043 0.484428 0
0.937667 0.500465 0
0.970779 0.51812 0
0.409644 0.411566 0.237827
0.411032 0.411643 0.237125
0.412543 0.411948 0.236728
0.41413 0.412253 0.236225
0.415946 0.412558 0.235599
0.418143 0.412955 0.234791
0.42063 0.413153 0.233387
0.423972 0.413718 0.231983
0.428077 0.414359 0.23006
0.432822 0.414893 0.227298
0.438911 0.415808 0.224094
0.446021 0.416617 0.219654
0.454932 0.417868 0.214374
0.465339 0.419028 0.207401
0.477913 0.420706 0.199374
0.492378 0.422309 0.189166
0.5093 0.424048 0.176867
0.528679 0.426108 0.163088
0.550027 0.42797 0.147585
0.573785 0.429694 0.130678
0.604837 0.430259 0.0847028
0.635691 0.43183 0.0402991
0.665949 0.434226 0.000732433
0.696132 0.437797 0
0.726253 0.442802 0
0.756695 0.449241 0
0.787243 0.457023 0
0.817945 0.466209 0
0.849577 0.477012 0
0.881498 0.489281 0
0.913527 0.502617 0
0.946273 0.517662 0
0.978805 0.533806 0
0.439338 0.441016 0.262989
0.440909 0.441337 0.262577
0.442496 0.441672 0.262135
0.444099 0.442008 0.261662
0.445747 0.442206 0.260899
0.447807 0.442512 0.259998
0.450446 0.442985 0.259007
0.453651 0.443565 0.25771
0.457511 0.44419 0.25597
0.461967 0.444785 0.253635
0.467628 0.445747 0.25098
0.474189 0.446555 0.247181
0.482338 0.447837 0.242878
0.491707 0.449058 0.237217
0.503136 0.450706 0.230549
0.516106 0.452323 0.222278
0.531594 0.454353 0.212558
0.548867 0.456321 0.201099
0.568338 0.458381 0.188159
0.590188 0.46067 0.174563
0.614511 0.462684 0.158312
0.645243 0.463615 0.118044
0.676112 0.465202 0.0711528
0.706645 0.467826 0.0281224
0.736873 0.471641 0
0.767483 0.476646 0
0.797955 0.483131 0
0.828809 0.49102 0
0.860044 0.500313 0
0.891798 0.511055 0
0.923491 0.522988 0
0.955917 0.536645 0
0.988128 0.551476 0
0.470893 0.471397 0.287953
0.472465 0.471702 0.287419
0.474006 0.472023 0.286931
0.475395 0.472145 0.286229
0.477119 0.472541 0.285679
0.47924 0.472923 0.284886
0.481758 0.473411 0.28394
0.484825 0.473991 0.282765
0.488182 0.474479 0.281102
0.492592 0.475273 0.279179
0.497856 0.476249 0.27689
0.503883 0.477073 0.27361
0.51136 0.47837 0.269978
0.51989 0.479591 0.265202
0.530266 0.48127 0.259678
0.542 0.482887 0.252766
0.556008 0.484916 0.244678
0.571649 0.48687 0.235019
0.58967 0.48925 0.224353
0.609491 0.491524 0.212284
0.631296 0.493843 0.199588
0.656092 0.495918 0.183185
0.687022 0.497108 0.145617
0.717937 0.499382 0.103899
0.748806 0.502174 0.0570535
0.779278 0.506172 0.0158999
0.809995 0.511315 0
0.840848 0.517784 0
0.871717 0.525567 0
0.90309 0.534691 0
0.934874 0.545449 0
0.966964 0.557671 0
0.998978 0.571176 0
0.50399 0.502373 0.312047
0.505455 0.502663 0.311559
0.506996 0.502968 0.311025
0.508522 0.503334 0.310552
0.510216 0.503685 0.309987
0.512215 0.504112 0.3093
0.514611 0.504631 0.308461
0.51722 0.504952 0.307118
0.520668 0.505638 0.30576
0.524773 0.506447 0.304097
0.529503 0.507317 0.301991
0.535164 0.508217 0.299184
0.542 0.509499 0.296086
0.549798 0.510704 0.291981
0.559213 0.512337 0.287266
0.56997 0.513924 0.281285
0.582574 0.515969 0.27454
0.596796 0.517906 0.266255
0.613199 0.520333 0.257099
0.631281 0.522622 0.246479
0.651392 0.525002 0.234913
0.673762 0.527779 0.223392
0.699138 0.529976 0.206485
0.730114 0.531441 0.170977
0.761044 0.533578 0.131518
0.79173 0.53669 0.0861219
0.822614 0.540764 0.0408942
0.853559 0.546044 0.000106813
0.884627 0.552605 0
0.915892 0.560555 0
0.94754 0.569909 0
0.979004 0.580468 0
1 0.592844 0
0.538933 0.53434 0.335851
0.540398 0.534661 0.335378
0.541878 0.534981 0.334905
0.543328 0.535317 0.334447
0.5449 0.535683 0.333928
0.546548 0.535851 0.332998
0.548745 0.536324 0.332204
0.551415 0.536919 0.331258
0.55462 0.537606 0.330037
0.55845 0.538384 0.328527
0.562646 0.53901 0.326406
0.567987 0.540063 0.324102
0.574258 0.541299 0.32137
0.581277 0.542428 0.317784
0.589914 0.544015 0.313695
0.599725 0.545647 0.308644
0.611154 0.547509 0.302632
0.624079 0.549416 0.295415
0.639063 0.551812 0.28748
0.65565 0.55407 0.27805
0.67425 0.556542 0.267628
0.694865 0.559304 0.256733
0.717052 0.561944 0.245441
0.742977 0.564233 0.227787
0.774029 0.565927 0.19353
0.80531 0.56849 0.15639
0.836286 0.571862 0.114794
0.867506 0.576074 0.0663157
0.898573 0.581506 0.0222782
0.929534 0.587991 0
0.960952 0.595911 0
0.992462 0.605417 0
1 0.616449 0
0.575647 0.567224 0.359274
0.576883 0.567422 0.358694
0.578042 0.56759 0.358144
0.579416 0.56788 0.357656
0.580865 0.568231 0.357198
0.58262 0.568612 0.356527
0.584695 0.569085 0.355825
0.587152 0.56965 0.35494
0.590127 0.570275 0.35378
0.593317 0.570748 0.352148
0.597467 0.571618 0.350484
0.602319 0.572656 0.348547
0.608011 0.573754 0.345998
0.61445 0.574868 0.342855
0.622324 0.576349 0.339162
0.631098 0.577768 0.3346
0.641611 0.57966 0.329458
0.653346 0.581582 0.323323
0.667002 0.58381 0.316167
0.682094 0.586038 0.307866
0.699489 0.588678 0.298634
0.718288 0.591211 0.288396
0.738918 0.593866 0.277531
0.761624 0.596933 0.266941
0.788266 0.599268 0.247913
0.819348 0.601144 0.214603
0.850538 0.603693 0.178408
0.88159 0.607141 0.138766
0.912886 0.611536 0.091783
0.944183 0.617075 0.0441901
0.975402 0.623926 0.0018616
1 0.63212 0
1 0.641566 0
0.613626 0.600748 0.382147
0.614847 0.601053 0.38175
0.616083 0.601328 0.381292
0.617288 0.601648 0.380926
0.618647 0.601938 0.380423
0.620249 0.602274 0.379797
0.622126 0.602731 0.379141
0.624079 0.60296 0.378073
0.626764 0.60354 0.376989
0.629938 0.604242 0.375784
0.633692 0.605051 0.374273
0.638132 0.605982 0.372427
0.643046 0.60676 0.369955
0.649119 0.608026 0.367361
0.656275 0.609415 0.36408
0.66421 0.610727 0.360037
0.673747 0.612512 0.355489
0.684382 0.614206 0.349859
0.696895 0.616403 0.343557
0.710643 0.618524 0.336172
0.726604 0.621088 0.327855
0.743908 0.62356 0.318471
0.763027 0.626169 0.308278
0.784283 0.629221 0.297826
0.806851 0.63209 0.287175
0.83415 0.63444 0.266697
0.865141 0.636545 0.234134
0.896559 0.6392 0.198611
0.927657 0.642817 0.1608
0.959152 0.647593 0.118242
0.990112 0.653086 0.0691386
1 0.660166 0.0252537
1 0.66865 0
0.653178 0.635187 0.404822
0.654139 0.635294 0.404273
0.655222 0.635584 0.403937
0.656336 0.635828 0.40351
0.657557 0.636103 0.403037
0.658976 0.636439 0.402564
0.6607 0.63682 0.401877
0.662699 0.637293 0.401129
0.665171 0.637812 0.400122
0.668009 0.638453 0.399008
0.671351 0.639139 0.39762
0.675059 0.63978 0.395789
0.679774 0.640772 0.393774
0.685313 0.641901 0.391348
0.691463 0.643015 0.388388
0.698894 0.644404 0.384848
0.70753 0.646067 0.380819
0.717128 0.647654 0.375799
0.728511 0.649683 0.370153
0.741131 0.651637 0.363363
0.755657 0.654093 0.355947
0.771618 0.656413 0.34725
0.789563 0.659205 0.338018
0.809018 0.661906 0.327871
0.830121 0.664714 0.317311
0.852842 0.667659 0.306935
0.881117 0.670283 0.285298
0.912184 0.672511 0.253101
0.943374 0.67538 0.218906
0.974441 0.679149 0.182742
1 0.683955 0.143435
1 0.689906 0.0991226
1 0.6972 0.0541543
0.694072 0.67042 0.427268
0.695079 0.670634 0.426856
0.696071 0.670863 0.426444
0.697078 0.671077 0.426047
0.698116 0.671351 0.425711
0.699428 0.671626 0.425177
0.700938 0.671931 0.424521
0.702449 0.672129 0.423667
0.704616 0.672557 0.422736
