public/textures/grade/Blackmagic/Bat-BMDFilm.cube
TITLE "Generated by Resolve"
LUT_3D_SIZE 5
0.0271611 0.030869 0.0205234
0.160586 0.0363012 0
0.466346 0.145663 0
0.770764 0.296208 0
0.950698 0.433143 0
0.10161 0.113634 0.0235142
0.205173 0.118181 0
0.420035 0.166629 0
0.717464 0.289006 0
0.946944 0.444083 0
0.32221 0.325551 0.162921
0.347738 0.327916 0.146487
0.460853 0.334524 0.0334478
0.701381 0.368154 0
0.958694 0.492241 0
0.575647 0.567224 0.359274
0.590127 0.570275 0.35378
0.641611 0.57966 0.329458
0.788266 0.599268 0.247913
1 0.641566 0
0.915373 0.851698 0.531868
0.920928 0.852613 0.52903
0.94139 0.855634 0.517906
1 0.86421 0.478904
1 0.877073 0.373098
0.0407416 0.0795148 0.135378
0.105089 0.0915999 0.168078
0.452766 0.160372 0.0606851
0.751827 0.319966 0
0.951186 0.432807 0
0.00404364 0.147433 0.184573
0.140261 0.15494 0.155581
0.396918 0.202258 0.0794842
0.70399 0.310307 0
0.947036 0.443503 0
0.309346 0.333989 0.234241
0.337285 0.339437 0.216449
0.452094 0.350011 0.151995
0.702464 0.37731 0
0.958465 0.491676 0
0.575402 0.566888 0.358938
0.589868 0.569924 0.353429
0.641382 0.579293 0.329061
0.78819 0.598856 0.247166
1 0.641306 0
0.915389 0.851698 0.531853
0.920958 0.852613 0.529015
0.941421 0.85565 0.517891
1 0.86421 0.478889
1 0.877073 0.373098
0.109697 0.240772 0.376242
0.170733 0.250629 0.378622
0.343954 0.300542 0.458854
0.7337 0.354406 0.322179
0.902205 0.492119 0.264744
0.0970779 0.239063 0.355627
0.166537 0.248325 0.351659
0.325643 0.296284 0.410834
0.668421 0.355154 0.312825
0.905028 0.502022 0.261173
0.16199 0.37612 0.430823
0.222721 0.379843 0.424567
0.377935 0.39353 0.397971
0.631754 0.445563 0.359533
0.934157 0.545281 0.251072
0.555627 0.595605 0.501289
0.571969 0.600641 0.494926
0.624689 0.614588 0.476555
0.768719 0.638758 0.441215
1 0.673594 0.228733
0.915511 0.851713 0.531792
0.921065 0.852628 0.528954
0.941512 0.85565 0.517845
1 0.86421 0.478859
1 0.877073 0.373068
0.236515 0.44387 0.672358
0.272145 0.447456 0.67071
0.389807 0.487633 0.718639
0.654307 0.5617 0.794049
0.865324 0.550729 0.584863
0.241901 0.443778 0.671031
0.276997 0.448142 0.670802
0.393851 0.486122 0.713619
0.588922 0.511543 0.698909
0.862501 0.561364 0.587289
0.224872 0.421378 0.572
0.266377 0.42501 0.56379
0.374029 0.446311 0.559167
0.555779 0.514611 0.626947
0.879393 0.609262 0.608179
0.42182 0.654276 0.719905
0.44593 0.657786 0.71957
0.518929 0.668421 0.716854
0.682506 0.696147 0.703166
0.92845 0.756924 0.688289
0.855421 0.908415 0.824323
0.861387 0.909606 0.822339
0.882536 0.914534 0.81239
0.947524 0.927657 0.787854
1 0.942672 0.751492
0.360281 0.63032 0.942489
0.381949 0.631144 0.939437
0.472328 0.656931 0.958389
0.660197 0.716731 1
0.964523 0.800336 1
0.364401 0.630106 0.941283
0.385275 0.631708 0.939635
0.475776 0.658106 0.959304
0.661433 0.716991 1
0.862669 0.71928 0.948516
0.371145 0.616373 0.914778
0.390539 0.614908 0.907164
0.465827 0.618112 0.888334
0.574258 0.605631 0.872312
0.775845 0.673823 0.836851
0.450828 0.66862 0.819486
0.474052 0.671733 0.816037
0.539498 0.684001 0.810971
0.669917 0.723171 0.822141
0.85742 0.807721 0.905318
0.734737 0.970031 1
0.741695 0.970855 1
0.767056 0.97351 1
0.844038 0.982086 1
0.995193 1 1
