public/textures/grade/Blackmagic/Bat-BMDFilm.cube
TITLE "Generated by Resolve"
LUT_3D_SIZE 9
0.0271611 0.030869 0.0205234
0.067689 0.0323033 0.0104219
0.160586 0.0363012 0
0.300343 0.0670329 0
0.466346 0.145663 0
0.635081 0.223224 0
0.770764 0.296208 0
0.864057 0.358343 0
0.950698 0.433143 0
0.0499886 0.0560311 0.0189822
0.0972763 0.0593118 0
0.175677 0.0581216 0
0.292302 0.0868544 0
0.442557 0.153841 0
0.605554 0.221027 0
0.74548 0.290074 0
0.850797 0.358389 0
0.948699 0.436942 0
0.10161 0.113634 0.0235142
0.144137 0.120531 0.00518807
0.205173 0.118181 0
0.295995 0.120623 0
0.420035 0.166629 0
0.573251 0.223621 0
0.717464 0.289006 0
0.835691 0.36228 0
0.946944 0.444083 0
0.206409 0.213947 0.0682231
0.229114 0.21735 0.0549172
0.259068 0.218509 0.0259098
0.326375 0.216434 0
0.434058 0.217777 0
0.561776 0.25034 0
0.695201 0.30779 0
0.822995 0.378424 0
0.947814 0.459663 0
0.32221 0.325551 0.162921
0.332708 0.326665 0.157015
0.347738 0.327916 0.146487
0.383703 0.330449 0.113252
0.460853 0.334524 0.0334478
0.580575 0.338293 0
0.701381 0.368154 0
0.82771 0.421042 0
0.958694 0.492241 0
0.439338 0.441016 0.262989
0.445747 0.442206 0.260899
0.457511 0.44419 0.25597
0.482338 0.447837 0.242878
0.531594 0.454353 0.212558
0.614511 0.462684 0.158312
0.736873 0.471641 0
0.860044 0.500313 0
0.988128 0.551476 0
0.575647 0.567224 0.359274
0.580865 0.568231 0.357198
0.590127 0.570275 0.35378
0.608011 0.573754 0.345998
0.641611 0.57966 0.329458
0.699489 0.588678 0.298634
0.788266 0.599268 0.247913
0.912886 0.611536 0.091783
1 0.641566 0
0.73608 0.706127 0.44921
0.739666 0.70692 0.447761
0.745647 0.708263 0.445365
0.757305 0.710445 0.439933
0.779599 0.714656 0.429374
0.819409 0.721569 0.409308
0.882673 0.730907 0.37586
0.976074 0.742168 0.320867
1 0.75758 0.19176
0.915373 0.851698 0.531868
0.917464 0.852018 0.53077
0.920928 0.852613 0.52903
0.927962 0.853773 0.525399
0.94139 0.855634 0.517906
0.966491 0.859098 0.503792
1 0.86421 0.478904
1 0.870741 0.441855
1 0.877073 0.373098
0.0320439 0.045594 0.0573892
0.0503243 0.0477455 0.0653086
0.142824 0.0542763 0.0546731
0.296635 0.0763104 0.00541695
0.458167 0.159609 0
0.630457 0.233143 0
0.77232 0.296773 0
0.864866 0.358404 0
0.950835 0.432959 0
0.0159915 0.0699168 0.0847791
0.064744 0.0745403 0.0705577
0.147829 0.0817884 0.0524147
0.281682 0.109056 0.0113375
0.44155 0.161532 0
0.605295 0.225467 0
0.746441 0.290181 0
0.851408 0.358358 0
0.948775 0.436744 0
0.0767987 0.126833 0.0860609
0.123827 0.131411 0.0701915
0.183566 0.133684 0.0344396
0.295659 0.131365 0
0.427359 0.166766 0
0.577111 0.222827 0
0.718105 0.28893 0
0.836042 0.362127 0
0.946975 0.44387 0
0.201831 0.219013 0.110964
0.224201 0.222782 0.0928206
0.253758 0.224094 0.0641642
0.321675 0.223209 0
0.439048 0.219242 0
0.5626 0.250187 0
0.695247 0.307393 0
0.823087 0.378164 0
0.947784 0.459449 0
0.321935 0.325307 0.163043
0.332341 0.326223 0.156603
0.347387 0.327382 0.145815
0.38349 0.329961 0.112398
0.460746 0.333944 0.0323796
0.580499 0.337758 0
0.701305 0.367758 0
0.827634 0.420752 0
0.958602 0.492027 0
0.439139 0.440742 0.26273
0.445594 0.441978 0.260685
0.457359 0.443961 0.255726
0.482155 0.447593 0.242588
0.531456 0.454093 0.212192
0.614496 0.462379 0.157626
0.736812 0.471382 0
0.859953 0.500099 0
0.988052 0.551308 0
0.575555 0.567102 0.359152
0.580774 0.568109 0.357076
0.590036 0.570138 0.353643
0.60795 0.573648 0.345876
0.64152 0.579522 0.329305
0.699413 0.58854 0.298482
0.788235 0.599115 0.247639
0.91284 0.611399 0.0914015
1 0.641459 0
0.736034 0.70605 0.449134
0.73962 0.706859 0.4477
0.745602 0.708202 0.445304
0.757259 0.710384 0.439872
0.779553 0.714595 0.429297
0.819379 0.721523 0.409247
0.882643 0.730846 0.375784
0.976059 0.742107 0.320745
1 0.757519 0.191638
0.915389 0.851698 0.531868
0.917479 0.852018 0.53077
0.920928 0.852613 0.529015
0.927962 0.853773 0.525399
0.941405 0.85565 0.517906
0.966491 0.859098 0.503792
1 0.86421 0.478904
1 0.870741 0.441855
1 0.877073 0.373098
0.0407416 0.0795148 0.135378
0.0607614 0.0821698 0.134554
0.105089 0.0915999 0.168078
0.254261 0.124514 0.15227
0.452766 0.160372 0.0606851
0.612863 0.251072 0.00628672
0.751827 0.319966 0
0.862715 0.363607 0
0.951186 0.432807 0
0.0374914 0.091249 0.140459
0.0679026 0.0996109 0.13962
0.118746 0.113787 0.162081
0.262287 0.136217 0.138262
0.424201 0.182452 0.0768902
0.577905 0.257084 0.031342
0.728115 0.31284 0
0.850233 0.362768 0
0.948898 0.436484 0
0.00404364 0.147433 0.184573
0.0620584 0.152773 0.176699
0.140261 0.15494 0.155581
0.250324 0.168734 0.132006
0.396918 0.202258 0.0794842
0.554208 0.252918 0.00375372
0.70399 0.310307 0
0.836027 0.365042 0
0.947036 0.443503 0
0.161364 0.229404 0.191058
0.189319 0.233173 0.185733
0.226215 0.235294 0.170871
0.291173 0.240986 0.141711
0.417792 0.246937 0.0505684
0.549752 0.277363 0
0.688899 0.325582 0
0.82327 0.377829 0
0.947723 0.459068 0
0.309346 0.333989 0.234241
0.321309 0.336934 0.225925
0.337285 0.339437 0.216449
0.374853 0.34374 0.196826
0.452094 0.350011 0.151995
0.577661 0.354925 0.00668345
0.702464 0.37731 0
0.827527 0.420264 0
0.958465 0.491676 0
0.440208 0.445792 0.277882
0.447089 0.447105 0.275532
0.459159 0.44892 0.269871
0.484276 0.452216 0.255528
0.533425 0.457527 0.222217
0.615076 0.462745 0.158953
0.73669 0.470909 0
0.859815 0.499718 0
0.9879 0.551019 0
0.575402 0.566888 0.358938
0.580606 0.567895 0.356863
0.589868 0.569924 0.353429
0.607828 0.573434 0.345678
0.641382 0.579293 0.329061
0.69929 0.588312 0.298207
0.78819 0.598856 0.247166
0.912764 0.611154 0.0907607
1 0.641306 0
0.735973 0.705943 0.449027
0.739544 0.706752 0.447593
0.745541 0.70808 0.445182
0.757183 0.710277 0.43975
0.779492 0.714473 0.429175
0.819318 0.721416 0.40914
0.882582 0.730724 0.375662
0.976028 0.741985 0.320546
1 0.757397 0.191409
0.915389 0.851698 0.531853
0.917494 0.852018 0.530755
0.920958 0.852613 0.529015
0.927977 0.853773 0.525383
0.941421 0.85565 0.517891
0.966506 0.859098 0.503777
1 0.86421 0.478889
1 0.870741 0.441855
1 0.877073 0.373098
0.0636912 0.151705 0.246143
0.0868544 0.154726 0.244358
0.126131 0.164126 0.260151
0.211566 0.185672 0.303807
0.386633 0.236286 0.287739
0.608225 0.259876 0.189929
0.735729 0.332937 0.120012
0.829602 0.393042 0.0480659
0.945815 0.448463 0
0.062089 0.155169 0.24332
0.090486 0.161242 0.243244
0.135515 0.172473 0.252567
0.21738 0.197162 0.296422
0.379202 0.237842 0.272206
0.574945 0.264866 0.189075
0.705348 0.333013 0.135256
0.819089 0.392721 0.0440223
0.944915 0.451835 0
0.0530556 0.175341 0.250477
0.0920272 0.18027 0.245441
0.141573 0.18735 0.241367
0.214786 0.20679 0.270878
0.369787 0.236347 0.246357
0.535439 0.274449 0.192004
0.668986 0.342031 0.163058
0.809064 0.396155 0.0374151
0.94493 0.457984 0
0.0447242 0.254826 0.303014
0.0991684 0.258091 0.29839
0.158694 0.259464 0.288914
0.247333 0.2636 0.266941
0.365682 0.280369 0.246586
0.509697 0.311574 0.20734
0.659159 0.355932 0.144854
0.805066 0.410925 0.0264286
0.948562 0.471519 0
0.267506 0.34696 0.31017
0.282658 0.348669 0.30869
0.300511 0.352117 0.304417
0.34728 0.356786 0.290715
0.42295 0.367498 0.271702
0.552346 0.378622 0.20856
0.683238 0.406302 0.138613
0.821164 0.449516 0.0140383
0.96144 0.498146 0
0.424582 0.456016 0.356115
0.432807 0.45861 0.352682
0.44654 0.462654 0.344488
0.472618 0.468299 0.335393
0.522744 0.47686 0.318395
0.604837 0.487694 0.2916
0.734005 0.497627 0.187366
0.863569 0.519417 0.0150759
0.987594 0.550408 0
0.580209 0.579889 0.391959
0.585611 0.580941 0.38996
0.595163 0.583047 0.386664
0.613504 0.586587 0.379065
0.647578 0.592309 0.362432
0.705608 0.600198 0.329839
0.793378 0.606561 0.26804
0.912581 0.610681 0.0894331
1 0.640986 0
0.735805 0.705699 0.448783
0.739391 0.706508 0.447349
0.745373 0.707851 0.444938
0.757031 0.710033 0.439506
0.779339 0.714244 0.428931
0.819165 0.721172 0.408881
0.882445 0.73048 0.375402
0.975952 0.741726 0.320119
1 0.757168 0.190921
0.915434 0.851698 0.531838
0.91754 0.852033 0.530739
0.920989 0.852628 0.528984
0.928008 0.853773 0.525383
0.941451 0.85565 0.517876
0.966537 0.859098 0.503761
1 0.86421 0.478889
1 0.870741 0.44184
1 0.877073 0.373083
0.109697 0.240772 0.376242
0.131624 0.243061 0.375296
0.170733 0.250629 0.378622
0.228138 0.271305 0.417227
0.343954 0.300542 0.458854
0.527321 0.358648 0.437125
0.7337 0.354406 0.322179
0.8177 0.407568 0.264744
0.902205 0.492119 0.264744
0.111391 0.241489 0.374395
0.136706 0.245121 0.374029
0.175082 0.253361 0.377127
0.233829 0.274418 0.41117
0.343832 0.304768 0.446845
0.50518 0.349371 0.413931
0.702907 0.351598 0.315602
0.801633 0.412268 0.273274
0.902815 0.495674 0.263569
0.0970779 0.239063 0.355627
0.129397 0.24332 0.354208
0.166537 0.248325 0.351659
0.226078 0.2645 0.367056
0.325643 0.296284 0.410834
0.479667 0.33843 0.385428
0.668421 0.355154 0.312825
0.782269 0.423621 0.288594
0.905028 0.502022 0.261173
0.102251 0.280278 0.380484
0.140383 0.280171 0.370123
0.180957 0.281544 0.359243
0.244114 0.291875 0.353689
0.327062 0.315068 0.386694
0.473884 0.34873 0.365713
0.635401 0.383383 0.326925
0.759762 0.451789 0.319829
0.913024 0.516304 0.257694
0.16199 0.37612 0.430823
0.188724 0.377798 0.428519
0.222721 0.379843 0.424567
0.283726 0.384161 0.416205
0.377935 0.39353 0.397971
0.493645 0.413947 0.385046
0.631754 0.445563 0.359533
0.780087 0.489311 0.321096
0.934157 0.545281 0.251072
0.368261 0.478416 0.451072
0.379782 0.479728 0.450782
0.398901 0.482017 0.450034
0.431357 0.487007 0.44686
0.488106 0.497139 0.433829
0.56817 0.511879 0.423758
0.698436 0.527611 0.37705
0.832807 0.555779 0.326452
0.976242 0.597177 0.242008
0.555627 0.595605 0.501289
0.561654 0.597299 0.498985
0.571969 0.600641 0.494926
0.591318 0.606928 0.48455
0.624689 0.614588 0.476555
0.682216 0.62565 0.462013
0.768719 0.638758 0.441215
0.902419 0.651576 0.35491
1 0.673594 0.228733
0.739193 0.728328 0.515145
0.742687 0.729015 0.513878
0.74873 0.730373 0.511925
0.76051 0.732601 0.507256
0.783017 0.736797 0.497993
0.823224 0.74345 0.479301
0.887541 0.751797 0.44506
0.982559 0.75819 0.374853
1 0.75668 0.189929
0.915511 0.851713 0.531792
0.917617 0.852033 0.530709
0.921065 0.852628 0.528954
0.928069 0.853788 0.525353
0.941512 0.85565 0.517845
0.966598 0.859113 0.503731
1 0.86421 0.478859
1 0.870741 0.441825
1 0.877073 0.373068
0.171328 0.339696 0.520531
0.18793 0.341222 0.519493
0.217121 0.345892 0.520806
0.271687 0.363622 0.538705
0.353521 0.391806 0.59353
0.494575 0.428473 0.625162
0.650645 0.469673 0.574853
0.813169 0.438102 0.445212
0.896208 0.50869 0.421118
0.1729 0.339681 0.520119
0.190921 0.341222 0.518883
0.219409 0.346181 0.52079
0.273304 0.364065 0.539696
0.357488 0.393332 0.59324
0.486564 0.424475 0.605631
0.621973 0.454154 0.547875
0.79733 0.438239 0.441703
0.892561 0.515251 0.426505
0.164935 0.330297 0.497154
0.18584 0.332128 0.494667
0.21294 0.335241 0.492378
0.267689 0.348043 0.496361
0.338521 0.370977 0.537453
0.454017 0.401831 0.55584
0.591226 0.439109 0.518334
0.778042 0.445548 0.442191
0.888136 0.526543 0.435584
0.155779 0.326207 0.464729
0.177798 0.328344 0.461646
0.206332 0.331182 0.457557
0.25774 0.339147 0.453513
0.327688 0.359274 0.47483
0.433265 0.395911 0.513298
0.572198 0.441901 0.497002
0.759594 0.468299 0.451392
0.883085 0.54905 0.4533
0.187228 0.397238 0.513802
0.209216 0.396216 0.505318
0.244388 0.396033 0.493538
0.300053 0.400732 0.480873
0.372045 0.416144 0.477409
0.456962 0.443336 0.512169
0.592676 0.480827 0.501198
0.753491 0.518517 0.479072
0.880507 0.591226 0.486229
0.283116 0.5075 0.56791
0.298314 0.509422 0.567544
0.322133 0.512108 0.566354
0.364324 0.516762 0.563272
0.430869 0.525338 0.557717
0.52517 0.539406 0.544808
0.638178 0.563134 0.538216
0.774594 0.596551 0.520867
0.924193 0.642145 0.494011
0.487877 0.625834 0.606867
0.49662 0.626993 0.606836
0.510613 0.628595 0.606409
0.536721 0.63154 0.605188
0.578866 0.637842 0.602365
0.642008 0.650782 0.589548
0.725231 0.667521 0.583291
0.85774 0.685756 0.542901
0.992752 0.715862 0.502388
0.702113 0.749447 0.658778
0.70605 0.750515 0.657649
0.71252 0.752361 0.655543
0.724849 0.755871 0.649927
0.747845 0.763149 0.637217
0.786236 0.771557 0.629526
0.847883 0.782712 0.615534
0.937133 0.796445 0.597528
1 0.811246 0.52398
0.906157 0.883665 0.653269
0.908248 0.884001 0.652476
0.911681 0.884627 0.651179
0.918669 0.885847 0.648524
0.932067 0.887709 0.642664
0.957 0.890867 0.630961
0.999725 0.895384 0.609354
1 0.900053 0.572702
1 0.900862 0.489128
0.236515 0.44387 0.672358
0.250095 0.444633 0.67071
0.272145 0.447456 0.67071
0.316243 0.459861 0.680262
0.389807 0.487633 0.718639
0.495232 0.517433 0.777707
0.654307 0.5617 0.794049
0.736889 0.55111 0.679149
0.865324 0.550729 0.584863
0.238178 0.443854 0.671946
0.252384 0.444602 0.670207
0.273976 0.4477 0.670726
0.318379 0.460426 0.680598
0.391104 0.487999 0.719387
0.496086 0.517494 0.777935
0.638041 0.549416 0.766369
0.714961 0.538994 0.659159
0.863401 0.554299 0.585321
0.241901 0.443778 0.671031
0.256138 0.444633 0.66952
0.276997 0.448142 0.670802
0.32224 0.461326 0.68069
0.393851 0.486122 0.713619
0.482948 0.49955 0.739422
0.588922 0.511543 0.698909
0.692744 0.530648 0.639002
0.862501 0.561364 0.587289
0.216419 0.405188 0.59559
0.230701 0.40502 0.591211
0.250706 0.405142 0.58558
0.291524 0.409644 0.580331
0.35314 0.424216 0.590204
0.434165 0.449073 0.631876
0.550088 0.487312 0.640009
0.678096 0.535836 0.624002
0.865934 0.576837 0.593057
0.224872 0.421378 0.572
0.241062 0.422354 0.567956
0.266377 0.42501 0.56379
0.309712 0.432013 0.560235
0.374029 0.446311 0.559167
0.449134 0.47187 0.58851
0.555779 0.514611 0.626947
0.688014 0.568231 0.627268
0.879393 0.609262 0.608179
0.290684 0.525231 0.649699
0.307546 0.525811 0.645594
0.334325 0.526909 0.638895
0.380285 0.530037 0.627817
0.443656 0.538827 0.616983
0.518837 0.558877 0.61799
0.603845 0.589181 0.655436
0.733913 0.63006 0.653193
0.894835 0.671839 0.643534
0.42182 0.654276 0.719905
0.430991 0.655482 0.719646
0.44593 0.657786 0.71957
0.473335 0.661723 0.718807
0.518929 0.668421 0.716854
0.587762 0.679515 0.713161
0.682506 0.696147 0.703166
0.795163 0.721736 0.69958
0.92845 0.756924 0.688289
0.625452 0.785153 0.772931
0.630777 0.785763 0.772763
0.639536 0.786786 0.772519
0.656413 0.788296 0.771435
0.687068 0.791348 0.769497
0.73521 0.797223 0.765347
0.802457 0.810803 0.75108
0.886671 0.827619 0.746838
1 0.847288 0.712337
0.855421 0.908415 0.824323
0.857664 0.908843 0.823575
0.861387 0.909606 0.822339
0.868742 0.911254 0.819501
0.882536 0.914534 0.81239
0.907683 0.921569 0.796719
0.947524 0.927657 0.787854
1 0.934997 0.772717
1 0.942672 0.751492
0.303517 0.548272 0.824109
0.314626 0.548165 0.821637
0.331365 0.549737 0.820768
0.365454 0.558251 0.826719
0.438895 0.582666 0.846143
0.522789 0.613458 0.902617
0.645792 0.640223 0.958541
0.814343 0.691661 0.953735
0.805188 0.615686 0.761654
0.305364 0.54818 0.823545
0.316396 0.54815 0.821256
0.332677 0.549905 0.820783
0.367147 0.558694 0.827008
0.440253 0.583078 0.846433
0.523583 0.613642 0.903014
0.646189 0.640208 0.958587
0.79588 0.676631 0.926528
0.798642 0.615152 0.755764
0.308537 0.547951 0.822553
0.31931 0.54815 0.820691
0.335134 0.550271 0.820844
0.36997 0.559426 0.827512
0.441947 0.583703 0.847623
0.524941 0.613931 0.903655
0.647013 0.640223 0.958724
0.724514 0.619455 0.834424
0.79234 0.617838 0.75021
0.31487 0.547295 0.819913
0.324926 0.547723 0.818372
0.340414 0.54992 0.818219
0.375814 0.557168 0.820401
0.438972 0.570352 0.823743
0.499672 0.573526 0.833661
0.574105 0.562661 0.819684
0.669612 0.580209 0.760464
0.789425 0.629969 0.748028
0.266072 0.470207 0.668696
0.277226 0.470192 0.665003
0.295796 0.470954 0.660151
0.329992 0.474235 0.654124
0.385794 0.484749 0.650996
0.452399 0.505959 0.674296
0.542535 0.539696 0.724056
0.664103 0.595163 0.740353
0.798123 0.661051 0.756481
0.323049 0.534005 0.687404
0.336873 0.535668 0.685145
0.357504 0.538521 0.682353
0.39205 0.544656 0.679744
0.443915 0.55697 0.680247
0.514412 0.577417 0.685008
0.592096 0.607858 0.723049
0.699962 0.655924 0.764279
0.828321 0.715923 0.779706
0.42208 0.670512 0.799954
0.432624 0.671519 0.798444
0.449348 0.67277 0.795407
0.480278 0.675425 0.789593
0.531487 0.680613 0.779339
0.599237 0.691615 0.769238
0.675959 0.713619 0.772229
0.762219 0.746242 0.811597
0.886366 0.789334 0.815259
0.572824 0.812253 0.882399
0.577966 0.813046 0.882338
0.586496 0.814313 0.882155
0.602533 0.816495 0.881483
0.631876 0.820676 0.880247
0.67982 0.828 0.87805
0.749722 0.839414 0.874128
0.843824 0.856458 0.86479
0.951339 0.882567 0.863645
0.770703 0.947005 0.943008
0.773205 0.94728 0.942824
0.77818 0.947585 0.942351
0.787671 0.947936 0.941192
0.806653 0.949111 0.93933
0.840146 0.951034 0.935592
0.891859 0.954681 0.928756
0.959121 0.965789 0.911223
1 0.975692 0.905562
0.360281 0.63032 0.942489
0.369024 0.630045 0.940261
0.381949 0.631144 0.939437
0.410788 0.63772 0.943496
0.472328 0.656931 0.958389
0.554971 0.687343 1
0.660197 0.716731 1
0.797787 0.73959 1
0.964523 0.800336 1
0.361852 0.630228 0.942016
0.370398 0.63006 0.940032
0.383139 0.631342 0.939483
0.412131 0.638086 0.943755
0.473655 0.657389 0.95874
0.555657 0.687587 1
0.660655 0.716838 1
0.798108 0.739712 1
0.961151 0.797589 1
0.364401 0.630106 0.941283
0.372656 0.630152 0.939712
0.385275 0.631708 0.939635
0.414633 0.638788 0.944274
0.475776 0.658106 0.959304
0.556832 0.688014 1
0.661433 0.716991 1
0.798642 0.73991 1
0.862669 0.71928 0.948516
0.369482 0.630045 0.940169
0.377188 0.630503 0.939391
0.389929 0.632609 0.940078
0.419577 0.640192 0.945327
0.480323 0.659678 0.960525
0.559091 0.688807 1
0.66305 0.717342 1
0.799771 0.740337 1
0.787778 0.664485 0.858244
0.371145 0.616373 0.914778
0.378012 0.615549 0.911635
0.390539 0.614908 0.907164
0.417197 0.615457 0.900236
0.465827 0.618112 0.888334
0.513832 0.615366 0.884092
0.574258 0.605631 0.872312
0.658244 0.610895 0.855421
0.775845 0.673823 0.836851
0.338262 0.540963 0.728985
0.348714 0.542611 0.728084
0.365148 0.545464 0.727001
0.394278 0.551217 0.725917
0.440711 0.562142 0.726238
0.507759 0.582422 0.732448
0.579217 0.612909 0.775021
0.678676 0.65687 0.836881
0.805829 0.727916 0.860502
0.450828 0.66862 0.819486
0.459602 0.669596 0.817929
0.474052 0.671733 0.816037
0.499321 0.675868 0.81323
0.539498 0.684001 0.810971
0.59588 0.699336 0.813794
0.669917 0.723171 0.822141
0.749538 0.756283 0.867658
0.85742 0.807721 0.905318
0.566217 0.826444 0.955505
0.571832 0.8271 0.954986
0.580911 0.827832 0.953643
0.599283 0.82977 0.951308
0.632441 0.832929 0.945953
0.687144 0.838132 0.934905
0.760784 0.84892 0.921569
0.838743 0.870771 0.923339
0.922332 0.903777 0.960662
0.734737 0.970031 1
0.737285 0.970352 1
0.741695 0.970855 1
0.75024 0.971557 1
0.767056 0.97351 1
0.796796 0.976715 1
0.844038 0.982086 1
0.911315 0.991318 1
0.995193 1 1
