public/textures/grade/Blackmagic/Cliff-BMDFilm.cube
TITLE "Generated by Resolve"
LUT_3D_SIZE 33
0 0 0
0 0 0
0.0110323 0 0
0.030396 0 0
0.0508125 0 0
0.0733806 0 0
0.096025 0 0
0.120134 0 0
0.146212 0 0
0.175494 0 0
0.205875 0 0
0.236866 0 0
0.267582 0 0
0.297536 0 0
0.326879 0.00576791 0
0.355718 0.0162203 0
0.385626 0.0247501 0
0.416373 0.0310826 0
0.447318 0.0383459 0
0.477668 0.0467689 0
0.508522 0.0565499 0
0.539315 0.0677348 0
0.570153 0.0804913 0
0.598627 0.105409 0
0.626978 0.134783 0
0.655421 0.167452 0
0.684688 0.203693 0
0.714809 0.243442 0
0.745541 0.286397 0
0.776135 0.332143 0
0.807187 0.380102 0
0.838026 0.430014 0
0.868345 0.479942 0
0 0 0
0 0 0
0.00885023 0 0
0.0272526 0 0
0.0467689 0 0
0.0687572 0 0
0.0933089 0 0
0.120348 0 0
0.149126 0 0
0.17966 0 0
0.211032 0 0
0.242725 0.00154116 0
0.274159 0.0068513 0
0.305272 0.0141909 0
0.335424 0.0229953 0
0.366506 0.0306706 0
0.397848 0.035935 0
0.429252 0.0420081 0
0.45951 0.049012 0
0.489921 0.0572213 0
0.52015 0.0665293 0
0.550011 0.0773785 0
0.579782 0.0917525 0
0.606744 0.117006 0
0.634318 0.145632 0
0.662104 0.17763 0
0.690532 0.212955 0
0.71989 0.251743 0
0.749722 0.293858 0
0.780163 0.338796 0
0.810666 0.386114 0
0.841047 0.435019 0
0.870649 0.484199 0
0 0.0119173 0
0 0.0108949 0
0.00985733 0.0096437 0
0.0301366 0.00814832 0
0.0496681 0.0074464 0
0.0710155 0.00708019 0
0.0951705 0.00695811 0
0.121859 0.00735485 0
0.150591 0.00834669 0
0.180926 0.0101778 0
0.212573 0.0131991 0
0.24506 0.0175174 0
0.277211 0.0230564 0
0.309194 0.0302892 0
0.341695 0.0373541 0
0.374426 0.0417029 0
0.406943 0.0467842 0
0.438468 0.0525216 0
0.469429 0.0593881 0
0.499474 0.0670787 0
0.529412 0.0762951 0
0.55903 0.0868391 0
0.587518 0.103502 0
0.614176 0.128328 0
0.641062 0.156054 0
0.668605 0.187533 0
0.696712 0.222293 0
0.725093 0.260243 0
0.754482 0.301411 0
0.784054 0.345571 0
0.81384 0.391531 0
0.843397 0.439612 0
0.872953 0.48835 0
0 0.0298924 0
0 0.0286259 0
0.00802625 0.0274968 0
0.0294652 0.0260166 0
0.0509041 0.0242008 0
0.0730297 0.0230411 0
0.0966964 0.0223697 0
0.122255 0.0224002 0
0.150423 0.0233158 0
0.180575 0.0251774 0
0.212375 0.0279545 0
0.244877 0.0321355 0
0.278248 0.0379339 0
0.311604 0.0445258 0
0.346395 0.0482338 0
0.380591 0.0524147 0
0.413642 0.0571908 0
0.446036 0.0628519 0
0.477409 0.069276 0
0.507866 0.0768749 0
0.537789 0.0857862 0
0.567239 0.095613 0
0.594141 0.114855 0
0.620706 0.139315 0
0.647211 0.166278 0
0.674479 0.197086 0
0.702052 0.230991 0
0.729778 0.268132 0
0.758358 0.308476 0
0.78761 0.351705 0
0.816785 0.397345 0
0.846067 0.444526 0
0.875135 0.492454 0
0 0.0473945 0
0 0.0464485 0
0.00674449 0.0454719 0
0.0271458 0.0444648 0
0.0495308 0.0427863 0
0.0733501 0.0407416 0
0.0972763 0.0393378 0
0.122408 0.0385748 0
0.149844 0.0388342 0
0.179629 0.0403449 0
0.211322 0.0431678 0
0.244572 0.0472419 0
0.278141 0.052842 0
0.314549 0.056199 0
0.350286 0.059678 0
0.38529 0.0636912 0
0.419852 0.0683299 0
0.452537 0.0736553 0
0.484321 0.0799115 0
0.515419 0.0872206 0
0.545388 0.0952621 0
0.574578 0.106508 0
0.600855 0.127138 0
0.627405 0.150729 0
0.653635 0.177432 0
0.680034 0.207202 0
0.70721 0.240284 0
0.734966 0.276967 0
0.763073 0.316381 0
0.791318 0.358846 0
0.820264 0.403494 0
0.849165 0.449683 0
0.877058 0.496468 0
0 0.0661936 0
0 0.0655528 0
0.00614939 0.0650492 0
0.026215 0.0644541 0
0.0468757 0.063447 0
0.0715953 0.0612192 0
0.0968795 0.0589914 0
0.122408 0.0576791 0
0.149645 0.0571603 0
0.178958 0.0578927 0
0.210376 0.0601511 0
0.243534 0.0641184 0
0.279911 0.0671702 0
0.316442 0.0698253 0
0.353582 0.0730144 0
0.38996 0.0767834 0
0.425055 0.0813764 0
0.458824 0.0863203 0
0.491463 0.0918135 0
0.522622 0.098497 0
0.553353 0.106722 0
0.581353 0.121263 0
0.608087 0.14139 0
0.634287 0.164096 0
0.66041 0.189883 0
0.686671 0.218952 0
0.713054 0.251133 0
0.740429 0.286885 0
0.767819 0.325261 0
0.795636 0.366583 0
0.823789 0.410269 0
0.851774 0.455497 0
0.879988 0.501534 0
0 0.0867018 0
0 0.0864729 0
0.00633249 0.0864881 0
0.025803 0.0861372 0
0.0460059 0.0854658 0
0.068864 0.084535 0
0.0959945 0.0819715 0
0.121477 0.0793622 0
0.148821 0.0778973 0
0.178058 0.0778058 0
0.209293 0.0792859 0
0.243915 0.0817426 0
0.280858 0.0836957 0
0.318853 0.0859846 0
0.356542 0.088426 0
0.393744 0.0916304 0
0.43032 0.0954147 0
0.46482 0.0999008 0
0.49836 0.105425 0
0.53048 0.1122 0
0.560845 0.121538 0
0.588968 0.13843 0
0.615549 0.157534 0
0.642054 0.179629 0
0.66743 0.204364 0
0.69366 0.2327 0
0.720088 0.264027 0
0.746502 0.298344 0
0.773327 0.335607 0
0.800977 0.376089 0
0.828183 0.418647 0
0.855741 0.462623 0
0.882872 0.507637 0
0 0.109209 0
0 0.109926 0
0.00769055 0.110201 0
0.0265354 0.110124 0
0.0463264 0.109941 0
0.0686503 0.109331 0
0.093431 0.108385 0
0.120394 0.10576 0
0.148501 0.103319 0
0.178042 0.102098 0
0.210651 0.101793 0
0.24593 0.102052 0
0.282933 0.102785 0
0.321141 0.104158 0
0.359823 0.106203 0
0.398077 0.108919 0
0.434897 0.112123 0
0.470817 0.116518 0
0.505409 0.122011 0
0.538216 0.128618 0
0.56817 0.14197 0
0.596292 0.15758 0
0.623392 0.175875 0
0.649607 0.197101 0
0.675685 0.221103 0
0.701411 0.248341 0
0.727214 0.278721 0
0.753048 0.311681 0
0.779599 0.348119 0
0.805982 0.386877 0
0.83267 0.427985 0
0.859541 0.470603 0
0.88629 0.514199 0
0 0.133974 0
0 0.135164 0
0.010544 0.136004 0
0.0288396 0.136263 0
0.0480049 0.1364 0
0.0696269 0.136004 0
0.0937819 0.135348 0
0.118395 0.134676 0
0.14844 0.132189 0
0.180102 0.129839 0
0.213474 0.127901 0
0.248798 0.126711 0
0.286183 0.126299 0
0.324315 0.12665 0
0.363302 0.127596 0
0.401999 0.129717 0
0.440375 0.132631 0
0.477272 0.136522 0
0.512398 0.141985 0
0.544411 0.152102 0
0.574945 0.164645 0
0.603494 0.179461 0
0.631205 0.19704 0
0.657847 0.217334 0
0.683833 0.240482 0
0.709651 0.2663 0
0.73489 0.295018 0
0.76051 0.326986 0
0.786404 0.361959 0
0.812055 0.399222 0
0.838026 0.438727 0
0.86421 0.480217 0
0.890318 0.522438 0
0 0.160861 0
0 0.1626 0
0.0150149 0.163806 0
0.0328374 0.164675 0
0.0514839 0.165042 0
0.0725719 0.16495 0
0.0961624 0.164721 0
0.119554 0.164019 0
0.14638 0.163104 0
0.179385 0.160983 0
0.215228 0.159136 0
0.252811 0.156573 0
0.290517 0.154574 0
0.329137 0.153643 0
0.368368 0.153719 0
0.407416 0.154864 0
0.446143 0.157046 0
0.482841 0.162249 0
0.517464 0.169512 0
0.550408 0.1785 0
0.581567 0.190402 0
0.611109 0.204227 0
0.639551 0.220813 0
0.666346 0.240009 0
0.692363 0.261692 0
0.717937 0.286458 0
0.743038 0.314031 0
0.768246 0.344594 0
0.793622 0.377829 0
0.818555 0.413443 0
0.844114 0.45153 0
0.869398 0.490959 0
0.894499 0.531518 0
0 0.190555 0
0.0037995 0.192599 0
0.0215152 0.193973 0
0.0388647 0.195056 0
0.0569619 0.195575 0
0.07776 0.196017 0
0.100221 0.196094 0
0.122454 0.195789 0
0.148379 0.195193 0
0.17763 0.194446 0
0.212802 0.192233 0
0.250935 0.190555 0
0.29015 0.188647 0
0.330312 0.186984 0
0.370459 0.186542 0
0.410422 0.187243 0
0.449226 0.189609 0
0.486442 0.193439 0
0.522042 0.199771 0
0.556558 0.208301 0
0.588617 0.219028 0
0.61886 0.231876 0
0.647822 0.247517 0
0.67512 0.265187 0
0.701549 0.286198 0
0.727153 0.309392 0
0.752209 0.335424 0
0.776928 0.364279 0
0.801556 0.395804 0
0.826017 0.42945 0
0.850553 0.465675 0
0.87483 0.503212 0
0.899397 0.541939 0
0 0.222507 0
0.0139315 0.224948 0
0.0310521 0.226413 0
0.0477455 0.22768 0
0.0649729 0.228397 0
0.085359 0.229191 0
0.106096 0.22948 0
0.127733 0.229633 0
0.152712 0.229557 0
0.180957 0.228931 0
0.212238 0.228031 0
0.250019 0.226108 0
0.289708 0.224964 0
0.330663 0.223697 0
0.371435 0.222889 0
0.412039 0.223011 0
0.45185 0.224704 0
0.490623 0.228168 0
0.527199 0.233616 0
0.562356 0.241016 0
0.595621 0.250828 0
0.626688 0.26247 0
0.65597 0.276875 0
0.683894 0.293797 0
0.710704 0.312901 0
0.736019 0.33463 0
0.761044 0.358999 0
0.785397 0.385946 0
0.809644 0.415595 0
0.833478 0.447608 0
0.857466 0.481727 0
0.88101 0.517067 0
0.904982 0.554253 0
0.00961318 0.25716 0
0.0272221 0.259663 0
0.0438392 0.261265 0
0.0598764 0.262715 0
0.0767224 0.263523 0
0.095613 0.26453 0
0.114275 0.265003 0
0.135378 0.265553 0
0.159365 0.265599 0
0.186404 0.265507 0
0.217105 0.265431 0
0.250446 0.264607 0
0.289677 0.262592 0
0.331029 0.261952 0
0.372915 0.26183 0
0.414694 0.261845 0
0.45536 0.262974 0
0.494759 0.26569 0
0.532601 0.270344 0
0.56846 0.276997 0
0.602289 0.285222 0
0.634089 0.296071 0
0.664576 0.30927 0
0.692958 0.324651 0
0.719875 0.342351 0
0.745342 0.362539 0
0.770748 0.385336 0
0.794812 0.410437 0
0.818418 0.43801 0
0.841688 0.467735 0
0.864912 0.499596 0
0.88751 0.532815 0
0.91075 0.567636 0
0.0278172 0.294331 0
0.0446021 0.296727 0
0.0603494 0.29836 0
0.076051 0.29987 0
0.0919203 0.300923 0
0.108644 0.302113 0
0.125505 0.302831 0
0.14551 0.303639 0
0.168521 0.303838 0
0.195056 0.304173 0
0.22443 0.304082 0
0.256931 0.303929 0
0.292729 0.303456 0
0.33315 0.302037 0
0.375051 0.301915 0
0.417182 0.302205 0
0.458747 0.303334 0
0.499031 0.305592 0
0.537697 0.309331 0
0.574273 0.315053 0
0.609201 0.322744 0
0.641779 0.332525 0
0.672786 0.344289 0
0.701656 0.358495 0
0.728862 0.374487 0
0.755215 0.393118 0
0.779904 0.413825 0
0.80383 0.43682 0
0.826932 0.462119 0
0.849821 0.489616 0
0.872251 0.519005 0
0.89456 0.550332 0
0.916762 0.582788 0
0.0513466 0.333883 0
0.0669871 0.335836 0
0.0825055 0.33756 0
0.0964828 0.339101 0
0.109834 0.340139 0
0.124025 0.341543 0
0.140383 0.342565 0
0.15967 0.343526 0
0.181476 0.34403 0
0.206912 0.344579 0
0.235096 0.34461 0
0.266606 0.344991 0
0.300649 0.345083 0
0.337545 0.344289 0
0.379034 0.343511 0
0.421378 0.344396 0
0.463371 0.34551 0
0.504402 0.347555 0
0.543587 0.350988 0
0.58085 0.355917 0
0.616358 0.362509 0
0.649714 0.371145 0
0.681117 0.381796 0
0.710307 0.393973 0
0.738201 0.408743 0
0.764446 0.425742 0
0.789105 0.444495 0
0.813428 0.465629 0
0.836118 0.488731 0
0.858625 0.51371 0
0.880446 0.540749 0
0.902159 0.56936 0
0.922942 0.599298 0.00787366
0.0806592 0.375601 0
0.0948806 0.377325 0
0.107713 0.379004 0
0.119051 0.380484 0
0.130205 0.381415 0
0.143572 0.382757 0
0.159442 0.383993 0
0.177646 0.384833 0
0.198993 0.385885 0
0.223026 0.386343 0
0.249958 0.386618 0
0.280186 0.387121 0
0.312703 0.387304 0
0.347997 0.38793 0
0.385977 0.387121 0
0.427512 0.387304 0
0.469047 0.388647 0
0.509941 0.390616 0
0.549569 0.393805 0
0.588052 0.398138 0
0.623819 0.403998 0
0.657282 0.411322 0
0.689219 0.4206 0
0.719142 0.431861 0
0.747341 0.445029 0
0.774029 0.460105 0
0.798657 0.476783 0
0.822782 0.495918 0
0.844984 0.516701 0
0.867063 0.5393 0
0.88867 0.563882 0
0.909438 0.589853 0
0.930175 0.617456 0.0215457
0.112886 0.418906 0
0.123812 0.420554 0
0.134112 0.42211 0
0.14403 0.423392 0
0.154772 0.424353 0
0.167681 0.425589 0
0.182376 0.426551 0
0.199969 0.427588 0
0.220188 0.428672 0
0.243122 0.429206 0
0.269139 0.43006 0
0.297597 0.430411 0
0.328695 0.430732 0
0.362463 0.431586 0
0.397955 0.432303 0
0.436393 0.43093 0.00102235
0.477592 0.432578 0
0.518059 0.434669 0
0.557504 0.437491 0
0.595407 0.441306 0
0.631632 0.446448 0
0.665919 0.45301 0
0.697734 0.461311 0
0.728252 0.471061 0
0.756237 0.482719 0
0.782849 0.495888 0
0.807858 0.510796 0
0.831693 0.527749 0
0.854383 0.546105 0
0.876234 0.566796 0
0.896956 0.588678 0
0.917128 0.612406 0
0.937041 0.637324 0.0382086
0.144686 0.463325 0
0.154543 0.464988 0
0.164538 0.466331 0
0.174029 0.467124 0
0.184482 0.468284 0
0.196689 0.469459 0
0.21091 0.470222 0
0.227344 0.471305 0
0.246555 0.472328 0.00129702
0.267857 0.472908 0.00285344
0.292546 0.473732 0.00448615
0.319173 0.474235 0.00515755
0.349187 0.475029 0.00505074
0.380911 0.475578 0.00300603
0.41474 0.476295 0
0.450416 0.477501 0
0.488426 0.47631 0.0182803
0.527977 0.478386 0
0.566735 0.481102 0
0.604532 0.484703 0
0.64062 0.489586 0
0.674891 0.495338 0
0.706996 0.502464 0
0.73727 0.510994 0
0.765332 0.520851 0
0.792065 0.532372 0
0.817151 0.545632 0
0.84097 0.560662 0
0.863218 0.576883 0
0.884581 0.595132 0
0.905409 0.614633 0
0.924605 0.635721 0.00889601
0.943969 0.658274 0.0605631
0.181735 0.508721 0.00466926
0.191272 0.510018 0.0062562
0.200488 0.510872 0.00749218
0.209659 0.511696 0.00872816
0.219562 0.512673 0.0102235
0.231113 0.51368 0.0118715
0.244388 0.51426 0.0131991
0.259907 0.515312 0.0150607
0.277821 0.516289 0.0170443
0.297993 0.516747 0.0184176
0.320851 0.517617 0.0200351
0.345785 0.51809 0.0205844
0.3738 0.518898 0.020737
0.403815 0.519356 0.0189975
0.435904 0.520546 0.016083
0.469429 0.521569 0.0107576
0.503807 0.522118 0.0185702
0.540871 0.521828 0.032639
0.579019 0.524758 0.00677501
0.615427 0.528008 0
0.650477 0.532128 0
0.684672 0.537057 0
0.71632 0.543343 0
0.74667 0.550637 0
0.774716 0.559442 0
0.80145 0.569589 0
0.826734 0.58114 0
0.849943 0.594217 0
0.87216 0.608316 0
0.893462 0.62443 0
0.913222 0.64152 0
0.932525 0.660426 0.0355383
0.950729 0.680613 0.0906996
0.225116 0.554009 0.0252384
0.233661 0.554589 0.0261997
0.242481 0.555444 0.0275273
0.251331 0.55613 0.028687
0.260594 0.556878 0.0299535
0.27129 0.557687 0.0313878
0.283299 0.558145 0.0325017
0.29778 0.558984 0.0340581
0.314382 0.559823 0.0355077
0.332708 0.560296 0.0366217
0.353857 0.561135 0.0379034
0.376913 0.561563 0.0383307
0.402869 0.562387 0.0383154
0.430518 0.562875 0.0368963
0.460594 0.563912 0.0343938
0.491554 0.564904 0.0299077
0.524117 0.566293 0.0235294
0.557519 0.566644 0.044358
0.59321 0.567208 0.0493629
0.628336 0.570214 0.0243839
0.662852 0.573953 0.0019379
0.695827 0.578607 0
0.72694 0.584054 0
0.756893 0.590433 0
0.78497 0.597986 0
0.811139 0.606668 0
0.83592 0.616663 0
0.858854 0.627726 0
0.88072 0.640345 0
0.901747 0.654185 0
0.921233 0.669306 0.0267185
0.940017 0.685847 0.0707713
0.957046 0.7037 0.122835
0.27396 0.598016 0.0484627
0.282124 0.598749 0.0495766
0.29015 0.599405 0.0505837
0.298207 0.599908 0.0514992
0.306386 0.600305 0.0522774
0.315862 0.600732 0.0531472
0.327138 0.601404 0.0543221
0.340337 0.602045 0.0554971
0.355474 0.602701 0.0566415
0.371923 0.603067 0.0572519
0.391379 0.603693 0.0580148
0.412314 0.604028 0.0580758
0.435904 0.604807 0.057847
0.461204 0.605249 0.0564279
0.488777 0.606256 0.0542
0.517586 0.607065 0.0502174
0.547646 0.608713 0.0453803
0.578332 0.609827 0.0467536
0.610407 0.609491 0.0750896
0.644251 0.61146 0.0689555
0.677028 0.614771 0.0449836
0.708415 0.618784 0.0243229
0.738857 0.623377 0.00622568
0.76759 0.628901 0
0.794949 0.635447 0
0.820859 0.643 0
0.845075 0.651621 0
0.868193 0.661189 0
0.889677 0.672206 0.00970474
0.910063 0.684291 0.0347906
0.92871 0.697169 0.0691386
0.946639 0.711818 0.114015
0.962966 0.727352 0.158526
0.327962 0.640925 0.0740978
0.335195 0.641443 0.074876
0.34229 0.641932 0.0755932
0.349081 0.641871 0.0757763
0.356497 0.642313 0.0765087
0.365118 0.642786 0.0773327
0.37528 0.643259 0.0781262
0.387121 0.643732 0.0789197
0.400061 0.643885 0.0793164
0.41529 0.64448 0.0799115
0.432578 0.645014 0.0803235
0.451286 0.645258 0.0800488
0.472724 0.645853 0.0793469
0.495552 0.646357 0.0779278
0.520378 0.647135 0.0755016
0.546471 0.647868 0.0719615
0.574273 0.649317 0.0675059
0.60264 0.650675 0.0615549
0.631739 0.65153 0.0808728
0.66212 0.651209 0.108797
0.692897 0.653849 0.0903487
0.722744 0.657374 0.0694591
0.752224 0.66157 0.051545
0.780026 0.666651 0.0387579
0.806241 0.672206 0.030457
0.831525 0.678553 0.0267796
0.855024 0.686091 0.0301366
0.877501 0.694392 0.0400244
0.898405 0.703563 0.0587015
0.917464 0.713726 0.0858015
0.935821 0.725307 0.119829
0.952667 0.737881 0.157061
0.968322 0.751339 0.19733
0.385473 0.681788 0.100298
0.391699 0.681773 0.10042
0.397803 0.682109 0.100877
0.404074 0.682338 0.101198
0.410483 0.682643 0.10161
0.418265 0.682902 0.101946
0.426993 0.683284 0.102373
0.436744 0.683284 0.102419
0.448493 0.683696 0.10277
0.461982 0.684138 0.102846
0.477195 0.684596 0.102892
0.493843 0.684718 0.102266
0.512505 0.685328 0.101534
0.532845 0.685863 0.100237
0.554986 0.686366 0.0978561
0.5785 0.687205 0.0949874
0.603372 0.688136 0.0910506
0.629068 0.689342 0.0857252
0.655573 0.690867 0.0902113
0.68246 0.691035 0.115801
0.710735 0.691508 0.13138
0.739284 0.694774 0.11574
0.76669 0.698222 0.101701
0.792996 0.702449 0.0903639
0.81828 0.707317 0.0827802
0.842298 0.712749 0.0814679
0.864683 0.719036 0.0860761
0.886076 0.726162 0.0981003
0.906325 0.734203 0.115892
0.924743 0.743114 0.140215
0.942107 0.752911 0.168948
0.9579 0.763622 0.202533
0.972702 0.77554 0.239948
0.445716 0.720088 0.123613
0.45124 0.720241 0.123751
0.456382 0.72047 0.123949
0.461707 0.720592 0.124041
0.467079 0.720806 0.124193
0.473594 0.720851 0.124163
0.480766 0.720851 0.123796
0.489387 0.721141 0.123827
0.499687 0.72137 0.12372
0.511193 0.721706 0.123629
0.523888 0.721706 0.123049
0.538552 0.722164 0.122621
0.554757 0.722728 0.121874
0.572549 0.722881 0.120562
0.591989 0.723629 0.119036
0.613031 0.724453 0.116976
0.634775 0.72517 0.113985
0.657679 0.726345 0.110689
0.681437 0.727855 0.107362
0.70544 0.728206 0.128679
0.731136 0.728603 0.1523
0.757183 0.730037 0.156222
0.782376 0.733059 0.146624
0.806867 0.736568 0.139467
0.831006 0.740841 0.136034
0.853651 0.745724 0.13727
0.874998 0.75111 0.143618
0.895216 0.757061 0.15462
0.914092 0.763836 0.171389
0.931823 0.771557 0.193072
0.948074 0.779889 0.220081
0.962936 0.788952 0.250797
0.976638 0.799329 0.287526
0.507317 0.756146 0.145953
0.511604 0.756329 0.145998
0.515938 0.756252 0.145769
0.52015 0.756146 0.145602
0.524575 0.756313 0.145693
0.530083 0.756405 0.145632
0.536217 0.756603 0.145663
0.543694 0.75671 0.145525
0.551995 0.756954 0.145464
0.561334 0.757 0.145113
0.572213 0.757168 0.14464
0.58471 0.757473 0.14432
0.598688 0.757885 0.143832
0.613733 0.758053 0.142763
0.630655 0.758694 0.141802
0.648402 0.759213 0.140566
0.667887 0.760128 0.139132
0.688273 0.761303 0.137667
0.709056 0.762402 0.13611
0.730282 0.762936 0.149111
0.753017 0.763241 0.171405
0.77615 0.763287 0.193317
0.79939 0.76582 0.189014
0.822354 0.769146 0.185885
0.844251 0.772488 0.185794
0.865049 0.776486 0.189059
0.884916 0.781109 0.197192
0.904082 0.786252 0.209216
0.921523 0.792081 0.226062
0.938033 0.798428 0.247395
0.953262 0.805707 0.273701
0.967407 0.813748 0.304021
0.979934 0.822492 0.339529
0.567773 0.789425 0.169741
0.571481 0.789487 0.169757
0.575128 0.789532 0.169757
0.578393 0.789685 0.169863
0.582238 0.789731 0.169863
0.58674 0.789792 0.169818
0.591745 0.78996 0.169757
0.597894 0.789975 0.169711
0.60444 0.789837 0.169528
0.612665 0.789929 0.169467
0.621653 0.790173 0.169482
0.631937 0.790463 0.169284
0.643259 0.790478 0.168902
0.656168 0.790829 0.16878
0.670436 0.791363 0.168612
0.68545 0.79173 0.16846
0.702251 0.792554 0.168444
0.719585 0.793332 0.168734
0.738155 0.794507 0.169207
0.757046 0.795224 0.179049
0.776486 0.795392 0.199054
0.796597 0.795377 0.219654
0.817472 0.796521 0.233127
0.837964 0.799161 0.233173
0.857984 0.802121 0.235996
0.877028 0.805493 0.242145
0.895247 0.8094 0.25185
0.91284 0.813901 0.265843
0.929091 0.818921 0.283955
0.944289 0.82443 0.305867
0.95819 0.830488 0.332006
0.970397 0.83714 0.362356
0.981994 0.844846 0.397009
0.627909 0.819989 0.198413
0.630838 0.819989 0.19852
0.63328 0.819928 0.198611
0.636011 0.819821 0.198596
0.639124 0.819867 0.198596
0.642771 0.819898 0.198627
0.646723 0.820035 0.198917
0.651652 0.820096 0.199054
0.657084 0.820264 0.19939
0.663676 0.820371 0.199603
0.670909 0.820584 0.200046
0.679042 0.820539 0.200015
0.688609 0.820737 0.200504
0.699229 0.821042 0.201221
0.711009 0.821469 0.201907
0.723445 0.821698 0.202945
0.737316 0.822431 0.20441
0.752117 0.822934 0.206119
0.767773 0.824079 0.208789
0.784176 0.824506 0.218265
0.801022 0.824842 0.236942
0.818265 0.824842 0.256413
0.836439 0.825086 0.27718
0.854414 0.826856 0.283955
0.872328 0.829328 0.289738
0.889372 0.832395 0.29897
0.90602 0.835874 0.311238
0.921401 0.839551 0.32694
0.935897 0.843717 0.346197
0.949538 0.848478 0.36936
0.962173 0.853788 0.396201
0.973312 0.859678 0.426917
0.983551 0.866224 0.460914
0.685496 0.847303 0.234806
0.687755 0.847333 0.23505
0.689998 0.847364 0.235279
0.692195 0.847395 0.235523
0.694362 0.847486 0.235874
0.697093 0.847562 0.236225
0.700389 0.847608 0.2365
0.704265 0.847684 0.236789
0.708232 0.847639 0.237278
