public/textures/grade/Blackmagic/Cliff-BMDFilm.cube
TITLE "Generated by Resolve"
LUT_3D_SIZE 9
0 0 0
0.0508125 0 0
0.146212 0 0
0.267582 0 0
0.385626 0.0247501 0
0.508522 0.0565499 0
0.626978 0.134783 0
0.745541 0.286397 0
0.868345 0.479942 0
0 0.0473945 0
0.0495308 0.0427863 0
0.149844 0.0388342 0
0.278141 0.052842 0
0.419852 0.0683299 0
0.545388 0.0952621 0
0.653635 0.177432 0
0.763073 0.316381 0
0.877058 0.496468 0
0 0.133974 0
0.0480049 0.1364 0
0.14844 0.132189 0
0.286183 0.126299 0
0.440375 0.132631 0
0.574945 0.164645 0
0.683833 0.240482 0
0.786404 0.361959 0
0.890318 0.522438 0
0.00961318 0.25716 0
0.0767224 0.263523 0
0.159365 0.265599 0
0.289677 0.262592 0
0.45536 0.262974 0
0.602289 0.285222 0
0.719875 0.342351 0
0.818418 0.43801 0
0.91075 0.567636 0
0.112886 0.418906 0
0.154772 0.424353 0
0.220188 0.428672 0
0.328695 0.430732 0
0.477592 0.432578 0
0.631632 0.446448 0
0.756237 0.482719 0
0.854383 0.546105 0
0.937041 0.637324 0.0382086
0.27396 0.598016 0.0484627
0.306386 0.600305 0.0522774
0.355474 0.602701 0.0566415
0.435904 0.604807 0.057847
0.547646 0.608713 0.0453803
0.677028 0.614771 0.0449836
0.794949 0.635447 0
0.889677 0.672206 0.00970474
0.962966 0.727352 0.158526
0.507317 0.756146 0.145953
0.524575 0.756313 0.145693
0.551995 0.756954 0.145464
0.598688 0.757885 0.143832
0.667887 0.760128 0.139132
0.753017 0.763241 0.171405
0.844251 0.772488 0.185794
0.921523 0.792081 0.226062
0.979934 0.822492 0.339529
0.740063 0.871977 0.283238
0.746487 0.872023 0.284642
0.757107 0.872343 0.287785
0.775998 0.872847 0.293889
0.807233 0.874144 0.306401
0.850141 0.875532 0.348028
0.900847 0.877516 0.419699
0.94844 0.888319 0.491295
0.984817 0.905898 0.602564
0.904479 0.948058 0.637507
0.905943 0.948089 0.639826
0.908553 0.948363 0.643946
0.913451 0.949035 0.651804
0.921981 0.949996 0.667491
0.935439 0.951019 0.699687
0.953658 0.953475 0.7467
0.974792 0.960143 0.798779
0.995773 0.971847 0.85333
0 0 0.0874495
0.047013 0 0.0844434
0.160128 0 0.0479591
0.301717 0 0
0.433829 0 0
0.549889 0.0379492 0
0.625132 0.132525 0
0.744411 0.284855 0
0.867887 0.479072 0
0 0.0436713 0.0639506
0.0411688 0.0432593 0.0581064
0.162737 0.038117 0.0261997
0.319005 0.0323033 0
0.468254 0.0444648 0
0.579431 0.0886854 0
0.652644 0.17557 0
0.762325 0.314946 0
0.876646 0.495674 0
0 0.139116 0.0118257
0.0364538 0.14258 0.0135195
0.148913 0.136706 0.00827039
0.311009 0.125261 0
0.473777 0.128786 0
0.596399 0.163531 0
0.683238 0.238788 0
0.78584 0.360739 0
0.889967 0.521721 0
0 0.266056 0
0.0661631 0.272618 0
0.155169 0.273686 0
0.295537 0.267811 0
0.467872 0.264118 0
0.605325 0.284215 0
0.719524 0.341115 0
0.818067 0.437079 0
0.910521 0.567071 0
0.112459 0.418845 0
0.154696 0.423743 0
0.220203 0.427863 0
0.328695 0.429892 0
0.477623 0.431739 0
0.631556 0.445624 0
0.756115 0.481987 0
0.854215 0.545525 0
0.936904 0.636927 0.0378424
0.273884 0.597681 0.0482643
0.306416 0.600015 0.0521706
0.355428 0.602319 0.0564584
0.435828 0.604425 0.0576486
0.547555 0.608331 0.0451362
0.676982 0.614404 0.0444953
0.794873 0.635111 0
0.889601 0.671916 0.00932326
0.962905 0.727138 0.158129
0.507301 0.755993 0.145846
0.524544 0.756161 0.145586
0.55198 0.756802 0.145357
0.598642 0.757733 0.143709
0.667842 0.759976 0.13901
0.752972 0.763088 0.171359
0.844205 0.772366 0.18558
0.921508 0.791959 0.225818
0.979904 0.8224 0.3393
0.740063 0.871931 0.283146
0.746471 0.871977 0.28455
0.757076 0.872297 0.287694
0.775982 0.872801 0.293797
0.807202 0.874098 0.306294
0.850126 0.875486 0.347936
0.900847 0.877485 0.419562
0.94844 0.888273 0.491142
0.984817 0.905867 0.602426
0.904494 0.948058 0.637522
0.905943 0.948089 0.639841
0.908568 0.948363 0.643961
0.913466 0.949035 0.65182
0.921981 0.949996 0.667506
0.935439 0.951019 0.699687
0.953674 0.95349 0.746715
0.974792 0.960143 0.798779
0.995773 0.971847 0.85333
0 0 0.185626
0.0382544 0 0.197269
0.143801 0 0.180163
0.296941 0 0.112505
0.462837 0 0
0.602365 0.0200504 0
0.719387 0.137728 0
0.78204 0.28278 0
0.867384 0.477913 0
0 0.0319371 0.195758
0.0391241 0.0321355 0.204669
0.157778 0.0256504 0.182315
0.337865 0.00735485 0.0972152
0.505547 0.0212558 0
0.636149 0.0997482 0
0.742458 0.179004 0
0.79263 0.313222 0
0.876219 0.494591 0
0 0.133242 0.14052
0.0294652 0.140536 0.143847
0.140764 0.13843 0.133562
0.323033 0.131106 0.076463
0.51165 0.135531 0
0.660533 0.169406 0
0.764141 0.241489 0
0.804837 0.359274 0
0.889387 0.5205 0
0 0.275502 0.0769513
0.0430304 0.284535 0.080293
0.142672 0.286915 0.0825513
0.303807 0.278141 0.070985
0.5066 0.271305 0
0.671534 0.290532 0
0.781826 0.345403 0
0.818082 0.435538 0
0.910124 0.566094 0
0.0843061 0.448951 0.0564279
0.13135 0.454994 0.0601053
0.201907 0.459007 0.0657969
0.325093 0.45742 0.0659953
0.498192 0.450935 0.0426642
0.670085 0.457313 0
0.785382 0.486717 0
0.853803 0.544579 0
0.936675 0.636255 0.037232
0.262211 0.614435 0.073518
0.29572 0.616175 0.076585
0.34696 0.616831 0.0792248
0.432044 0.615885 0.0775311
0.54902 0.614832 0.0575723
0.677943 0.615 0.0457771
0.794751 0.634516 0
0.889509 0.671412 0.00862135
0.962783 0.726787 0.157519
0.507256 0.755749 0.145678
0.524483 0.755901 0.145418
0.551919 0.756558 0.14519
0.598581 0.757473 0.143526
0.667765 0.759731 0.138781
0.752895 0.762829 0.171283
0.844114 0.772152 0.185183
0.921462 0.79176 0.225406
0.979858 0.822248 0.338872
0.740047 0.87187 0.282994
0.746441 0.871885 0.284367
0.757046 0.872206 0.28751
0.775937 0.872709 0.293614
0.807172 0.874022 0.306096
0.850095 0.875395 0.347753
0.900847 0.877424 0.419348
0.948425 0.888212 0.490867
0.984833 0.905806 0.602197
0.904509 0.948058 0.637522
0.905959 0.948089 0.639857
0.908583 0.948363 0.643961
0.913466 0.949035 0.651835
0.921996 0.949996 0.667536
0.935454 0.951019 0.699702
0.953674 0.953475 0.746715
0.974792 0.960143 0.798795
0.995773 0.971847 0.85333
0 0 0.284291
0.0283665 0 0.314916
0.122927 0 0.310658
0.25539 0 0.269306
0.429236 0 0.19826
0.622339 0 0.0735637
0.769619 0.0908522 0.0191043
0.875074 0.293004 0.0487068
0.942687 0.481666 0.0205997
0 0.0131991 0.331319
0.0355535 0.0131838 0.362661
0.142473 0.00848402 0.356603
0.307301 0.00209049 0.31342
0.505089 0 0.218967
0.678004 0 0.0671702
0.788617 0.172534 0.0575265
0.887648 0.323247 0.0456397
0.946822 0.498573 0.0210575
0 0.117739 0.308263
0.0344854 0.1243 0.33257
0.138842 0.123751 0.336263
0.317113 0.115023 0.30367
0.539559 0.0963912 0.201846
0.69929 0.144808 0.102922
0.808087 0.252644 0.0766003
0.902129 0.369238 0.0391852
0.951965 0.52491 0.0231174
0 0.268269 0.249027
0.0388037 0.279606 0.255772
0.12668 0.285893 0.255253
0.297658 0.279866 0.238788
0.520806 0.275776 0.175158
0.7028 0.296956 0.102388
0.830259 0.352697 0.0467536
0.917586 0.44654 0.0307774
0.957809 0.570687 0.0300603
0.0417639 0.460243 0.193942
0.0967422 0.468147 0.195331
0.176226 0.473198 0.195956
0.313252 0.471321 0.194217
0.507591 0.46157 0.178195
0.700816 0.465858 0.0869001
0.837583 0.497353 0.0404059
0.926696 0.55787 0.0465858
0.958282 0.63917 0.0546578
0.229679 0.648829 0.2
0.264393 0.651087 0.201251
0.318669 0.651987 0.202014
0.413397 0.649958 0.201602
0.550195 0.645304 0.191424
0.704875 0.64155 0.186053
0.837446 0.654704 0.133593
0.926772 0.684169 0.124926
0.962615 0.726009 0.156329
0.485237 0.78613 0.219791
0.504524 0.785428 0.21944
0.535546 0.784619 0.218875
0.587945 0.782834 0.21706
0.665537 0.780392 0.210864
0.75874 0.778668 0.221546
0.851392 0.779568 0.219974
0.921386 0.791333 0.224567
0.979751 0.821912 0.338003
0.740001 0.871733 0.282689
0.746349 0.871717 0.284016
0.756954 0.872038 0.287144
0.775845 0.872541 0.293233
0.807111 0.873884 0.305715
0.850019 0.875227 0.347387
0.900832 0.877317 0.418875
0.948379 0.888045 0.490425
0.984878 0.905699 0.601694
0.904524 0.948058 0.637583
0.905989 0.948089 0.639902
0.908598 0.948379 0.644007
0.913497 0.949035 0.651865
0.922011 0.950011 0.667567
0.93547 0.951019 0.699733
0.953674 0.95349 0.746746
0.974807 0.960143 0.798795
0.995773 0.971847 0.853346
0 0 0.363027
0.0212711 0 0.408972
0.103243 0 0.420203
0.221012 0 0.389822
0.347204 0 0.330892
0.562097 0 0.314763
0.777325 0.0310674 0.289067
0.934524 0.22118 0.265812
0.993912 0.495384 0.335805
0 0 0.411048
0.0320134 0 0.460746
0.122637 0 0.476555
0.266911 0 0.460395
0.451591 0 0.426169
0.645274 0.028809 0.365591
0.815198 0.0918288 0.30576
0.939071 0.280644 0.285237
0.99762 0.512123 0.336782
0 0.0934768 0.462806
0.0422522 0.0983902 0.507088
0.137957 0.0982223 0.526726
0.301137 0.0926986 0.51313
0.505898 0.0945907 0.467216
0.69894 0.123964 0.386694
0.85008 0.184009 0.313634
0.934615 0.366522 0.318837
1 0.537972 0.338827
0 0.250874 0.444739
0.0516823 0.260822 0.468925
0.136645 0.266453 0.485573
0.293248 0.264225 0.484276
0.514229 0.261982 0.446647
0.727443 0.270863 0.368368
0.85922 0.339818 0.323186
0.938293 0.45832 0.331853
1 0.583978 0.343679
0.0505837 0.453101 0.40058
0.0937057 0.462043 0.4056
0.162417 0.470069 0.407919
0.288289 0.473228 0.401816
0.499641 0.4636 0.382544
0.706065 0.469718 0.338796
0.850935 0.503578 0.320745
0.947478 0.565927 0.328481
1 0.655009 0.361013
0.186557 0.659709 0.378073
0.219547 0.662852 0.37615
0.276799 0.664942 0.37435
0.383963 0.66273 0.372595
0.535988 0.655238 0.364584
0.705394 0.649454 0.362005
0.847913 0.661982 0.343496
0.944747 0.694377 0.365301
1 0.746517 0.417121
0.448127 0.809506 0.407294
0.469978 0.80827 0.406958
0.503899 0.806821 0.407065
0.562814 0.803571 0.406912
0.650172 0.799237 0.406622
0.754849 0.797192 0.409262
0.857557 0.797482 0.445655
0.938766 0.812924 0.475242
0.992493 0.838941 0.526238
0.725765 0.894087 0.475593
0.733104 0.893751 0.476982
0.745144 0.893355 0.479789
0.766476 0.892668 0.485161
0.800992 0.892317 0.495918
0.848295 0.893065 0.51516
0.899748 0.891478 0.572351
0.948989 0.898405 0.600427
0.984939 0.905486 0.600656
0.904585 0.948058 0.637659
0.90605 0.948104 0.639979
0.90866 0.948379 0.644083
0.913542 0.949035 0.651957
0.922042 0.950011 0.667643
0.935485 0.951034 0.699809
0.953689 0.95349 0.746777
0.974807 0.960143 0.798825
0.995789 0.971847 0.853361
0 0 0.407752
0.0184634 0 0.462379
0.0876326 0 0.48603
0.188785 0 0.473548
0.305425 0 0.428153
0.404898 0 0.366018
0.704509 0.0446632 0.470054
0.917494 0.227375 0.517113
1 0.460563 0.525338
0 0 0.419059
0.0260166 0 0.467414
0.0935225 0 0.486213
0.192691 0 0.472267
0.339239 0 0.468162
0.554421 0 0.505501
0.767147 0.108843 0.522789
0.935103 0.26894 0.528954
1 0.481254 0.527001
0 0.0492866 0.550607
0.0522621 0.0521096 0.603754
0.136904 0.05243 0.633555
0.277852 0.050782 0.638972
0.466499 0.056733 0.619928
0.653529 0.0945907 0.596109
0.819303 0.194644 0.562554
0.953597 0.329076 0.539361
1 0.514153 0.529976
0.0209812 0.221118 0.602289
0.0723888 0.229358 0.637095
0.153552 0.234455 0.663813
0.29807 0.234348 0.675914
0.503807 0.233448 0.660594
0.699825 0.257145 0.628473
0.855283 0.324727 0.577508
0.968917 0.424506 0.542306
1 0.590448 0.555123
0.0722362 0.435782 0.596139
0.114031 0.4439 0.609857
0.180423 0.450797 0.623163
0.301885 0.454261 0.631937
0.492363 0.450523 0.625422
0.697749 0.459983 0.595941
0.862287 0.489967 0.554604
0.949722 0.567529 0.546792
1 0.66392 0.565484
0.196796 0.653223 0.582208
0.228 0.656321 0.583398
0.278004 0.659327 0.584085
0.367712 0.661341 0.58114
0.508507 0.658747 0.570962
0.692378 0.651942 0.559472
0.841138 0.665614 0.545739
0.940581 0.699962 0.558816
1 0.754391 0.598459
0.418021 0.816342 0.589364
0.438499 0.816144 0.588434
0.469871 0.815473 0.586725
0.529778 0.81294 0.585138
0.627039 0.806546 0.585992
0.740581 0.802472 0.586709
0.848478 0.803525 0.609369
0.932647 0.820142 0.634333
0.987411 0.8495 0.686534
0.708141 0.904662 0.668208
0.716152 0.904311 0.669581
0.729046 0.903777 0.67158
0.751888 0.902739 0.6757
0.788617 0.901915 0.683635
0.839094 0.902617 0.698482
0.89366 0.905592 0.727901
0.943923 0.913466 0.772427
0.98291 0.931105 0.819043
0.909545 0.964691 0.826185
0.911208 0.964874 0.82742
0.913771 0.96524 0.829557
0.918944 0.965957 0.833494
0.927962 0.967193 0.840864
0.942306 0.969619 0.853498
0.961349 0.973968 0.872038
0.981552 0.978408 0.90277
1 0.987015 0.92311
0 0 0.412543
0.0214084 0 0.470527
0.0775921 0 0.50399
0.160616 0 0.509606
0.262181 0 0.484581
0.358465 0 0.43566
0.424582 0 0.375174
0.851804 0.181552 0.650629
1 0.447852 0.711345
0 0 0.424689
0.0276341 0 0.476204
0.0823377 0 0.505089
0.163806 0 0.509194
0.263951 0 0.483879
0.359213 0 0.435142
0.604074 0.00607309 0.543587
0.88716 0.23061 0.684535
1 0.470665 0.714488
3.0518e-05 0 0.444602
0.037705 0 0.484138
0.0904402 0 0.507103
0.173861 0 0.520638
0.319402 0 0.562066
0.535866 0.0109712 0.626444
0.750942 0.115389 0.686061
0.921584 0.300908 0.715908
1 0.505058 0.717311
0.0503853 0.159854 0.691371
0.0988174 0.165698 0.728878
0.173846 0.169741 0.75906
0.302464 0.171908 0.77821
0.484291 0.176867 0.778271
0.673716 0.204868 0.767727
0.829435 0.277317 0.759167
0.948653 0.409247 0.737148
1 0.562783 0.718608
0.105119 0.403204 0.736721
0.146014 0.41033 0.754772
0.210819 0.416953 0.77322
0.326131 0.420569 0.788861
0.501457 0.421134 0.79292
0.69395 0.4309 0.782132
0.844541 0.472114 0.763226
0.953002 0.547677 0.732998
1 0.647654 0.717601
0.22211 0.638758 0.74377
0.252018 0.641642 0.747692
0.29987 0.644556 0.752239
0.385458 0.646189 0.755703
0.519326 0.644587 0.754467
0.684077 0.643854 0.747829
0.832105 0.66009 0.731136
0.942184 0.693919 0.718074
0.988525 0.760632 0.735805
0.430289 0.811276 0.745586
0.449531 0.811276 0.745159
0.479179 0.810849 0.74406
0.532448 0.809705 0.741741
0.615549 0.807767 0.738369
0.723033 0.80621 0.735592
0.838499 0.807645 0.740429
0.924987 0.825086 0.751522
0.980896 0.856092 0.784131
0.702251 0.910002 0.781949
0.709712 0.90988 0.782406
0.720928 0.909697 0.783352
0.742321 0.909545 0.785428
0.780743 0.908324 0.790814
0.832898 0.908125 0.800244
0.890333 0.912337 0.815564
0.94168 0.920928 0.845899
0.981521 0.939483 0.879805
0.916472 0.97319 0.900862
0.917906 0.973449 0.901762
0.920562 0.9738 0.903166
0.925521 0.974594 0.905913
0.9346 0.975891 0.910964
0.948684 0.978821 0.919554
0.967819 0.983825 0.933043
0.988617 0.990951 0.951934
1 1 0.973754
7.62951e-05 0 0.377768
0.0312657 0 0.432914
0.0741741 0 0.473594
0.138689 0 0.497444
0.221195 0 0.494209
0.306538 0 0.463859
0.372427 0 0.41416
0.401389 0.0199283 0.355062
0.984298 0.370031 0.820279
0.00569162 0 0.390143
0.0359808 0 0.438895
0.0776837 0 0.476005
0.141085 0 0.497887
0.222644 0 0.493935
0.30721 0 0.463539
0.372625 0 0.413947
0.574212 0.0393072 0.513344
0.99646 0.401938 0.832654
0.014847 0 0.408133
0.0436561 0 0.447822
0.0836042 0 0.479622
0.145388 0 0.498466
0.225132 0 0.493446
0.308324 0 0.462974
0.372946 0 0.413581
0.803006 0.149722 0.737102
1 0.449012 0.845426
0.035172 0 0.449149
0.0636454 0 0.488106
0.107713 0 0.531975
0.186938 0 0.58555
0.325475 0.00732433 0.652201
0.527916 0.0517891 0.723873
0.742123 0.150683 0.793393
0.915206 0.314839 0.848966
1 0.52459 0.854719
0.14815 0.325933 0.820569
0.186755 0.331182 0.839048
0.247471 0.33698 0.859098
0.354223 0.342123 0.878492
0.51107 0.347967 0.888808
0.686915 0.366262 0.890059
0.837491 0.414405 0.885908
0.945525 0.50106 0.877317
1 0.627909 0.852186
0.25919 0.608698 0.854856
0.287892 0.611307 0.860151
0.333532 0.61413 0.866575
0.415183 0.616587 0.874083
0.539788 0.617227 0.877729
0.6916 0.620554 0.876234
0.830594 0.637644 0.870146
0.930297 0.679957 0.857404
0.996872 0.74551 0.843107
0.454582 0.800855 0.85864
0.472328 0.800626 0.858442
0.500725 0.800595 0.858396
0.550515 0.799908 0.857466
0.628046 0.798703 0.855573
0.728405 0.799069 0.853071
0.832624 0.80502 0.851926
0.919615 0.823743 0.848783
0.97969 0.856535 0.858091
0.715434 0.908293 0.865934
0.722118 0.908385 0.866163
0.732921 0.908309 0.866239
0.753002 0.908614 0.867048
0.785931 0.909316 0.868894
0.831479 0.911467 0.872724
0.887098 0.916182 0.881865
0.940398 0.926055 0.897002
0.980682 0.945022 0.919493
0.922423 0.978592 0.938613
0.923888 0.978836 0.939178
0.926101 0.979217 0.940078
0.930648 0.980026 0.941909
0.939513 0.981567 0.945678
0.953567 0.984314 0.95227
0.972457 0.989624 0.962585
0.993606 0.998123 0.976654
1 1 0.994263
0.0259709 0 0.323827
0.0475166 0 0.366003
0.078172 0 0.406851
0.125689 0 0.442298
0.189441 0 0.457328
0.259236 0.0024567 0.445975
0.317998 0.0177768 0.411139
0.348241 0.0475929 0.360769
0.33402 0.0976883 0.301289
0.0297856 0 0.332265
0.0509346 0 0.371511
0.0808576 0 0.409461
0.127489 0 0.443091
0.190448 0 0.457359
0.259678 0.00254826 0.445823
0.318181 0.0178531 0.410971
0.348257 0.0476539 0.360662
0.367651 0.098558 0.330007
0.0363622 0 0.345647
0.0563516 0 0.379553
0.0852522 0 0.414023
0.130541 0 0.444511
0.19237 0 0.457389
0.260395 0.00274662 0.445548
0.318486 0.0180056 0.410697
0.348272 0.0477455 0.360464
0.794278 0.185595 0.723354
0.0485695 0 0.367803
0.0670481 0 0.394202
0.0940108 0 0.42153
0.13698 0 0.446906
0.196216 0 0.457328
0.262211 0.00303655 0.444892
0.319097 0.0182956 0.410208
0.348287 0.0479591 0.360067
0.967376 0.358267 0.898207
0.111696 0.0347143 0.581811
0.13669 0.0372778 0.611002
0.176272 0.0419471 0.646983
0.249393 0.0514076 0.694942
0.372412 0.0713359 0.74992
0.547433 0.114961 0.808865
0.743633 0.205966 0.873014
0.91133 0.355215 0.928512
1 0.541299 0.947127
0.3019 0.528557 0.920516
0.329381 0.53135 0.926848
0.371923 0.534432 0.934569
0.446952 0.537957 0.943786
0.56173 0.542412 0.951705
0.701152 0.552712 0.955261
0.833585 0.578607 0.955032
0.934859 0.629526 0.948852
0.997345 0.710811 0.933333
0.482383 0.7776 0.932891
0.499016 0.77789 0.933394
0.524742 0.777951 0.933669
0.570703 0.778073 0.933608
0.643015 0.778378 0.932906
0.737133 0.780804 0.931167
0.835431 0.789364 0.928267
0.917525 0.809964 0.924788
0.974151 0.848173 0.920958
0.729458 0.90341 0.92491
0.735866 0.903471 0.924834
0.745998 0.903761 0.924895
0.764187 0.90425 0.924895
0.794751 0.905547 0.925307
0.837888 0.908598 0.926757
0.889174 0.915114 0.930678
0.938628 0.926711 0.938216
0.980514 0.946502 0.949874
0.931029 0.980911 0.965835
0.932403 0.981201 0.966155
0.934554 0.981537 0.966705
0.938811 0.982513 0.96817
0.946502 0.984436 0.970764
0.959091 0.987854 0.975509
0.976059 0.993606 0.982818
0.996887 1 0.994141
1 1 1
