public/textures/grade/Blackmagic/Cliff-BMDFilm.cube
TITLE "Generated by Resolve"
LUT_3D_SIZE 5
0 0 0
0.146212 0 0
0.385626 0.0247501 0
0.626978 0.134783 0
0.868345 0.479942 0
0 0.133974 0
0.14844 0.132189 0
0.440375 0.132631 0
0.683833 0.240482 0
0.890318 0.522438 0
0.112886 0.418906 0
0.220188 0.428672 0
0.477592 0.432578 0
0.756237 0.482719 0
0.937041 0.637324 0.0382086
0.507317 0.756146 0.145953
0.551995 0.756954 0.145464
0.667887 0.760128 0.139132
0.844251 0.772488 0.185794
0.979934 0.822492 0.339529
0.904479 0.948058 0.637507
0.908553 0.948363 0.643946
0.921981 0.949996 0.667491
0.953658 0.953475 0.7467
0.995773 0.971847 0.85333
0 0 0.185626
0.143801 0 0.180163
0.462837 0 0
0.719387 0.137728 0
0.867384 0.477913 0
0 0.133242 0.14052
0.140764 0.13843 0.133562
0.51165 0.135531 0
0.764141 0.241489 0
0.889387 0.5205 0
0.0843061 0.448951 0.0564279
0.201907 0.459007 0.0657969
0.498192 0.450935 0.0426642
0.785382 0.486717 0
0.936675 0.636255 0.037232
0.507256 0.755749 0.145678
0.551919 0.756558 0.14519
0.667765 0.759731 0.138781
0.844114 0.772152 0.185183
0.979858 0.822248 0.338872
0.904509 0.948058 0.637522
0.908583 0.948363 0.643961
0.921996 0.949996 0.667536
0.953674 0.953475 0.746715
0.995773 0.971847 0.85333
0 0 0.363027
0.103243 0 0.420203
0.347204 0 0.330892
0.777325 0.0310674 0.289067
0.993912 0.495384 0.335805
0 0.0934768 0.462806
0.137957 0.0982223 0.526726
0.505898 0.0945907 0.467216
0.85008 0.184009 0.313634
1 0.537972 0.338827
0.0505837 0.453101 0.40058
0.162417 0.470069 0.407919
0.499641 0.4636 0.382544
0.850935 0.503578 0.320745
1 0.655009 0.361013
0.448127 0.809506 0.407294
0.503899 0.806821 0.407065
0.650172 0.799237 0.406622
0.857557 0.797482 0.445655
0.992493 0.838941 0.526238
0.904585 0.948058 0.637659
0.90866 0.948379 0.644083
0.922042 0.950011 0.667643
0.953689 0.95349 0.746777
0.995789 0.971847 0.853361
0 0 0.412543
0.0775921 0 0.50399
0.262181 0 0.484581
0.424582 0 0.375174
1 0.447852 0.711345
3.0518e-05 0 0.444602
0.0904402 0 0.507103
0.319402 0 0.562066
0.750942 0.115389 0.686061
1 0.505058 0.717311
0.105119 0.403204 0.736721
0.210819 0.416953 0.77322
0.501457 0.421134 0.79292
0.844541 0.472114 0.763226
1 0.647654 0.717601
0.430289 0.811276 0.745586
0.479179 0.810849 0.74406
0.615549 0.807767 0.738369
0.838499 0.807645 0.740429
0.980896 0.856092 0.784131
0.916472 0.97319 0.900862
0.920562 0.9738 0.903166
0.9346 0.975891 0.910964
0.967819 0.983825 0.933043
1 1 0.973754
0.0259709 0 0.323827
0.078172 0 0.406851
0.189441 0 0.457328
0.317998 0.0177768 0.411139
0.33402 0.0976883 0.301289
0.0363622 0 0.345647
0.0852522 0 0.414023
0.19237 0 0.457389
0.318486 0.0180056 0.410697
0.794278 0.185595 0.723354
0.111696 0.0347143 0.581811
0.176272 0.0419471 0.646983
0.372412 0.0713359 0.74992
0.743633 0.205966 0.873014
1 0.541299 0.947127
0.482383 0.7776 0.932891
0.524742 0.777951 0.933669
0.643015 0.778378 0.932906
0.835431 0.789364 0.928267
0.974151 0.848173 0.920958
0.931029 0.980911 0.965835
0.934554 0.981537 0.966705
0.946502 0.984436 0.970764
0.976059 0.993606 0.982818
1 1 1
