public/textures/grade/Blackmagic/Gems-BMDFilm.cube
TITLE "Generated by Resolve"
LUT_3D_SIZE 33
0 0.000671397 0.00761425
0.00265507 0.0016022 0.00450141
0.0129091 0.00151064 0.0010071
0.026215 0.000900282 0
0.0410468 0.000946059 0
0.0591897 0.0010071 0
0.0826429 0.000183108 0
0.112108 0 0
0.146914 0.000885023 0
0.187366 0.00407416 0
0.233097 0.0100404 0
0.284916 0.0200809 0
0.342046 0.0356756 0
0.404654 0.0580758 0
0.465415 0.0902113 0
0.509544 0.129458 0
0.521447 0.175875 0
0.473594 0.226719 0.0116426
0.381689 0.27982 0.183429
0.322972 0.322972 0.322972
0.348882 0.348882 0.348882
0.371206 0.371206 0.371206
0.394308 0.394308 0.394308
0.415671 0.415671 0.415671
0.43476 0.43476 0.43476
0.452003 0.452003 0.452003
0.467826 0.467826 0.467826
0.482872 0.482872 0.482872
0.500282 0.500282 0.500282
0.522072 0.522072 0.522072
0.547295 0.547295 0.547295
0.578195 0.578195 0.578195
0.622797 0.613535 0.602502
0 0.00611887 0.00602731
0.000335698 0.00616464 0.00276188
0.010193 0.00596628 0
0.0237278 0.00549325 0
0.0396124 0.00486763 0
0.059266 0.0040589 0
0.0827192 0.00341802 0
0.112047 0.00358587 0
0.146197 0.00495918 0
0.186282 0.00840772 0
0.231556 0.0147555 0
0.282902 0.0251621 0
0.339376 0.0408789 0
0.401144 0.063508 0
0.461967 0.0949722 0
0.50721 0.132845 0
0.521767 0.177462 0
0.479133 0.227115 0.00337224
0.389288 0.279179 0.173495
0.323217 0.323217 0.323217
0.348852 0.348852 0.348852
0.371328 0.371328 0.371328
0.395285 0.395285 0.395285
0.416434 0.416434 0.416434
0.435462 0.435462 0.435462
0.45275 0.45275 0.45275
0.468605 0.468605 0.468605
0.483726 0.483726 0.483726
0.501381 0.501381 0.501381
0.523644 0.523644 0.523644
0.549767 0.549767 0.549767
0.580926 0.580926 0.580926
0.639597 0.614542 0.584848
0 0.0125429 0.00563058
0 0.0134737 0.00259403
0.0033875 0.01355 0
0.0175174 0.0132906 0
0.0341192 0.0127108 0
0.0540017 0.0119478 0
0.0778058 0.0110323 0
0.108248 0.0106508 0
0.143359 0.0112612 0
0.183474 0.0135958 0
0.228168 0.019913 0
0.278477 0.0303197 0
0.334844 0.0459449 0
0.396139 0.0681621 0
0.457557 0.0991836 0
0.503639 0.13521 0
0.521004 0.178485 0
0.48481 0.227268 0
0.397269 0.27837 0.162615
0.323369 0.323369 0.323369
0.348806 0.348806 0.348806
0.372137 0.372137 0.372137
0.396002 0.396002 0.396002
0.417136 0.417136 0.417136
0.436072 0.436072 0.436072
0.453483 0.453483 0.453483
0.469306 0.469306 0.469306
0.484977 0.484977 0.484977
0.503136 0.503136 0.503136
0.525704 0.525704 0.525704
0.551949 0.551949 0.551949
0.583352 0.583352 0.583352
0.65745 0.61532 0.565667
0 0.0212253 0.00534066
0 0.0226444 0.00263981
0 0.0244907 0
0.00866712 0.0228428 0
0.0256352 0.0228428 0
0.046067 0.0221256 0
0.0705272 0.021149 0
0.10042 0.0204166 0
0.135958 0.020737 0
0.176593 0.0226749 0
0.222889 0.0268864 0
0.273991 0.0353704 0
0.329763 0.0505837 0
0.390646 0.0724346 0
0.452232 0.102296 0
0.49984 0.137514 0
0.519158 0.179126 0
0.490471 0.227268 0
0.405249 0.277455 0.151278
0.324941 0.323079 0.321111
0.34876 0.34876 0.34876
0.372747 0.372747 0.372747
0.396506 0.396506 0.396506
0.417762 0.417762 0.417762
0.436835 0.436835 0.436835
0.454017 0.454017 0.454017
0.46981 0.46981 0.46981
0.48603 0.48603 0.48603
0.504738 0.504738 0.504738
0.52752 0.52752 0.52752
0.554452 0.554452 0.554452
0.586206 0.586206 0.586206
0.675624 0.616022 0.54612
0 0.0310979 0.00547799
0 0.0330053 0.00299077
0 0.0354467 0
0 0.0347295 0
0.015671 0.0336309 0
0.0364385 0.0335393 0
0.0608377 0.0327916 0
0.0908675 0.0318761 0
0.12697 0.0316472 0
0.167758 0.0330816 0
0.214588 0.0369116 0
0.266346 0.0440375 0
0.324147 0.0556344 0
0.384558 0.0768902 0
0.446036 0.105516 0
0.494759 0.139269 0
0.517037 0.180056 0
0.496345 0.227176 0
0.41442 0.276204 0.13756
0.332204 0.322011 0.311162
0.348547 0.348547 0.348547
0.373449 0.373449 0.373449
0.397009 0.397009 0.397009
0.418311 0.418311 0.418311
0.437522 0.437522 0.437522
0.454551 0.454551 0.454551
0.470527 0.470527 0.470527
0.487602 0.487602 0.487602
0.506813 0.506813 0.506813
0.529854 0.529854 0.529854
0.557214 0.557214 0.557214
0.589303 0.589303 0.589303
0.69398 0.616587 0.526284
0 0.043061 0.00579843
0 0.0453498 0.00335698
0 0.0480507 0
0 0.0500649 0
0.00300603 0.0475013 0
0.0243839 0.0466163 0
0.0494392 0.0466316 0
0.0785534 0.0457465 0
0.115114 0.0454414 0
0.156817 0.0461738 0
0.203387 0.0491493 0
0.25594 0.0555734 0
0.313893 0.0665446 0
0.376806 0.0832685 0
0.438361 0.108843 0
0.48867 0.141558 0
0.51339 0.180652 0
0.500725 0.226993 0
0.424018 0.275181 0.123064
0.341955 0.320241 0.296834
0.348424 0.348424 0.348424
0.373846 0.373846 0.373846
0.397772 0.397772 0.397772
0.418906 0.418906 0.418906
0.438163 0.438163 0.438163
0.45507 0.45507 0.45507
0.471778 0.471778 0.471778
0.489418 0.489418 0.489418
0.509209 0.509209 0.509209
0.53254 0.53254 0.53254
0.560372 0.560372 0.560372
0.592737 0.592737 0.592737
0.718807 0.617304 0.499794
0 0.0572976 0.00640879
0 0.0598154 0.00376898
0 0.0626383 0
0 0.0661326 0
0 0.0648356 0
0.0102388 0.0628672 0
0.0352178 0.0623026 0
0.0645151 0.06215 0
0.100771 0.0614176 0
0.143099 0.0619364 0
0.190188 0.0642405 0
0.243244 0.0694133 0
0.301152 0.0792401 0
0.364843 0.0944991 0
0.429358 0.114382 0
0.481041 0.144015 0
0.508507 0.18146 0
0.500282 0.225986 0
0.436072 0.273518 0.103578
0.352773 0.318486 0.280888
0.347936 0.347936 0.347936
0.374624 0.374624 0.374624
0.398322 0.398322 0.398322
0.419638 0.419638 0.419638
0.43859 0.43859 0.43859
0.456077 0.456077 0.456077
0.473426 0.473426 0.473426
0.49189 0.49189 0.49189
0.512291 0.512291 0.512291
0.536248 0.536248 0.536248
0.56466 0.56466 0.56466
0.59736 0.59736 0.59736
0.748409 0.618189 0.469001
0 0.0761425 0.00827039
0 0.0792554 0.00578317
0 0.0825055 0.00115969
0 0.0855726 0
0 0.0882124 0
0 0.0847028 0
0.019501 0.0822309 0
0.0488746 0.0816052 0
0.0839399 0.0812848 0
0.126085 0.0806134 0
0.174533 0.0823224 0
0.227771 0.0867781 0
0.286213 0.0945602 0
0.350317 0.10692 0
0.416831 0.124285 0
0.472557 0.14847 0
0.502159 0.182513 0
0.499168 0.224979 0
0.449104 0.271901 0.0814984
0.365957 0.316197 0.260471
0.348638 0.348638 0.348638
0.375036 0.375036 0.375036
0.398795 0.398795 0.398795
0.420157 0.420157 0.420157
0.439185 0.439185 0.439185
0.457527 0.457527 0.457527
0.475853 0.475853 0.475853
0.495064 0.495064 0.495064
0.516579 0.516579 0.516579
0.540703 0.540703 0.540703
0.569406 0.569406 0.569406
0.608911 0.601572 0.592645
0.782773 0.618814 0.433234
0 0.100908 0.0130465
0 0.104204 0.0105592
0 0.107164 0.00646983
0 0.109911 0.000946059
0 0.113008 0
0 0.112688 0
0 0.109255 0
0.0311284 0.106538 0
0.0648356 0.105516 0
0.107637 0.105074 0
0.155718 0.104662 0
0.20943 0.106828 0
0.269245 0.111925 0
0.332982 0.121233 0
0.401251 0.135393 0
0.461967 0.156268 0
0.496498 0.18526 0
0.496529 0.224582 0
0.463035 0.270207 0.0561074
0.381003 0.31371 0.236408
0.349142 0.349142 0.349142
0.37557 0.37557 0.37557
0.399451 0.399451 0.399451
0.420798 0.420798 0.420798
0.440925 0.440925 0.440925
0.459907 0.459907 0.459907
0.479271 0.479271 0.479271
0.499229 0.499229 0.499229
0.521523 0.521523 0.521523
0.546441 0.546441 0.546441
0.575418 0.575418 0.575418
0.646693 0.603723 0.552056
0.824155 0.62002 0.39324
0 0.129656 0.0224613
0 0.132784 0.0198978
0 0.135424 0.0158846
0 0.138048 0.0112764
0 0.140536 0.00453193
0 0.143618 0
0 0.141299 0
0.00901808 0.137377 0
0.044892 0.134325 0
0.0856336 0.133135 0
0.135241 0.132876 0
0.189059 0.132647 0
0.248631 0.13492 0
0.313298 0.140749 0
0.383062 0.151186 0
0.448569 0.167254 0
0.493233 0.191531 0
0.496605 0.225315 0
0.469306 0.268467 0.0354009
0.397955 0.310994 0.20798
0.349691 0.349691 0.349691
0.376181 0.376181 0.376181
0.400504 0.400504 0.400504
0.422736 0.422736 0.422736
0.443351 0.443351 0.443351
0.463676 0.463676 0.463676
0.483742 0.483742 0.483742
0.505074 0.505074 0.505074
0.527962 0.527962 0.527962
0.553552 0.553552 0.553552
0.583276 0.583276 0.583276
0.694026 0.605692 0.500771
0.862898 0.622202 0.358175
0 0.162661 0.0379797
0 0.16553 0.0356451
0 0.167788 0.0318456
0 0.170001 0.0273899
0 0.172107 0.0214847
0 0.174777 0.0135958
0 0.177813 0.0018616
0 0.173739 0.00416571
0.0218357 0.16965 0.00369268
0.0625925 0.165988 0
0.111696 0.164279 0
0.166339 0.164401 0
0.226108 0.164645 0
0.291768 0.167422 0
0.361196 0.173877 0
0.432059 0.185397 0
0.487648 0.204089 0
0.507362 0.231617 0
0.480125 0.268833 0.00846876
0.42533 0.310185 0.168276
0.376089 0.348989 0.315343
0.378927 0.378927 0.378927
0.40351 0.40351 0.40351
0.4262 0.4262 0.4262
0.448295 0.448295 0.448295
0.469154 0.469154 0.469154
0.490364 0.490364 0.490364
0.512306 0.512306 0.512306
0.536233 0.536233 0.536233
0.562371 0.562371 0.562371
0.613794 0.589441 0.559487
0.752224 0.607553 0.438682
0.896834 0.626322 0.330755
0 0.199527 0.0619059
0 0.202258 0.0597391
0 0.204379 0.0563211
0 0.206363 0.052369
0 0.208057 0.0468452
0 0.210208 0.0399786
0 0.212451 0.0298619
0 0.215183 0.0174868
0 0.210681 0.0205692
0.0371557 0.205921 0.019791
0.0863203 0.201663 0.0132753
0.141939 0.199893 0
0.202167 0.200244 0
0.266987 0.200793 0
0.337316 0.204013 0
0.411383 0.210971 0
0.476722 0.223819 0
0.515709 0.244984 0
0.510643 0.275227 0
0.466819 0.312596 0.112001
0.417395 0.350271 0.263478
0.384451 0.384451 0.384451
0.409216 0.409216 0.409216
0.432822 0.432822 0.432822
0.455055 0.455055 0.455055
0.476799 0.476799 0.476799
0.498817 0.498817 0.498817
0.521614 0.521614 0.521614
0.546258 0.546258 0.546258
0.573297 0.573297 0.573297
0.679423 0.592828 0.487739
0.819104 0.609979 0.372152
0.925292 0.633143 0.312245
0 0.239948 0.0953841
0 0.242725 0.0942397
0 0.244755 0.0915694
0 0.246677 0.0885176
0 0.248173 0.0837262
0 0.249943 0.0772106
0 0.251667 0.068574
0 0.253819 0.057023
0 0.256275 0.0416571
0.00442512 0.251835 0.0454871
0.0554208 0.246815 0.0455329
0.11574 0.241886 0.039353
0.176532 0.239506 0.0180514
0.242115 0.240406 0
0.3122 0.241352 0
0.386221 0.245335 0
0.460288 0.253025 0
0.517464 0.267094 0
0.538705 0.289754 0
0.517143 0.320775 0.0462196
0.47306 0.354971 0.193683
0.434699 0.388525 0.326207
0.41886 0.41886 0.41886
0.442496 0.442496 0.442496
0.465126 0.465126 0.465126
0.487694 0.487694 0.487694
0.51046 0.51046 0.51046
0.534081 0.534081 0.534081
0.559258 0.559258 0.559258
0.641825 0.579095 0.500786
0.760769 0.596307 0.401129
0.879484 0.615 0.319921
0.945739 0.642451 0.303685
0 0.284459 0.134218
0 0.286946 0.133516
0 0.288777 0.131746
0 0.290593 0.129854
0 0.292058 0.126833
0 0.293767 0.122911
0 0.295216 0.116793
0 0.296925 0.108751
0 0.298512 0.0968948
0 0.300786 0.0805524
0.0206912 0.296605 0.0816815
0.0831922 0.29099 0.0828107
0.1514 0.286107 0.0780194
0.216556 0.283772 0.0536049
0.285863 0.284718 0.00814832
0.359808 0.285985 0
0.436667 0.290608 0
0.507973 0.299153 0
0.556237 0.313924 0
0.566293 0.336477 0
0.541817 0.365393 0.106783
0.507256 0.396506 0.238834
0.481498 0.426703 0.350134
0.471809 0.45449 0.430579
0.47921 0.47921 0.47921
0.502251 0.502251 0.502251
0.525399 0.525399 0.525399
0.570855 0.546624 0.514839
0.639887 0.566079 0.471763
0.734981 0.583917 0.398825
0.846403 0.600946 0.319203
0.919158 0.624918 0.294987
0.958892 0.65478 0.305379
0 0.332555 0.176623
0 0.334768 0.176181
0 0.336416 0.174945
0 0.338109 0.173754
0 0.339452 0.171618
0 0.34107 0.1691
0 0.342718 0.165469
0 0.344137 0.16022
0 0.345464 0.152712
0 0.346883 0.142687
0 0.34818 0.128435
0.0414588 0.34548 0.12517
0.119966 0.339239 0.128115
0.192309 0.333761 0.125231
0.261509 0.33167 0.102632
0.334768 0.333501 0.0514076
0.409598 0.335439 0.013077
0.487419 0.340536 0
0.556466 0.349676 0
0.599512 0.363958 0
0.609369 0.384802 0.0260471
0.594965 0.410498 0.130449
0.575158 0.438025 0.237079
0.563806 0.464195 0.321721
0.56762 0.489342 0.379721
0.586969 0.512871 0.411261
0.621714 0.534356 0.417182
0.676646 0.554543 0.395438
0.750454 0.572961 0.350759
0.838102 0.590539 0.298405
0.903136 0.612299 0.280324
0.942153 0.639384 0.290593
0.964233 0.669856 0.316533
0 0.383551 0.22179
0 0.385321 0.221408
0 0.387015 0.220768
0 0.388571 0.220081
0 0.38967 0.218479
0 0.391165 0.21677
0 0.392782 0.214557
0 0.393942 0.210666
0 0.395514 0.206226
0 0.396582 0.199542
0.00799573 0.397543 0.190448
0.0280461 0.398749 0.178958
0.0766613 0.397116 0.170733
0.164202 0.390692 0.175799
0.240345 0.384894 0.174304
0.312261 0.383398 0.154345
0.386633 0.385595 0.11043
0.461952 0.388128 0.0728466
0.536538 0.393973 0.0276188
0.604135 0.402945 0
0.649531 0.416358 0.00352483
0.670176 0.434272 0.0493782
0.675059 0.455985 0.118349
0.676783 0.479286 0.187366
0.686229 0.502327 0.240055
0.708583 0.524315 0.270253
0.744533 0.544747 0.279026
0.796658 0.56434 0.268956
0.854154 0.583352 0.256916
0.898543 0.60499 0.26038
0.930068 0.629938 0.277104
0.951537 0.65774 0.302708
0.963134 0.687999 0.337804
0 0.436622 0.2692
0 0.438209 0.268818
0 0.439948 0.268803
0 0.441321 0.26833
0 0.442344 0.267247
0 0.443732 0.266209
0 0.444938 0.264347
0 0.446174 0.261936
0 0.447456 0.258717
0.0107118 0.448402 0.254093
0.0314488 0.449454 0.248295
0.0527352 0.450095 0.240452
0.0781262 0.451011 0.229099
0.132753 0.450492 0.21976
0.21857 0.443305 0.225299
0.294774 0.437858 0.224048
0.367224 0.437583 0.206058
0.441215 0.440452 0.1691
0.513787 0.443641 0.143145
0.584298 0.449744 0.110384
0.648661 0.458778 0.0796521
0.699916 0.471031 0.0709087
0.7355 0.486564 0.0871443
0.761547 0.504479 0.1178
0.785229 0.523644 0.150881
0.811856 0.543099 0.179339
0.841947 0.562707 0.20267
0.871565 0.5832 0.223667
0.897993 0.604623 0.245106
0.920821 0.628077 0.269581
0.938567 0.65304 0.296651
0.950851 0.680095 0.32845
0.956664 0.708537 0.368002
0 0.490272 0.317449
0 0.492027 0.317494
0 0.493584 0.317418
0 0.494636 0.316915
0 0.495842 0.316487
0 0.497047 0.315724
0 0.498146 0.314534
0.00929274 0.499168 0.312718
0.0257267 0.500328 0.310521
0.043534 0.500908 0.30692
0.0640116 0.501854 0.303136
0.0861677 0.502007 0.297185
0.111131 0.502907 0.289921
0.140154 0.504494 0.277119
0.197574 0.50309 0.270008
0.280934 0.496345 0.276387
0.355444 0.491722 0.274556
0.426108 0.492226 0.256321
0.496742 0.496269 0.225681
0.56437 0.500603 0.208499
0.629053 0.507683 0.189349
0.687572 0.516976 0.173495
0.73785 0.528557 0.166384
0.779248 0.542351 0.171252
0.812482 0.557671 0.184649
0.840864 0.574838 0.204089
0.865507 0.593332 0.226337
0.887526 0.613138 0.250278
0.906142 0.633646 0.274922
0.921736 0.655909 0.302068
0.934798 0.679561 0.330556
0.943099 0.70428 0.363836
0.946242 0.730938 0.405798
0 0.54345 0.365255
0 0.544991 0.365408
0.00177005 0.54612 0.365148
0.0100099 0.547082 0.364782
0.0192569 0.548211 0.36463
0.0300603 0.549371 0.364324
0.0417945 0.550072 0.363149
0.0558938 0.551263 0.36228
0.0721294 0.552209 0.360662
0.0893111 0.552743 0.358129
0.107301 0.553429 0.35523
0.124743 0.553521 0.351003
0.146822 0.554299 0.345296
0.173022 0.555474 0.335927
0.203372 0.558694 0.322316
0.272328 0.554971 0.32224
0.350393 0.548455 0.327459
0.420951 0.545403 0.324208
0.487831 0.547967 0.307073
0.553017 0.552865 0.282414
0.614008 0.557931 0.271275
0.670176 0.565423 0.260548
0.721096 0.574868 0.253132
0.764874 0.586267 0.251408
0.802853 0.599329 0.25536
0.833936 0.614252 0.266239
0.860029 0.630549 0.281682
0.881666 0.648051 0.300435
0.899031 0.666529 0.322042
0.913436 0.68687 0.346548
0.924376 0.707866 0.373785
0.931441 0.730541 0.408011
0.935012 0.754513 0.448615
0.0495155 0.595743 0.412406
0.0571756 0.596521 0.412131
0.065568 0.597528 0.412192
0.0738231 0.598383 0.4121
0.082887 0.599176 0.411917
0.0925917 0.600076 0.411704
0.102327 0.60061 0.410819
0.11368 0.601511 0.410132
0.125811 0.60235 0.409094
0.137987 0.602747 0.407218
0.1514 0.603326 0.405203
0.167071 0.60354 0.401648
0.18761 0.604379 0.396765
0.211704 0.605402 0.388922
0.239658 0.608103 0.37847
0.276234 0.610712 0.366018
0.354803 0.603784 0.373831
0.425467 0.59939 0.377584
0.489174 0.598627 0.372457
0.549477 0.602304 0.355718
0.607797 0.607965 0.336965
0.661234 0.614054 0.331121
0.709438 0.621912 0.326085
0.752316 0.631571 0.3243
0.789319 0.642786 0.326619
0.820874 0.655375 0.332937
0.847364 0.669215 0.343343
0.868742 0.684398 0.357977
0.886305 0.700755 0.375845
0.901411 0.718532 0.397009
0.912551 0.737362 0.423545
0.920317 0.757412 0.45565
0.925444 0.778439 0.492897
0.123369 0.644907 0.457557
0.129503 0.64567 0.457649
0.135241 0.646403 0.457725
0.140642 0.647044 0.457725
0.145846 0.647425 0.457328
0.151965 0.647898 0.456901
0.159075 0.648539 0.456565
0.166934 0.649195 0.456016
0.175631 0.649668 0.455055
0.185138 0.649897 0.453498
0.19794 0.650538 0.45156
0.213397 0.650858 0.447929
0.232776 0.651942 0.443427
0.254994 0.653162 0.436622
0.280903 0.655711 0.427588
0.30782 0.659556 0.414527
0.372656 0.655711 0.417899
0.439582 0.650446 0.423575
0.500542 0.64799 0.423987
0.557198 0.649714 0.417197
0.610178 0.654932 0.402197
0.660182 0.661036 0.389075
0.705547 0.667109 0.386313
0.745968 0.674968 0.385061
0.78114 0.684474 0.386984
0.811765 0.695232 0.392081
0.836927 0.707118 0.400671
0.857832 0.720104 0.412741
0.876249 0.734661 0.428763
0.891386 0.750179 0.449134
0.90277 0.766247 0.473518
0.911757 0.784085 0.504128
0.918181 0.802365 0.538399
0.185428 0.690318 0.500404
0.189563 0.690761 0.500313
0.193378 0.691173 0.500237
0.196628 0.69131 0.49987
0.200534 0.691768 0.499794
0.205097 0.692134 0.499489
0.210819 0.692576 0.499031
0.217899 0.693095 0.498329
0.225849 0.693416 0.496971
0.2365 0.694041 0.495308
0.249332 0.694835 0.49305
0.264164 0.695415 0.489372
0.282368 0.696681 0.484855
0.302602 0.698131 0.478492
0.325994 0.700801 0.470329
0.350256 0.70454 0.458946
0.403388 0.702541 0.459739
0.464942 0.697444 0.465904
0.521782 0.69485 0.468894
0.573571 0.69482 0.466316
0.621561 0.697948 0.458045
0.667201 0.703944 0.443336
0.709087 0.70985 0.437018
0.746319 0.716609 0.437995
0.779202 0.724147 0.439796
0.807233 0.733089 0.444511
0.831388 0.743358 0.453437
0.852445 0.754757 0.465492
0.870008 0.766934 0.480674
0.884779 0.780194 0.500282
0.896788 0.794751 0.524834
0.906447 0.809873 0.552941
0.914275 0.825925 0.585138
0.240391 0.731136 0.539117
0.243992 0.731441 0.538796
0.247837 0.731746 0.538415
0.251652 0.732128 0.538094
0.255863 0.732509 0.537652
0.260929 0.732952 0.537087
0.267002 0.733486 0.536339
0.273793 0.733715 0.53489
0.282628 0.734386 0.53341
0.293111 0.735225 0.531518
0.305135 0.73611 0.528893
0.319341 0.737041 0.525124
0.335805 0.738643 0.520714
0.353979 0.740368 0.514443
0.37435 0.743206 0.506661
0.395575 0.74696 0.495918
0.446433 0.74377 0.499596
0.500587 0.739193 0.505196
0.551354 0.736736 0.508705
0.597955 0.736126 0.508186
0.641138 0.737957 0.503502
0.681651 0.742428 0.495735
0.719722 0.748913 0.481636
0.753246 0.754238 0.482918
0.782986 0.760693 0.487419
0.808743 0.768246 0.494621
0.831586 0.776913 0.504112
0.851591 0.786847 0.516793
0.868681 0.797711 0.533181
0.882872 0.809232 0.552773
0.894896 0.821607 0.575967
0.904891 0.834821 0.602655
0.913588 0.848905 0.632822
0.302602 0.769238 0.571679
0.306477 0.769589 0.571099
0.310338 0.76994 0.570489
0.314153 0.770291 0.569894
0.318334 0.770657 0.569223
0.32282 0.770779 0.568002
0.328573 0.771282 0.566903
0.335515 0.771923 0.56556
0.343801 0.772656 0.56379
0.353567 0.773526 0.561456
0.364294 0.774273 0.558267
0.377356 0.775631 0.554589
0.392065 0.777417 0.549905
0.407752 0.77937 0.543755
0.425391 0.782452 0.535988
0.454002 0.7832 0.531868
0.501335 0.778714 0.537575
0.546639 0.774807 0.541848
0.589883 0.772732 0.54461
0.630137 0.772213 0.544579
0.668147 0.773785 0.542321
0.703502 0.777386 0.538659
0.735759 0.782223 0.534279
0.766384 0.788571 0.52784
0.792828 0.793973 0.535454
0.816831 0.800992 0.544915
0.837751 0.808789 0.556085
0.856046 0.817121 0.569482
0.871809 0.826383 0.586007
0.885359 0.836439 0.605478
0.897124 0.84715 0.627741
0.90721 0.858595 0.652705
0.916396 0.871092 0.681163
0.372381 0.803876 0.596338
0.375814 0.804074 0.595438
0.378988 0.804242 0.594583
0.382574 0.804547 0.593698
0.386358 0.804929 0.592828
0.390997 0.80531 0.591653
0.396277 0.805844 0.59028
0.402502 0.806455 0.588647
0.409842 0.807218 0.58648
0.417685 0.807858 0.583612
0.427436 0.809049 0.580392
0.438392 0.810605 0.576608
0.45069 0.812528 0.57171
0.463783 0.814878 0.565621
0.489677 0.814694 0.564614
0.526436 0.811017 0.569421
0.564034 0.807919 0.574258
0.599939 0.805463 0.578027
0.635477 0.80412 0.580819
0.66862 0.804074 0.582147
0.700999 0.805859 0.582803
0.731014 0.808881 0.582727
0.758846 0.813214 0.583017
0.785321 0.819135 0.582727
0.808865 0.825086 0.585595
0.829648 0.830839 0.595804
0.848371 0.837583 0.60824
0.864866 0.84509 0.622934
0.879316 0.853117 0.639506
0.892012 0.861769 0.658289
0.903334 0.871336 0.679942
0.91342 0.881514 0.703731
0.922148 0.891829 0.728359
0.448386 0.834501 0.615442
0.451514 0.834882 0.614725
0.454673 0.835233 0.613931
0.457679 0.835615 0.613291
0.461021 0.836027 0.612406
0.464958 0.8365 0.611322
0.469474 0.83711 0.610162
0.474128 0.837568 0.608392
0.480308 0.838453 0.606485
0.487343 0.839551 0.604334
0.495338 0.840925 0.601678
0.504372 0.842649 0.598337
0.520012 0.842512 0.597543
0.545434 0.840146 0.601816
0.572747 0.83772 0.606271
0.600183 0.835355 0.610376
0.628855 0.833661 0.614832
0.657038 0.832364 0.618433
0.685298 0.832212 0.622034
0.712093 0.832822 0.624689
0.738384 0.834775 0.627466
0.762936 0.837568 0.629984
0.78616 0.841489 0.633143
0.808057 0.846754 0.637552
0.828901 0.853132 0.638529
0.84686 0.858381 0.648966
0.862898 0.864118 0.661692
0.877577 0.870604 0.676402
0.890669 0.877867 0.693172
0.902449 0.885756 0.711803
0.912673 0.89369 0.730938
0.922148 0.902525 0.752636
0.931014 0.912016 0.776226
0.530831 0.862791 0.639689
0.533059 0.863111 0.638895
0.535485 0.863539 0.638453
0.537987 0.863966 0.637903
0.540642 0.864439 0.637247
0.543664 0.865019 0.636622
0.547341 0.865705 0.635721
0.551461 0.86656 0.634684
0.558343 0.866896 0.63447
0.570352 0.865797 0.636851
0.583734 0.864561 0.639429
0.598184 0.863081 0.642023
0.614832 0.861708 0.645304
0.632959 0.860334 0.648844
0.651667 0.858976 0.652247
0.672007 0.857908 0.656062
0.693202 0.857359 0.660166
0.714351 0.85716 0.663859
0.736217 0.857893 0.668116
0.757397 0.859113 0.671946
0.778378 0.861418 0.676463
0.797742 0.864332 0.680171
0.816648 0.868132 0.684977
0.834287 0.87248 0.690562
0.851392 0.877913 0.69543
0.867124 0.883574 0.703273
0.881209 0.889021 0.716854
0.89366 0.894667 0.730877
0.904997 0.900877 0.746334
0.91545 0.907744 0.763592
0.924956 0.915038 0.78201
0.933547 0.922591 0.80116
0.941619 0.930602 0.821622
0.623896 0.885847 0.678782
0.627741 0.885527 0.679667
0.63151 0.885222 0.680552
0.635187 0.884916 0.681422
0.63888 0.884688 0.682368
0.643473 0.884321 0.683436
0.648768 0.883894 0.684657
0.654124 0.88336 0.68571
0.661265 0.882826 0.687388
