public/textures/grade/Blackmagic/Gems-BMDFilm.cube
TITLE "Generated by Resolve"
LUT_3D_SIZE 5
0 0.000671397 0.00761425
0.146914 0.000885023 0
0.521447 0.175875 0
0.43476 0.43476 0.43476
0.622797 0.613535 0.602502
0 0.100908 0.0130465
0.0648356 0.105516 0
0.496498 0.18526 0
0.440925 0.440925 0.440925
0.824155 0.62002 0.39324
0 0.436622 0.2692
0 0.447456 0.258717
0.367224 0.437583 0.206058
0.785229 0.523644 0.150881
0.956664 0.708537 0.368002
0.372381 0.803876 0.596338
0.409842 0.807218 0.58648
0.564034 0.807919 0.574258
0.808865 0.825086 0.585595
0.922148 0.891829 0.728359
0.959747 0.977157 0.942412
0.962615 0.97821 0.944991
0.971725 0.98201 0.954086
0.990921 0.993057 0.980285
1 1 1
0 0 0.223758
0.0699016 0.0062562 0.241535
0.584039 0.154559 0
0.455787 0.455787 0.455787
0.61474 0.61323 0.611444
0 0.0920577 0.208911
0.0898451 0.108949 0.145388
0.555444 0.196277 0
0.461616 0.461616 0.461616
0.814298 0.61976 0.402609
0 0.44712 0.320256
0.0555276 0.458793 0.312123
0.388342 0.454078 0.254246
0.809888 0.532494 0.162615
0.957107 0.707408 0.366232
0.37203 0.80354 0.596002
0.409476 0.806882 0.58613
0.563775 0.807553 0.573861
0.808728 0.82475 0.585016
0.922087 0.891646 0.727916
0.959762 0.977157 0.942428
0.962631 0.978225 0.945006
0.97174 0.982025 0.954101
0.990921 0.993057 0.980301
1 1 1
0 0 0.366476
0.0019379 0 0.516823
0.399344 0.203891 0.781399
0.998444 0.450401 0.416266
1 0.608194 0.412375
0 0.0257877 0.475853
0.0177005 0.0733349 0.610117
0.406928 0.259419 0.730602
0.993912 0.45832 0.40174
1 0.630762 0.407706
0.0377813 0.355352 0.456214
0 0.432288 0.607492
0.420706 0.45745 0.522728
0.907408 0.551202 0.39324
0.993164 0.739208 0.520424
0.467323 0.823087 0.718944
0.502983 0.825971 0.713085
0.612161 0.838865 0.688945
0.841672 0.855451 0.706477
0.939223 0.913893 0.806989
0.959823 0.977188 0.942473
0.962692 0.978241 0.945052
0.971771 0.98204 0.954131
0.990936 0.993072 0.980316
1 1 1
0 0 0
0.0233768 0.0233768 0.0233768
0.23505 0.20058 0.370275
0.773068 0.536477 1
0.963165 0.747478 0.909483
0 0 0
0.0298314 0.0298314 0.0298314
0.257572 0.215625 0.424552
0.796658 0.577127 1
0.95108 0.756985 0.8934
0.218997 0.263005 0.324804
0.188785 0.322271 0.560861
0.410468 0.419074 0.945693
0.772488 0.634455 0.954284
0.928923 0.801434 0.858717
0.472831 0.835874 0.965423
0.524865 0.838499 0.957259
0.666438 0.845243 0.927581
0.867033 0.873732 0.885252
0.960586 0.933959 0.924681
0.998367 0.998978 0.999863
0.999847 0.999969 1
1 1 1
1 1 1
1 1 1
0 0 0
0.0358282 0.0358282 0.0358282
0.256184 0.251087 0.279408
0.735943 0.506172 1
0.970779 0.71603 1
0.00202945 0.00202945 0.00202945
0.0419013 0.0419013 0.0419013
0.258167 0.253452 0.279103
0.738567 0.507698 1
0.97908 0.737896 1
0.059556 0.059556 0.059556
0.113573 0.113573 0.113573
0.32665 0.290623 0.489616
0.778653 0.553826 1
0.92491 0.777676 1
0.472175 0.806424 1
0.528054 0.811185 1
0.689982 0.823438 0.999878
0.868635 0.865293 0.940536
0.94934 0.937896 0.961089
1 1 1
1 1 1
1 1 1
1 1 1
1 1 1
