public/textures/grade/Blackmagic/Gems-BMDFilm.cube
TITLE "Generated by Resolve"
LUT_3D_SIZE 9
0 0.000671397 0.00761425
0.0410468 0.000946059 0
0.146914 0.000885023 0
0.342046 0.0356756 0
0.521447 0.175875 0
0.348882 0.348882 0.348882
0.43476 0.43476 0.43476
0.500282 0.500282 0.500282
0.622797 0.613535 0.602502
0 0.0310979 0.00547799
0.015671 0.0336309 0
0.12697 0.0316472 0
0.324147 0.0556344 0
0.517037 0.180056 0
0.348547 0.348547 0.348547
0.437522 0.437522 0.437522
0.506813 0.506813 0.506813
0.69398 0.616587 0.526284
0 0.100908 0.0130465
0 0.113008 0
0.0648356 0.105516 0
0.269245 0.111925 0
0.496498 0.18526 0
0.349142 0.349142 0.349142
0.440925 0.440925 0.440925
0.521523 0.521523 0.521523
0.824155 0.62002 0.39324
0 0.239948 0.0953841
0 0.248173 0.0837262
0 0.256275 0.0416571
0.176532 0.239506 0.0180514
0.460288 0.253025 0
0.47306 0.354971 0.193683
0.465126 0.465126 0.465126
0.559258 0.559258 0.559258
0.945739 0.642451 0.303685
0 0.436622 0.2692
0 0.442344 0.267247
0 0.447456 0.258717
0.0781262 0.451011 0.229099
0.367224 0.437583 0.206058
0.648661 0.458778 0.0796521
0.785229 0.523644 0.150881
0.897993 0.604623 0.245106
0.956664 0.708537 0.368002
0.123369 0.644907 0.457557
0.145846 0.647425 0.457328
0.175631 0.649668 0.455055
0.232776 0.651942 0.443427
0.372656 0.655711 0.417899
0.610178 0.654932 0.402197
0.78114 0.684474 0.386984
0.876249 0.734661 0.428763
0.918181 0.802365 0.538399
0.372381 0.803876 0.596338
0.386358 0.804929 0.592828
0.409842 0.807218 0.58648
0.45069 0.812528 0.57171
0.564034 0.807919 0.574258
0.700999 0.805859 0.582803
0.808865 0.825086 0.585595
0.879316 0.853117 0.639506
0.922148 0.891829 0.728359
0.724361 0.901152 0.735454
0.733791 0.900847 0.738231
0.74847 0.900572 0.742641
0.773648 0.90045 0.749966
0.810864 0.902464 0.761227
0.856703 0.909422 0.778164
0.901762 0.922972 0.804669
0.938735 0.941741 0.847364
0.966583 0.964141 0.905989
0.959747 0.977157 0.942412
0.960845 0.977554 0.943374
0.962615 0.97821 0.944991
0.966018 0.979553 0.948226
0.971725 0.98201 0.954086
0.980423 0.986435 0.964614
0.990921 0.993057 0.980285
1 1 1
1 1 1
0 0 0.0819715
0.018143 0.00204471 0.0819867
0.126131 0.0224155 0.0400092
0.349248 0.0300298 0
0.523629 0.165789 0
0.34876 0.34876 0.34876
0.434775 0.434775 0.434775
0.500069 0.500069 0.500069
0.619425 0.613352 0.606119
0 0.0279698 0.0845655
0.0239872 0.0340581 0.054139
0.129229 0.0368505 0.0172274
0.327993 0.0652781 0
0.528176 0.176959 0
0.351904 0.351904 0.351904
0.437324 0.437324 0.437324
0.506432 0.506432 0.506432
0.690288 0.616449 0.530205
0 0.10367 0.0704662
0 0.110369 0.0520485
0.0743572 0.109758 0.0209659
0.276799 0.117968 0
0.518563 0.192248 0
0.353262 0.353262 0.353262
0.440803 0.440803 0.440803
0.52108 0.52108 0.52108
0.820691 0.619913 0.396521
0 0.242954 0.125902
0 0.250858 0.115648
0 0.258259 0.0779431
0.184588 0.244175 0.042359
0.466712 0.256474 0
0.472923 0.355566 0.196063
0.464576 0.464576 0.464576
0.558709 0.558709 0.558709
0.945068 0.642023 0.303838
0 0.436149 0.268986
0 0.44152 0.266484
0 0.446464 0.257618
0.0780346 0.450111 0.227832
0.367849 0.436591 0.204273
0.649119 0.457908 0.0772106
0.783948 0.52314 0.151369
0.897581 0.604135 0.244831
0.956832 0.708125 0.367346
0.123079 0.644511 0.457145
0.145693 0.647089 0.456977
0.175433 0.649302 0.454673
0.232502 0.65156 0.443
0.372778 0.655238 0.417533
0.610239 0.654536 0.401572
0.781231 0.684092 0.386465
0.876326 0.734356 0.42829
0.918242 0.802152 0.537987
0.372259 0.803754 0.596216
0.386236 0.804807 0.592706
0.409705 0.807095 0.586343
0.450599 0.812436 0.571588
0.563928 0.807782 0.574105
0.700908 0.805722 0.58262
0.80882 0.824964 0.585382
0.879286 0.85301 0.639277
0.922118 0.891752 0.728176
0.7243 0.901106 0.735363
0.73373 0.900801 0.73814
0.748394 0.900526 0.74255
0.773587 0.900404 0.749889
0.810803 0.902419 0.761135
0.856657 0.909392 0.778088
0.901732 0.922942 0.804578
0.938704 0.941711 0.847272
0.966567 0.964111 0.905913
0.959747 0.977157 0.942412
0.960861 0.977554 0.943374
0.962631 0.97821 0.944991
0.966018 0.979553 0.948241
0.97174 0.98201 0.954101
0.980423 0.986435 0.964614
0.990921 0.993057 0.980301
1 1 1
1 1 1
0 0 0.223758
0.0127413 0 0.218662
0.0699016 0.0062562 0.241535
0.295109 0.10454 0.150759
0.584039 0.154559 0
0.366552 0.366552 0.366552
0.455787 0.455787 0.455787
0.50631 0.50631 0.50631
0.61474 0.61323 0.611444
0 0.00822461 0.20943
0.0115053 0.0232395 0.200305
0.0818036 0.0408026 0.209964
0.307134 0.0996872 0.114366
0.581796 0.173983 0
0.379156 0.370672 0.36289
0.458534 0.458534 0.458534
0.512245 0.512245 0.512245
0.685328 0.616297 0.535531
0 0.0920577 0.208911
0 0.100603 0.202014
0.0898451 0.108949 0.145388
0.278325 0.125551 0.0731975
0.555444 0.196277 0
0.436667 0.364187 0.293202
0.461616 0.461616 0.461616
0.524971 0.524971 0.524971
0.814298 0.61976 0.402609
0 0.243748 0.206119
0 0.246876 0.199039
0.0442054 0.252506 0.179919
0.196429 0.250095 0.141451
0.485344 0.266667 0
0.571374 0.366323 0.129427
0.484581 0.484581 0.484581
0.557916 0.557916 0.557916
0.943877 0.641291 0.304143
0 0.44712 0.320256
0 0.453483 0.319219
0.0555276 0.458793 0.312123
0.14049 0.462242 0.287831
0.388342 0.454078 0.254246
0.670726 0.475395 0.139605
0.809888 0.532494 0.162615
0.896864 0.603296 0.244388
0.957107 0.707408 0.366232
0.142412 0.652537 0.470634
0.162783 0.655009 0.470207
0.189517 0.656657 0.467079
0.245258 0.658412 0.453605
0.380774 0.660243 0.424521
0.611673 0.655116 0.402029
0.781399 0.683452 0.38555
0.876463 0.733837 0.427451
0.918334 0.801785 0.53727
0.37203 0.80354 0.596002
0.386007 0.804593 0.592477
0.409476 0.806882 0.58613
0.450431 0.812253 0.571359
0.563775 0.807553 0.573861
0.700771 0.805508 0.5823
0.808728 0.82475 0.585016
0.879225 0.852811 0.63888
0.922087 0.891646 0.727916
0.724193 0.901045 0.73521
0.733623 0.900725 0.738003
0.748287 0.90045 0.742397
0.77348 0.900328 0.749737
0.810712 0.902358 0.760983
0.85658 0.909316 0.777951
0.901656 0.922881 0.804395
0.938659 0.941649 0.847105
0.966522 0.964065 0.905776
0.959762 0.977157 0.942428
0.960861 0.977554 0.943389
0.962631 0.978225 0.945006
0.966018 0.979568 0.948241
0.97174 0.982025 0.954101
0.980423 0.986435 0.96463
0.990921 0.993057 0.980301
1 1 1
1 1 1
0 0 0.444999
0 0 0.445396
0.0582284 0 0.452186
0.202625 0.0520027 0.493462
0.524071 0.269581 0.34316
0.685374 0.337041 0.182193
0.48574 0.48574 0.48574
0.545098 0.545098 0.545098
0.709178 0.623667 0.533669
0 0 0.432837
0 0.0049897 0.43209
0.0736248 0.0290684 0.432456
0.212848 0.0962997 0.470741
0.530282 0.266346 0.322988
0.710155 0.339422 0.164141
0.490593 0.490593 0.490593
0.550896 0.550896 0.550896
0.786725 0.624277 0.457511
0 0.0451209 0.398322
0 0.0668956 0.394766
0.0623484 0.0923781 0.383627
0.20705 0.139757 0.406485
0.531914 0.246876 0.26891
0.72697 0.340673 0.134234
0.494453 0.494453 0.494453
0.563897 0.563897 0.563897
0.890074 0.628214 0.365103
0 0.214786 0.39321
0 0.231952 0.400595
0 0.240299 0.379095
0.215564 0.246265 0.302724
0.490654 0.272358 0.204715
0.739345 0.356512 0.0909895
0.597467 0.498634 0.407172
0.6972 0.582544 0.468086
0.968582 0.653117 0.317128
0 0.442939 0.384543
0.059144 0.447425 0.38381
0.124819 0.453529 0.37882
0.192294 0.457633 0.360418
0.396918 0.45864 0.319188
0.692912 0.483223 0.221729
0.866331 0.546899 0.217685
0.943389 0.628275 0.292607
0.960662 0.714687 0.382925
0.195819 0.666621 0.523201
0.212482 0.669642 0.52311
0.235523 0.672175 0.520699
0.288472 0.675242 0.508949
0.394842 0.687068 0.468467
0.639841 0.681834 0.45478
0.80827 0.709422 0.435508
0.891234 0.753521 0.473533
0.918547 0.801022 0.53579
0.4056 0.818128 0.621607
0.419715 0.81915 0.618372
0.443381 0.821439 0.612787
0.484199 0.826459 0.59971
0.589029 0.822019 0.601022
0.719463 0.818769 0.609476
0.817411 0.832456 0.604623
0.879103 0.85243 0.638071
0.922042 0.891402 0.727382
0.723949 0.900893 0.734905
0.733394 0.900572 0.737682
0.748058 0.900313 0.742077
0.773251 0.900175 0.749401
0.810498 0.902205 0.760662
0.856397 0.909178 0.777584
0.901503 0.922728 0.804028
0.938537 0.941512 0.846754
0.966415 0.963943 0.905486
0.959777 0.977172 0.942443
0.960876 0.977554 0.943404
0.962646 0.978225 0.945022
0.966033 0.979568 0.948257
0.971756 0.982025 0.954116
0.980438 0.98645 0.964645
0.990921 0.993057 0.980301
1 1 1
1 1 1
0 0 0.366476
0 0 0.420554
0.0019379 0 0.516823
0.155291 0.0306554 0.642893
0.399344 0.203891 0.781399
0.724971 0.466896 0.589319
0.998444 0.450401 0.416266
0.915007 0.543252 0.441932
1 0.608194 0.412375
0 0 0.39028
0 0 0.4533
0.0131533 0.012604 0.549462
0.176623 0.0594186 0.675486
0.411292 0.233692 0.772473
0.726711 0.468803 0.581292
0.999329 0.454917 0.412848
0.936828 0.541344 0.429099
1 0.615732 0.408286
0 0.0257877 0.475853
0 0.0469215 0.539284
0.0177005 0.0733349 0.610117
0.198703 0.129366 0.678218
0.406928 0.259419 0.730602
0.724193 0.462776 0.558511
0.993912 0.45832 0.40174
0.972717 0.541054 0.408026
1 0.630762 0.407706
0 0.145418 0.52639
0 0.170123 0.578149
0.00694286 0.193103 0.611414
0.187076 0.224948 0.610498
0.391531 0.298924 0.642954
0.72047 0.441535 0.499702
0.972442 0.470253 0.377966
1 0.556924 0.385687
1 0.667231 0.431052
0.0377813 0.355352 0.456214
0 0.394858 0.534264
0 0.432288 0.607492
0.127565 0.448676 0.618463
0.420706 0.45745 0.522728
0.704555 0.489754 0.43621
0.907408 0.551202 0.39324
0.994461 0.633829 0.419181
0.993164 0.739208 0.520424
0.131426 0.669459 0.627909
0.16582 0.67303 0.628962
0.216114 0.675181 0.627512
0.321141 0.673762 0.616114
0.449912 0.678386 0.583154
0.647837 0.68748 0.551171
0.826993 0.716899 0.53254
0.914931 0.767117 0.575235
0.94107 0.832166 0.662028
0.467323 0.823087 0.718944
0.480385 0.824048 0.716701
0.502983 0.825971 0.713085
0.545144 0.829572 0.704814
0.612161 0.838865 0.688945
0.736919 0.838483 0.69865
0.841672 0.855451 0.706477
0.905303 0.881148 0.749157
0.939223 0.913893 0.806989
0.761761 0.923506 0.797024
0.770352 0.922866 0.79939
0.7841 0.922179 0.803494
0.80766 0.921386 0.810391
0.842649 0.922347 0.821591
0.883833 0.927764 0.836759
0.92224 0.938979 0.858167
0.950759 0.953048 0.88397
0.966232 0.963714 0.904891
0.959823 0.977188 0.942473
0.960922 0.977569 0.943435
0.962692 0.978241 0.945052
0.966079 0.979583 0.948302
0.971771 0.98204 0.954131
0.980453 0.98645 0.96466
0.990936 0.993072 0.980316
1 1 1
1 1 1
0 0 0
0 0 0
0.0208286 0.0236362 0.0699931
0.0909438 0.07187 0.289097
0.246494 0.15584 0.512489
0.616983 0.392828 0.971756
0.831815 0.61207 0.804959
1 0.633524 0.738369
1 0.646891 0.671824
0 0 0
0.00195315 0.00195315 0.00195315
0.0227665 0.0257115 0.0798047
0.0963607 0.0743725 0.303502
0.262074 0.165423 0.550896
0.629755 0.414435 0.972381
0.836896 0.617761 0.806683
1 0.633768 0.734127
1 0.651499 0.668467
0.0164034 0.0209964 0.04477
0.0296788 0.0424048 0.12047
0.0532387 0.071397 0.244663
0.149371 0.128298 0.543297
0.327581 0.208072 0.763714
0.632776 0.434119 0.956176
0.839765 0.619394 0.802274
1 0.633616 0.72343
1 0.664424 0.667979
0.0426184 0.112917 0.287251
0.0503853 0.138567 0.380118
0.0674144 0.16733 0.512978
0.170733 0.209171 0.743999
0.366506 0.267475 0.869047
0.620645 0.451881 0.909392
0.823713 0.618402 0.772412
1 0.636393 0.698833
1 0.694301 0.674159
0.211307 0.27335 0.329809
0.162951 0.309071 0.452323
0.10605 0.353277 0.632349
0.188418 0.399741 0.809476
0.408759 0.44004 0.794507
0.609476 0.521157 0.81413
0.806363 0.638056 0.714961
0.98584 0.666423 0.671489
1 0.753887 0.704326
0.198978 0.623102 0.753094
0.185367 0.642542 0.791424
0.193973 0.659998 0.824735
0.266102 0.674479 0.842542
0.444495 0.680385 0.8112
0.671336 0.694804 0.735668
0.841093 0.72755 0.704906
0.930617 0.77702 0.721019
0.958984 0.842557 0.776272
0.383841 0.842466 0.861219
0.407736 0.843107 0.859129
0.444953 0.843839 0.855131
0.511711 0.844862 0.84654
0.627817 0.844266 0.828733
0.757473 0.849271 0.806332
0.853346 0.865415 0.810651
0.918776 0.891875 0.834089
0.953414 0.92639 0.879103
0.810285 0.92604 0.899931
0.818463 0.926223 0.899351
0.827314 0.927687 0.898985
0.841596 0.930678 0.89839
0.864912 0.936156 0.89865
0.897444 0.944854 0.904265
0.937209 0.952789 0.920928
0.966537 0.96817 0.942168
0.987076 0.985656 0.972137
0.986374 0.993484 0.98526
0.987167 0.993805 0.985931
0.988464 0.994339 0.987076
0.990936 0.995438 0.989364
0.994934 0.997436 0.993423
0.999802 1 1
1 1 1
1 1 1
1 1 1
0 0 0
0 0 0
0.0233768 0.0233768 0.0233768
0.0784924 0.0784924 0.0784924
0.23505 0.20058 0.370275
0.487953 0.335149 0.845335
0.773068 0.536477 1
0.907561 0.693965 0.954635
0.963165 0.747478 0.909483
0 0 0
0 0 0
0.025803 0.025803 0.025803
0.0819715 0.0819715 0.0819715
0.236255 0.201648 0.370428
0.491051 0.3364 0.851591
0.781399 0.551705 1
0.910506 0.700343 0.956451
0.958236 0.750729 0.903227
0 0 0
0.00428779 0.00428779 0.00428779
0.0298314 0.0298314 0.0298314
0.0903334 0.0903334 0.0903334
0.257572 0.215625 0.424552
0.532158 0.363546 0.937636
0.796658 0.577127 1
0.907393 0.704875 0.950561
0.95108 0.756985 0.8934
0.0870222 0.0870222 0.0870222
0.112413 0.112413 0.112413
0.131868 0.143679 0.203067
0.190555 0.200305 0.496941
0.355138 0.27393 0.8009
0.571496 0.398306 1
0.795773 0.595621 1
0.890181 0.711818 0.92369
0.938704 0.770413 0.875883
0.218997 0.263005 0.324804
0.208026 0.287037 0.405814
0.188785 0.322271 0.560861
0.230854 0.370535 0.832502
0.410468 0.419074 0.945693
0.59324 0.485985 1
0.772488 0.634455 0.954284
0.866896 0.740688 0.877928
0.928923 0.801434 0.858717
0.491264 0.491264 0.491264
0.452247 0.518318 0.559121
0.337652 0.576761 0.750637
0.305013 0.63238 0.959167
0.490074 0.65539 0.932204
0.672389 0.688258 0.87924
0.790356 0.743893 0.885481
0.876081 0.80975 0.855131
0.942794 0.859449 0.870069
0.472831 0.835874 0.965423
0.49279 0.836789 0.962341
0.524865 0.838499 0.957259
0.581048 0.841031 0.946578
0.666438 0.845243 0.927581
0.771862 0.855116 0.903929
0.867033 0.873732 0.885252
0.92697 0.90042 0.895613
0.960586 0.933959 0.924681
0.816739 0.937148 0.955612
0.822354 0.937804 0.955001
0.831296 0.938903 0.954086
0.847227 0.940871 0.952392
0.873503 0.944778 0.950545
0.908629 0.951247 0.950088
0.947127 0.960479 0.953857
0.97319 0.974365 0.968002
0.992233 0.991058 0.987915
0.998367 0.998978 0.999863
0.998962 0.999344 1
0.999847 0.999969 1
1 1 1
1 1 1
1 1 1
1 1 1
1 1 1
1 1 1
0 0 0
0 0 0
0.0255894 0.0255894 0.0255894
0.0805982 0.0805982 0.0805982
0.243641 0.227924 0.313497
0.402777 0.338186 0.569421
0.752346 0.507973 1
0.901442 0.65182 1
0.951995 0.746487 1
0 0 0
0.00218204 0.00218204 0.00218204
0.0278935 0.0278935 0.0278935
0.0840009 0.0840009 0.0840009
0.244404 0.228733 0.31342
0.406073 0.339651 0.577066
0.753033 0.508476 1
0.905638 0.660426 1
0.947753 0.75024 1
0 0 0
0.00668345 0.00668345 0.00668345
0.0319524 0.0319524 0.0319524
0.0898756 0.0898756 0.0898756
0.245869 0.23032 0.313176
0.411688 0.342153 0.590051
0.754452 0.509529 1
0.900084 0.669978 1
0.940078 0.756893 1
0.0024567 0.0024567 0.0024567
0.0195926 0.0195926 0.0195926
0.0471809 0.0471809 0.0471809
0.121294 0.121294 0.121294
0.282292 0.251774 0.419318
0.48397 0.372457 0.785672
0.777157 0.548318 1
0.897002 0.686656 1
0.926513 0.772396 0.99057
0.217685 0.220752 0.227573
0.220203 0.240528 0.289845
0.222278 0.273304 0.433127
0.267933 0.319631 0.723598
0.424887 0.375998 0.961685
0.581842 0.446799 1
0.773861 0.60116 1
0.871794 0.720821 1
0.907393 0.805371 0.947723
0.425208 0.494285 0.553506
0.356924 0.533165 0.70489
0.306859 0.573541 0.889555
0.357519 0.604852 0.997711
0.509361 0.633005 0.985641
0.677363 0.671336 0.955825
0.786007 0.727947 0.973495
0.86688 0.803693 0.939818
0.913176 0.869963 0.92575
0.467567 0.825315 1
0.488426 0.827131 1
0.521874 0.82916 1
0.581674 0.832624 1
0.674922 0.838712 0.99144
0.7888 0.85098 0.945998
0.869932 0.874006 0.924468
0.916838 0.906035 0.937179
0.951995 0.941405 0.950256
0.84419 0.938476 0.977188
0.84918 0.939208 0.97644
0.857237 0.940444 0.975235
0.871397 0.942702 0.973205
0.894347 0.946975 0.970489
0.923812 0.95404 0.968704
0.953826 0.964721 0.971115
0.978286 0.978317 0.979706
0.994934 0.994446 0.995331
1 1 1
1 1 1
1 1 1
1 1 1
1 1 1
1 1 1
1 1 1
1 1 1
1 1 1
0 0 0
0.0107118 0.0107118 0.0107118
0.0358282 0.0358282 0.0358282
0.0955978 0.0955978 0.0955978
0.256184 0.251087 0.279408
0.384985 0.35288 0.470085
0.735943 0.506172 1
0.900908 0.640986 1
0.970779 0.71603 1
0 0 0
0.0132448 0.0132448 0.0132448
0.0381018 0.0381018 0.0381018
0.0990921 0.0990921 0.0990921
0.256962 0.252003 0.279316
0.388006 0.354406 0.476967
0.736904 0.506737 1
0.901076 0.641169 1
0.971908 0.717617 1
0.00202945 0.00202945 0.00202945
0.0175479 0.0175479 0.0175479
0.0419013 0.0419013 0.0419013
0.105653 0.105653 0.105653
0.258167 0.253452 0.279103
0.393149 0.35697 0.48864
0.738567 0.507698 1
0.901381 0.641505 1
0.97908 0.737896 1
0.0115663 0.0115663 0.0115663
0.0263066 0.0263066 0.0263066
0.0501259 0.0501259 0.0501259
0.11931 0.11931 0.11931
0.260884 0.256672 0.279026
0.403037 0.361807 0.511208
0.741955 0.509712 1
0.902022 0.642191 1
0.952163 0.7402 1
0.059556 0.059556 0.059556
0.0772564 0.0772564 0.0772564
0.113573 0.113573 0.113573
0.204456 0.204456 0.204456
0.32665 0.290623 0.489616
0.507347 0.398138 0.813291
0.778653 0.553826 1
0.894728 0.685573 1
0.92491 0.777676 1
0.293919 0.465705 0.738979
0.290623 0.482307 0.827085
0.308644 0.50161 0.919341
0.376165 0.526864 1
0.51284 0.561013 1
0.661906 0.606561 1
0.783139 0.687434 1
0.866773 0.775677 0.995651
0.910613 0.851637 0.958709
0.472175 0.806424 1
0.492256 0.80827 1
0.528054 0.811185 1
0.592187 0.815641 1
0.689982 0.823438 0.999878
0.793576 0.840162 0.954055
0.868635 0.865293 0.940536
0.913512 0.899245 0.952804
0.94934 0.937896 0.961089
0.850034 0.939239 0.990433
0.854856 0.940002 0.989563
0.862135 0.9411 0.988174
0.876234 0.943587 0.985779
0.898238 0.94789 0.982269
0.926879 0.954833 0.978653
0.957305 0.965805 0.977386
0.979797 0.979965 0.983841
0.996445 0.996307 0.99704
1 1 1
1 1 1
1 1 1
1 1 1
1 1 1
1 1 1
1 1 1
1 1 1
1 1 1
