public/textures/grade/Blackmagic/Guardians-BMDFilm.cube
TITLE "Generated by Resolve"
LUT_3D_SIZE 9
0.00030518 0.00880446 0.00535592
0.0930953 0 0
0.205188 0 0
0.350896 0 0
0.522972 0 0
0.700465 0.019089 0
0.852842 0.106188 0
0.962432 0.248615 0
1 0.433722 0
0 0.079469 0
0.0769055 0.0750591 0
0.193683 0.0670329 0
0.33991 0.0607309 0
0.509972 0.0635386 0
0.685527 0.0904402 0
0.8392 0.159808 0
0.952895 0.283055 0
1 0.452323 0
0 0.175891 0
0.0573281 0.174731 0
0.169375 0.169757 0
0.317327 0.163531 0
0.487877 0.163104 0
0.663325 0.180819 0
0.82002 0.232792 0
0.939162 0.333394 0
1 0.481575 0
0 0.304601 0
0.0536812 0.304448 0
0.153201 0.302739 0
0.29221 0.298466 0
0.459373 0.296574 0
0.633906 0.306355 0
0.792538 0.340887 0
0.917906 0.41445 0
1 0.532036 0
0.0324865 0.458213 0
0.0917525 0.458595 0
0.171435 0.458442 0
0.289174 0.456199 0
0.440864 0.454475 0
0.606897 0.458915 0
0.763439 0.479652 0
0.892958 0.527077 0
0.98967 0.61033 0.00737011
0.157259 0.62269 0
0.194919 0.622812 0
0.249134 0.622385 0
0.337011 0.621469 0
0.459113 0.620295 0
0.603693 0.621744 0
0.747997 0.632502 0
0.87396 0.660609 0
0.97406 0.712535 0.0374609
0.340505 0.778881 0
0.360601 0.778515 0
0.391974 0.778134 0
0.447028 0.777279 0
0.530968 0.775921 0
0.640864 0.776211 0.00604257
0.760983 0.78114 0.0231327
0.873381 0.795789 0.0487678
0.968048 0.825223 0.0867781
0.54905 0.912795 0.0735637
0.558404 0.912566 0.0745251
0.573449 0.912215 0.0760815
0.601633 0.911238 0.0784924
0.649332 0.91017 0.0833753
0.719875 0.909545 0.0917983
0.806363 0.91075 0.104509
0.896452 0.917418 0.124651
0.977905 0.932891 0.154162
0.745007 1 0.186572
0.748821 1 0.186877
0.754986 1 0.187457
0.767239 1 0.18851
0.789166 1 0.19028
0.825772 1 0.193896
0.87808 1 0.200504
0.940307 1 0.211414
1 1 0.228473
0 0.00210575 0.113161
0.0822614 0 0.093904
0.199954 0 0.0656291
0.348989 0 0.0344396
0.523339 0 0
0.701839 0.0173037 0
0.853468 0.10338 0
0.962814 0.24683 0
1 0.432837 0
0 0.0740215 0.0791943
0.061799 0.0751049 0.0738537
0.197894 0.0638743 0.0463722
0.34258 0.0589456 0.0230564
0.512489 0.0627756 0
0.687297 0.0900282 0
0.839948 0.157488 0
0.953155 0.281514 0
1 0.451423 0
0 0.174304 0.0279088
0.0574502 0.175204 0.0258946
0.17261 0.170275 0.0161288
0.322621 0.164248 0
0.491722 0.164477 0
0.665644 0.181247 0
0.820294 0.231022 0
0.939544 0.332052 0
1 0.480781 0
0 0.305806 0
0.0578622 0.306386 0
0.156573 0.304585 0
0.296269 0.300465 0
0.462364 0.297658 0
0.634455 0.305562 0
0.792874 0.339651 0
0.918166 0.413489 0
1 0.531518 0
0.0332189 0.457633 0
0.0921492 0.457877 0
0.171771 0.457649 0
0.289601 0.455528 0
0.441215 0.453803 0
0.60708 0.458152 0
0.76347 0.478996 0
0.893095 0.526467 0
0.989776 0.609903 0.00727855
0.157443 0.622309 0
0.195148 0.622492 0
0.249332 0.622065 0
0.337102 0.621088 0
0.45919 0.619928 0
0.603738 0.621378 0
0.748012 0.632166 0
0.87396 0.660319 0
0.97409 0.712276 0.0373693
0.340612 0.778744 0
0.360647 0.778347 0
0.392065 0.777996 0
0.447074 0.777111 0
0.530999 0.775753 0
0.640879 0.776043 0.00598154
0.760983 0.780987 0.0230716
0.873381 0.795651 0.0486915
0.968048 0.825101 0.0867018
0.549065 0.912734 0.073518
0.558419 0.91249 0.074464
0.573465 0.912154 0.0760357
0.601648 0.911177 0.0784466
0.649348 0.910109 0.0833295
0.719875 0.909483 0.0917678
0.806363 0.910689 0.104463
0.896452 0.917357 0.12462
0.977905 0.93283 0.154131
0.745022 1 0.186572
0.748837 1 0.186877
0.755001 1 0.187457
0.767254 1 0.18851
0.789181 1 0.19028
0.825788 1 0.193896
0.878096 1 0.200504
0.940307 1 0.211414
1 1 0.228473
0 0 0.261494
0.0722362 0 0.246479
0.185748 0 0.218372
0.338521 0 0.179736
0.517968 0 0.138186
0.700679 0.0120394 0.0952926
0.856718 0.107195 0.0456855
0.965469 0.248814 0
1 0.431464 0
0 0.0621042 0.230121
0.0634318 0.0625162 0.221225
0.179721 0.0571145 0.198734
0.336187 0.0512398 0.165774
0.510674 0.0567636 0.130678
0.688502 0.0884718 0.0906081
0.843961 0.163073 0.0426947
0.955642 0.283024 0
1 0.449866 0
0 0.166644 0.180697
0.0493019 0.170474 0.180224
0.147814 0.17113 0.173526
0.327001 0.159869 0.136553
0.495201 0.163027 0.111971
0.669612 0.183795 0.0794232
0.825956 0.238422 0.0359197
0.94136 0.333028 0
1 0.479423 0
0 0.303883 0.116701
0.057435 0.306569 0.117739
0.154772 0.306706 0.114061
0.300023 0.302602 0.100267
0.47042 0.301778 0.0818647
0.643183 0.313405 0.0581979
0.799924 0.348333 0.0213474
0.918669 0.411917 0
1 0.530495 0
0.0452277 0.464134 0.0482185
0.102647 0.4654 0.0504921
0.181231 0.465797 0.0513008
0.299626 0.464591 0.0486
0.451789 0.462989 0.0396735
0.616632 0.467475 0.0231022
0.768872 0.484855 0
0.893324 0.525444 0
0.989929 0.60914 0.0071107
0.165286 0.626917 0
0.202472 0.626993 0
0.256229 0.626581 0
0.342672 0.624949 0
0.462959 0.622568 0
0.604501 0.621408 0
0.747982 0.631601 0
0.874037 0.65977 0
0.974151 0.711849 0.0372168
0.340764 0.7785 0
0.360739 0.778073 0
0.392187 0.777752 0
0.44712 0.776822 0
0.531014 0.775464 0
0.640879 0.775769 0.00585946
0.760998 0.780728 0.0229496
0.873396 0.795407 0.0485847
0.968063 0.824887 0.0865949
0.549096 0.912612 0.0734417
0.55845 0.912383 0.0743877
0.573495 0.912032 0.0759594
0.601663 0.911055 0.0783551
0.649348 0.909987 0.083238
0.719875 0.909377 0.0916762
0.806348 0.910582 0.104387
0.896437 0.917266 0.124544
0.97789 0.932738 0.154055
0.745052 1 0.186587
0.748882 1 0.186892
0.755016 1 0.187457
0.767285 1 0.18851
0.789212 1 0.19028
0.825803 1 0.193912
0.878111 1 0.200504
0.940322 1 0.211429
1 1 0.228473
0 0 0.46215
0.0598917 0 0.448524
0.170794 0 0.425208
0.322881 0 0.387854
0.505043 0 0.340475
0.692409 0 0.29424
0.853117 0.0957351 0.250614
0.967575 0.253147 0.199908
1 0.442084 0.0944839
0 0.0385748 0.434699
0.0590219 0.0385595 0.424414
0.167712 0.0354925 0.40499
0.319127 0.0318761 0.371954
0.499672 0.0387274 0.330755
0.682597 0.0741131 0.288182
0.841321 0.1552 0.246265
0.958694 0.289204 0.19736
1 0.460761 0.0921492
0 0.150652 0.382544
0.0489815 0.154223 0.379187
0.152575 0.154253 0.367941
0.304479 0.150515 0.342046
0.486992 0.152087 0.307652
0.666423 0.174701 0.274205
0.825101 0.234318 0.239033
0.945937 0.342016 0.193545
1 0.48954 0.0872663
0 0.294453 0.318685
0.0525673 0.298711 0.320027
0.142077 0.30132 0.317937
0.270222 0.302815 0.310277
0.474296 0.295003 0.270619
0.644892 0.309499 0.250874
0.801617 0.348699 0.225452
0.926711 0.425971 0.185824
1 0.539513 0.0763256
0.0453651 0.461463 0.25536
0.100343 0.46363 0.257465
0.176516 0.465476 0.25803
0.293614 0.465034 0.25275
0.453574 0.463462 0.239033
0.622049 0.468971 0.223713
0.775967 0.491798 0.205982
0.903044 0.540215 0.170306
0.993744 0.613764 0.0477302
0.174548 0.633036 0.201053
0.211231 0.633753 0.202869
0.264637 0.634043 0.203906
0.351415 0.633524 0.20325
0.473884 0.632746 0.199481
0.618662 0.634501 0.190784
0.761028 0.64567 0.175143
0.883406 0.671641 0.133806
0.974273 0.710933 0.0368963
0.35584 0.788464 0.116823
0.375448 0.787961 0.116823
0.406424 0.78764 0.117266
0.460472 0.786557 0.116793
0.543191 0.784955 0.113512
0.650736 0.784115 0.103349
0.766781 0.78613 0.0748455
0.873396 0.794888 0.0483253
0.968078 0.824445 0.0863661
0.549157 0.912367 0.0732738
0.558511 0.912139 0.0742199
0.573541 0.911788 0.0757916
0.601694 0.910811 0.0781872
0.649363 0.909758 0.0830701
0.71986 0.909148 0.0915236
0.806332 0.910353 0.104219
0.896406 0.917052 0.124392
0.977874 0.932555 0.153933
0.745113 1 0.186587
0.748943 1 0.186892
0.755093 1 0.187472
0.76733 1 0.188525
0.789258 1 0.190295
0.825849 1 0.193912
0.878126 1 0.200504
0.940322 1 0.211429
1 1 0.228473
0 0 0.700587
0.046891 0 0.687312
0.155825 0 0.665736
0.305806 0 0.632441
0.489845 0 0.588693
0.68098 0 0.536095
0.846479 0.0656443 0.490196
0.962875 0.237476 0.447883
1 0.440543 0.400488
0 0 0.683909
0.0537423 0 0.67097
0.159564 0 0.650416
0.306218 0 0.61767
0.485817 0 0.573999
0.672816 0.0407568 0.526665
0.835416 0.131502 0.483192
0.954696 0.276265 0.444541
1 0.460151 0.399069
0 0.120653 0.623087
0.0482795 0.123766 0.61648
0.150912 0.124163 0.603861
0.294286 0.123201 0.580392
0.471595 0.127672 0.54583
0.656901 0.152972 0.507301
0.819654 0.217243 0.471412
0.942336 0.332082 0.438544
1 0.49041 0.396414
0 0.275975 0.549294
0.0530098 0.280232 0.548135
0.144259 0.283009 0.543191
0.276768 0.28368 0.530465
0.451728 0.284367 0.505501
0.6365 0.296925 0.476936
0.797848 0.338476 0.452995
0.923751 0.419303 0.429007
1 0.542672 0.392294
0.0447089 0.451804 0.483238
0.0974594 0.454627 0.484443
0.170352 0.457557 0.484764
0.279713 0.459876 0.481971
0.423545 0.46244 0.475029
0.624887 0.461128 0.441199
0.775982 0.486168 0.430762
0.902098 0.537438 0.416648
0.996628 0.621988 0.384451
0.171771 0.629862 0.437797
0.206638 0.630808 0.438895
0.258274 0.631586 0.439582
0.343084 0.632181 0.439429
0.465385 0.631846 0.434379
0.617563 0.632425 0.422202
0.762432 0.643656 0.412909
0.884688 0.67245 0.402579
0.981445 0.724178 0.370077
0.357076 0.790021 0.405814
0.376562 0.789639 0.405722
0.407279 0.789517 0.406104
0.461097 0.788693 0.405829
0.544289 0.787305 0.403296
0.654261 0.787182 0.39855
0.773358 0.791638 0.391135
0.883284 0.806119 0.376455
0.975128 0.834592 0.32845
0.563333 0.921386 0.318135
0.572534 0.921141 0.318013
0.58732 0.92076 0.3178
0.61503 0.919707 0.316304
0.661784 0.918395 0.313481
0.73106 0.917494 0.307256
0.815946 0.918456 0.292165
0.903349 0.923964 0.251026
0.977829 0.932174 0.153628
0.745266 1 0.186603
0.749081 1 0.186892
0.755215 1 0.187472
0.767452 1 0.18854
0.789364 1 0.190311
0.82591 1 0.193912
0.878172 1 0.200504
0.940352 1 0.211429
1 1 0.228473
0 0 0.945602
0.0366522 0 0.932143
0.143984 0 0.911238
0.291371 0 0.879728
0.473732 0 0.838331
0.67097 0 0.792111
0.84271 0 0.737255
0.960906 0.201282 0.689006
1 0.424109 0.651072
0 0 0.943053
0.0489662 0 0.929122
0.152575 0 0.908721
0.297078 0 0.877684
0.474968 0 0.831266
0.665705 0 0.77731
0.832334 0.0782025 0.726345
0.951751 0.245228 0.682185
1 0.444846 0.648356
0 0.0611124 0.884825
0.0536812 0.0626535 0.874083
0.153643 0.0626383 0.857786
0.293568 0.0630198 0.830854
0.466667 0.0716564 0.7935
0.650935 0.104387 0.750042
0.815396 0.179706 0.707774
0.939132 0.307652 0.672663
1 0.477333 0.644465
0 0.243153 0.788266
0.0584573 0.24683 0.784176
0.149157 0.24947 0.776364
0.278996 0.251148 0.760922
0.445396 0.254643 0.737377
0.626825 0.270985 0.708537
0.791974 0.315785 0.680461
0.920073 0.402564 0.657313
1 0.532128 0.637552
0.048661 0.434195 0.705684
0.101671 0.437308 0.705242
0.173953 0.440024 0.702922
0.284031 0.442435 0.696818
0.431556 0.444648 0.685023
0.605966 0.451087 0.666438
0.769238 0.474296 0.649485
0.898589 0.527337 0.638529
0.992981 0.614496 0.628443
0.172503 0.62182 0.654475
0.206989 0.623224 0.6551
0.257023 0.624353 0.654994
0.338201 0.62565 0.65388
0.453086 0.627298 0.650935
0.592752 0.630945 0.646097
0.763897 0.636179 0.623499
0.883345 0.666163 0.622705
0.978073 0.7187 0.619547
0.352773 0.786542 0.633829
0.372107 0.786542 0.634043
0.401541 0.786419 0.634165
0.453254 0.785794 0.633738
0.534646 0.785229 0.632349
0.644907 0.784695 0.627665
0.770214 0.787701 0.619196
0.881056 0.801465 0.615686
0.97145 0.830259 0.611261
0.557565 0.918273 0.619165
0.566735 0.917983 0.618952
0.581399 0.917586 0.618662
0.608988 0.916533 0.617594
0.656016 0.915129 0.615824
0.726055 0.913649 0.612787
0.812253 0.91397 0.607492
0.900359 0.919646 0.60116
0.979217 0.934401 0.587366
0.751507 1 0.531563
0.755276 1 0.531228
0.761334 1 0.530694
0.773404 1 0.529595
0.794965 1 0.527138
0.830869 1 0.522011
0.882277 1 0.512749
0.943236 1 0.492134
1 1 0.438254
0 0 1
0.0348821 0 1
0.138949 0 1
0.283375 0 1
0.462882 0 1
0.658747 0 1
0.844709 0 0.97203
0.970108 0.111421 0.906935
1 0.387961 0.854505
0 0 1
0.0467994 0 1
0.14728 0 1
0.288609 0 1
0.465858 0 1
0.659953 0 1
0.839109 0 0.958434
0.959487 0.171405 0.895598
1 0.412131 0.84976
0 0 1
0.0662394 0 1
0.161349 0 1
0.296559 0 1
0.469764 0 1
0.656397 0 0.986954
0.822934 0.0859693 0.92961
0.944396 0.251591 0.879286
1 0.449134 0.843091
0.00746166 0.172076 1
0.0750744 0.174655 1
0.163012 0.176852 1
0.29044 0.178912 0.984863
0.45243 0.185672 0.955962
0.630289 0.208499 0.920867
0.794156 0.264607 0.885267
0.921798 0.366308 0.854398
1 0.510826 0.831907
0.0610056 0.402289 0.906661
0.112825 0.405173 0.90425
0.184009 0.407828 0.899611
0.293034 0.410391 0.890837
0.438071 0.413886 0.876005
0.604517 0.423468 0.85716
0.765591 0.450736 0.839368
0.896727 0.507698 0.825986
0.99176 0.600687 0.817456
0.180804 0.608316 0.835782
0.214206 0.6094 0.835096
0.263401 0.610788 0.833799
0.344274 0.61239 0.830716
0.458808 0.613809 0.824567
0.600748 0.617395 0.816098
0.751095 0.628336 0.806775
0.879347 0.656855 0.80206
0.975906 0.710658 0.803662
0.356237 0.78143 0.809247
0.374319 0.781277 0.808804
0.403403 0.781369 0.808392
0.453651 0.781186 0.807233
0.532113 0.780926 0.805127
0.636622 0.781582 0.802243
0.75375 0.786099 0.80029
0.881483 0.79556 0.790417
0.969268 0.824491 0.796033
0.55433 0.91548 0.808087
0.563241 0.915236 0.807889
0.5776 0.914885 0.807584
0.604074 0.91397 0.806683
0.649668 0.912566 0.805173
0.717723 0.910948 0.802747
0.804791 0.91075 0.799588
0.896849 0.914961 0.795514
0.975128 0.928496 0.795941
0.742611 1 0.804837
0.746349 1 0.804608
0.752377 1 0.804273
0.764431 1 0.803555
0.78613 1 0.802106
0.822507 1 0.79968
0.874281 1 0.795605
0.9355 1 0.790799
0.995407 1 0.784298
0 0 1
0.0488289 0 1
0.146273 0 1
0.284916 0 1
0.45948 0 1
0.652277 0 1
0.837293 0 1
0.994629 0 1
1 0.289067 1
0 0 1
0.0598306 0 1
0.154284 0 1
0.289937 0 1
0.462531 0 1
0.653788 0 1
0.837964 0 1
0.990509 0 1
1 0.325292 1
0.00898756 0 1
0.0779126 0 1
0.167636 0 1
0.298802 0 1
0.467704 0 1
0.656367 0 1
0.839094 0 1
0.973083 0.0730144 1
1 0.377584 1
0.0510567 0 1
0.110689 0 1
0.192523 0 1
0.315908 0 1
0.47744 0 1
0.655909 0.00030518 1
0.818128 0.107988 1
0.940261 0.267567 1
1 0.459968 0.985992
0.0888838 0.325429 1
0.138064 0.327749 1
0.206775 0.33019 1
0.312688 0.33286 1
0.454902 0.338231 1
0.617807 0.352972 1
0.775296 0.389563 0.999146
0.904418 0.460838 0.97734
0.997208 0.570443 0.961349
0.196399 0.580697 0.982101
0.229023 0.582101 0.980789
0.277134 0.583429 0.978164
0.355764 0.584909 0.973007
0.469474 0.587045 0.964874
0.60856 0.59205 0.954116
0.753002 0.606012 0.944015
0.879881 0.638331 0.938537
0.977234 0.696071 0.938521
0.365713 0.772183 0.938613
0.383841 0.77232 0.938048
0.411612 0.772229 0.936873
0.461219 0.772137 0.934768
0.538781 0.772229 0.93138
0.642222 0.772747 0.92636
0.760281 0.777096 0.922118
0.875441 0.790082 0.920943
0.968215 0.818112 0.925597
0.558541 0.912581 0.933364
0.567102 0.912367 0.933074
0.581155 0.911971 0.93254
0.606867 0.91107 0.931334
0.651301 0.909758 0.929381
0.717556 0.908492 0.926848
0.800778 0.908736 0.924666
0.88922 0.913252 0.924712
0.97464 0.924468 0.924819
0.740795 1 0.943053
0.744427 1 0.942855
0.750301 1 0.94255
0.761639 1 0.941772
0.783108 1 0.940642
0.818509 1 0.938674
0.869734 1 0.936248
0.931716 1 0.933928
0.992584 1 0.932296
0.0218509 0 1
0.0871138 0 1
0.173678 0 1
0.301274 0 1
0.466987 0 1
0.654063 0 1
0.835737 0 1
0.991653 0 1
1 0 1
0.0339971 0 1
0.0965591 0 1
0.181109 0 1
0.306249 0 1
0.469856 0 1
0.655543 0 1
0.836316 0 1
0.991913 0 1
1 0 1
0.0533913 0 1
0.112413 0 1
0.192905 0 1
0.314321 0 1
0.474784 0 1
0.658015 0 1
0.83714 0 1
0.99234 0 1
1 0.0512703 1
0.0902571 0 1
0.142794 0 1
0.216648 0 1
0.330953 0 1
0.484504 0 1
0.662699 0 1
0.839368 0 1
0.99324 0 1
1 0.275227 1
0.155993 0 1
0.199863 0 1
0.263157 0 1
0.364218 0 1
0.504112 0.0084535 1
0.665492 0.0577707 1
0.819104 0.152682 1
0.938918 0.298283 1
1 0.479561 1
0.224613 0.50576 1
0.254902 0.506676 1
0.300542 0.508003 1
0.376837 0.510185 1
0.48777 0.51342 1
0.625055 0.521767 1
0.766888 0.542504 1
0.890944 0.585061 1
0.986007 0.657313 1
0.380835 0.750698 1
0.397864 0.750546 1
0.424964 0.750805 1
0.472892 0.750835 1
0.548531 0.750942 1
0.650797 0.752316 1
0.767102 0.758114 1
0.878492 0.773434 1
0.97084 0.804303 1
0.567498 0.906996 1
0.575921 0.906752 1
0.588968 0.906218 1
0.614466 0.905547 1
0.657633 0.904402 1
0.722774 0.903212 1
0.805295 0.903502 1
0.8934 0.908095 1
0.974105 0.920439 1
0.744625 1 1
0.747967 1 1
0.753872 1 1
0.764858 1 1
0.785779 1 1
0.820401 1 1
0.870604 1 1
0.931105 1 1
0.992615 1 1
