public/textures/grade/Blackmagic/Guardians-BMDFilm.cube
TITLE "Generated by Resolve"
LUT_3D_SIZE 5
0.00030518 0.00880446 0.00535592
0.205188 0 0
0.522972 0 0
0.852842 0.106188 0
1 0.433722 0
0 0.175891 0
0.169375 0.169757 0
0.487877 0.163104 0
0.82002 0.232792 0
1 0.481575 0
0.0324865 0.458213 0
0.171435 0.458442 0
0.440864 0.454475 0
0.763439 0.479652 0
0.98967 0.61033 0.00737011
0.340505 0.778881 0
0.391974 0.778134 0
0.530968 0.775921 0
0.760983 0.78114 0.0231327
0.968048 0.825223 0.0867781
0.745007 1 0.186572
0.754986 1 0.187457
0.789166 1 0.19028
0.87808 1 0.200504
1 1 0.228473
0 0 0.261494
0.185748 0 0.218372
0.517968 0 0.138186
0.856718 0.107195 0.0456855
1 0.431464 0
0 0.166644 0.180697
0.147814 0.17113 0.173526
0.495201 0.163027 0.111971
0.825956 0.238422 0.0359197
1 0.479423 0
0.0452277 0.464134 0.0482185
0.181231 0.465797 0.0513008
0.451789 0.462989 0.0396735
0.768872 0.484855 0
0.989929 0.60914 0.0071107
0.340764 0.7785 0
0.392187 0.777752 0
0.531014 0.775464 0
0.760998 0.780728 0.0229496
0.968063 0.824887 0.0865949
0.745052 1 0.186587
0.755016 1 0.187457
0.789212 1 0.19028
0.878111 1 0.200504
1 1 0.228473
0 0 0.700587
0.155825 0 0.665736
0.489845 0 0.588693
0.846479 0.0656443 0.490196
1 0.440543 0.400488
0 0.120653 0.623087
0.150912 0.124163 0.603861
0.471595 0.127672 0.54583
0.819654 0.217243 0.471412
1 0.49041 0.396414
0.0447089 0.451804 0.483238
0.170352 0.457557 0.484764
0.423545 0.46244 0.475029
0.775982 0.486168 0.430762
0.996628 0.621988 0.384451
0.357076 0.790021 0.405814
0.407279 0.789517 0.406104
0.544289 0.787305 0.403296
0.773358 0.791638 0.391135
0.975128 0.834592 0.32845
0.745266 1 0.186603
0.755215 1 0.187472
0.789364 1 0.190311
0.878172 1 0.200504
1 1 0.228473
0 0 1
0.138949 0 1
0.462882 0 1
0.844709 0 0.97203
1 0.387961 0.854505
0 0 1
0.161349 0 1
0.469764 0 1
0.822934 0.0859693 0.92961
1 0.449134 0.843091
0.0610056 0.402289 0.906661
0.184009 0.407828 0.899611
0.438071 0.413886 0.876005
0.765591 0.450736 0.839368
0.99176 0.600687 0.817456
0.356237 0.78143 0.809247
0.403403 0.781369 0.808392
0.532113 0.780926 0.805127
0.75375 0.786099 0.80029
0.969268 0.824491 0.796033
0.742611 1 0.804837
0.752377 1 0.804273
0.78613 1 0.802106
0.874281 1 0.795605
0.995407 1 0.784298
0.0218509 0 1
0.173678 0 1
0.466987 0 1
0.835737 0 1
1 0 1
0.0533913 0 1
0.192905 0 1
0.474784 0 1
0.83714 0 1
1 0.0512703 1
0.155993 0 1
0.263157 0 1
0.504112 0.0084535 1
0.819104 0.152682 1
1 0.479561 1
0.380835 0.750698 1
0.424964 0.750805 1
0.548531 0.750942 1
0.767102 0.758114 1
0.97084 0.804303 1
0.744625 1 1
0.753872 1 1
0.785779 1 1
0.870604 1 1
0.992615 1 1
