public/textures/grade/Blackmagic/Guardians-BMDFilm.cube
TITLE "Generated by Resolve"
LUT_3D_SIZE 33
0.00030518 0.00880446 0.00535592
0.0279393 0.00610361 0.000976577
0.0486458 0.00448615 0
0.0705425 0.00230411 0
0.0930953 0 0
0.118029 0 0
0.144823 0 0
0.173922 0 0
0.205188 0 0
0.238376 0 0
0.27393 0 0
0.311498 0 0
0.350896 0 0
0.392203 0 0
0.434653 0 0
0.478828 0 0
0.522972 0 0
0.568124 0 0
0.61294 0 0
0.657206 0.00544747 0
0.700465 0.019089 0
0.741817 0.0358282 0
0.781292 0.055848 0
0.818555 0.0791485 0
0.852842 0.106188 0
0.884413 0.136843 0
0.91342 0.170855 0
0.939193 0.208209 0
0.962432 0.248615 0
0.982712 0.291646 0
1 0.337301 0
1 0.384924 0
1 0.433722 0
0 0.0251926 0
0.0218967 0.0226444 0
0.04477 0.0202792 0
0.0682536 0.0180514 0
0.0918135 0.0158541 0
0.11693 0.013489 0
0.14406 0.0108949 0
0.173266 0.00825513 0
0.204379 0.00576791 0
0.237903 0.00320439 0
0.272999 0.000717174 0
0.310552 0 0
0.349752 0 0
0.390585 0 0
0.432883 0 0
0.4766 0 0
0.520684 0.0034638 0
0.565301 0.00866712 0
0.609781 0.0161746 0
0.653437 0.025742 0
0.696788 0.0383764 0
0.737987 0.0537881 0
0.777447 0.0726482 0
0.814725 0.0947738 0
0.849271 0.120256 0
0.88101 0.149432 0
0.910231 0.182101 0
0.93637 0.218143 0
0.959731 0.257313 0
0.980743 0.299306 0
0.999039 0.343954 0
1 0.390387 0
1 0.438453 0
0 0.0419776 0
0.0170748 0.0404517 0
0.0393835 0.0387732 0
0.0635843 0.0365911 0
0.0876783 0.0346532 0
0.113588 0.0326085 0
0.141115 0.0305028 0
0.170306 0.0283513 0
0.201816 0.0261997 0
0.235279 0.0242313 0
0.270466 0.0223239 0
0.307958 0.0207065 0
0.346975 0.019852 0
0.387808 0.0193332 0
0.429831 0.0198672 0
0.473442 0.0213931 0
0.517281 0.0242466 0
0.561715 0.0292363 0
0.606256 0.0357519 0
0.649943 0.0448768 0
0.692927 0.0560769 0
0.734203 0.0708324 0
0.773693 0.0885023 0
0.811215 0.1093 0
0.845731 0.13373 0
0.877974 0.161822 0
0.907423 0.193179 0
0.933837 0.228046 0
0.957519 0.266026 0
0.978607 0.30695 0
0.997284 0.350027 0
1 0.395758 0
1 0.443183 0
0 0.0604257 0
0.0115969 0.0595407 0
0.0340124 0.0583505 0
0.0578775 0.0565957 0
0.0821241 0.0547036 0
0.108476 0.0527047 0
0.136461 0.0507057 0
0.166308 0.0486763 0
0.198016 0.04654 0
0.23154 0.0445716 0
0.267094 0.0428779 0
0.304768 0.0413367 0
0.343648 0.0400092 0
0.384512 0.0395972 0
0.426612 0.0400549 0
0.469749 0.0411383 0
0.514046 0.0439002 0
0.558099 0.0480201 0
0.602426 0.0540627 0
0.646235 0.0623026 0
0.68925 0.0730602 0
0.730694 0.086656 0
0.770062 0.103334 0
0.807691 0.123095 0
0.842618 0.146426 0
0.8748 0.173419 0
0.90454 0.203479 0
0.931243 0.237186 0
0.955184 0.274083 0
0.976577 0.313909 0
0.995514 0.356435 0
1 0.401236 0
1 0.447715 0
0 0.079469 0
0.00628672 0.0789197 0
0.0292363 0.0779583 0
0.0529793 0.0766766 0
0.0769055 0.0750591 0
0.102815 0.0731823 0
0.131029 0.0711223 0
0.161517 0.0690013 0
0.193683 0.0670329 0
0.227283 0.065156 0
0.263096 0.0632639 0
0.30042 0.0618448 0
0.33991 0.0607309 0
0.380499 0.0601358 0
0.422858 0.0602274 0
0.465888 0.0612802 0
0.509972 0.0635386 0
0.554086 0.0672313 0
0.598596 0.0726329 0
0.642222 0.0804761 0
0.685527 0.0904402 0
0.726619 0.103212 0
0.766232 0.1187 0
0.804105 0.13756 0
0.8392 0.159808 0
0.871473 0.185611 0
0.901427 0.21445 0
0.928649 0.247135 0
0.952895 0.283055 0
0.974441 0.321828 0
0.993805 0.363226 0
1 0.40676 0
1 0.452323 0
0 0.10045 0
0.000762951 0.100481 0
0.0246281 0.0995804 0
0.0477607 0.0983749 0
0.0713664 0.0970016 0
0.097261 0.0953994 0
0.125628 0.0937057 0
0.155886 0.0916762 0
0.188052 0.0896925 0
0.222507 0.0877394 0
0.258473 0.0860304 0
0.295735 0.084535 0
0.335256 0.083238 0
0.376074 0.0826581 0
0.418235 0.0823835 0
0.461357 0.0831769 0
0.505623 0.0852216 0
0.549554 0.0884718 0
0.594095 0.093492 0
0.63772 0.100511 0
0.680751 0.109529 0
0.722179 0.121492 0
0.761837 0.13611 0
0.799924 0.153979 0
0.835126 0.175113 0
0.867964 0.199344 0
0.898085 0.227466 0
0.925521 0.258488 0
0.949889 0.293065 0
0.971878 0.330571 0
0.991455 0.370809 0
1 0.413474 0
1 0.458091 0
0 0.123507 0
0 0.123827 0
0.0205081 0.123033 0
0.0429236 0.122133 0
0.0658122 0.120974 0
0.0914015 0.119738 0
0.119493 0.118059 0
0.149767 0.116274 0
0.182177 0.11429 0
0.21651 0.112322 0
0.252461 0.110719 0
0.290547 0.109148 0
0.329885 0.10782 0
0.370657 0.106966 0
0.412955 0.106798 0
0.456245 0.1075 0
0.500465 0.10901 0
0.544396 0.111818 0
0.588998 0.116411 0
0.632486 0.122545 0
0.675685 0.131029 0
0.717174 0.142107 0
0.757092 0.15581 0
0.795239 0.172351 0
0.830594 0.191974 0
0.863569 0.215152 0
0.894118 0.241917 0
0.921843 0.271534 0
0.946654 0.304585 0
0.969238 0.3411 0
0.989181 0.379995 0
1 0.421393 0
1 0.464805 0
0 0.148592 0
0 0.148989 0
0.0167086 0.148333 0
0.0387579 0.147738 0
0.0614023 0.147036 0
0.086305 0.145785 0
0.113573 0.144335 0
0.143511 0.14284 0
0.175875 0.141192 0
0.210285 0.139345 0
0.246479 0.137514 0
0.284382 0.135897 0
0.323857 0.134676 0
0.36492 0.133822 0
0.407126 0.133425 0
0.450294 0.133806 0
0.494606 0.135088 0
0.538537 0.137514 0
0.583001 0.141436 0
0.626581 0.147112 0
0.669795 0.154864 0
0.711635 0.164721 0
0.751431 0.177386 0
0.789792 0.192676 0
0.82565 0.211246 0
0.858915 0.233066 0
0.889769 0.258213 0
0.917754 0.286442 0
0.94313 0.318257 0
0.965972 0.352819 0
0.986358 0.390249 0
1 0.430198 0
1 0.472358 0
0 0.175891 0
0 0.17644 0
0.0131838 0.175799 0
0.0352026 0.175402 0
0.0573281 0.174731 0
0.08159 0.173816 0
0.108476 0.172732 0
0.137713 0.171374 0
0.169375 0.169757 0
0.203525 0.168063 0
0.23978 0.1664 0
0.277974 0.164797 0
0.317327 0.163531 0
0.35845 0.162646 0
0.400732 0.162249 0
0.443793 0.162188 0
0.487877 0.163104 0
0.532006 0.165393 0
0.576638 0.168887 0
0.620233 0.173663 0
0.663325 0.180819 0
0.70515 0.189776 0
0.745571 0.201465 0
0.783963 0.215717 0
0.82002 0.232792 0
0.853529 0.253254 0
0.88455 0.276722 0
0.913115 0.303319 0
0.939162 0.333394 0
0.962203 0.366308 0
0.983139 0.40206 0
1 0.440848 0
1 0.481575 0
0 0.205081 0
0 0.205722 0
0.0111849 0.205249 0
0.0326238 0.204974 0
0.0539864 0.204379 0
0.0774395 0.203769 0
0.103746 0.203006 0
0.132525 0.201801 0
0.163897 0.20029 0
0.197299 0.198962 0
0.233173 0.197375 0
0.271015 0.19588 0
0.310536 0.194583 0
0.351751 0.193378 0
0.393622 0.192798 0
0.436942 0.192828 0
0.480873 0.193683 0
0.525124 0.195438 0
0.569314 0.198459 0
0.613367 0.202686 0
0.656458 0.208957 0
0.698512 0.216999 0
0.738811 0.227741 0
0.777188 0.24062 0
0.813779 0.256367 0
0.84744 0.275212 0
0.879042 0.297154 0
0.908141 0.32221 0
0.934508 0.350607 0
0.958053 0.381674 0
0.979644 0.41593 0
0.998856 0.452644 0
1 0.491707 0
0 0.236332 0
0 0.236957 0
0.0106661 0.236576 0
0.0315251 0.236454 0
0.0522469 0.235966 0
0.0751659 0.235615 0
0.100252 0.234867 0
0.128374 0.233814 0
0.158984 0.232959 0
0.191775 0.231662 0
0.226993 0.230152 0
0.264607 0.228534 0
0.304036 0.227436 0
0.344549 0.226551 0
0.386679 0.225864 0
0.430106 0.225498 0
0.473655 0.226108 0
0.518227 0.227527 0
0.561868 0.229923 0
0.605966 0.233722 0
0.649134 0.239353 0
0.691218 0.246555 0
0.731502 0.256138 0
0.770214 0.267887 0
0.807111 0.282551 0
0.841245 0.299855 0
0.873091 0.320104 0
0.902754 0.343343 0
0.929397 0.369589 0
0.953658 0.398962 0
0.97557 0.431434 0
0.995377 0.466148 0
1 0.503395 0
0 0.269566 0
0 0.270191 0
0.0116732 0.26978 0
0.0318608 0.269764 0
0.0517586 0.269459 0
0.074403 0.269154 0
0.0987259 0.268513 0
0.125795 0.267811 0
0.155352 0.266911 0
0.187243 0.265827 0
0.221805 0.264744 0
0.258701 0.263569 0
0.297337 0.262242 0
0.337926 0.261021 0
0.379767 0.260273 0
0.422431 0.260105 0
0.466239 0.260349 0
0.510536 0.261326 0
0.554376 0.263615 0
0.59852 0.266987 0
0.641443 0.27187 0
0.683467 0.278279 0
0.724086 0.286839 0
0.762798 0.29749 0
0.799832 0.310689 0
0.834501 0.326345 0
0.866575 0.344884 0
0.896605 0.366339 0
0.923903 0.390799 0
0.948562 0.418418 0
0.971359 0.448707 0
0.991455 0.481483 0
1 0.516838 0
0 0.304601 0
0 0.305135 0
0.0155337 0.304662 0
0.034638 0.304707 0
0.0536812 0.304448 0
0.0751354 0.304387 0
0.0985428 0.30396 0
0.124804 0.303578 0
0.153201 0.302739 0
0.184451 0.301625 0
0.218341 0.30074 0
0.254185 0.299596 0
0.29221 0.298466 0
0.332006 0.297475 0
0.373098 0.296971 0
0.415808 0.296452 0
0.459373 0.296574 0
0.502953 0.297551 0
0.547189 0.299153 0
0.590829 0.302037 0
0.633906 0.306355 0
0.675685 0.311879 0
0.716335 0.319493 0
0.755398 0.32929 0
0.792538 0.340887 0
0.827344 0.355276 0
0.859831 0.372366 0
0.890349 0.391836 0
0.917906 0.41445 0
0.943358 0.439841 0
0.966369 0.467918 0
0.987167 0.498695 0
1 0.532036 0
0 0.341314 0
0.002533 0.341558 0
0.0223392 0.341238 0
0.0402533 0.341314 0
0.0581826 0.341085 0
0.0785229 0.34107 0
0.101106 0.34078 0
0.126284 0.340444 0
0.153429 0.339864 0
0.183917 0.339269 0
0.216114 0.338323 0
0.250706 0.337285 0
0.288029 0.336538 0
0.327321 0.33547 0
0.36788 0.334722 0
0.409751 0.334218 0
0.452247 0.334234 0
0.495949 0.334768 0
0.539757 0.336202 0
0.582879 0.338735 0
0.626047 0.342229 0
0.66772 0.347448 0
0.708721 0.354147 0
0.747631 0.362585 0
0.785 0.373083 0
0.820203 0.386175 0
0.852903 0.401343 0
0.883467 0.419165 0
0.911864 0.439612 0
0.937591 0.462974 0
0.961303 0.489036 0
0.982834 0.517739 0
1 0.549065 0
0 0.379431 0
0.0142824 0.379416 0
0.0321202 0.379294 0
0.0488746 0.379446 0
0.0657969 0.379217 0
0.0852369 0.379171 0
0.106432 0.378882 0
0.130144 0.378698 0
0.156466 0.378332 0
0.185367 0.377768 0
0.216464 0.377005 0
0.250172 0.376471 0
0.285863 0.375525 0
0.323888 0.374533 0
0.363531 0.373877 0
0.404776 0.373678 0
0.447227 0.373465 0
0.490074 0.373846 0
0.533089 0.37499 0
0.576288 0.376974 0
0.618906 0.380133 0
0.660502 0.384543 0
0.701213 0.390372 0
0.740001 0.39765 0
0.777173 0.407248 0
0.812619 0.41886 0
0.845609 0.432456 0
0.876539 0.448569 0
0.905592 0.467277 0
0.931838 0.488533 0
0.9561 0.512306 0
0.978271 0.538766 0
0.99823 0.56733 0
0.0115053 0.418296 0
0.0290837 0.418235 0
0.0456245 0.418463 0
0.0610971 0.418662 0
0.0768749 0.418479 0
0.0947585 0.418601 0
0.114946 0.418509 0
0.137118 0.418235 0
0.162203 0.417929 0
0.189441 0.417426 0
0.219211 0.416938 0
0.251743 0.416281 0
0.286442 0.415412 0
0.323095 0.414694 0
0.361776 0.414176 0
0.40174 0.413657 0
0.442985 0.413474 0
0.484825 0.413825 0
0.527565 0.414603 0
0.570092 0.416297 0
0.61236 0.419226 0
0.653727 0.422797 0
0.693935 0.427741 0
0.732845 0.434363 0
0.769863 0.442863 0
0.80557 0.453101 0
0.838697 0.465141 0
0.869993 0.479789 0
0.899092 0.496422 0
0.925872 0.515511 0
0.95053 0.537133 0
0.973281 0.561273 0
0.993866 0.587976 0.00263981
0.0324865 0.458213 0
0.0482948 0.458351 0
0.0632334 0.458564 0
0.077409 0.458747 0
0.0917525 0.458595 0
0.108522 0.458701 0
0.127138 0.458778 0
0.148013 0.458503 0
0.171435 0.458442 0
0.197162 0.457893 0
0.225589 0.457588 0
0.256092 0.456931 0
0.289174 0.456199 0
0.324529 0.455848 0
0.361624 0.455192 0
0.40061 0.454566 0
0.440864 0.454475 0
0.482048 0.454749 0
0.523659 0.455406 0
0.565438 0.456779 0
0.606897 0.458915 0
0.647776 0.462119 0
0.687434 0.466606 0
0.726406 0.472297 0
0.763439 0.479652 0
0.798871 0.488624 0
0.832135 0.499275 0
0.86363 0.512306 0
0.892958 0.527077 0
0.920134 0.544411 0
0.945281 0.564095 0
0.96849 0.585901 0
0.98967 0.61033 0.00737011
0.0575265 0.499031 0
0.0717021 0.49926 0
0.0851911 0.499428 0
0.0975357 0.49929 0
0.110979 0.499413 0
0.126284 0.499504 0
0.143481 0.499474 0
0.162921 0.499275 0
0.184833 0.499245 0
0.208743 0.498817 0
0.235599 0.498604 0
0.264134 0.49807 0
0.295827 0.497627 0
0.329122 0.497078 0
0.364584 0.496468 0
0.402472 0.496254 0
0.441123 0.495979 0
0.480873 0.49601 0
0.521324 0.496422 0
0.562249 0.497642 0
0.603113 0.499657 0
0.64332 0.502358 0
0.682704 0.506081 0
0.720943 0.511055 0
0.75758 0.517159 0
0.792691 0.525002 0
0.826154 0.5346 0
0.857679 0.546059 0
0.886946 0.559197 0
0.914748 0.574731 0
0.940108 0.592096 0
0.963607 0.611856 0.00148013
0.98529 0.633814 0.0129091
0.0864576 0.540505 0
0.0991531 0.540673 0
0.110719 0.54052 0
0.12221 0.540642 0
0.134432 0.540719 0
0.148394 0.54078 0
0.163516 0.540597 0
0.18172 0.540536 0
0.201862 0.54049 0
0.223972 0.540093 0
0.249042 0.53991 0
0.276036 0.539376 0
0.305821 0.539101 0
0.337255 0.538521 0
0.37116 0.538003 0
0.406867 0.537758 0
0.443915 0.537438 0
0.482185 0.537438 0
0.521645 0.538079 0
0.561227 0.538903 0
0.601068 0.540276 0
0.640146 0.54258 0
0.678813 0.545754 0
0.716457 0.550027 0
0.75288 0.555489 0
0.787518 0.562417 0
0.820981 0.570733 0
0.852308 0.580591 0
0.88159 0.592386 0
0.909529 0.606088 0
0.93518 0.621592 0
0.95903 0.63917 0.00759899
0.981414 0.659144 0.0202335
0.119982 0.581888 0
0.130663 0.581704 0
0.141375 0.581811 0
0.151598 0.581918 0
0.162371 0.582025 0
0.17464 0.581888 0
0.188861 0.58175 0
0.205158 0.58175 0
0.223331 0.581704 0
0.24361 0.581353 0
0.266697 0.581186 0
0.291676 0.580682 0
0.319158 0.58053 0
0.348699 0.57998 0
0.380911 0.579736 0
0.414511 0.579217 0
0.449805 0.578851 0
0.486671 0.57908 0
0.5243 0.579248 0
0.562356 0.579889 0
0.600732 0.581064 0
0.639078 0.583078 0
0.677165 0.58587 0
0.713848 0.589502 0
0.74963 0.594202 0
0.7841 0.600122 0
0.816938 0.60737 0
0.847929 0.615793 0
0.877226 0.626307 0
0.905089 0.638407 0
0.930968 0.651972 0.00502022
0.955184 0.667796 0.0158083
0.977356 0.685374 0.0280919
0.157259 0.62269 0
0.166857 0.622797 0
0.176196 0.622873 0
0.18529 0.622919 0
0.194919 0.622812 0
0.205631 0.62266 0
0.218402 0.622675 0
0.232837 0.622705 0
0.249134 0.622385 0
0.267887 0.622232 0
0.288777 0.622126 0
0.311437 0.621683 0
0.337011 0.621469 0
0.36434 0.620935 0
0.394202 0.620752 0
0.42565 0.620295 0
0.459113 0.620295 0
0.494011 0.62005 0
0.529732 0.620142 0
0.566812 0.620844 0
0.603693 0.621744 0
0.640467 0.62327 0
0.676829 0.625559 0
0.712779 0.628626 0
0.747997 0.632502 0
0.781537 0.637613 0
0.813748 0.643992 0
0.844877 0.65153 0
0.87396 0.660609 0
0.901411 0.671 0.00462348
0.927459 0.683192 0.0142061
0.95172 0.697063 0.0252537
0.97406 0.712535 0.0374609
0.198856 0.663249 0
0.207111 0.663325 0
0.215106 0.663386 0
0.222751 0.66305 0
0.231113 0.663066 0
0.240833 0.663066 0
0.252033 0.663081 0
0.264958 0.66305 0
0.279408 0.662654 0
0.296025 0.662623 0
0.314946 0.662486 0
0.335546 0.662028 0
0.358709 0.661891 0
0.383795 0.661357 0
0.411399 0.661173 0
0.440711 0.660655 0
0.471916 0.660639 0
0.504601 0.660349 0
0.538338 0.660426 0
0.573251 0.661036 0
0.608454 0.661738 0
0.643931 0.662882 0
0.679255 0.664668 0
0.714275 0.667521 0
0.748043 0.671 0
0.781018 0.675319 0
0.812726 0.680644 0
0.843107 0.687221 0
0.871839 0.694789 0.00666819
0.898985 0.704036 0.0151675
0.924712 0.714656 0.024979
0.948745 0.72665 0.0357366
0.971252 0.740414 0.0478828
0.242832 0.702876 0
0.250172 0.702831 0
0.257023 0.702876 0
0.263828 0.702861 0
0.271122 0.702846 0
0.279515 0.702831 0
0.289342 0.7028 0
0.300298 0.702419 0
0.313222 0.702373 0
0.32813 0.702251 0
0.345022 0.702037 0
0.363363 0.70164 0
0.384604 0.701381 0
0.407309 0.700877 0
0.432578 0.700679 0
0.459434 0.700191 0
0.488228 0.70016 0
0.518593 0.69984 0
0.550408 0.700069 0
0.582925 0.700252 0
0.616464 0.700725 0
0.650095 0.701915 0
0.683894 0.703563 0
0.71725 0.705638 0
0.750225 0.70837 0
0.782162 0.712093 0
0.812985 0.716793 0.00437934
0.842527 0.722423 0.0112001
0.870954 0.729061 0.0189212
0.897719 0.737102 0.0276188
0.923186 0.746319 0.0374456
0.946853 0.756542 0.0477302
0.969329 0.768719 0.0597086
0.290639 0.741558 0
0.296651 0.741558 0
0.302693 0.741512 0
0.308385 0.741527 0
0.314519 0.741314 0
0.321447 0.741146 0
0.330129 0.741039 0
0.339956 0.740963 0
0.351308 0.740871 0
0.364294 0.740764 0
0.378683 0.740291 0
0.395224 0.740169 0
0.414023 0.73994 0
0.434211 0.739452 0
0.456901 0.739269 0
0.481209 0.738811 0
0.50782 0.738705 0
0.53576 0.738354 0
0.565347 0.738506 0
0.595819 0.738491 0
0.627314 0.738949 0
0.659236 0.739818 0
0.691188 0.741039 0
0.723033 0.742824 0.00178531
0.754314 0.745281 0.00666819
0.785306 0.748547 0.0124208
0.815335 0.752361 0.0186618
0.843992 0.757244 0.0255894
0.871565 0.762997 0.0332036
0.897749 0.769589 0.0415961
0.922423 0.777417 0.0507362
0.94612 0.786648 0.0613565
0.968292 0.797116 0.0727703
0.340505 0.778881 0
0.34522 0.778683 0
0.350378 0.778607 0
0.355169 0.778607 0
0.360601 0.778515 0
0.366659 0.7785 0
0.37406 0.778393 0
0.382406 0.778347 0
0.391974 0.778134 0
0.402975 0.777813 0
0.415854 0.777676 0
0.430488 0.777493 0
0.447028 0.777279 0
0.46482 0.776791 0
0.485008 0.776593 0
0.50695 0.776043 0
0.530968 0.775921 0
0.556085 0.775647 0
0.583383 0.775738 0
0.611368 0.775738 0.00260929
0.640864 0.776211 0.00604257
0.670588 0.776654 0.00953689
0.70071 0.777493 0.0134432
0.730907 0.778988 0.0179599
0.760983 0.78114 0.0231327
0.790402 0.783688 0.0285496
0.81886 0.786923 0.0345159
0.846799 0.790829 0.0412909
0.873381 0.795789 0.0487678
0.899001 0.801648 0.0569772
0.923339 0.808408 0.0661021
0.946303 0.816342 0.0760052
0.968048 0.825223 0.0867781
0.391714 0.814801 0
0.396094 0.814725 0
0.400153 0.81471 0
0.404364 0.814633 0
0.408927 0.814557 0
0.414008 0.814527 0.000518807
0.420035 0.814237 0.000839246
0.426917 0.814054 0.00140383
0.435142 0.813977 0.00227359
0.444984 0.813794 0.00320439
0.456046 0.813642 0.0043183
0.468589 0.813397 0.00547799
0.482353 0.813046 0.00663767
0.498497 0.812833 0.00822461
0.516274 0.812634 0.0100557
0.535668 0.812085 0.0115663
0.557015 0.811917 0.0138094
0.579767 0.811505 0.0158236
0.604425 0.811505 0.0186007
0.629892 0.811414 0.0212863
0.657099 0.811765 0.0247196
0.684489 0.812131 0.0281071
0.712505 0.812802 0.0318761
0.741009 0.814069 0.036408
0.769268 0.815518 0.0411841
0.797162 0.817624 0.0464332
0.824582 0.820325 0.0522469
0.851225 0.823682 0.0586252
0.876783 0.827832 0.0657054
0.901473 0.83267 0.073579
0.925155 0.838575 0.0822461
0.94754 0.845396 0.0916762
0.968887 0.853162 0.102083
0.444343 0.849226 0.0216678
0.447456 0.849058 0.0218204
0.450919 0.848905 0.0220645
0.454414 0.848829 0.0224002
0.458045 0.848783 0.022797
0.462394 0.848707 0.0232395
0.467628 0.848585 0.0237278
0.473503 0.848524 0.0243992
0.480476 0.848402 0.0251164
0.488701 0.848249 0.0259403
0.497673 0.847852 0.0265202
0.5084 0.847654 0.0276036
0.520699 0.847471 0.0288853
0.534615 0.847257 0.0303502
0.549599 0.846815 0.0315862
0.566964 0.846571 0.033402
0.585779 0.846403 0.0354772
0.605905 0.845975 0.0373236
0.62797 0.845869 0.0398413
0.651072 0.845609 0.0422217
0.675776 0.845808 0.0453956
0.700862 0.846036 0.0485847
0.726818 0.84654 0.0522011
0.75346 0.847532 0.0564889
0.779782 0.848692 0.0608377
0.805997 0.850278 0.0657511
0.831968 0.852674 0.0716259
0.857481 0.855589 0.0778821
0.882109 0.859037 0.0845502
0.905669 0.863188 0.0918288
0.92845 0.868086 0.100023
0.950271 0.873976 0.108995
0.970947 0.880751 0.118761
0.496757 0.88191 0.047013
0.499718 0.881834 0.0472877
0.502602 0.881743 0.0475624
0.505211 0.881743 0.0478981
0.508324 0.881651 0.048188
0.511986 0.881559 0.0485237
0.516136 0.881468 0.0489662
0.520867 0.881193 0.0491798
0.526558 0.880964 0.0496071
