public/textures/grade/Blackmagic/Licorice-BMDFilm.cube
TITLE "Generated by Resolve"
LUT_3D_SIZE 5
0 0 0.0462043
0.169436 0 0.0373846
0.643763 0 0
1 0.0059205 0
1 0.343069 0
0 0.176013 0.145678
0.053254 0.181613 0.0862593
0.592798 0.111467 0
1 0.144884 0
1 0.395544 0
0.046891 0.501854 0.331136
0.0980087 0.514168 0.284153
0.453056 0.475624 0.117754
0.987198 0.432868 0.00459297
1 0.539818 0.0483711
0.236652 0.880995 0.475395
0.252049 0.87509 0.453315
0.481041 0.831617 0.427192
0.888243 0.790234 0.25539
1 0.788052 0.229099
0.742763 1 0.56405
0.761349 1 0.557717
0.823651 1 0.530617
0.977478 1 0.421317
1 0.993576 0.394354
0 0 0.294728
0.166064 0 0.253254
0.644343 0 0.127153
1 0.0276188 0.0581064
1 0.340139 0
0 0.164996 0.233021
0.140475 0.16759 0.189868
0.624399 0.126284 0.106828
1 0.163668 0.0586862
1 0.393149 0
0.0960555 0.498741 0.365805
0.166613 0.50811 0.33785
0.469062 0.485817 0.188083
0.99556 0.439414 0.0531167
1 0.538674 0.0479133
0.236484 0.880476 0.474891
0.252354 0.874495 0.452979
0.481376 0.831052 0.426795
0.888563 0.789807 0.2551
1 0.787671 0.228779
0.742855 1 0.564004
0.761456 1 0.557687
0.823713 1 0.530587
0.977493 1 0.421302
1 0.993576 0.394354
0 0 0.72047
0.143511 0 0.682094
0.583581 0 0.600809
1 0.011841 0.478538
1 0.385382 0.299306
0 0.0653239 0.669795
0.143694 0.0955825 0.644327
0.569757 0.10457 0.575723
1 0.181613 0.436255
1 0.433524 0.29041
0.101061 0.500923 0.531289
0.2 0.497276 0.513909
0.479332 0.48748 0.463478
0.998077 0.461982 0.340169
1 0.56672 0.283238
0.389685 0.838102 0.635065
0.398688 0.839719 0.613596
0.480354 0.842618 0.532448
0.900938 0.798367 0.39382
1 0.798154 0.324575
0.743236 1 0.563897
0.761791 1 0.557565
0.824002 1 0.530434
0.977615 1 0.421286
1 0.993576 0.394354
0 0 1
0.148211 0 1
0.562692 0 1
1 0 0.956405
1 0.348684 0.867887
0 0 1
0.175128 0 1
0.580972 0 1
1 0.033402 0.964309
1 0.417197 0.841993
0.045243 0.417792 0.986053
0.183398 0.416785 0.971817
0.495796 0.430503 0.917296
0.940673 0.444389 0.857755
1 0.586816 0.765423
0.320012 0.847532 0.843046
0.365881 0.841596 0.833036
0.52961 0.825147 0.802152
0.832532 0.812604 0.748592
1 0.814603 0.659815
0.723308 1 0.788739
0.7411 1 0.785473
0.800519 1 0.769253
0.958236 1 0.685054
1 0.987015 0.641535
0.0313115 0 1
0.206714 0 1
0.580468 0 1
1 0 1
1 0 1
0.0699931 0 1
0.230137 0 1
0.590204 0 1
1 0 1
1 0 1
0.191394 0 1
0.324392 0 1
0.642847 0 1
1 0.105852 1
1 0.443702 1
0.377127 0.801266 1
0.423423 0.796231 1
0.568948 0.784863 1
0.847745 0.784039 0.992096
1 0.813703 0.956619
0.750607 1 0.983368
0.762921 1 0.980453
0.807568 1 0.97055
0.909117 1 0.943114
1 1 0.925582
