public/textures/grade/Blackmagic/Licorice-BMDFilm.cube
TITLE "Generated by Resolve"
LUT_3D_SIZE 9
0 0 0.0462043
0.0254826 0 0.0344244
0.169436 0 0.0373846
0.403998 0 0.017792
0.643763 0 0
0.883696 0 0
1 0.0059205 0
1 0.146395 0
1 0.343069 0
0 0.0617075 0.0555734
0 0.062501 0.0469368
0.133303 0.0548562 0.0386511
0.378836 0.0231174 0.0220951
0.62974 0.00386053 0
0.873823 0.00915541 0
1 0.057084 0
1 0.185977 0
1 0.363546 0
0 0.176013 0.145678
0 0.180499 0.138567
0.053254 0.181613 0.0862593
0.32079 0.144167 0.0271916
0.592798 0.111467 0
0.848859 0.105715 0
1 0.144884 0
1 0.243137 0
1 0.395544 0
0 0.322652 0.227741
0 0.325521 0.224109
0.056199 0.332219 0.186709
0.243488 0.312123 0.107149
0.530556 0.277699 0.0140383
0.802853 0.255421 0
1 0.270481 0
1 0.334874 0
1 0.451896 0.00915541
0.046891 0.501854 0.331136
0.0725719 0.507942 0.316258
0.0980087 0.514168 0.284153
0.20531 0.502037 0.236728
0.453056 0.475624 0.117754
0.742641 0.441886 0.0414893
0.987198 0.432868 0.00459297
1 0.463478 0.0071107
1 0.539818 0.0483711
0.152224 0.703105 0.413581
0.159213 0.704479 0.400931
0.166903 0.70518 0.377264
0.230228 0.694301 0.346944
0.433097 0.659403 0.314427
0.677699 0.640162 0.182116
0.93225 0.615518 0.129702
1 0.618006 0.106523
1 0.657221 0.127993
0.236652 0.880995 0.475395
0.237781 0.879728 0.46569
0.252049 0.87509 0.453315
0.332311 0.859464 0.445258
0.481041 0.831617 0.427192
0.673136 0.807004 0.35433
0.888243 0.790234 0.25539
1 0.776318 0.226627
1 0.788052 0.229099
0.425757 0.997742 0.532708
0.443061 0.99411 0.531136
0.471534 0.988052 0.528237
0.525551 0.976669 0.521798
0.616617 0.958618 0.505562
0.74548 0.939193 0.458915
0.897841 0.929122 0.354162
1 0.910765 0.334539
1 0.9075 0.328389
0.742763 1 0.56405
0.749905 1 0.561685
0.761349 1 0.557717
0.78349 1 0.548974
0.823651 1 0.530617
0.888457 1 0.491386
0.977478 1 0.421317
1 1 0.405875
1 0.993576 0.394354
0 0 0.146532
0.0297398 0 0.127672
0.176928 0 0.0986343
0.409277 0 0.0540932
0.649363 0 0.0342412
0.887282 0 0.00364691
1 0.00314336 0
1 0.144442 0
1 0.342 0
0 0.0550851 0.121752
0.0244755 0.0580453 0.100801
0.157702 0.0517586 0.0852216
0.391409 0.0266423 0.060029
0.639612 0.0114748 0.0368353
0.878889 0.0145876 0.00331121
1 0.054612 0
1 0.184405 0
1 0.362554 0
0 0.173663 0.157351
0 0.174792 0.143938
0.0882887 0.177935 0.117098
0.330694 0.149004 0.0706035
0.603021 0.117418 0.0328985
0.853376 0.108949 0
1 0.142885 0
1 0.241657 0
1 0.394659 0
0 0.32314 0.237842
0 0.326223 0.234852
0.0816205 0.331106 0.208957
0.249622 0.31548 0.129137
0.536171 0.279942 0.0341497
0.80444 0.254627 0
1 0.269078 0
1 0.333791 0
1 0.451194 0.00892653
0.0476692 0.501198 0.331014
0.0726482 0.507134 0.31574
0.0979324 0.513359 0.283452
0.205936 0.500984 0.236118
0.453544 0.474708 0.116915
0.743114 0.440909 0.0408637
0.987671 0.432151 0.00434882
1 0.462806 0.00680552
1 0.539406 0.0482032
0.152117 0.702678 0.413245
0.159091 0.704051 0.40058
0.166751 0.704799 0.376898
0.230472 0.693828 0.346654
0.433387 0.65893 0.314015
0.678035 0.639719 0.181827
0.932448 0.615076 0.129366
1 0.6177 0.10631
1 0.656962 0.127794
0.236591 0.880796 0.475212
0.23772 0.879545 0.465507
0.252155 0.874876 0.453193
0.332464 0.859236 0.445121
0.481163 0.831403 0.427039
0.673213 0.806836 0.354086
0.88838 0.790082 0.255283
1 0.776135 0.226474
1 0.787915 0.228992
0.425834 0.99765 0.532662
0.443153 0.994018 0.531075
0.471611 0.987976 0.528191
0.525597 0.976593 0.521737
0.616648 0.958541 0.505501
0.74551 0.939116 0.458839
0.897871 0.929061 0.354101
1 0.910704 0.334478
1 0.907454 0.328344
0.742809 1 0.564019
0.749935 1 0.561669
0.76141 1 0.557702
0.78352 1 0.548959
0.823682 1 0.530602
0.888457 1 0.491386
0.977478 1 0.421317
1 1 0.405875
1 0.993576 0.394354
0 0 0.294728
0.0225376 0 0.278386
0.166064 0 0.253254
0.390372 0 0.18526
0.644343 0 0.127153
0.889967 0 0.0862898
1 0.0276188 0.0581064
1 0.150912 0
1 0.340139 0
0 0.0294652 0.273533
0.0217136 0.0395361 0.258671
0.160174 0.0395972 0.233738
0.385214 0.022034 0.175097
0.64651 0.0128328 0.117617
0.886839 0.0319066 0.0848096
1 0.0817273 0.0603189
1 0.189044 0
1 0.360952 0
0 0.164996 0.233021
0.0192721 0.168414 0.214435
0.140475 0.16759 0.189868
0.342947 0.155047 0.156222
0.624399 0.126284 0.106828
0.866392 0.126909 0.0821393
1 0.163668 0.0586862
1 0.24416 0
1 0.393149 0
0 0.32163 0.274556
0.00257877 0.324117 0.273472
0.119265 0.323003 0.261387
0.256718 0.321431 0.202029
0.555932 0.287755 0.130617
0.822049 0.269795 0.0949264
1 0.28368 0.0526894
1 0.332036 0
1 0.449973 0.00851453
0.0960555 0.498741 0.365805
0.146395 0.500496 0.360952
0.166613 0.50811 0.33785
0.207767 0.51281 0.280705
0.469062 0.485817 0.188083
0.756603 0.451438 0.125994
0.99556 0.439414 0.0531167
1 0.461601 0.00628672
1 0.538674 0.0479133
0.172107 0.7037 0.425528
0.178454 0.705592 0.413794
0.184939 0.706691 0.39147
0.233341 0.69807 0.356481
0.438468 0.662211 0.321904
0.679545 0.639673 0.183734
0.932769 0.614328 0.128756
1 0.617136 0.105943
1 0.656489 0.127413
0.236484 0.880476 0.474891
0.237598 0.879225 0.465202
0.252354 0.874495 0.452979
0.332708 0.858854 0.444907
0.481376 0.831052 0.426795
0.673381 0.806531 0.353658
0.888563 0.789807 0.2551
1 0.77586 0.226261
1 0.787671 0.228779
0.425971 0.997482 0.532555
0.443275 0.993866 0.530983
0.471717 0.987854 0.528115
0.525719 0.97644 0.521645
0.616724 0.958404 0.505379
0.745541 0.93901 0.458701
0.897887 0.928954 0.354009
1 0.910597 0.334401
1 0.907362 0.328267
0.742855 1 0.564004
0.749996 1 0.561639
0.761456 1 0.557687
0.783566 1 0.548943
0.823713 1 0.530587
0.888502 1 0.491356
0.977493 1 0.421302
1 1 0.405875
1 0.993576 0.394354
0 0 0.493523
0.0149386 0 0.479683
0.153933 0 0.455009
0.356512 0 0.414923
0.61622 0 0.342168
0.875196 0 0.274327
1 0.0434882 0.214969
1 0.18262 0.151019
1 0.35787 0.0959487
0 0 0.476997
0.0206455 0.00309758 0.46479
0.155795 0.013901 0.441032
0.356878 0.00218204 0.405509
0.619333 0 0.328191
0.874876 0.0273136 0.261067
1 0.109529 0.202472
1 0.219211 0.148196
1 0.377646 0.0955215
0 0.129183 0.432029
0.0112764 0.13817 0.423362
0.139757 0.144625 0.403983
0.330831 0.142412 0.372549
0.605905 0.128939 0.292393
0.861921 0.141558 0.231907
1 0.183902 0.188495
1 0.272953 0.146044
1 0.408164 0.0951705
0 0.317815 0.371405
0.0520027 0.319905 0.361883
0.152163 0.318303 0.342458
0.294331 0.31635 0.314824
0.557839 0.294499 0.258183
0.834348 0.277928 0.203449
1 0.29839 0.176226
1 0.359899 0.148684
1 0.461753 0.09337
0.0502632 0.497963 0.420813
0.119905 0.497276 0.417151
0.187152 0.494636 0.410071
0.277058 0.493263 0.38735
0.47361 0.489174 0.284871
0.768383 0.457664 0.228672
1 0.453132 0.191089
1 0.482704 0.16733
1 0.543847 0.0872816
0.261814 0.681285 0.502235
0.267872 0.68278 0.493217
0.274357 0.685389 0.477073
0.283238 0.691783 0.436576
0.445151 0.673625 0.388174
0.697841 0.652277 0.286015
0.947616 0.628702 0.24007
1 0.629847 0.196231
1 0.655436 0.12665
0.278096 0.878248 0.511452
0.278981 0.877806 0.503288
0.281651 0.876677 0.4878
0.339223 0.867414 0.47129
0.489937 0.840162 0.454093
0.684672 0.814603 0.380789
0.89633 0.79469 0.275669
1 0.77525 0.225788
1 0.787152 0.228367
0.42623 0.997162 0.532357
0.443534 0.993545 0.530785
0.471962 0.987579 0.527947
0.525917 0.976135 0.521447
0.616892 0.958129 0.50515
0.745647 0.938766 0.458396
0.897963 0.92871 0.353811
1 0.910369 0.334218
1 0.907149 0.328115
0.742992 1 0.563973
0.750103 1 0.561608
0.761563 1 0.557641
0.783673 1 0.548898
0.823819 1 0.530526
0.888563 1 0.49131
0.977523 1 0.421302
1 1 0.405875
1 0.993576 0.394354
0 0 0.72047
0.00999466 0 0.707744
0.143511 0 0.682094
0.340307 0 0.649363
0.583581 0 0.600809
0.851987 0 0.54197
1 0.011841 0.478538
1 0.195621 0.397284
1 0.385382 0.299306
0 0 0.713161
0.0238804 0 0.700816
0.154864 0 0.677302
0.349111 0 0.646387
0.590677 0 0.600946
0.850446 0 0.533165
1 0.0851759 0.463416
1 0.238392 0.38323
1 0.404181 0.295674
0 0.0653239 0.669795
0.0158083 0.0803235 0.661936
0.143694 0.0955825 0.644327
0.330098 0.11017 0.61503
0.569757 0.10457 0.575723
0.834089 0.119783 0.505714
1 0.181613 0.436255
1 0.300282 0.361883
1 0.433524 0.29041
0 0.283345 0.606348
0.0284733 0.287037 0.600671
0.139391 0.287663 0.588495
0.298085 0.292576 0.560815
0.524941 0.288106 0.526909
0.804013 0.284855 0.445747
1 0.317754 0.384131
1 0.379919 0.334173
1 0.485512 0.284855
0.101061 0.500923 0.531289
0.153689 0.500206 0.523629
0.2 0.497276 0.513909
0.295003 0.492027 0.495171
0.479332 0.48748 0.463478
0.756252 0.465171 0.39234
0.998077 0.461982 0.340169
1 0.495598 0.315114
1 0.56672 0.283238
0.21503 0.679042 0.582635
0.240146 0.676158 0.577768
0.278477 0.671748 0.570016
0.359258 0.664591 0.555261
0.437369 0.67599 0.488014
0.696971 0.653239 0.407874
0.946242 0.632639 0.358114
1 0.638651 0.324437
1 0.675761 0.296162
0.389685 0.838102 0.635065
0.393118 0.838636 0.627543
0.398688 0.839719 0.613596
0.409171 0.844083 0.582208
0.480354 0.842618 0.532448
0.683742 0.816541 0.472877
0.900938 0.798367 0.39382
1 0.785977 0.356283
1 0.798154 0.324575
0.435859 0.998001 0.574716
0.452888 0.995041 0.573114
0.480797 0.990097 0.570306
0.534173 0.97998 0.563958
0.62565 0.962982 0.548455
0.756527 0.943481 0.50338
0.907958 0.932921 0.405859
1 0.914641 0.373312
1 0.906737 0.327764
0.743236 1 0.563897
0.750378 1 0.561517
0.761791 1 0.557565
0.783886 1 0.548821
0.824002 1 0.530434
0.888701 1 0.491218
0.977615 1 0.421286
1 1 0.405859
1 0.993576 0.394354
0 0 0.945037
0.0117342 0 0.932784
0.141649 0 0.909224
0.330831 0 0.873945
0.568383 0 0.835431
0.822339 0 0.787503
1 0 0.753841
1 0.153536 0.692866
1 0.393683 0.592752
0 0 0.942901
0.0265965 0 0.92961
0.152117 0 0.906432
0.337865 0 0.872114
0.577188 0 0.837278
0.836881 0 0.796506
1 0.0251621 0.745998
1 0.20238 0.67924
1 0.417044 0.582391
0 0 0.913954
0.0367742 0 0.904875
0.159091 0.00166323 0.887312
0.339834 0.0413214 0.856229
0.571923 0.0409857 0.822995
0.820584 0.06598 0.779736
1 0.138918 0.724407
1 0.271672 0.656641
1 0.45275 0.565591
0 0.224414 0.846326
0.0343938 0.230488 0.841215
0.145113 0.233997 0.829587
0.307073 0.248219 0.803525
0.528969 0.252705 0.772442
0.775631 0.256779 0.735363
1 0.29279 0.678508
1 0.378332 0.61532
1 0.5122 0.536751
0.0485237 0.470939 0.770535
0.115633 0.470405 0.765316
0.182467 0.46775 0.756176
0.301915 0.464393 0.737987
0.481895 0.468223 0.703578
0.712902 0.464256 0.671901
0.955123 0.472175 0.604181
1 0.517479 0.547189
1 0.585519 0.501701
0.210544 0.686992 0.69958
0.228489 0.684184 0.694408
0.261524 0.680049 0.686305
0.335286 0.673762 0.67187
0.476341 0.664652 0.648051
0.666529 0.660395 0.614694
0.912718 0.643198 0.546471
1 0.648569 0.499275
1 0.687831 0.477211
0.350454 0.836728 0.732952
0.369665 0.834195 0.728847
0.401373 0.829938 0.721889
0.462501 0.822477 0.708873
0.550576 0.816419 0.679011
0.674083 0.815885 0.607858
0.89131 0.798947 0.536446
1 0.789059 0.504372
1 0.803693 0.485817
0.544747 0.956451 0.735592
0.547784 0.957259 0.729137
0.552468 0.958877 0.718013
0.560037 0.962707 0.693248
0.612863 0.959335 0.664042
0.742718 0.940261 0.629404
0.89984 0.929213 0.545388
1 0.911376 0.526345
1 0.909911 0.502449
0.739116 1 0.648219
0.746273 1 0.646006
0.757794 1 0.642283
0.780087 1 0.634226
0.821042 1 0.61706
0.886885 1 0.580346
0.976715 1 0.513115
1 1 0.490501
1 0.992615 0.452186
0 0 1
0.0243076 0 1
0.148211 0 1
0.327398 0 1
0.562692 0 1
0.812711 0 0.993103
1 0 0.956405
1 0.0518044 0.946044
1 0.348684 0.867887
0 0 1
0.0388952 0 1
0.158083 0 1
0.334783 0 1
0.566705 0 1
0.814298 0 0.992599
1 0 0.97258
1 0.117617 0.934524
1 0.376028 0.858045
0 0 1
0.0626383 0 1
0.175128 0 1
0.347768 0 1
0.580972 0 1
0.832227 0 1
1 0.033402 0.964309
1 0.206332 0.913619
1 0.417197 0.841993
0 0.100313 1
0.0690471 0.110567 1
0.172869 0.122683 1
0.334462 0.158068 1
0.552865 0.172473 0.993088
0.791531 0.184955 0.960967
1 0.233371 0.922698
1 0.3346 0.875044
1 0.486107 0.812726
0.045243 0.417792 0.986053
0.112169 0.4177 0.980804
0.183398 0.416785 0.971817
0.311315 0.41767 0.952468
0.495796 0.430503 0.917296
0.722026 0.429633 0.888731
0.940673 0.444389 0.857755
1 0.493324 0.815824
1 0.586816 0.765423
0.218753 0.664271 0.897612
0.24007 0.661738 0.892638
0.27924 0.657771 0.884672
0.360021 0.651438 0.87071
0.49366 0.645472 0.848386
0.66775 0.648081 0.813687
0.87039 0.645762 0.790127
1 0.661021 0.740459
1 0.705959 0.697932
0.320012 0.847532 0.843046
0.336828 0.84535 0.839338
0.365881 0.841596 0.833036
0.427207 0.834714 0.821118
0.52961 0.825147 0.802152
0.675227 0.813977 0.77789
0.832532 0.812604 0.748592
1 0.804349 0.700282
1 0.814603 0.659815
0.548928 0.951019 0.847761
0.561028 0.949279 0.844984
0.58024 0.946349 0.840345
0.618173 0.941115 0.831601
0.68188 0.932906 0.815198
0.732692 0.941665 0.761135
0.874311 0.929366 0.71722
1 0.91809 0.683513
1 0.914183 0.652781
0.723308 1 0.788739
0.730175 1 0.787533
0.7411 1 0.785473
0.761883 1 0.780652
0.800519 1 0.769253
0.865049 1 0.741665
0.958236 1 0.685054
1 0.998093 0.659663
1 0.987015 0.641535
0 0 1
0.054612 0 1
0.167208 0 1
0.33756 0 1
0.565469 0 1
0.810788 0 1
1 0 1
1 0 1
1 0.235798 1
0 0 1
0.0682231 0 1
0.176669 0 1
0.344213 0 1
0.568902 0 1
0.812634 0 1
1 0 1
1 0 1
1 0.275776 1
0.00668345 0 1
0.0908827 0 1
0.192615 0 1
0.355047 0 1
0.575463 0 1
0.815885 0 1
1 0 1
1 0.00823987 1
1 0.333501 1
0.06009 0 1
0.129641 0 1
0.227726 0 1
0.383856 0 1
0.601389 0 1
0.839689 0 1
1 0.0576944 1
1 0.222004 1
1 0.424826 1
0.084596 0.307347 1
0.139086 0.308629 1
0.214664 0.310872 1
0.347784 0.321157 1
0.53463 0.3458 1
0.758358 0.347082 1
0.969146 0.372702 1
1 0.437293 1
1 0.548562 0.970031
0.205615 0.620417 1
0.230686 0.618158 1
0.276234 0.615045 1
0.36492 0.610956 1
0.505547 0.608957 1
0.683757 0.617182 0.979309
0.882658 0.616678 0.957671
1 0.637461 0.935927
1 0.690883 0.905943
0.379385 0.833021 0.977096
0.395254 0.830625 0.973144
0.422629 0.827237 0.967056
0.474083 0.821363 0.956161
0.561852 0.813199 0.939544
0.686183 0.806683 0.917906
0.832456 0.807645 0.889525
0.984161 0.809323 0.871656
1 0.830442 0.840421
0.52398 0.961669 0.935851
0.535485 0.960189 0.933394
0.55404 0.95761 0.929259
0.589563 0.953368 0.92192
0.651209 0.946258 0.909148
0.744259 0.936538 0.891005
0.84567 0.935821 0.866255
0.96286 0.932097 0.853681
1 0.932403 0.831907
0.771908 1 0.922286
0.776974 1 0.920974
0.785641 1 0.918517
0.800015 1 0.912856
0.812192 1 0.894804
0.842191 1 0.870253
0.921157 1 0.857328
1 1 0.831312
1 1 0.814771
0.0313115 0 1
0.109621 0 1
0.206714 0 1
0.36492 0 1
0.580468 0 1
0.818738 0 1
1 0 1
1 0 1
1 0 1
0.0460365 0 1
0.11928 0 1
0.215274 0 1
0.370748 0 1
0.584253 0 1
0.8206 0 1
1 0 1
1 0 1
1 0 1
0.0699931 0 1
0.136187 0 1
0.230137 0 1
0.381323 0 1
0.590204 0 1
0.823774 0 1
1 0 1
1 0 1
1 0 1
0.112902 0 1
0.170306 0 1
0.259327 0 1
0.401556 0 1
0.603067 0 1
0.829831 0 1
1 0 1
1 0 1
1 0.218296 1
0.191394 0 1
0.244938 0 1
0.324392 0 1
0.454994 0 1
0.642847 0 1
0.858747 0.013611 1
1 0.105852 1
1 0.254292 1
1 0.443702 1
0.220218 0.51989 1
0.252857 0.518837 1
0.305837 0.518013 1
0.400137 0.518608 1
0.543572 0.526162 1
0.728283 0.535119 1
0.923049 0.542092 1
1 0.574884 1
1 0.644388 1
0.377127 0.801266 1
0.394614 0.799451 1
0.423423 0.796231 1
0.477714 0.791501 1
0.568948 0.784863 1
0.697383 0.781094 1
0.847745 0.784039 0.992096
0.996429 0.788251 0.974182
1 0.813703 0.956619
0.587961 0.956359 0.990646
0.596933 0.954971 0.988235
0.612024 0.953033 0.984512
0.640681 0.949248 0.977432
0.690501 0.943801 0.966247
0.764218 0.93727 0.952193
0.857435 0.933486 0.938918
0.962554 0.932723 0.925139
1 0.936599 0.920501
0.750607 1 0.983368
0.755215 1 0.982345
0.762921 1 0.980453
0.778668 1 0.976944
0.807568 1 0.97055
0.855756 1 0.961349
0.909117 1 0.943114
0.981949 1 0.932143
1 1 0.925582
