public/textures/grade/Blackmagic/Licorice-BMDFilm.cube
TITLE "Generated by Resolve"
LUT_3D_SIZE 33
0 0 0.0462043
0 0 0.0423896
0 0 0.0373541
0.0018616 0 0.0346227
0.0254826 0 0.0344244
0.0526589 0 0.0351263
0.085069 0 0.0363165
0.123384 0 0.0374914
0.169436 0 0.0373846
0.22356 0 0.0343786
0.283009 0 0.028748
0.344167 0 0.0232548
0.403998 0 0.017792
0.462409 0 0.0119173
0.522194 0 0.00585946
0.582498 0 0
0.643763 0 0
0.704662 0 0
0.764355 0 0
0.824353 0 0
0.883696 0 0
0.941894 0 0
0.996765 0 0
1 0 0
1 0.0059205 0
1 0.0299992 0
1 0.0602274 0
1 0.101839 0
1 0.146395 0
1 0.19266 0
1 0.24126 0
1 0.291524 0
1 0.343069 0
0 0.00268559 0.0407111
0 0.0028687 0.0377508
0 0.002533 0.0351568
0 0.00242618 0.0318914
0.0221561 0.00123598 0.0308995
0.0487373 0 0.0321202
0.080766 0 0.0344549
0.119051 0 0.0369116
0.164126 0 0.0380713
0.21825 0 0.0361639
0.278325 0 0.0307012
0.340154 0 0.0251316
0.400763 0 0.0195773
0.459876 0 0.0137179
0.519646 0 0.00738537
0.578958 0 0
0.640177 0 0
0.701701 0 0
0.762615 0 0
0.823392 0 0
0.882811 0 0
0.939727 0 0
0.994781 0 0
1 0 0
1 0.0189059 0
1 0.0418708 0
1 0.0734264 0
1 0.113863 0
1 0.156619 0
1 0.201648 0
1 0.248676 0
1 0.297505 0
1 0.348257 0
0 0.0219883 0.0363012
0 0.0225834 0.0332494
0 0.0228122 0.030808
0 0.0223697 0.0290837
0.016434 0.0218967 0.0285954
0.0413519 0.0204013 0.0293584
0.0725719 0.017258 0.0322576
0.110521 0.0127718 0.0357671
0.155703 0.00679026 0.0382544
0.209277 0 0.037583
0.269871 0 0.0318608
0.33286 0 0.026276
0.39498 0 0.0204776
0.455222 0 0.0142367
0.515908 0 0.00762951
0.576379 0 0.00108339
0.638132 0 0
0.699947 0 0
0.761013 0 0
0.82121 0 0
0.880476 0 0
0.937499 0 0
0.991989 0 0
1 0.0130312 0
1 0.0313268 0
1 0.0543984 0
1 0.0872663 0
1 0.125673 0
1 0.166217 0
1 0.209766 0
1 0.255665 0
1 0.303624 0
1 0.353475 0
0 0.0417029 0.0424964
0 0.0422675 0.0402533
0 0.0424811 0.0381476
0 0.042298 0.0363928
0.00816358 0.0421149 0.0353399
0.0308385 0.0427558 0.0330205
0.0627451 0.0405432 0.0317845
0.0997635 0.0370336 0.0345769
0.14406 0.032166 0.0371099
0.197467 0.0250553 0.0373388
0.258885 0.0165103 0.0323186
0.323079 0.00859083 0.0267643
0.387472 0.00183108 0.0210727
0.44921 0 0.0149996
0.510765 0 0.00866712
0.572778 0 0.0027924
0.634302 0 0
0.697063 0 0
0.758144 0 0
0.818357 0 0
0.877791 0 0
0.934646 0.00102235 0
0.989517 0.0117952 0
1 0.0260777 0
1 0.0432441 0
1 0.0675364 0
1 0.10045 0
1 0.136706 0
1 0.17586 0
1 0.218021 0
1 0.262715 0
1 0.309651 0
1 0.35819 0
0 0.0617075 0.0555734
0 0.0625925 0.0533455
0 0.0629129 0.0508431
0 0.0626078 0.0484932
0 0.062501 0.0469368
0.023331 0.0620279 0.0455634
0.0474861 0.0637827 0.0395666
0.0881056 0.0603952 0.0373999
0.133303 0.0548562 0.0386511
0.185794 0.0481727 0.0381933
0.248112 0.0396887 0.0334325
0.312917 0.0311284 0.0276646
0.378836 0.0231174 0.0220951
0.442176 0.0167849 0.0162051
0.504204 0.0113222 0.00975052
0.567147 0.00694286 0.00357061
0.62974 0.00386053 0
0.692454 0.00228885 0
0.753811 0.00248722 0
0.814603 0.00468452 0
0.873823 0.00915541 0
0.931151 0.016434 0
0.986206 0.026566 0
1 0.0394446 0
1 0.057084 0
1 0.0827192 0
1 0.113771 0
1 0.148287 0
1 0.185977 0
1 0.22652 0
1 0.269978 0
1 0.31577 0
1 0.363546 0
0 0.0852369 0.0737163
0 0.0863966 0.0712902
0 0.0870985 0.0684825
0 0.0872053 0.0657969
0 0.0868391 0.0632029
0.00941482 0.0863966 0.0607004
0.0344244 0.0872206 0.0544747
0.0710307 0.0867323 0.0446937
0.11812 0.0820325 0.0428016
0.172656 0.0741588 0.0408026
0.234791 0.0648966 0.0350805
0.300664 0.0556954 0.0287633
0.367758 0.0469978 0.0229038
0.432334 0.0396735 0.0167239
0.495781 0.0339513 0.0102998
0.559915 0.02916 0.00401312
0.623056 0.0252995 0
0.686793 0.0231174 0
0.74873 0.0225834 0
0.809659 0.0242618 0
0.869902 0.0278477 0
0.927031 0.0340887 0
0.982559 0.0429847 0
1 0.0558938 0
1 0.074464 0
1 0.100053 0
1 0.128817 0
1 0.161822 0
1 0.197696 0
1 0.236744 0
1 0.278721 0
1 0.323247 0
1 0.36997 0
0 0.113069 0.0977951
0 0.114382 0.0955062
0 0.115404 0.0927443
0 0.115587 0.0896468
0 0.115419 0.0863661
0 0.115175 0.0827802
0.0220493 0.114427 0.0775311
0.0474708 0.117327 0.0594797
0.0997024 0.112215 0.049958
0.155993 0.104875 0.0452735
0.219089 0.0948501 0.0373846
0.286076 0.0839094 0.0297704
0.353277 0.0739452 0.02327
0.420752 0.0659037 0.0170748
0.485283 0.0593881 0.0103304
0.550576 0.0537575 0.00383001
0.614649 0.0494392 0
0.678721 0.0465553 0
0.74197 0.0452735 0
0.803693 0.0458991 0
0.863859 0.0482185 0
0.921782 0.0538033 0
0.977539 0.0628519 0
1 0.0767224 0
1 0.0958877 0
1 0.119203 0
1 0.145876 0
1 0.176715 0
1 0.210849 0
1 0.248173 0
1 0.288548 0
1 0.331609 0
1 0.37702 0
0 0.143603 0.12285
0 0.145434 0.12134
0 0.146502 0.118914
0 0.14667 0.115831
0 0.146731 0.112566
0 0.146868 0.108751
0.00596628 0.146166 0.103014
0.0399634 0.145113 0.0900587
0.0795758 0.143633 0.0694133
0.135637 0.139162 0.051194
0.202411 0.128908 0.0420233
0.269932 0.118044 0.0323339
0.337697 0.107408 0.0242771
0.406226 0.097673 0.0171054
0.472465 0.0899214 0.0100557
0.539025 0.0827039 0.00315862
0.604257 0.0770123 0
0.669276 0.0733501 0
0.733654 0.0712444 0
0.795926 0.0711986 0
0.856977 0.0737621 0
0.915831 0.0796521 0
0.971969 0.0893111 0
1 0.102403 0
1 0.119478 0
1 0.140459 0
1 0.165072 0
1 0.193805 0
1 0.225956 0
1 0.261753 0
1 0.30045 0
1 0.341955 0
1 0.385855 0
0 0.176013 0.145678
0 0.178302 0.145296
0 0.179538 0.143664
0 0.179995 0.141192
0 0.180499 0.138567
0 0.180453 0.134508
0 0.179706 0.128527
0.0339208 0.177172 0.119432
0.053254 0.181613 0.0862593
0.120119 0.171557 0.0724041
0.181872 0.165835 0.0484016
0.250904 0.155261 0.0374609
0.32079 0.144167 0.0271916
0.389502 0.133959 0.0183413
0.457481 0.125048 0.0102235
0.525017 0.117647 0.00294499
0.592798 0.111467 0
0.658549 0.107088 0
0.723934 0.10428 0
0.787137 0.103685 0
0.848859 0.105715 0
0.908339 0.110307 0
0.964935 0.118303 0
1 0.129809 0
1 0.144884 0
1 0.163745 0
1 0.186465 0
1 0.213153 0
1 0.243137 0
1 0.276921 0
1 0.313619 0
1 0.353323 0
1 0.395544 0
0 0.209537 0.163821
0 0.211795 0.164172
0 0.213062 0.163439
0 0.213886 0.162081
0 0.214588 0.160098
0 0.214679 0.156725
0 0.213931 0.151141
0.0322271 0.211566 0.142504
0.0498665 0.21532 0.113191
0.103319 0.209445 0.0932479
0.164355 0.202274 0.0687266
0.230594 0.195346 0.0457923
0.302022 0.184344 0.0334783
0.37174 0.173892 0.0222934
0.441657 0.164065 0.0125124
0.510109 0.155749 0.00395209
0.579049 0.148592 0
0.646174 0.143557 0
0.712489 0.139651 0
0.776867 0.138323 0
0.839231 0.139574 0
0.899672 0.14287 0
0.957488 0.14963 0
1 0.159487 0
1 0.172625 0
1 0.189548 0
1 0.210208 0
1 0.234653 0
1 0.26244 0
1 0.294163 0
1 0.328695 0
1 0.366857 0
1 0.407218 0
0 0.245243 0.182956
0 0.246967 0.182849
0 0.247913 0.181979
0 0.248814 0.180987
0 0.249271 0.179095
0 0.249378 0.176196
0.00123598 0.249012 0.171832
0.0375219 0.247669 0.163546
0.0499275 0.251621 0.13814
0.0867018 0.250492 0.112795
0.149172 0.240879 0.0986496
0.210208 0.235981 0.0627298
0.280415 0.2271 0.0438392
0.352865 0.216175 0.0301518
0.423865 0.205951 0.0177768
0.493858 0.196765 0.00732433
0.563699 0.188678 0
0.631876 0.182483 0
0.699413 0.178027 0
0.765362 0.175662 0
0.828367 0.175738 0
0.889509 0.177798 0
0.948028 0.183276 0
1 0.191318 0
1 0.202533 0
1 0.217746 0
1 0.236408 0
1 0.25832 0
1 0.284108 0
1 0.313512 0
1 0.345907 0
1 0.381888 0
1 0.420218 0
0 0.282948 0.204288
0 0.28452 0.204135
0 0.285359 0.203311
0 0.285924 0.202106
0 0.286412 0.200549
0 0.286549 0.198062
0.0168307 0.286061 0.194263
0.0407263 0.287144 0.183841
0.0523232 0.290944 0.162524
0.0689555 0.293111 0.133104
0.134615 0.283421 0.123507
0.195407 0.275227 0.103304
0.258701 0.271717 0.0576944
0.331716 0.261524 0.0431373
0.404929 0.250874 0.0283818
0.477028 0.240726 0.0149691
0.547265 0.23209 0.00376898
0.617563 0.224598 0
0.685313 0.219211 0
0.752361 0.215518 0
0.81622 0.214328 0
0.878508 0.215198 0
0.937758 0.219074 0
0.993698 0.22562 0
1 0.235492 0
1 0.248432 0
1 0.26479 0
1 0.284764 0
1 0.308324 0
1 0.335317 0
1 0.365393 0
1 0.39884 0
1 0.43508 0.00383001
0 0.322652 0.227741
0 0.324025 0.227543
0 0.324727 0.226703
0 0.325368 0.225727
0 0.325521 0.224109
0.00827039 0.325658 0.221973
0.0349279 0.325765 0.217517
0.0459449 0.328984 0.204929
0.056199 0.332219 0.186709
0.0644236 0.335393 0.159319
0.122621 0.328466 0.147524
0.181888 0.319066 0.135058
0.243488 0.312123 0.107149
0.308598 0.308339 0.0591287
0.383963 0.297597 0.0442359
0.458351 0.28719 0.0280613
0.530556 0.277699 0.0140383
0.601709 0.269474 0.002121
0.670481 0.263035 0
0.738064 0.257816 0
0.802853 0.255421 0
0.865888 0.255207 0
0.92639 0.257527 0
0.983032 0.262303 0
1 0.270481 0
1 0.281376 0
1 0.295903 0
1 0.313726 0
1 0.334874 0
1 0.359182 0
1 0.386969 0
1 0.418128 0
1 0.451896 0.00915541
0 0.364294 0.253193
0 0.365255 0.252766
0 0.365911 0.252018
0 0.366506 0.251148
0.0126345 0.366567 0.249638
0.0339666 0.367391 0.24654
0.0435645 0.369802 0.238025
0.0535592 0.372702 0.226627
0.0626688 0.375402 0.210834
0.0705272 0.378088 0.187915
0.112886 0.374609 0.171756
0.170275 0.365332 0.162707
0.23064 0.356405 0.146227
0.29366 0.351186 0.109957
0.361791 0.346288 0.0647898
0.437766 0.335698 0.0480354
0.512413 0.325582 0.0306096
0.584237 0.316609 0.0155947
0.654902 0.308766 0.00294499
0.722774 0.303059 0
0.789014 0.299229 0
0.852506 0.297673 0
0.913848 0.298344 0
0.971069 0.301579 0
1 0.308049 0
1 0.316899 0
1 0.329381 0
1 0.344747 0
1 0.363516 0
1 0.385534 0
1 0.410864 0
1 0.43946 0.0018616
1 0.470741 0.0161898
0 0.407782 0.280507
0 0.408316 0.279789
0.0099031 0.408927 0.279103
0.0296635 0.409461 0.277989
0.0373541 0.411231 0.273198
0.0459449 0.41352 0.267308
0.0544594 0.415671 0.259495
0.0634165 0.41828 0.249363
0.0716411 0.420478 0.235157
0.0792859 0.422889 0.215885
0.105379 0.42153 0.196506
0.160952 0.413031 0.18941
0.22002 0.403769 0.178775
0.281407 0.395804 0.157458
0.345342 0.391638 0.111849
0.415885 0.385336 0.0726482
0.492241 0.375326 0.054551
0.566812 0.365606 0.0362707
0.638697 0.357061 0.0203098
0.707347 0.350317 0.00733959
0.774655 0.345068 0
0.838483 0.342321 0
0.900084 0.341161 0
0.958114 0.343191 0
1 0.347723 0
1 0.354635 0
1 0.365057 0
1 0.378195 0
1 0.394522 0
1 0.414405 0
1 0.437156 0
1 0.462882 0.00984207
1 0.491875 0.0247807
0.0192569 0.45243 0.309056
0.0319219 0.453849 0.306447
0.0397192 0.455787 0.302815
0.0463569 0.457221 0.298894
0.0534218 0.459007 0.294423
0.0608835 0.46099 0.28893
0.0683604 0.462745 0.281544
0.0763256 0.464973 0.272267
0.0838636 0.466804 0.259525
0.0905623 0.468894 0.243
0.101503 0.469337 0.222049
0.155581 0.461921 0.216373
0.210559 0.452689 0.208316
0.270909 0.443214 0.19472
0.33373 0.436408 0.167758
0.398856 0.4336 0.112963
0.471275 0.425788 0.0845045
0.54696 0.415763 0.0642405
0.619944 0.406775 0.0451057
0.69131 0.398672 0.0285801
0.758846 0.392615 0.0152285
0.823468 0.388525 0.00468452
0.885679 0.386404 0
0.944778 0.386725 0
1 0.389517 0
1 0.394583 0
1 0.402838 0
1 0.413779 0
1 0.428092 0
1 0.445212 0
1 0.465278 0.00889601
1 0.48864 0.0205692
1 0.514946 0.035462
0.046891 0.501854 0.331136
0.0542458 0.503639 0.327749
0.060914 0.505287 0.324254
0.0665446 0.506416 0.320394
0.0725719 0.507942 0.316258
0.0790417 0.509529 0.310887
0.0855573 0.510948 0.304097
0.092195 0.512734 0.295491
0.0980087 0.514168 0.284153
0.103593 0.51574 0.269337
0.107881 0.516625 0.249592
0.15523 0.510674 0.243427
0.20531 0.502037 0.236728
0.263493 0.492103 0.226978
0.324865 0.483711 0.210086
0.38761 0.47805 0.176791
0.453056 0.475624 0.117754
0.526787 0.466712 0.0983291
0.601846 0.45745 0.0782483
0.674037 0.448859 0.0581674
0.742641 0.441886 0.0414893
0.809079 0.436316 0.0278782
0.871321 0.433143 0.0175326
0.931441 0.431769 0.00984207
0.987198 0.432868 0.00459297
1 0.436347 0.0018616
1 0.442573 0.00146487
1 0.451453 0.00300603
1 0.463478 0.0071107
1 0.477897 0.0133822
1 0.495583 0.0221103
1 0.516609 0.0340276
1 0.539818 0.0483711
0.0732891 0.552712 0.352575
0.0794232 0.554162 0.349294
0.0847486 0.555123 0.345647
0.089662 0.556359 0.342199
0.0944533 0.557549 0.338201
0.0992905 0.55877 0.333135
0.104067 0.559869 0.326741
0.109163 0.561303 0.318959
0.113634 0.562203 0.308354
0.118227 0.563394 0.295476
0.121965 0.563943 0.278431
0.158831 0.559136 0.270466
0.204303 0.551263 0.264759
0.259358 0.54197 0.257511
0.318456 0.532372 0.245716
0.379599 0.524636 0.224231
0.443015 0.5205 0.18471
0.508507 0.517693 0.131029
0.582635 0.508293 0.114137
0.655665 0.499306 0.0954452
0.726009 0.491402 0.0754253
0.792889 0.485054 0.0583658
0.856428 0.480476 0.0448463
0.916838 0.477882 0.0346227
0.973526 0.477623 0.0273747
1 0.47953 0.0230564
1 0.483909 0.0212711
1 0.4907 0.0216526
1 0.50045 0.0250248
1 0.512627 0.030457
1 0.528084 0.0391394
1 0.545876 0.0501717
1 0.566949 0.0645151
0.101717 0.603571 0.373724
0.105653 0.604303 0.37026
0.109468 0.60528 0.366964
0.112978 0.60621 0.363607
0.116365 0.607111 0.359716
0.119646 0.607767 0.35494
0.123445 0.608789 0.349096
0.127275 0.609766 0.341665
0.130739 0.610346 0.332265
0.134264 0.611093 0.320577
0.137194 0.61117 0.305562
0.166888 0.607217 0.297475
0.207965 0.600214 0.292653
0.258534 0.591318 0.286564
0.314763 0.581628 0.277867
0.374823 0.572915 0.263432
0.436057 0.566217 0.236957
0.498817 0.562875 0.190814
0.56466 0.559091 0.145617
0.638163 0.550057 0.131792
0.709102 0.54168 0.114366
0.776913 0.534569 0.0969863
0.841749 0.528862 0.0803998
0.902403 0.525154 0.0670787
0.960449 0.523171 0.0570535
1 0.523751 0.0504768
1 0.526421 0.0469368
1 0.531167 0.0455024
1 0.538811 0.0476692
1 0.548867 0.0522011
1 0.561715 0.0597238
1 0.577218 0.0700999
1 0.595438 0.0836957
0.127687 0.65359 0.394049
0.130587 0.654368 0.390875
0.133303 0.655055 0.387686
0.135714 0.655711 0.384466
0.138064 0.65626 0.380819
0.140414 0.656657 0.376196
0.143221 0.657282 0.370672
0.146044 0.657984 0.36405
0.148562 0.658106 0.355245
0.151339 0.658473 0.344793
0.153765 0.65832 0.33164
0.17937 0.654429 0.324376
0.216815 0.647791 0.319997
0.262928 0.639597 0.314809
0.315892 0.630198 0.307897
0.373266 0.620966 0.297307
0.432486 0.612879 0.278843
0.493004 0.607477 0.247196
0.555596 0.605524 0.195132
0.621912 0.600015 0.163882
0.69247 0.591272 0.150149
0.760845 0.58352 0.134234
0.825727 0.577234 0.118898
0.888029 0.572229 0.104921
0.946212 0.569253 0.0933394
1 0.568124 0.0841535
1 0.569162 0.0780041
1 0.572595 0.0751812
1 0.57818 0.0753948
1 0.585977 0.0783246
1 0.59675 0.085069
1 0.609705 0.0935836
1 0.625757 0.105318
0.152224 0.703105 0.413581
0.154269 0.703609 0.410651
0.156069 0.704021 0.407584
0.157458 0.704097 0.404303
0.159213 0.704479 0.400931
0.161044 0.70486 0.39678
0.163058 0.70518 0.391653
0.165087 0.705425 0.38526
0.166903 0.70518 0.377264
0.169024 0.70515 0.367834
0.17084 0.704585 0.356008
0.196338 0.700221 0.350652
0.230228 0.694301 0.346944
0.272343 0.686503 0.34229
0.321965 0.677577 0.336492
0.376028 0.668315 0.328206
0.433097 0.659403 0.314427
0.491569 0.652888 0.292058
0.55082 0.648753 0.25539
0.611795 0.647227 0.198489
0.677699 0.640162 0.182116
0.745892 0.632395 0.169512
0.811551 0.625223 0.155123
0.873793 0.619486 0.141451
0.93225 0.615518 0.129702
0.987991 0.61297 0.11989
1 0.612634 0.112795
1 0.614267 0.108431
1 0.618006 0.106523
1 0.624079 0.107683
1 0.632639 0.111589
1 0.643565 0.118166
1 0.657221 0.127993
0.175494 0.751049 0.431907
0.176547 0.750896 0.428733
0.177768 0.751141 0.425895
0.178943 0.751339 0.423026
0.180148 0.751431 0.419715
0.181369 0.751537 0.415747
0.18265 0.751492 0.410941
0.183917 0.751232 0.405005
0.185458 0.75111 0.398077
0.186923 0.750698 0.389334
0.190158 0.749386 0.37937
0.216297 0.744778 0.37641
0.248127 0.739055 0.373037
0.28687 0.731716 0.368887
0.332921 0.723476 0.364004
0.383169 0.714382 0.357076
0.437522 0.705242 0.346303
0.493614 0.697734 0.329442
0.55024 0.692149 0.302403
0.608454 0.689326 0.260945
0.667704 0.687221 0.214267
0.732982 0.679683 0.200824
0.797909 0.67219 0.188571
0.859678 0.665949 0.175906
0.919051 0.660761 0.163851
0.974273 0.65745 0.153765
1 0.655802 0.145693
1 0.65594 0.140047
1 0.658259 0.136904
1 0.662562 0.136355
1 0.669322 0.138811
1 0.677943 0.143648
1 0.689555 0.151995
0.197116 0.796658 0.448234
0.197971 0.796735 0.445579
0.198749 0.796704 0.442741
0.199527 0.796719 0.440101
0.20032 0.796597 0.436973
0.200931 0.796231 0.433173
0.201801 0.795987 0.428733
0.202853 0.795697 0.423438
0.20383 0.795254 0.416938
0.204852 0.794446 0.409033
0.217197 0.791699 0.403998
0.241245 0.787198 0.401297
0.271077 0.78175 0.398306
0.306737 0.774868 0.394583
0.349035 0.767132 0.390219
0.395972 0.758328 0.384131
0.446632 0.749828 0.375677
0.499443 0.74165 0.362158
0.553368 0.735134 0.341375
0.608743 0.731121 0.310262
0.665385 0.728878 0.263767
0.722942 0.725551 0.229221
0.786526 0.717906 0.219196
0.848371 0.711315 0.208087
0.906935 0.70573 0.196735
0.962386 0.701381 0.186358
1 0.698497 0.177569
1 0.697597 0.171115
1 0.698375 0.167041
1 0.701213 0.165469
1 0.70576 0.166262
1 0.713069 0.170321
1 0.722408 0.176974
0.217655 0.840299 0.462882
0.218173 0.840192 0.46038
0.21857 0.839918 0.457771
0.218875 0.839506 0.455055
0.219394 0.839307 0.452354
0.219959 0.838956 0.448875
0.220508 0.83859 0.444831
0.221149 0.838071 0.439963
0.221881 0.837369 0.434134
0.229572 0.835126 0.429587
0.248081 0.831601 0.427527
0.27129 0.827222 0.425162
0.298802 0.821775 0.422278
0.332082 0.815625 0.419135
0.370809 0.808454 0.415229
0.413809 0.800198 0.409827
0.461128 0.791897 0.402411
0.510414 0.783719 0.391165
0.561364 0.776898 0.374594
0.613672 0.771817 0.34992
0.667201 0.768505 0.313924
0.721843 0.767529 0.263951
0.778515 0.762219 0.246357
0.838544 0.754925 0.237339
0.896422 0.748806 0.227039
0.951522 0.743862 0.21709
1 0.740322 0.208484
1 0.737987 0.201404
1 0.737682 0.196765
1 0.739239 0.194537
1 0.742519 0.194675
1 0.747906 0.197421
1 0.755322 0.202686
0.236652 0.880995 0.475395
0.236927 0.880659 0.472908
0.237217 0.880415 0.470634
0.237476 0.880049 0.468162
0.237781 0.879728 0.46569
0.238117 0.879255 0.462547
0.238514 0.878721 0.45893
0.240192 0.877623 0.454826
0.252049 0.87509 0.453315
0.266697 0.872251 0.451759
0.284581 0.868864 0.449989
0.306264 0.864775 0.447944
0.332311 0.859464 0.445258
0.362921 0.853727 0.442435
0.398383 0.846769 0.43859
0.437842 0.839338 0.433783
0.481041 0.831617 0.427192
0.52604 0.82388 0.417639
0.573999 0.816983 0.403677
0.623011 0.811109 0.383185
0.673136 0.807004 0.35433
0.724544 0.805081 0.315053
0.776211 0.803113 0.275303
0.831937 0.796872 0.263874
0.888243 0.790234 0.25539
0.942428 0.784955 0.246738
0.993469 0.780682 0.238499
1 0.777844 0.231754
1 0.776318 0.226627
1 0.776425 0.223713
1 0.778561 0.223255
1 0.782193 0.224872
1 0.788052 0.229099
0.254536 0.919066 0.485786
0.254734 0.918715 0.483787
0.254902 0.918288 0.481453
0.255161 0.917952 0.47924
0.259663 0.916793 0.478202
0.266209 0.915267 0.477333
0.273991 0.913756 0.476539
0.283513 0.911894 0.475563
0.295598 0.909468 0.474296
0.309819 0.906691 0.472969
0.326955 0.903365 0.471336
0.347066 0.899077 0.469215
0.371237 0.894392 0.466957
0.399054 0.889052 0.464302
0.431037 0.882521 0.460609
0.466667 0.875853 0.456214
0.505699 0.86865 0.450065
0.547372 0.861341 0.441444
0.591608 0.854612 0.429297
0.636591 0.848676 0.412161
0.683726 0.843931 0.3879
0.73167 0.841093 0.355734
0.780285 0.839582 0.313191
0.829557 0.836149 0.289509
0.883635 0.829801 0.282002
0.935699 0.823804 0.274434
0.984863 0.819028 0.267094
1 0.815305 0.260563
1 0.813153 0.25568
1 0.812314 0.25243
1 0.813016 0.25124
1 0.815686 0.252384
1 0.820081 0.255711
0.291356 0.95137 0.499321
0.296391 0.950317 0.498802
0.300999 0.949447 0.49836
0.30605 0.948409 0.497841
0.311635 0.947265 0.497276
0.317876 0.946059 0.496712
0.325948 0.944396 0.495949
0.335103 0.942611 0.495109
0.346654 0.940261 0.494011
0.359564 0.937346 0.492592
0.375341 0.934218 0.491157
0.393957 0.93051 0.489418
0.4159 0.926116 0.487282
0.440955 0.920897 0.484504
0.469429 0.915175 0.481147
0.50135 0.909041 0.476844
0.536019 0.902296 0.470939
0.573816 0.89575 0.463081
0.613855 0.88925 0.452033
0.655924 0.883452 0.436851
0.699367 0.878706 0.41619
0.743664 0.875227 0.388907
0.788693 0.872999 0.353643
0.834531 0.87155 0.316442
0.882475 0.866484 0.306233
0.932387 0.860258 0.30042
0.97998 0.854978 0.294072
1 0.850858 0.288258
1 0.847913 0.283558
1 0.846479 0.280446
1 0.846433 0.279011
1 0.847517 0.279011
1 0.850645 0.28127
0.353658 0.977295 0.516915
0.358495 0.976287 0.516457
0.363241 0.975204 0.515953
0.367926 0.974075 0.515419
0.372625 0.973083 0.514992
0.378882 0.971786 0.514397
0.386374 0.97023 0.513695
0.394781 0.968551 0.512978
0.405371 0.966339 0.511986
