public/textures/grade/Blackmagic/Parasitic-BMDFilm.cube
TITLE "Generated by Resolve"
LUT_3D_SIZE 9
0 0 0
0.0887465 0 0
0.253925 0 0
0.440589 0 0
0.621805 0 0
0.769787 0 0
0.89044 0.0648661 0
1 0.203281 0
1 0.391104 0
0 0.0702983 0
0.0246891 0.061677 0
0.196582 0.0387579 0
0.394537 0.0172885 0
0.585519 0.0130922 0
0.750164 0.0423285 0
0.887877 0.117739 0
1 0.238987 0
1 0.411414 0
0 0.172763 0
0 0.171695 0
0.121279 0.157061 0
0.321721 0.136645 0
0.53341 0.124056 0
0.724025 0.137469 0
0.880629 0.191714 0
1 0.291981 0
1 0.44329 0
0 0.306844 0
0 0.30837 0
0.0724498 0.301946 0
0.248493 0.28983 0
0.468025 0.275013 0
0.683452 0.274449 0
0.858183 0.306432 0
1 0.379034 0
1 0.499336 0
0 0.478798 0
0 0.48011 0
0.0569162 0.476783 0
0.20441 0.469322 0
0.404807 0.457099 0
0.625177 0.448402 0
0.817624 0.460548 0
0.987579 0.504005 0
1 0.587488 0
0 0.670649 0
0.0328527 0.66862 0
0.1019 0.665766 0
0.216037 0.660029 0
0.381826 0.64947 0
0.581445 0.637598 0
0.77818 0.636713 0
0.95375 0.657206 0
1 0.70605 0
0.153292 0.851606 0
0.18085 0.849668 0
0.22417 0.846754 0
0.301167 0.841169 0
0.420539 0.832013 0
0.580987 0.821057 0
0.757763 0.813886 0
0.924254 0.817945 0
1 0.840604 0
0.357824 1 0
0.372442 1 0
0.395987 1 0
0.440589 1 0
0.516411 0.993545 0
0.629282 0.982895 0
0.768734 0.971664 0
0.912932 0.966186 0
1 0.972061 0
0.583871 1 0
0.590661 1 0
0.601556 1 0
0.622843 1 0
0.662455 1 0
0.727611 1 0
0.820249 1 0
0.930129 1 0
1 1 0
0 0 0.111025
0.0628824 0 0.0988022
0.242802 0 0.0580453
0.442496 0 0
0.630945 0 0
0.779324 0 0
0.890639 0.0620432 0
1 0.201389 0
1 0.390127 0
0 0.0565805 0.0511788
0.0188907 0.0542611 0.0411536
0.207691 0.0285496 0
0.404715 0.00914015 0
0.596262 0.00762951 0
0.759258 0.0391241 0
0.888182 0.115404 0
1 0.237293 0
1 0.410437 0
0 0.165011 0
0 0.166384 0
0.12253 0.154971 0
0.331441 0.133715 0
0.5449 0.122042 0
0.731807 0.135988 0
0.880919 0.189776 0
1 0.290562 0
1 0.44242 0
0 0.305928 0
0 0.308522 0
0.0750896 0.302892 0
0.252277 0.291249 0
0.473671 0.275044 0
0.68542 0.273152 0
0.858564 0.305089 0
1 0.377981 0
1 0.498726 0
0 0.478126 0
0 0.47924 0
0.0575418 0.475868 0
0.204868 0.468605 0
0.405463 0.456291 0
0.625589 0.447517 0
0.817899 0.459739 0
0.987747 0.503319 0
1 0.58703 0
0 0.670192 0
0.0332494 0.668238 0
0.102251 0.665385 0
0.216297 0.659571 0
0.381949 0.649058 0
0.581613 0.637156 0
0.778302 0.636301 0
0.953857 0.65684 0
1 0.705745 0
0.153506 0.851408 0
0.181018 0.849439 0
0.224369 0.846571 0
0.301305 0.84094 0
0.420661 0.8318 0
0.581064 0.820859 0
0.757824 0.813703 0
0.9243 0.817777 0
1 0.840452 0
0.357916 1 0
0.372519 1 0
0.396063 1 0
0.440665 1 0
0.516457 0.993469 0
0.629313 0.982818 0
0.76875 0.971588 0
0.912947 0.96611 0
1 0.972 0
0.583902 1 0
0.590707 1 0
0.601572 1 0
0.622873 1 0
0.662486 1 0
0.727626 1 0
0.820264 1 0
0.930129 1 0
1 1 0
0 0 0.298451
0.0446021 0 0.292531
0.199924 0 0.269749
0.419089 0 0.208545
0.632197 0 0.122759
0.795758 0 0.0431678
0.927108 0.0555428 0
1 0.202274 0
1 0.388602 0
0 0.0424201 0.238132
0.0154116 0.03888 0.230228
0.164553 0.0223239 0.214176
0.393454 0 0.160906
0.60415 0 0.0894636
0.779797 0.0296025 0.0273899
0.925856 0.110628 0
1 0.237888 0
1 0.408743 0
0 0.149905 0.152789
0 0.152087 0.14966
0.100938 0.149859 0.138857
0.348013 0.120943 0.0790723
0.564187 0.112505 0.0351415
0.759396 0.129824 0
0.917662 0.187854 0
1 0.2907 0
1 0.440955 0
0 0.297139 0.0614786
0 0.301244 0.0590677
0.076051 0.300572 0.0412604
0.253422 0.291127 0
0.493004 0.274052 0
0.716396 0.273335 0
0.889555 0.307057 0
1 0.376257 0
1 0.497505 0
0 0.482826 0
0 0.484962 0
0.0610513 0.483558 0
0.206836 0.478355 0
0.414298 0.465248 0
0.643488 0.45449 0
0.833387 0.463493 0
0.988067 0.502159 0
1 0.586252 0
0 0.675929 0
0.0357824 0.674052 0
0.104311 0.671244 0
0.217777 0.664622 0
0.383505 0.652461 0
0.582544 0.637201 0
0.778515 0.635584 0
0.95404 0.656214 0
1 0.705242 0
0.153872 0.851072 0
0.181323 0.849058 0
0.224704 0.846235 0
0.301534 0.840574 0
0.420859 0.831434 0
0.58114 0.820523 0
0.757916 0.813382 0
0.924376 0.817487 0
1 0.840208 0
0.358053 1 0
0.372656 1 0
0.396185 1 0
0.440772 1 0
0.516548 0.993317 0
0.629389 0.982666 0
0.768811 0.97145 0
0.912978 0.965988 0
1 0.971878 0
0.583963 1 0
0.590753 1 0
0.601633 1 0
0.622919 1 0
0.662516 1 0
0.727657 1 0
0.820294 1 0
0.930144 1 0
1 1 0
0 0 0.550622
0.0242618 0 0.543938
0.162737 0 0.526543
0.368933 0 0.486107
0.602533 0 0.401999
0.795666 0 0.29723
0.952773 0.0329595 0.216419
1 0.19559 0.12723
1 0.395239 0
0 0.0136721 0.502998
0.00910964 0.00965896 0.492805
0.14081 0 0.475196
0.341054 0 0.43917
0.578714 0 0.365301
0.784497 0.00671397 0.278828
0.956054 0.090486 0.202747
1 0.232136 0.112993
1 0.41561 0
0 0.130678 0.398444
0 0.133196 0.392142
0.10135 0.129412 0.381537
0.293172 0.113176 0.364569
0.552697 0.094377 0.312779
0.775464 0.109529 0.242756
0.953399 0.170474 0.17377
1 0.287114 0.0892653
1 0.447395 0
0 0.280842 0.295079
0 0.284871 0.296071
0.0780652 0.286366 0.292165
0.220935 0.285039 0.279698
0.514885 0.255177 0.2103
0.745968 0.256901 0.163409
0.931319 0.293736 0.113771
1 0.378134 0.0445258
1 0.503227 0
0 0.471992 0.19585
0 0.474632 0.193896
0.063508 0.475715 0.18584
0.19852 0.473503 0.15996
0.411627 0.462791 0.100786
0.665003 0.449226 0.0503548
0.874723 0.460136 0.0188602
1 0.50782 0
1 0.58909 0
0 0.680293 0.0542458
0.0325017 0.680064 0.0476081
0.0977798 0.678874 0.0363775
0.208438 0.674708 0.0139925
0.377478 0.665293 0
0.593042 0.651225 0
0.803632 0.645945 0
0.962783 0.663844 0
1 0.704158 0
0.150515 0.865141 0
0.177615 0.863157 0
0.220874 0.860334 0
0.298573 0.854185 0
0.421332 0.843381 0
0.586435 0.827955 0
0.762371 0.817472 0
0.924544 0.816861 0
1 0.839658 0
0.358343 1 0
0.372946 1 0
0.39646 1 0
0.441016 1 0
0.516747 0.992996 0
0.629526 0.982361 0
0.768902 0.97116 0
0.913054 0.965713 0
1 0.971649 0
0.58407 1 0
0.590875 1 0
0.60174 1 0
0.623026 1 0
0.662608 1 0
0.727718 1 0
0.820325 1 0
0.930159 1 0
1 1 0
0 0 0.841581
0.00323491 0 0.831861
0.132021 0 0.811414
0.319097 0 0.775296
0.552102 0 0.712459
0.765225 0 0.604608
0.945418 0 0.515419
1 0.162432 0.444205
1 0.373724 0.314916
0 0 0.818158
0.00460822 0 0.804395
0.128862 0 0.781216
0.307164 0 0.739391
0.529625 0 0.670069
0.751629 0 0.583291
0.954192 0.05832 0.511193
1 0.200565 0.433082
1 0.394903 0.303136
0 0.095201 0.700267
0 0.0973526 0.688914
0.0993515 0.0938277 0.672663
0.269184 0.085069 0.650797
0.499382 0.074403 0.617761
0.747723 0.0844282 0.562646
0.960159 0.14107 0.494118
1 0.256886 0.412116
1 0.427802 0.284657
0 0.259144 0.568963
0 0.263279 0.569635
0.0754864 0.26453 0.567605
0.224659 0.260563 0.562707
0.455573 0.244633 0.554803
0.734508 0.23331 0.510811
0.953155 0.266117 0.44358
1 0.349706 0.365332
1 0.486641 0.247761
0 0.454673 0.481056
0 0.456977 0.481636
0.0679332 0.458396 0.480278
0.196582 0.456931 0.473228
0.375174 0.452277 0.456352
0.688731 0.423957 0.386114
0.910445 0.435248 0.337819
1 0.485054 0.280522
1 0.579278 0.185489
0 0.66688 0.382254
0.0336461 0.666712 0.379553
0.0957046 0.665797 0.374304
0.200488 0.66302 0.361364
0.359274 0.656428 0.328328
0.583459 0.643488 0.259297
0.82092 0.634119 0.205722
1 0.651026 0.166629
1 0.703349 0.0960708
0.126665 0.864286 0.230426
0.152621 0.86273 0.225299
0.194232 0.860639 0.217166
0.269383 0.855817 0.200107
0.39089 0.846922 0.168688
0.56376 0.833509 0.122972
0.761028 0.819989 0.0778668
0.937255 0.818769 0.0387121
1 0.83975 0
0.348333 1 0
0.363043 1 0
0.386847 1 0
0.432135 1 0
0.510002 0.998871 0
0.627192 0.985748 0
0.76997 0.97258 0
0.915297 0.96759 0
1 0.97116 0
0.584329 1 0
0.591119 1 0
0.601968 1 0
0.62324 1 0
0.662791 1 0
0.727855 1 0
0.820417 1 0
0.930205 1 0
1 1 0
0 0 1
0 0 1
0.110658 0 1
0.283833 0 1
0.501167 0 0.985443
0.734646 0 0.912993
0.902342 0 0.794827
1 0.121294 0.766644
1 0.335927 0.693812
0 0 1
0.00129702 0 1
0.120821 0 1
0.290517 0 1
0.497917 0 0.968643
0.709758 0 0.867582
0.914611 0.0101778 0.801678
1 0.162188 0.763851
1 0.357168 0.684657
0 0.0280308 1
0 0.0294499 1
0.105135 0.0261387 0.97937
0.264698 0.0217746 0.941039
0.470588 0.0220188 0.894621
0.702129 0.04271 0.847303
0.926452 0.104204 0.804746
1 0.222202 0.754559
1 0.390875 0.669352
0 0.221286 0.855787
0 0.224933 0.854597
0.0813764 0.225299 0.852049
0.229313 0.221485 0.848096
0.435691 0.213031 0.842191
0.686748 0.210132 0.824918
0.925002 0.238544 0.784314
1 0.317815 0.725368
1 0.449851 0.63595
0 0.431861 0.766323
0 0.434501 0.767956
0.0673381 0.435386 0.767407
0.196506 0.433417 0.763775
0.380758 0.426337 0.756756
0.632395 0.411124 0.752621
0.897841 0.409155 0.718746
1 0.452583 0.658289
1 0.543236 0.573281
0 0.650004 0.686366
0.036286 0.65008 0.685634
0.0978561 0.648844 0.683024
0.201648 0.645197 0.676493
0.355718 0.637964 0.663584
0.550408 0.629023 0.64239
0.840528 0.605158 0.582177
1 0.620508 0.5346
1 0.671336 0.47187
0.121309 0.848157 0.594858
0.147433 0.846677 0.59234
0.1879 0.844099 0.587961
0.260685 0.838712 0.578592
0.376944 0.830381 0.560784
0.539605 0.818875 0.52256
0.744686 0.805768 0.452918
0.945891 0.799237 0.399313
1 0.817075 0.352285
0.307164 1 0.443214
0.321431 1 0.44004
0.344305 1 0.434852
0.387823 0.997986 0.424018
0.463966 0.990219 0.402975
0.580972 0.978607 0.366583
0.734417 0.963989 0.317159
0.897124 0.952392 0.268498
1 0.953582 0.217456
0.553445 1 0.122148
0.560479 1 0.120256
0.571756 1 0.117235
0.593896 1 0.11133
0.635355 1 0.100069
0.704005 1 0.0821851
0.802365 1 0.0568246
0.917418 1 0.0222477
1 1 0
0 0 1
0 0 1
0.102205 0 1
0.271977 0 1
0.486412 0 1
0.718608 0 1
0.931533 0 1
1 0.043534 1
1 0.294896 0.997879
0 0 1
0 0 1
0.112184 0 1
0.278172 0 1
0.490181 0 1
0.720409 0 1
0.884733 0 1
1 0.0970779 1
1 0.318288 0.993805
0 0 1
0.0180056 0 1
0.128054 0 1
0.286915 0 1
0.483131 0 1
0.675578 0 1
0.881254 0.0236362 1
1 0.170001 1
1 0.354803 0.986068
0 0.143999 1
0.00801099 0.145998 1
0.104784 0.146273 1
0.246921 0.144045 1
0.439628 0.141604 1
0.667704 0.15021 1
0.892638 0.19118 1
1 0.280369 1
1 0.417472 0.966964
0 0.39292 1
0.002533 0.394812 1
0.0829023 0.395209 1
0.210681 0.392981 1
0.392752 0.38645 1
0.621485 0.378714 1
0.862745 0.385061 1
1 0.426657 0.975372
1 0.51339 0.92546
0.00129702 0.62974 0.943801
0.0416419 0.629328 0.942992
0.102678 0.628061 0.941024
0.205417 0.624582 0.936233
0.357794 0.616815 0.926635
0.556542 0.605646 0.917906
0.794614 0.59202 0.918379
1 0.596063 0.895659
1 0.640299 0.8448
0.122316 0.833997 0.873014
0.148089 0.831952 0.870665
0.188617 0.829297 0.867445
0.261036 0.823682 0.86067
0.377478 0.814054 0.8486
0.537514 0.800885 0.830701
0.720653 0.789166 0.80885
0.956115 0.771572 0.764126
1 0.786297 0.721325
0.30132 0.98883 0.78912
0.315526 0.987259 0.787167
0.338598 0.98471 0.783963
0.381567 0.979629 0.777508
0.456367 0.970886 0.765682
0.568368 0.958404 0.745663
0.712489 0.945022 0.710658
0.877638 0.934051 0.647639
1 0.929931 0.598901
0.509346 1 0.654276
0.515999 1 0.652506
0.526787 1 0.649622
0.547921 1 0.643809
0.587579 1 0.631983
0.653864 1 0.610437
0.751186 1 0.574701
0.873854 1 0.526894
0.999527 1 0.479118
0 0 1
0 0 1
0.108705 0 1
0.271656 0 1
0.480217 0 1
0.708766 0 1
0.919264 0 1
1 0 1
1 0.204303 1
0 0 1
0.00784314 0 1
0.117876 0 1
0.278004 0 1
0.483879 0 1
0.710536 0 1
0.919905 0 1
1 0 1
1 0.238773 1
0 0 1
0.028748 0 1
0.133715 0 1
0.288243 0 1
0.490089 0 1
0.713558 0 1
0.921157 0 1
1 0.00250248 1
1 0.286915 1
0 0 1
0.0658885 0 1
0.159747 0 1
0.301259 0 1
0.479988 0 1
0.670741 0 1
0.873747 0.0451057 1
1 0.189456 1
1 0.366003 1
0 0.305135 1
0.0497444 0.305974 1
0.127275 0.306218 1
0.250248 0.30425 1
0.425406 0.300374 1
0.640146 0.300862 1
0.860594 0.321294 1
1 0.378668 1
1 0.479179 1
0.0267491 0.59295 1
0.0661479 0.592767 1
0.125414 0.591409 1
0.225895 0.587396 1
0.37705 0.579889 1
0.572839 0.569604 1
0.793027 0.562478 1
0.999893 0.57377 1
1 0.618158 1
0.132433 0.81709 1
0.157565 0.815488 1
0.197055 0.812451 1
0.268376 0.806912 1
0.383032 0.797574 1
0.540368 0.784207 1
0.725383 0.770642 1
0.924483 0.759533 1
1 0.76611 1
0.303395 0.976928 1
0.317357 0.975311 1
0.340414 0.972595 1
0.383124 0.967254 1
0.457618 0.958099 0.992233
0.570077 0.944808 0.977035
0.713451 0.929397 0.957671
0.865629 0.91754 0.938003
1 0.906783 0.911086
0.507225 1 0.939116
0.513542 1 0.938079
0.524788 1 0.936156
0.545876 1 0.932357
0.585519 1 0.925505
0.651621 1 0.913512
0.746029 1 0.895155
0.859007 1 0.866133
0.980529 1 0.817014
0 0 1
0.0381933 0 1
0.139254 0 1
0.289479 0 1
0.487358 0 1
0.707759 0 1
0.913359 0 1
1 0 1
1 0 1
0 0 1
0.0493172 0 1
0.147539 0 1
0.29543 0 1
0.490455 0 1
0.709453 0 1
0.914061 0 1
1 0 1
1 0 1
0 0 1
0.0674754 0 1
0.161563 0 1
0.305013 0 1
0.49633 0 1
0.712093 0 1
0.915282 0 1
1 0 1
1 0 1
0.0416419 0 1
0.103014 0 1
0.189761 0 1
0.324605 0 1
0.507851 0 1
0.717861 0 1
0.9178 0 1
1 0 1
1 0.185946 1
0.108553 0 1
0.157794 0 1
0.22948 0 1
0.341833 0 1
0.496468 0 1
0.683711 0.00340276 1
0.884215 0.085481 1
1 0.220081 1
1 0.386801 1
0.0910811 0.501167 1
0.12784 0.500511 1
0.184634 0.499031 1
0.280629 0.49604 1
0.425986 0.490074 1
0.616373 0.48394 1
0.824308 0.486763 1
1 0.512764 1
1 0.573663 1
0.162356 0.785595 1
0.185992 0.783749 1
0.224399 0.781125 1
0.292897 0.775845 1
0.404196 0.766629 1
0.55935 0.753887 1
0.742184 0.741268 1
0.929625 0.734844 1
1 0.746807 1
0.315007 0.964355 1
0.328908 0.962676 1
0.350622 0.959838 1
0.392981 0.954726 1
0.465553 0.945815 1
0.575936 0.932677 1
0.716808 0.917449 1
0.868345 0.904646 1
1 0.896315 1
0.510033 1 1
0.516335 1 1
0.527031 1 1
0.548363 1 1
0.587503 1 1
0.653437 1 1
0.748638 1 1
0.863218 1 1
0.977172 1 1
