public/textures/grade/Blackmagic/Parasitic-BMDFilm.cube
TITLE "Generated by Resolve"
LUT_3D_SIZE 5
0 0 0
0.253925 0 0
0.621805 0 0
0.89044 0.0648661 0
1 0.391104 0
0 0.172763 0
0.121279 0.157061 0
0.53341 0.124056 0
0.880629 0.191714 0
1 0.44329 0
0 0.478798 0
0.0569162 0.476783 0
0.404807 0.457099 0
0.817624 0.460548 0
1 0.587488 0
0.153292 0.851606 0
0.22417 0.846754 0
0.420539 0.832013 0
0.757763 0.813886 0
1 0.840604 0
0.583871 1 0
0.601556 1 0
0.662455 1 0
0.820249 1 0
1 1 0
0 0 0.298451
0.199924 0 0.269749
0.632197 0 0.122759
0.927108 0.0555428 0
1 0.388602 0
0 0.149905 0.152789
0.100938 0.149859 0.138857
0.564187 0.112505 0.0351415
0.917662 0.187854 0
1 0.440955 0
0 0.482826 0
0.0610513 0.483558 0
0.414298 0.465248 0
0.833387 0.463493 0
1 0.586252 0
0.153872 0.851072 0
0.224704 0.846235 0
0.420859 0.831434 0
0.757916 0.813382 0
1 0.840208 0
0.583963 1 0
0.601633 1 0
0.662516 1 0
0.820294 1 0
1 1 0
0 0 0.841581
0.132021 0 0.811414
0.552102 0 0.712459
0.945418 0 0.515419
1 0.373724 0.314916
0 0.095201 0.700267
0.0993515 0.0938277 0.672663
0.499382 0.074403 0.617761
0.960159 0.14107 0.494118
1 0.427802 0.284657
0 0.454673 0.481056
0.0679332 0.458396 0.480278
0.375174 0.452277 0.456352
0.910445 0.435248 0.337819
1 0.579278 0.185489
0.126665 0.864286 0.230426
0.194232 0.860639 0.217166
0.39089 0.846922 0.168688
0.761028 0.819989 0.0778668
1 0.83975 0
0.584329 1 0
0.601968 1 0
0.662791 1 0
0.820417 1 0
1 1 0
0 0 1
0.102205 0 1
0.486412 0 1
0.931533 0 1
1 0.294896 0.997879
0 0 1
0.128054 0 1
0.483131 0 1
0.881254 0.0236362 1
1 0.354803 0.986068
0 0.39292 1
0.0829023 0.395209 1
0.392752 0.38645 1
0.862745 0.385061 1
1 0.51339 0.92546
0.122316 0.833997 0.873014
0.188617 0.829297 0.867445
0.377478 0.814054 0.8486
0.720653 0.789166 0.80885
1 0.786297 0.721325
0.509346 1 0.654276
0.526787 1 0.649622
0.587579 1 0.631983
0.751186 1 0.574701
0.999527 1 0.479118
0 0 1
0.139254 0 1
0.487358 0 1
0.913359 0 1
1 0 1
0 0 1
0.161563 0 1
0.49633 0 1
0.915282 0 1
1 0 1
0.108553 0 1
0.22948 0 1
0.496468 0 1
0.884215 0.085481 1
1 0.386801 1
0.162356 0.785595 1
0.224399 0.781125 1
0.404196 0.766629 1
0.742184 0.741268 1
1 0.746807 1
0.510033 1 1
0.527031 1 1
0.587503 1 1
0.748638 1 1
0.977172 1 1
