public/textures/grade/Blackmagic/Parasitic-BMDFilm.cube
TITLE "Generated by Resolve"
LUT_3D_SIZE 33
0 0 0
0 0 0
0.0112154 0 0
0.0515602 0 0
0.0887465 0 0
0.12781 0 0
0.168063 0 0
0.210285 0 0
0.253925 0 0
0.299077 0 0
0.345541 0 0
0.392737 0 0
0.440589 0 0
0.487541 0 0
0.534173 0 0
0.57908 0 0
0.621805 0 0
0.663005 0 0
0.701198 0 0
0.736538 0 0
0.769787 0 0
0.800809 0 0
0.831373 0.0102846 0
0.860945 0.035935 0
0.89044 0.0648661 0
0.928817 0.0950027 0
0.970352 0.127611 0
1 0.163577 0
1 0.203281 0
1 0.246113 0
1 0.292058 0
1 0.340764 0
1 0.391104 0
0 0.0102388 0
0 0.00886549 0
0 0.00546273 0
0.0367895 0 0
0.0755169 0 0
0.114763 0 0
0.155871 0 0
0.19855 0 0
0.243015 0 0
0.288701 0 0
0.3355 0 0
0.383001 0 0
0.430945 0 0
0.477699 0 0
0.524041 0 0
0.569314 0 0
0.612436 0 0
0.654231 0 0
0.693187 0 0
0.729778 0 0
0.764675 0 0
0.797543 0.00587472 0
0.829007 0.0270237 0
0.859678 0.0513008 0
0.889906 0.0786297 0
0.927153 0.107607 0
0.969039 0.138918 0
1 0.173724 0
1 0.212192 0
1 0.254108 0
1 0.299168 0
1 0.346502 0
1 0.396323 0
0 0.0295567 0
0 0.0282139 0
0 0.0259861 0
0.0206912 0.0204318 0
0.0581826 0.0149081 0
0.0986191 0.00886549 0
0.141146 0.002533 0
0.184665 0 0
0.229923 0 0
0.27628 0 0
0.323644 0 0
0.371374 0 0
0.419623 0 0
0.467033 0 0
0.513771 0 0
0.559686 0 0
0.603296 0 0
0.646036 0 0
0.686122 0 0
0.72398 0 0
0.759793 0.00654612 0
0.793942 0.0232395 0
0.826734 0.0428779 0
0.858259 0.0657664 0
0.889326 0.0918288 0
0.925948 0.120043 0
0.968002 0.150088 0
1 0.183963 0
1 0.221286 0
1 0.261997 0
1 0.305623 0
1 0.352392 0
1 0.401328 0
0 0.0497902 0
0 0.0487678 0
0 0.0473182 0
0.00466926 0.0432441 0
0.0404822 0.0383917 0
0.0799573 0.0328985 0
0.12253 0.0269017 0
0.167819 0.0204929 0
0.213931 0.0142367 0
0.26154 0.00816358 0
0.309957 0.00270085 0
0.359304 0 0
0.407767 0 0
0.456641 0 0
0.504112 0 0
0.550546 0 0
0.59527 0 0
0.638056 0 0
0.679118 0.00242618 0
0.717937 0.0118868 0
0.754955 0.0241855 0
0.79057 0.0394293 0
0.824201 0.0579232 0
0.856992 0.0794385 0
0.888655 0.104433 0
0.924529 0.131746 0
0.966445 0.160632 0
1 0.193347 0
1 0.229694 0
1 0.269444 0
1 0.312428 0
1 0.358144 0
1 0.406363 0
0 0.0702983 0
0 0.0695811 0
0 0.0686809 0
0 0.066331 0
0.0246891 0.061677 0
0.062623 0.0567025 0
0.104555 0.0509957 0
0.149676 0.0448768 0
0.196582 0.0387579 0
0.24535 0.032517 0
0.294392 0.0267796 0
0.344778 0.0214694 0
0.394537 0.0172885 0
0.444404 0.0138247 0
0.492729 0.0119631 0
0.540063 0.0115358 0
0.585519 0.0130922 0
0.629389 0.0165866 0
0.671458 0.022446 0
0.711788 0.0310063 0
0.750164 0.0423285 0
0.786938 0.0563516 0
0.821881 0.0733959 0
0.85536 0.0939956 0
0.887877 0.117739 0
0.923003 0.14406 0
0.964797 0.171847 0
1 0.203586 0
1 0.238987 0
1 0.277699 0
1 0.319615 0
1 0.364233 0
1 0.411414 0
0 0.0927291 0
0 0.0925307 0
0 0.0919814 0
0 0.0902876 0
0.00953689 0.0863508 0
0.0457771 0.0822003 0
0.0860761 0.0774395 0
0.130663 0.0715648 0
0.177752 0.0654917 0
0.226886 0.0594186 0
0.27715 0.0535592 0
0.328054 0.0480659 0
0.378836 0.0433814 0
0.429755 0.0397192 0
0.479194 0.0370947 0
0.52752 0.0361639 0
0.574182 0.037232 0
0.619104 0.0399481 0
0.663188 0.0448157 0
0.704768 0.0523079 0
0.74432 0.0622873 0
0.78294 0.0751659 0
0.819028 0.0910964 0
0.853849 0.110414 0
0.887007 0.132921 0
0.921096 0.158129 0
0.963333 0.185107 0
1 0.215366 0
1 0.249363 0
1 0.286885 0
1 0.327642 0
1 0.371359 0
1 0.417639 0
0 0.117357 0
0 0.117571 0
0 0.117296 0
0 0.116075 0
0 0.112932 0
0.0302129 0.109331 0
0.068864 0.105058 0
0.111711 0.100038 0
0.157931 0.094377 0
0.206744 0.088365 0
0.257542 0.0825818 0
0.308843 0.0771954 0
0.361151 0.0720073 0
0.412604 0.0679179 0
0.463752 0.0649577 0
0.513405 0.0636149 0
0.561837 0.0636454 0
0.608225 0.0655222 0
0.653651 0.0697185 0
0.696788 0.0758526 0
0.738323 0.0848402 0
0.778256 0.0965438 0
0.816037 0.111177 0
0.851392 0.129107 0
0.885344 0.149981 0
0.918578 0.174319 0
0.961303 0.199908 0
1 0.228916 0
1 0.261463 0
1 0.298054 0
1 0.337591 0
1 0.380026 0
1 0.42504 0
0 0.144076 0
0 0.144488 0
0 0.144518 0
0 0.14374 0
0 0.141939 0
0.0161593 0.138033 0
0.0528725 0.134279 0
0.0939193 0.130007 0
0.138872 0.125109 0
0.186862 0.119646 0
0.237217 0.113909 0
0.289128 0.108278 0
0.341955 0.103197 0
0.394369 0.0990005 0
0.446967 0.0954147 0
0.498009 0.0933242 0
0.548241 0.0927291 0
0.59649 0.0937057 0
0.64358 0.0967575 0
0.688426 0.102052 0
0.731655 0.109895 0
0.773022 0.120134 0
0.811963 0.133425 0
0.848585 0.149859 0
0.883406 0.169589 0
0.91606 0.192721 0
0.958404 0.216922 0
0.998184 0.24445 0
1 0.275868 0
1 0.310613 0
1 0.348577 0
1 0.389578 0
1 0.43331 0
0 0.172763 0
0 0.173342 0
0 0.173388 0
0 0.173022 0
0 0.171695 0
0.00399786 0.168338 0
0.0392767 0.165255 0
0.0781567 0.161578 0
0.121279 0.157061 0
0.167636 0.152193 0
0.217029 0.147036 0
0.268818 0.141726 0
0.321721 0.136645 0
0.375708 0.132021 0
0.429328 0.128328 0
0.481804 0.125414 0
0.53341 0.124056 0
0.583673 0.124453 0
0.632807 0.126619 0
0.679011 0.130694 0
0.724025 0.137469 0
0.767147 0.146319 0
0.80763 0.158465 0
0.845304 0.173602 0
0.880629 0.191714 0
0.913375 0.213443 0
0.955291 0.236072 0
0.995209 0.262089 0
1 0.291981 0
1 0.324926 0
1 0.361318 0
1 0.401099 0
1 0.44329 0
0 0.203387 0
0 0.20412 0
0 0.204166 0
0 0.203967 0
0 0.202976 0
0 0.200198 0
0.0279545 0.197589 0
0.0647593 0.194537 0
0.10547 0.190829 0
0.150225 0.186679 0
0.19823 0.181994 0
0.249531 0.176928 0
0.302068 0.172107 0
0.356207 0.167361 0
0.410254 0.163333 0
0.464866 0.160098 0
0.518029 0.158328 0
0.570031 0.157794 0
0.620539 0.15903 0
0.669047 0.162112 0
0.715724 0.167575 0
0.760143 0.175296 0
0.801999 0.18613 0
0.840879 0.199435 0
0.876661 0.216281 0
0.909926 0.236194 0
0.951186 0.257649 0
0.991363 0.282185 0
1 0.310262 0
1 0.34139 0
1 0.376318 0
1 0.414008 0
1 0.454475 0
0 0.235721 0
0 0.236591 0
0 0.236927 0
0 0.236881 0
0 0.23621 0
0 0.234211 0
0.018204 0.231617 0
0.0534371 0.228992 0
0.0924697 0.226215 0
0.135027 0.222644 0
0.181155 0.218509 0
0.230503 0.213993 0
0.282887 0.209567 0
0.337392 0.204944 0
0.392187 0.200839 0
0.447395 0.197269 0
0.501854 0.194827 0
0.555673 0.193729 0
0.607507 0.193851 0
0.657877 0.196063 0
0.706401 0.200473 0
0.752224 0.206973 0
0.795285 0.216251 0
0.834867 0.228397 0
0.871794 0.243839 0
0.906035 0.262043 0
0.946792 0.281895 0
0.987381 0.304631 0
1 0.330632 0
1 0.360128 0
1 0.393057 0
1 0.428824 0
1 0.467384 0
0 0.270085 0
0 0.271015 0
0 0.271412 0
0 0.271672 0
0 0.271183 0
0 0.270008 0
0.0109255 0.267552 0
0.044419 0.265538 0
0.0813001 0.263096 0
0.121706 0.260166 0
0.166262 0.25684 0
0.214572 0.252949 0
0.265217 0.248707 0
0.318273 0.244404 0
0.373434 0.240223 0
0.429633 0.236454 0
0.485115 0.2336 0
0.540063 0.231769 0
0.59382 0.231434 0
0.645869 0.232868 0
0.695613 0.236118 0
0.742657 0.241428 0
0.787198 0.249363 0
0.827924 0.260014 0
0.865751 0.273732 0
0.900618 0.290257 0
0.941466 0.308354 0
0.982254 0.32929 0
1 0.353475 0
1 0.381109 0
1 0.411994 0
1 0.445716 0
1 0.482292 0
0 0.306844 0
0 0.307912 0
0 0.308309 0
0 0.308568 0
0 0.30837 0
0 0.307607 0
0.00537118 0.305516 0
0.0374762 0.304051 0
0.0724498 0.301946 0
0.110597 0.299519 0
0.15314 0.29688 0
0.199145 0.293538 0
0.248493 0.28983 0
0.300908 0.285847 0
0.355856 0.281895 0
0.411536 0.278157 0
0.468025 0.275013 0
0.524132 0.272725 0
0.578988 0.271641 0
0.632044 0.27216 0
0.683452 0.274449 0
0.731624 0.278492 0
0.777035 0.285237 0
0.819425 0.294636 0
0.858183 0.306432 0
0.894179 0.321324 0
0.936019 0.337743 0
0.976822 0.356817 0
1 0.379034 0
1 0.404456 0
1 0.433066 0
1 0.464607 0
1 0.499336 0
0 0.346166 0
0 0.347311 0
0 0.347768 0
0 0.348196 0
0 0.348028 0
0 0.34757 0
0.0012665 0.345785 0
0.0314031 0.34464 0
0.0648661 0.342962 0
0.101762 0.341222 0
0.142031 0.33872 0
0.186069 0.33576 0
0.234043 0.332769 0
0.284901 0.329198 0
0.338537 0.325414 0
0.394064 0.321614 0
0.450919 0.317998 0
0.507012 0.31545 0
0.56286 0.313863 0
0.617212 0.313527 0
0.66952 0.314824 0
0.71931 0.318074 0
0.766003 0.323659 0
0.8094 0.331304 0
0.849546 0.341619 0
0.8869 0.354879 0
0.929122 0.369345 0
0.97026 0.386587 0
1 0.406683 0
1 0.430045 0
1 0.456458 0
1 0.485908 0
1 0.51838 0
0 0.388022 0
0 0.389136 0
0 0.389654 0
0 0.390097 0
0 0.390021 0
0 0.389731 0
0 0.388128 0
0.0278019 0.387121 0
0.0595102 0.385946 0
0.0944228 0.384451 0
0.132769 0.382437 0
0.175494 0.380194 0
0.221424 0.377172 0
0.270909 0.373709 0
0.323445 0.370138 0
0.377874 0.366903 0
0.433951 0.363455 0
0.490455 0.360464 0
0.546883 0.35819 0
0.601709 0.357336 0
0.655039 0.357855 0
0.705928 0.360006 0
0.753491 0.364324 0
0.798306 0.370352 0
0.839796 0.379248 0
0.878065 0.390723 0
0.921904 0.403296 0
0.9635 0.418738 0
1 0.437156 0
1 0.458183 0
1 0.482338 0
1 0.509407 0
1 0.538933 0
0 0.432425 0
0 0.433158 0
0 0.43386 0
0 0.434333 0
0 0.434241 0
0 0.434012 0
0 0.432685 0
0.0264439 0.431662 0
0.0563821 0.430701 0
0.0897688 0.429206 0
0.126574 0.427558 0
0.1673 0.425452 0
0.211383 0.422797 0
0.259068 0.419806 0
0.309911 0.416648 0
0.363119 0.413108 0
0.418585 0.409552 0
0.474693 0.406455 0
0.53051 0.404074 0
0.585931 0.402594 0
0.640116 0.402548 0
0.691691 0.403662 0
0.740536 0.406516 0
0.786374 0.411612 0
0.829053 0.418967 0
0.869291 0.428748 0
0.913634 0.439628 0
0.95584 0.453452 0
0.995407 0.469566 0
1 0.488365 0
1 0.51017 0
1 0.534737 0
1 0.562142 0
0 0.478798 0
0 0.479454 0
0 0.479988 0
0 0.480323 0
0 0.48011 0
0 0.479759 0
0.00270085 0.478599 0
0.0281071 0.477668 0
0.0569162 0.476783 0
0.0882734 0.47538 0
0.123339 0.474006 0
0.162203 0.471794 0
0.20441 0.469322 0
0.250446 0.466835 0
0.299351 0.463676 0
0.350973 0.460304 0
0.404807 0.457099 0
0.460136 0.454047 0
0.515785 0.451331 0
0.571374 0.449256 0
0.625177 0.448402 0
0.677378 0.448798 0
0.727123 0.450767 0
0.7738 0.454704 0
0.817624 0.460548 0
0.86041 0.468498 0
0.905196 0.477836 0
0.947768 0.489876 0
0.987579 0.504005 0
1 0.520958 0
1 0.54049 0
1 0.5626 0
1 0.587488 0
0 0.52636 0
0 0.526879 0
0 0.527184 0
0 0.526986 0
0 0.526848 0
0 0.526085 0
0.0104219 0.525216 0
0.0343786 0.52433 0
0.0611124 0.523629 0
0.090898 0.522271 0
0.124193 0.521019 0
0.160937 0.518975 0
0.201007 0.517006 0
0.24448 0.514427 0
0.291814 0.51133 0
0.341939 0.508492 0
0.39443 0.505043 0
0.448249 0.501793 0
0.502464 0.498985 0
0.557336 0.496818 0
0.61146 0.495567 0
0.663844 0.495201 0
0.713985 0.496269 0
0.761166 0.499046 0
0.805707 0.503258 0
0.851423 0.509499 0
0.896147 0.517845 0
0.939269 0.528054 0
0.979446 0.540291 0
1 0.555306 0
1 0.572412 0
1 0.592203 0
1 0.61442 0
0 0.574655 0
0 0.574914 0
0 0.574685 0
0 0.574594 0
0 0.574182 0
0.00331121 0.573251 0
0.0230411 0.572274 0
0.0450141 0.571725 0
0.0700999 0.570947 0
0.0978408 0.569619 0
0.129351 0.568399 0
0.163378 0.566644 0
0.201923 0.564736 0
0.243137 0.562219 0
0.288075 0.559411 0
0.335958 0.556573 0
0.386084 0.553338 0
0.438224 0.550134 0
0.49192 0.547433 0
0.546059 0.544656 0
0.598993 0.542824 0
0.651026 0.541863 0
0.701259 0.542107 0
0.749111 0.543755 0
0.795377 0.547127 0
0.842435 0.552178 0
0.88719 0.559136 0
0.930312 0.567544 0
0.970947 0.578149 0
1 0.591165 0
1 0.606104 0
1 0.623453 0
1 0.643702 0
0 0.623194 0
0 0.622873 0
0 0.622629 0
0 0.621958 0
0.00680552 0.621393 0
0.0223697 0.620737 0
0.0399023 0.620111 0
0.0605325 0.619425 0
0.0832837 0.618647 0
0.109392 0.617273 0
0.138598 0.616083 0
0.170901 0.614206 0
0.206943 0.612436 0
0.245762 0.61004 0
0.288609 0.607614 0
0.333883 0.604623 0
0.381826 0.601419 0
0.432303 0.59855 0
0.483894 0.595392 0
0.536233 0.592554 0
0.58851 0.590265 0
0.640452 0.588785 0
0.690257 0.588602 0
0.738109 0.589349 0
0.786328 0.591959 0
0.833646 0.595834 0
0.87837 0.601389 0
0.921141 0.608225 0
0.962356 0.617243 0
1 0.628473 0
1 0.64126 0
1 0.656672 0
1 0.674205 0
0 0.670649 0
0 0.670039 0
0.0091249 0.669459 0
0.020737 0.669123 0
0.0328527 0.66862 0
0.0466773 0.667948 0
0.0627756 0.66746 0
0.0812695 0.666819 0
0.1019 0.665766 0
0.125887 0.664714 0
0.152728 0.663569 0
0.182528 0.661753 0
0.216037 0.660029 0
0.252674 0.657603 0
0.293034 0.655222 0
0.335683 0.652323 0
0.381826 0.64947 0
0.430243 0.646052 0
0.479774 0.642832 0
0.530739 0.640177 0
0.581445 0.637598 0
0.63151 0.635721 0
0.680766 0.634623 0
0.73022 0.635019 0
0.77818 0.636713 0
0.824842 0.639582 0
0.869917 0.643854 0
0.912657 0.649805 0
0.95375 0.657206 0
0.991989 0.666362 0
1 0.677607 0
1 0.690852 0
1 0.70605 0
0.0220951 0.71693 0
0.0328679 0.716579 0
0.0435035 0.716197 0
0.0530556 0.715541 0
0.0636301 0.715221 0
0.0760357 0.714794 0
0.0905165 0.714229 0
0.107164 0.713573 0
0.125856 0.712413 0
0.14789 0.71136 0
0.172396 0.710216 0
0.199817 0.708415 0
0.231067 0.706645 0
0.264927 0.70428 0
0.302129 0.702068 0
0.342489 0.699077 0
0.385657 0.696361 0
0.431403 0.692973 0
0.478645 0.689784 0
0.52752 0.686931 0
0.576944 0.683955 0
0.625895 0.681712 0
0.674876 0.680842 0
0.723339 0.681147 0
0.770993 0.682017 0
0.817304 0.683909 0
0.861936 0.687053 0
0.904479 0.691691 0
0.945098 0.697429 0
0.983749 0.70515 0
1 0.714565 0
1 0.725704 0
1 0.738979 0
0.0632944 0.762417 0
0.0724651 0.762097 0
0.0813916 0.761776 0
0.0904555 0.761349 0
0.0997024 0.761028 0
0.110582 0.760586 0
0.123659 0.759945 0
0.138186 0.758862 0
0.155398 0.758007 0
0.17464 0.757092 0
0.197162 0.755779 0
0.222126 0.753994 0
0.250614 0.75227 0
0.281834 0.749905 0
0.316503 0.747677 0
0.35404 0.744732 0
0.394293 0.742061 0
0.437247 0.738659 0
0.482139 0.735698 0
0.528222 0.732464 0
0.575036 0.730175 0
0.62269 0.728481 0
0.670665 0.727214 0
0.718303 0.72639 0
0.764874 0.726497 0
0.810346 0.727657 0
0.854246 0.729961 0
0.897002 0.733211 0
0.937285 0.738003 0
0.975967 0.744244 0
1 0.752148 0
1 0.761242 0
1 0.772656 0
0.108064 0.807111 0
0.116289 0.806668 0
0.12398 0.806348 0
0.13193 0.805905 0
0.139864 0.805356 0
0.149523 0.804608 0
0.160739 0.804044 0
0.173785 0.803342 0
0.189075 0.802457 0
0.206729 0.801389 0
0.22649 0.799756 0
0.249042 0.798367 0
0.275105 0.796551 0
0.303349 0.794217 0
0.335195 0.791943 0
0.369711 0.789059 0
0.407004 0.786664 0
0.446479 0.78381 0
0.488182 0.781384 0
0.531411 0.778653 0
0.576745 0.77612 0
0.622446 0.774075 0
0.668437 0.772351 0
0.714397 0.771176 0
0.760113 0.770657 0
0.805341 0.771069 0
0.848478 0.772442 0
0.89044 0.774868 0
0.930434 0.778485 0
0.968475 0.783169 0
1 0.789364 0
1 0.797253 0
1 0.806668 0
0.153292 0.851606 0
0.159792 0.851011 0
0.166842 0.850538 0
0.173663 0.850095 0
0.18085 0.849668 0
0.189456 0.849088 0
0.199451 0.848447 0
0.210941 0.847745 0
0.22417 0.846754 0
0.239536 0.845487 0
0.257527 0.844251 0
0.277989 0.842817 0
0.301167 0.841169 0
0.326497 0.839002 0
0.355016 0.837003 0
0.386587 0.834302 0
0.420539 0.832013 0
0.457267 0.829129 0
0.496788 0.82652 0
0.537713 0.823621 0
0.580987 0.821057 0
0.624567 0.818479 0
0.668803 0.816266 0
0.713344 0.81471 0
0.757763 0.813886 0
0.801053 0.813611 0
0.843626 0.813993 0
0.884642 0.815381 0
0.924254 0.817945 0
0.961837 0.821775 0
0.997787 0.826642 0
1 0.833021 0
1 0.840604 0
0.200153 0.894759 0
0.206302 0.894301 0
0.212146 0.893889 0
0.217884 0.893492 0
0.224338 0.893004 0
0.23151 0.892515 0
0.240238 0.8916 0
0.250126 0.890745 0
0.261997 0.88986 0
0.275898 0.888792 0
0.291691 0.887617 0
0.309804 0.886137 0
0.329839 0.884382 0
0.353185 0.882551 0
0.379049 0.880552 0
0.407645 0.877913 0
0.439002 0.875502 0
0.47277 0.872557 0
0.5093 0.869902 0
0.547372 0.866972 0
0.5879 0.864347 0
0.629114 0.861631 0
0.671473 0.859098 0
0.714382 0.857206 0
0.756863 0.855604 0
0.799069 0.854673 0
0.840162 0.854582 0
0.880369 0.855192 0
0.919142 0.856733 0
0.956268 0.859297 0
0.991531 0.863218 0
1 0.868177 0
1 0.87451 0
0.250614 0.93576 0
0.255238 0.935241 0
0.260349 0.934707 0
0.265461 0.934264 0
0.270649 0.933883 0
0.277043 0.933349 0
0.284718 0.932662 0
0.293309 0.931991 0
0.303853 0.93106 0
0.31574 0.930083 0
0.329198 0.928634 0
0.345052 0.927291 0
0.363302 0.92575 0
0.384085 0.92398 0
0.406683 0.921767 0
0.432746 0.919539 0
0.461097 0.917189 0
0.491768 0.914321 0
0.525261 0.911604 0
0.560678 0.908492 0
0.598016 0.905837 0
0.636957 0.902892 0
0.676799 0.900267 0
0.717525 0.898131 0
0.758206 0.896071 0
0.798764 0.894499 0
0.838911 0.893874 0
0.878035 0.893965 0
0.915648 0.894789 0
0.951782 0.896452 0
0.98674 0.899062 0
1 0.903029 0
1 0.90808 0
0.303014 0.974289 0
0.307469 0.973846 0
0.311864 0.973419 0
0.31577 0.973129 0
0.32047 0.972671 0
0.326009 0.972122 0
0.332097 0.971603 0
0.33962 0.970642 0
0.348394 0.969696 0
