public/textures/grade/Sony/Gems-SLog3.cube
TITLE "Generated by Resolve"
LUT_3D_SIZE 9
0 0.00196841 0.00932326
0.0324254 0.00215152 0
0.105806 0.000274662 0
0.314275 0.0260929 0
0.464866 0.222538 0.0216526
0.396902 0.396902 0.396902
0.471672 0.471672 0.471672
0.513115 0.513115 0.513115
0.526955 0.526955 0.526955
0 0.0215457 0.0110018
0.0113222 0.0221256 0.000839246
0.0892042 0.017792 0
0.302235 0.0383917 0
0.474678 0.224613 0.00888075
0.398596 0.398596 0.398596
0.478614 0.478614 0.478614
0.521141 0.521141 0.521141
0.536141 0.536141 0.536141
0 0.0576486 0.0128328
0 0.0642863 0.00289921
0.0420996 0.0616617 0
0.266575 0.0657359 0
0.500648 0.222934 0
0.405097 0.405097 0.405097
0.483574 0.483574 0.483574
0.527825 0.527825 0.527825
0.544518 0.544518 0.544518
0 0.178698 0.0561685
0 0.189822 0.0595865
0 0.197894 0.038117
0.143877 0.182742 0
0.510109 0.224491 0
0.410361 0.410361 0.410361
0.489128 0.489128 0.489128
0.536004 0.536004 0.536004
0.556329 0.556329 0.556329
0 0.401389 0.25069
0 0.423957 0.269581
0 0.442191 0.278248
0.0179751 0.45391 0.262196
0.387045 0.434134 0.191608
0.709026 0.471672 0.10869
0.678935 0.560296 0.408042
0.74548 0.607065 0.446006
0.808179 0.627939 0.430976
0.00895705 0.638025 0.477165
0.0545357 0.670222 0.499458
0.120333 0.695964 0.516548
0.209064 0.716197 0.527596
0.363882 0.727901 0.490166
0.70341 0.725383 0.455909
0.855894 0.754559 0.46537
0.910231 0.784909 0.506859
0.926955 0.803418 0.541894
0.250126 0.825742 0.64126
0.284215 0.841413 0.656962
0.325109 0.85153 0.667002
0.427207 0.860822 0.672694
0.578576 0.877974 0.657496
0.800793 0.873823 0.70135
0.894347 0.899016 0.741497
0.930251 0.919539 0.793912
0.943877 0.931456 0.824567
0.418219 0.896529 0.727825
0.480797 0.903929 0.746487
0.552087 0.910964 0.765026
0.663478 0.922362 0.789929
0.790661 0.93872 0.817731
0.910338 0.947356 0.869551
0.960906 0.967636 0.913954
0.981613 0.982147 0.951919
0.990326 0.990112 0.972503
0.569818 0.920363 0.787045
0.63418 0.92845 0.810498
0.699504 0.936858 0.833158
0.793118 0.950469 0.864759
0.888457 0.966201 0.900389
0.962966 0.978653 0.946197
0.993744 0.995178 0.985519
1 1 1
1 1 1
0 0 0.0505379
0.0165408 0.00531014 0.0505989
0.0897231 0.0138552 0.0245212
0.320089 0.018204 0
0.458228 0.216022 0.0261845
0.395773 0.395773 0.395773
0.474464 0.474464 0.474464
0.515923 0.515923 0.515923
0.529885 0.529885 0.529885
0 0.0204776 0.0584878
0.0144503 0.0227665 0.0392462
0.0869917 0.0225681 0.0155337
0.305318 0.042237 0
0.467536 0.219272 0.0160067
0.404746 0.404746 0.404746
0.482109 0.482109 0.482109
0.524666 0.524666 0.524666
0.539818 0.539818 0.539818
0 0.0620584 0.0525063
0 0.0646067 0.0446326
0.0460517 0.0652018 0.0214847
0.26923 0.0726177 0
0.494453 0.219165 0
0.412268 0.412268 0.412268
0.488029 0.488029 0.488029
0.532311 0.532311 0.532311
0.549187 0.549187 0.549187
0 0.181765 0.0971542
0 0.19295 0.10071
0 0.2 0.0820935
0.15024 0.188464 0.0218967
0.531456 0.230198 0
0.419181 0.419181 0.419181
0.498177 0.498177 0.498177
0.542687 0.542687 0.542687
0.563043 0.563043 0.563043
0 0.408988 0.27068
0 0.431449 0.289067
0 0.449668 0.298314
0.0431525 0.460914 0.283803
0.396765 0.443626 0.215747
0.736675 0.480339 0.10988
0.720104 0.567391 0.380529
0.796689 0.611261 0.407492
0.860868 0.630976 0.3935
0.023743 0.649531 0.490211
0.074876 0.680262 0.512108
0.139574 0.704402 0.529091
0.222965 0.724102 0.540139
0.377737 0.736584 0.502312
0.712444 0.734096 0.467658
0.861494 0.76289 0.48275
0.913176 0.79321 0.529671
0.929259 0.811276 0.564935
0.262455 0.83064 0.649226
0.295781 0.845319 0.664286
0.342153 0.855116 0.675837
0.447395 0.864408 0.683925
0.596368 0.88275 0.672755
0.810498 0.879942 0.717891
0.900557 0.904906 0.760128
0.93492 0.924987 0.810819
0.948363 0.937011 0.841291
0.439933 0.898375 0.738781
0.503227 0.905898 0.758511
0.574304 0.913329 0.777966
0.684276 0.92546 0.804288
0.805035 0.942916 0.831907
0.918105 0.951782 0.882429
0.965698 0.971603 0.925597
0.985367 0.985809 0.961944
0.9935 0.993332 0.981064
0.591974 0.922423 0.799573
0.655818 0.930892 0.823392
0.71931 0.939574 0.845853
0.809552 0.953399 0.876967
0.899504 0.96968 0.911406
0.96907 0.982223 0.955642
0.997513 0.99823 0.9935
1 1 1
1 1 1
0 0 0.131502
0.0106661 0 0.13022
0.054902 0.0152743 0.136812
0.310399 0.0331426 0.0170443
0.479347 0.204135 0.0134127
0.405585 0.405585 0.405585
0.478843 0.478843 0.478843
0.520211 0.520211 0.520211
0.534279 0.534279 0.534279
0 0.00933852 0.129992
0.00682078 0.0180514 0.121462
0.0545968 0.0298619 0.123262
0.297917 0.0519112 0.0211337
0.517784 0.210895 0
0.415183 0.415183 0.415183
0.487129 0.487129 0.487129
0.52961 0.52961 0.52961
0.54493 0.54493 0.54493
0 0.0579538 0.139391
0 0.0624857 0.138308
0.0525826 0.0670481 0.0953994
0.264897 0.081651 0.0244144
0.557168 0.215091 0
0.423346 0.423346 0.423346
0.494011 0.494011 0.494011
0.538247 0.538247 0.538247
0.555291 0.555291 0.555291
0 0.18587 0.152941
0 0.195834 0.156771
0 0.19852 0.143053
0.155108 0.192432 0.0877852
0.55874 0.2336 0
0.431235 0.431235 0.431235
0.51075 0.51075 0.51075
0.550317 0.550317 0.550317
0.570779 0.570779 0.570779
0 0.415274 0.299641
0 0.436072 0.315618
0 0.453544 0.324285
0.0751812 0.465705 0.312535
0.404639 0.45156 0.24622
0.768933 0.4878 0.1205
0.771634 0.573434 0.349432
0.844724 0.616693 0.384375
0.902998 0.635645 0.37734
0.0424353 0.660182 0.506966
0.100206 0.689693 0.528618
0.159518 0.712016 0.544991
0.238025 0.731762 0.556085
0.391287 0.744137 0.517922
0.720653 0.742184 0.482094
0.868345 0.770901 0.503395
0.916915 0.800961 0.556054
0.931746 0.819135 0.593713
0.276402 0.834028 0.658732
0.311284 0.847547 0.675242
0.363149 0.857114 0.689433
0.467247 0.868681 0.701167
0.616053 0.886702 0.694011
0.819684 0.886534 0.737346
0.907088 0.91107 0.782727
0.939849 0.930694 0.830716
0.952743 0.942382 0.859358
0.464927 0.899214 0.755032
0.528954 0.907195 0.775998
0.599222 0.915175 0.796063
0.705806 0.927901 0.822385
0.816556 0.947707 0.846479
0.925414 0.956268 0.895964
0.970413 0.975464 0.937804
0.988968 0.989288 0.971725
0.996689 0.996597 0.989624
0.616678 0.924071 0.816953
0.678508 0.932891 0.840131
0.740734 0.942092 0.862226
0.826947 0.95613 0.891737
0.909743 0.973693 0.922942
0.975036 0.985794 0.965225
0.99968 1 1
1 1 1
1 1 1
0 0 0.33933
0 0 0.338216
0.0391394 0 0.343557
0.20325 0.0888228 0.361089
0.673411 0.190158 0.0803388
0.42388 0.42388 0.42388
0.488106 0.488106 0.488106
0.527504 0.527504 0.527504
0.541741 0.541741 0.541741
0 0 0.330236
0 0.0059205 0.329809
0.0462348 0.0213626 0.327626
0.202106 0.103624 0.352804
0.672984 0.203418 0.0935683
0.435248 0.435248 0.435248
0.50164 0.50164 0.50164
0.538766 0.538766 0.538766
0.554452 0.554452 0.554452
0 0.0251621 0.314702
0 0.0387427 0.314366
0.0278477 0.0564431 0.306371
0.189349 0.118471 0.326131
0.655741 0.216159 0.0944533
0.446097 0.446097 0.446097
0.517296 0.517296 0.517296
0.550713 0.550713 0.550713
0.568383 0.568383 0.568383
0 0.17406 0.310796
0 0.183673 0.325475
0 0.194583 0.317296
0.167147 0.194568 0.244678
0.581598 0.242924 0.0899825
0.471977 0.454459 0.439368
0.537911 0.537911 0.537911
0.576364 0.576364 0.576364
0.595132 0.595132 0.595132
0 0.409949 0.351186
0 0.435203 0.368856
0.00369268 0.451606 0.377035
0.128908 0.46627 0.369177
0.410483 0.458305 0.304982
0.813993 0.493309 0.169512
0.873075 0.575067 0.307012
0.938231 0.619394 0.358663
0.984344 0.639719 0.371725
0.0814527 0.671229 0.539284
0.138674 0.697368 0.559197
0.191363 0.719051 0.57499
0.262364 0.738903 0.586313
0.413031 0.750881 0.553246
0.730694 0.752438 0.519432
0.879896 0.78146 0.548089
0.92755 0.811383 0.601617
0.941802 0.82977 0.639017
0.308019 0.833982 0.686427
0.347967 0.847425 0.708583
0.401007 0.859266 0.727474
0.501091 0.873137 0.743175
0.648554 0.889921 0.740353
0.830472 0.895781 0.772457
0.91574 0.919463 0.814252
0.947204 0.938613 0.859739
0.959182 0.949676 0.885313
0.509453 0.898329 0.79411
0.572686 0.907439 0.815518
0.639078 0.916411 0.834379
0.736126 0.931426 0.857496
0.839353 0.950622 0.87715
0.934813 0.963104 0.916716
0.976928 0.981018 0.955093
0.993805 0.993988 0.984482
1 1 1
0.65716 0.925368 0.853666
0.714672 0.93492 0.874006
0.772595 0.944869 0.892973
0.851301 0.959838 0.917449
0.925704 0.977096 0.942351
0.982528 0.990616 0.977661
1 1 1
1 1 1
1 1 1
0 0 0.413931
0 0 0.449836
0 0 0.514321
0.14609 0.0296941 0.645228
0.484092 0.305577 0.718914
0.970382 0.40557 0.437049
0.80557 0.510521 0.449622
0.682933 0.571099 0.538598
0.656519 0.594919 0.575845
0 0 0.438621
0 0 0.477134
0 0.0118563 0.541024
0.16199 0.0596323 0.665766
0.486778 0.315755 0.716609
0.974563 0.417823 0.449119
0.861967 0.515404 0.449897
0.765438 0.569909 0.519722
0.747341 0.592248 0.550546
0 0.0102846 0.467964
0 0.0249943 0.508003
0 0.0444343 0.567361
0.154238 0.0951095 0.662394
0.480339 0.322499 0.702403
0.972732 0.426566 0.452705
0.917769 0.521279 0.449943
0.845716 0.576852 0.514061
0.841856 0.59498 0.536171
0 0.0885939 0.472389
0 0.116228 0.521874
0 0.143526 0.576013
0.117861 0.180056 0.614984
0.446433 0.324849 0.648371
0.948119 0.434806 0.437995
0.987808 0.525444 0.438148
0.967193 0.57763 0.491722
0.982879 0.595102 0.510964
0.188647 0.246159 0.259113
0.134981 0.304662 0.344396
0.0346532 0.378851 0.466239
0.00360113 0.463142 0.618357
0.429328 0.465385 0.530449
0.840604 0.509957 0.42533
1 0.575219 0.428092
1 0.621256 0.47068
1 0.645228 0.499825
0.107652 0.622889 0.589639
0.10547 0.670512 0.633112
0.12874 0.714244 0.671901
0.222599 0.74725 0.699199
0.472526 0.748028 0.671519
0.739178 0.76109 0.628061
0.895994 0.791699 0.645975
0.943557 0.82237 0.69189
0.956878 0.84062 0.722759
0.276081 0.838621 0.778134
0.300114 0.855604 0.803311
0.353017 0.870802 0.823499
0.49482 0.883299 0.836759
0.692134 0.890379 0.826276
0.839719 0.908293 0.831128
0.92549 0.928893 0.863203
0.955856 0.947173 0.898329
0.966995 0.957595 0.918334
0.468116 0.911589 0.87892
0.541909 0.921294 0.89453
0.622827 0.930755 0.907271
0.741863 0.941863 0.918242
0.866484 0.953735 0.923934
0.943755 0.97145 0.943755
0.983642 0.986847 0.973983
0.999481 0.998489 0.996979
1 1 1
0.636515 0.940093 0.921553
0.704158 0.948806 0.933944
0.771099 0.956924 0.944045
0.859861 0.96791 0.955337
0.943008 0.980423 0.967407
0.990097 0.995636 0.990204
1 1 1
1 1 1
1 1 1
0 0 0
0 0 0
0.0158999 0.0158999 0.0158999
0.0707408 0.0689708 0.141253
0.279576 0.198535 0.509483
0.738582 0.519173 0.945266
0.928313 0.639673 0.813764
1 0.652354 0.792828
1 0.656092 0.788739
0 0 0
0.0134585 0.0134585 0.0134585
0.0360266 0.0360266 0.0360266
0.0917983 0.0908827 0.226841
0.312871 0.216892 0.606043
0.746502 0.531182 0.949966
0.926146 0.64593 0.818662
1 0.663294 0.803494
1 0.669841 0.803037
0.0202335 0.0202335 0.0202335
0.0382544 0.0382544 0.0382544
0.0568399 0.0635538 0.102098
0.112535 0.12105 0.353765
0.346395 0.234897 0.725246
0.751995 0.543496 0.951095
0.935347 0.661524 0.832181
1 0.671687 0.809384
1 0.681376 0.813138
0.0580301 0.0736095 0.111986
0.071519 0.101732 0.177752
0.0820935 0.134554 0.282048
0.121721 0.188617 0.562783
0.383154 0.271458 0.881575
0.747417 0.556558 0.936584
0.938537 0.678233 0.838376
1 0.695094 0.825406
1 0.704356 0.828779
0.197803 0.197803 0.197803
0.235309 0.235309 0.235309
0.279088 0.279088 0.279088
0.162356 0.385092 0.633448
0.414649 0.464927 0.851087
0.709239 0.594141 0.854658
0.897063 0.692332 0.785016
0.988403 0.716838 0.785382
1 0.733288 0.794751
0.434516 0.526482 0.544732
0.355505 0.599237 0.651514
0.267628 0.675196 0.772992
0.256443 0.741375 0.879301
0.461387 0.763592 0.882719
0.761578 0.777005 0.804166
0.905699 0.809888 0.796704
0.950591 0.839292 0.81976
0.963043 0.856764 0.837568
0.340719 0.800366 0.837125
0.314809 0.848615 0.899168
0.357946 0.877516 0.933516
0.496025 0.896422 0.943465
0.683146 0.907958 0.927306
0.861677 0.91751 0.905379
0.935821 0.93875 0.918242
0.964279 0.955642 0.938811
0.974594 0.965621 0.952163
0.485771 0.921401 0.965759
0.572763 0.930037 0.970459
0.657267 0.93785 0.971771
0.764385 0.950591 0.97232
0.871046 0.964202 0.969421
0.957198 0.976577 0.971191
0.989761 0.992111 0.988617
1 1 1
1 1 1
0.673961 0.946487 0.979721
0.740963 0.954528 0.982315
0.804013 0.962341 0.98352
0.881239 0.974166 0.98555
0.951782 0.986984 0.9888
0.998779 0.999237 0.999908
1 1 1
1 1 1
1 1 1
0 0 0
0 0 0
0.0115358 0.0115358 0.0115358
0.0653391 0.0653391 0.0653391
0.260456 0.233951 0.359747
0.668589 0.443702 1
0.887724 0.646937 1
0.95848 0.718273 1
0.981582 0.738552 1
0 0 0
0.0110781 0.0110781 0.0110781
0.0344701 0.0344701 0.0344701
0.0948196 0.0948196 0.0948196
0.293568 0.253361 0.455207
0.67895 0.454948 1
0.889769 0.654124 1
0.961486 0.72549 1
0.985931 0.747021 1
0.0213321 0.0213321 0.0213321
0.0397803 0.0397803 0.0397803
0.0675364 0.0675364 0.0675364
0.135943 0.135943 0.135943
0.330434 0.272679 0.587381
0.69453 0.474266 1
0.885451 0.658579 1
0.958541 0.729961 1
0.98436 0.752758 1
0.0822766 0.0822766 0.0822766
0.110445 0.110445 0.110445
0.144091 0.144091 0.144091
0.181262 0.207416 0.343557
0.385794 0.307408 0.837079
0.707103 0.500038 1
0.88867 0.676295 1
0.947402 0.736034 1
0.966888 0.755245 1
0.218936 0.218936 0.218936
0.255894 0.255894 0.255894
0.297337 0.297337 0.297337
0.247105 0.391699 0.604364
0.421408 0.478386 0.977157
0.695277 0.576028 1
0.855741 0.712139 0.971069
0.910277 0.768017 0.94548
0.927398 0.788083 0.942901
0.465003 0.465003 0.465003
0.510185 0.510185 0.510185
0.556146 0.556146 0.556146
0.414984 0.675334 0.812558
0.475181 0.756954 1
0.769574 0.786404 0.905943
0.86894 0.835676 0.909621
0.908232 0.870604 0.905547
0.927245 0.884672 0.913893
0.349035 0.839277 0.961776
0.378622 0.863798 0.992706
0.446799 0.880247 1
0.584146 0.895308 0.995377
0.74165 0.909804 0.972503
0.877516 0.926513 0.949493
0.94548 0.947112 0.950378
0.970367 0.963623 0.963104
0.979431 0.972442 0.971603
0.571283 0.922423 1
0.645487 0.93135 1
0.718029 0.939773 0.998352
0.812757 0.952255 0.991043
0.901061 0.967422 0.985458
0.965652 0.982773 0.986038
0.996262 0.99646 0.997177
1 1 1
1 1 1
0.731731 0.948226 1
0.788174 0.956466 1
0.842847 0.964828 0.998199
0.910567 0.976761 0.995209
0.968765 0.990295 0.995865
1 1 1
1 1 1
1 1 1
1 1 1
0 0 0
0 0 0
0.0109102 0.0109102 0.0109102
0.0650034 0.0650034 0.0650034
0.265614 0.253727 0.314504
0.628367 0.444175 1
0.88539 0.629831 1
0.958038 0.707607 1
0.980652 0.730968 1
0 0 0
0.0117952 0.0117952 0.0117952
0.0356146 0.0356146 0.0356146
0.0967422 0.0967422 0.0967422
0.296666 0.268757 0.418967
0.646571 0.453727 1
0.88896 0.63946 1
0.962539 0.716823 1
0.986587 0.741176 1
0.0235294 0.0235294 0.0235294
0.0427253 0.0427253 0.0427253
0.0709697 0.0709697 0.0709697
0.140978 0.140978 0.140978
0.333486 0.287465 0.555077
0.662303 0.463249 1
0.88658 0.646906 1
0.961273 0.723598 1
0.986648 0.748791 1
0.0890974 0.0890974 0.0890974
0.117723 0.117723 0.117723
0.151766 0.151766 0.151766
0.205203 0.220432 0.299748
0.394781 0.32607 0.819379
0.687907 0.492744 1
0.882506 0.662104 1
0.942199 0.726314 1
0.961227 0.747677 1
0.232609 0.232609 0.232609
0.270359 0.270359 0.270359
0.312245 0.312245 0.312245
0.277134 0.408164 0.621942
0.436606 0.493629 1
0.69781 0.581689 1
0.856107 0.710811 1
0.909606 0.768261 1
0.925673 0.789731 0.997986
0.468025 0.468025 0.468025
0.513191 0.513191 0.513191
0.560769 0.560769 0.560769
0.430106 0.685786 0.846082
0.51426 0.763241 1
0.779828 0.796841 0.9393
0.873411 0.841901 0.946777
0.911376 0.876814 0.940429
0.925566 0.893355 0.94255
0.382452 0.830442 0.974502
0.394446 0.862943 1
0.459266 0.882277 1
0.603204 0.897902 1
0.756069 0.913939 0.996506
0.886671 0.931579 0.969772
0.950835 0.952575 0.962951
0.971679 0.969421 0.974838
0.980392 0.978241 0.980957
0.607263 0.924727 1
0.67602 0.933776 1
0.745495 0.942779 1
0.835813 0.955444 0.998749
0.91693 0.970947 0.99176
0.974548 0.986358 0.991272
1 1 1
1 1 1
1 1 1
0.762356 0.950759 1
0.814878 0.959319 1
0.864363 0.967712 1
0.926879 0.979614 0.998123
0.979049 0.993179 0.998154
1 1 1
1 1 1
1 1 1
1 1 1
0 0 0
0 0 0
0.01149 0.01149 0.01149
0.0660258 0.0660258 0.0660258
0.26978 0.263127 0.297963
0.613199 0.44802 0.972976
0.884459 0.624552 1
0.958312 0.703563 1
0.981292 0.727687 1
0 0 0
0.0133059 0.0133059 0.0133059
0.0371862 0.0371862 0.0371862
0.0991531 0.0991531 0.0991531
0.300633 0.278416 0.400839
0.634668 0.457206 1
0.889113 0.635203 1
0.963653 0.713848 1
0.988067 0.738933 1
0.0257572 0.0257572 0.0257572
0.0455634 0.0455634 0.0455634
0.0738537 0.0738537 0.0738537
0.144961 0.144961 0.144961
0.336477 0.293477 0.548486
0.653498 0.46453 1
0.888014 0.64419 1
0.963394 0.72192 1
0.988876 0.74757 1
0.094255 0.094255 0.094255
0.122866 0.122866 0.122866
0.157046 0.157046 0.157046
0.215061 0.228 0.2963
0.400687 0.334646 0.817548
0.683818 0.49427 1
0.881758 0.659266 1
0.941512 0.724086 1
0.960388 0.745785 1
0.240391 0.240391 0.240391
0.278126 0.278126 0.278126
0.321477 0.321477 0.321477
0.287007 0.419654 0.647013
0.44715 0.503639 1
0.702174 0.588006 1
0.857816 0.713344 1
0.910353 0.770169 1
0.926192 0.79202 1
0.474998 0.474998 0.474998
0.519585 0.519585 0.519585
0.566842 0.566842 0.566842
0.42446 0.697871 0.880446
0.533394 0.76875 1
0.786633 0.803403 0.950103
0.877028 0.84686 0.957305
0.91429 0.88101 0.951644
0.928008 0.897017 0.952697
0.392859 0.83241 0.984436
0.404685 0.865843 1
0.473075 0.88513 1
0.617334 0.900389 1
0.767117 0.917144 1
0.893462 0.93489 0.975082
0.954147 0.95584 0.967788
0.974105 0.972045 0.979065
0.982834 0.980911 0.984955
0.620874 0.926665 1
0.689494 0.935927 1
0.756893 0.944915 1
0.846082 0.957809 1
0.923903 0.973297 0.994659
0.978271 0.988464 0.993759
1 1 1
1 1 1
1 1 1
0.773648 0.952682 1
0.825925 0.96144 1
0.873518 0.969726 1
0.934432 0.981643 0.999771
0.9841 0.995026 0.999374
1 1 1
1 1 1
1 1 1
1 1 1
