public/textures/grade/Sony/Gems-SLog2.cube
TITLE "Generated by Resolve"
LUT_3D_SIZE 33
0 0 0.00790417
0 0 0.00523384
0.00801099 0.00117494 0.00201419
0.0276951 0 0
0.0522469 0 0
0.0825055 0 0
0.121569 0 0
0.167941 0 0
0.221088 0.00411994 0
0.281346 0.0137484 0
0.348119 0.0300145 0
0.420218 0.0547036 0
0.483497 0.0919203 0
0.51632 0.13904 0
0.496757 0.195377 0
0.407462 0.255406 0.122576
0.310445 0.309728 0.309056
0.33817 0.33817 0.33817
0.362692 0.362692 0.362692
0.383307 0.383307 0.383307
0.400427 0.400427 0.400427
0.414191 0.414191 0.414191
0.425284 0.425284 0.425284
0.441367 0.441367 0.441367
0.456611 0.456611 0.456611
0.471077 0.471077 0.471077
0.483391 0.483391 0.483391
0.493614 0.493614 0.493614
0.502281 0.502281 0.502281
0.509499 0.509499 0.509499
0.51545 0.51545 0.51545
0.520302 0.520302 0.520302
0.524132 0.524132 0.524132
0 0.00102235 0.00874342
0 0.000793469 0.0065919
0.00805676 0.00117494 0.0011902
0.0268864 0.000213626 0
0.050721 0 0
0.0808728 0 0
0.120607 0 0
0.167391 0 0
0.22063 0.00483711 0
0.280995 0.0146181 0
0.347799 0.0309758 0
0.419928 0.0556497 0
0.483482 0.0928969 0
0.516838 0.139849 0
0.497963 0.195926 0
0.407568 0.255665 0.122744
0.310643 0.309926 0.309239
0.338354 0.338354 0.338354
0.362875 0.362875 0.362875
0.383505 0.383505 0.383505
0.400595 0.400595 0.400595
0.414359 0.414359 0.414359
0.425452 0.425452 0.425452
0.441444 0.441444 0.441444
0.457282 0.457282 0.457282
0.471717 0.471717 0.471717
0.484001 0.484001 0.484001
0.494285 0.494285 0.494285
0.502953 0.502953 0.502953
0.510216 0.510216 0.510216
0.516243 0.516243 0.516243
0.52105 0.52105 0.52105
0.524895 0.524895 0.524895
0 0.00820935 0.00772107
0 0.00787366 0.00628672
0.00105287 0.00767529 0.00125124
0.0203555 0.00643931 0
0.0460517 0.00491341 0
0.0774853 0.00328069 0
0.117189 0.0030518 0
0.164004 0.00489815 0
0.21738 0.0100862 0
0.277943 0.0202792 0
0.344976 0.0370947 0
0.417533 0.0622568 0
0.482719 0.0991073 0
0.519173 0.144488 0
0.503899 0.198856 0
0.409506 0.257099 0.122026
0.312657 0.311009 0.309438
0.339467 0.339467 0.339467
0.363928 0.363928 0.363928
0.384527 0.384527 0.384527
0.401648 0.401648 0.401648
0.415457 0.415457 0.415457
0.426596 0.426596 0.426596
0.444129 0.444129 0.444129
0.461158 0.461158 0.461158
0.475624 0.475624 0.475624
0.487953 0.487953 0.487953
0.498344 0.498344 0.498344
0.507118 0.507118 0.507118
0.514504 0.514504 0.514504
0.520714 0.520714 0.520714
0.525704 0.525704 0.525704
0.529717 0.529717 0.529717
0 0.0173953 0.00868238
0 0.0171664 0.00732433
0 0.0182498 0.00225834
0.00825513 0.0174563 0
0.0349126 0.0160525 0
0.0678721 0.0139773 0
0.109041 0.0121004 0
0.157717 0.0118563 0
0.211093 0.0162509 0
0.271397 0.0263676 0
0.338476 0.0432746 0
0.411368 0.0685588 0
0.478477 0.104402 0
0.518914 0.148058 0
0.50753 0.200259 0
0.416159 0.257404 0.114229
0.318441 0.311086 0.303944
0.340246 0.340246 0.340246
0.36466 0.36466 0.36466
0.385245 0.385245 0.385245
0.402426 0.402426 0.402426
0.417334 0.417334 0.417334
0.430976 0.430976 0.430976
0.44744 0.44744 0.44744
0.464439 0.464439 0.464439
0.478935 0.478935 0.478935
0.491356 0.491356 0.491356
0.501839 0.501839 0.501839
0.51075 0.51075 0.51075
0.518303 0.518303 0.518303
0.524727 0.524727 0.524727
0.529931 0.529931 0.529931
0.534188 0.534188 0.534188
0 0.0297093 0.00917067
0 0.0298009 0.00776684
0 0.0316777 0.00361639
0 0.0343481 0
0.0179294 0.0310674 0
0.0516518 0.0294194 0
0.0930648 0.027039 0
0.142855 0.0258488 0
0.198642 0.0274968 0
0.261585 0.0334936 0
0.328283 0.0494087 0
0.401144 0.0741131 0
0.470268 0.108461 0
0.515145 0.15024 0
0.513344 0.200916 0
0.427893 0.256336 0.0981155
0.328756 0.30988 0.291234
0.340536 0.340536 0.340536
0.364904 0.364904 0.364904
0.385534 0.385534 0.385534
0.404227 0.404227 0.404227
0.421134 0.421134 0.421134
0.435111 0.435111 0.435111
0.449866 0.449866 0.449866
0.466835 0.466835 0.466835
0.481422 0.481422 0.481422
0.493996 0.493996 0.493996
0.50454 0.50454 0.50454
0.513603 0.513603 0.513603
0.521447 0.521447 0.521447
0.528008 0.528008 0.528008
0.533455 0.533455 0.533455
0.538064 0.538064 0.538064
0 0.0449683 0.00952163
0 0.0451209 0.00819409
0 0.047715 0.00488289
0 0.0511177 0
0 0.0505074 0
0.0308385 0.0480964 0
0.0713512 0.0460975 0
0.12285 0.0441444 0
0.179965 0.0443427 0
0.243626 0.0486305 0
0.31368 0.0589151 0
0.387839 0.0798199 0
0.458732 0.112047 0
0.508278 0.151797 0
0.515068 0.200351 0
0.44332 0.254307 0.0751354
0.34316 0.3075 0.271534
0.340398 0.340398 0.340398
0.364752 0.364752 0.364752
0.386374 0.386374 0.386374
0.40708 0.40708 0.40708
0.424353 0.424353 0.424353
0.438727 0.438727 0.438727
0.451728 0.451728 0.451728
0.468772 0.468772 0.468772
0.483375 0.483375 0.483375
0.49604 0.49604 0.49604
0.506813 0.506813 0.506813
0.516136 0.516136 0.516136
0.524056 0.524056 0.524056
0.530892 0.530892 0.530892
0.53666 0.53666 0.53666
0.541466 0.541466 0.541466
0 0.0631571 0.0101625
0 0.0635386 0.00907912
0 0.0669413 0.00668345
0 0.0707866 0.00144961
0 0.0760204 0
0.00572213 0.0701915 0
0.0472725 0.0683146 0
0.0974441 0.0663767 0
0.156374 0.0655528 0
0.2215 0.0679332 0
0.2925 0.0759899 0
0.369268 0.0916609 0
0.444312 0.116182 0
0.498146 0.153109 0
0.513069 0.199008 0
0.461189 0.251667 0.0462501
0.361303 0.304219 0.245182
0.339971 0.339971 0.339971
0.364355 0.364355 0.364355
0.388296 0.388296 0.388296
0.409445 0.409445 0.409445
0.427192 0.427192 0.427192
0.44213 0.44213 0.44213
0.454704 0.454704 0.454704
0.470283 0.470283 0.470283
0.485069 0.485069 0.485069
0.497856 0.497856 0.497856
0.508827 0.508827 0.508827
0.518288 0.518288 0.518288
0.526558 0.526558 0.526558
0.533547 0.533547 0.533547
0.539574 0.539574 0.539574
0.544701 0.544701 0.544701
0 0.0891737 0.014023
0 0.0897078 0.0131685
0 0.0939803 0.0119631
0 0.0981155 0.00787366
0 0.102327 0
0 0.103746 0
0.0186313 0.0971389 0
0.0667735 0.0943923 0
0.126925 0.0918441 0
0.193973 0.0917678 0
0.266621 0.0967727 0
0.344472 0.108034 0
0.424735 0.126345 0
0.484657 0.154986 0
0.507973 0.197696 0
0.480598 0.248524 0.0113222
0.383597 0.299962 0.210727
0.339117 0.339117 0.339117
0.365103 0.365103 0.365103
0.389822 0.389822 0.389822
0.411246 0.411246 0.411246
0.429511 0.429511 0.429511
0.44506 0.44506 0.44506
0.458228 0.458228 0.458228
0.471641 0.471641 0.471641
0.486305 0.486305 0.486305
0.499321 0.499321 0.499321
0.51046 0.51046 0.51046
0.520195 0.520195 0.520195
0.528679 0.528679 0.528679
0.535958 0.535958 0.535958
0.542107 0.542107 0.542107
0.547555 0.547555 0.547555
0 0.12018 0.022797
0 0.120851 0.0222019
0 0.125689 0.0225986
0 0.130037 0.0199283
0 0.133974 0.012726
0 0.138155 0
0 0.1355 0
0.0357061 0.128573 0
0.0930495 0.125216 0
0.161608 0.122576 0
0.236027 0.122667 0
0.315633 0.128084 0
0.3991 0.140612 0
0.470405 0.162844 0
0.499565 0.197116 0
0.486839 0.244846 0
0.409277 0.295018 0.168383
0.337972 0.337972 0.337972
0.36585 0.36585 0.36585
0.391028 0.391028 0.391028
0.412894 0.412894 0.412894
0.431495 0.431495 0.431495
0.447623 0.447623 0.447623
0.461387 0.461387 0.461387
0.473274 0.473274 0.473274
0.487694 0.487694 0.487694
0.500618 0.500618 0.500618
0.512001 0.512001 0.512001
0.521904 0.521904 0.521904
0.530526 0.530526 0.530526
0.538155 0.538155 0.538155
0.544488 0.544488 0.544488
0.549935 0.549935 0.549935
0 0.155306 0.0381933
0 0.156054 0.0379187
0 0.161593 0.0403601
0 0.166583 0.0398566
0 0.170535 0.0344244
0 0.174029 0.0239567
0 0.177859 0.00672923
0 0.172076 0.00433356
0.0558785 0.164569 0
0.124437 0.160601 0
0.200214 0.158007 0
0.281727 0.15845 0
0.367239 0.16405 0
0.449378 0.177539 0
0.498848 0.202686 0
0.486442 0.241505 0
0.437278 0.289784 0.118288
0.353796 0.334813 0.312322
0.366049 0.366049 0.366049
0.391546 0.391546 0.391546
0.413962 0.413962 0.413962
0.433082 0.433082 0.433082
0.449531 0.449531 0.449531
0.463981 0.463981 0.463981
0.476371 0.476371 0.476371
0.488685 0.488685 0.488685
0.501671 0.501671 0.501671
0.513085 0.513085 0.513085
0.523049 0.523049 0.523049
0.531838 0.531838 0.531838
0.539773 0.539773 0.539773
0.546502 0.546502 0.546502
0.552346 0.552346 0.552346
0 0.194354 0.0627298
0 0.195209 0.0627909
0 0.201328 0.0675364
0 0.20708 0.0697185
0 0.211551 0.0667277
0 0.214923 0.0584573
0 0.217929 0.0445869
0 0.221149 0.0228885
0.0119783 0.213504 0.0231479
0.0827192 0.205005 0.0158389
0.160769 0.200717 0
0.243458 0.198505 0
0.33077 0.198962 0
0.420203 0.20473 0
0.491203 0.219547 0
0.511147 0.24741 0
0.466865 0.2878 0.0639811
0.398291 0.331106 0.247929
0.367315 0.367315 0.367315
0.392569 0.392569 0.392569
0.415183 0.415183 0.415183
0.434821 0.434821 0.434821
0.451926 0.451926 0.451926
0.466941 0.466941 0.466941
0.479957 0.479957 0.479957
0.491493 0.491493 0.491493
0.504173 0.504173 0.504173
0.516106 0.516106 0.516106
0.526513 0.526513 0.526513
0.535775 0.535775 0.535775
0.544259 0.544259 0.544259
0.551583 0.551583 0.551583
0.558145 0.558145 0.558145
0 0.236957 0.0979629
0 0.237949 0.0984512
0 0.244541 0.104829
0 0.251011 0.109255
0 0.256336 0.109529
0 0.260212 0.104936
0 0.263066 0.0950942
0 0.265446 0.0780194
0 0.267994 0.0526436
0.0327459 0.259403 0.053254
0.117876 0.249973 0.0458228
0.202411 0.245701 0.0093843
0.290547 0.243503 0
0.382406 0.244266 0
0.470832 0.250385 0
0.525856 0.266224 0
0.519631 0.295033 0
0.462959 0.332876 0.160403
0.403586 0.370459 0.327337
0.398718 0.398718 0.398718
0.420905 0.420905 0.420905
0.440665 0.440665 0.440665
0.458412 0.458412 0.458412
0.473991 0.473991 0.473991
0.487694 0.487694 0.487694
0.499901 0.499901 0.499901
0.511482 0.511482 0.511482
0.523644 0.523644 0.523644
0.534539 0.534539 0.534539
0.54432 0.54432 0.54432
0.553368 0.553368 0.553368
0.561227 0.561227 0.561227
0.568566 0.568566 0.568566
0 0.282307 0.137118
0 0.283482 0.138003
0 0.291295 0.146181
0 0.298131 0.151583
0 0.304143 0.154055
0 0.308934 0.153048
0 0.312337 0.147906
0 0.314626 0.138048
0 0.316426 0.122805
0 0.318166 0.0985428
0.0597543 0.30985 0.0975814
0.159792 0.299596 0.0919203
0.249073 0.294972 0.0479591
0.341329 0.293172 0
0.435477 0.294316 0
0.519524 0.300725 0
0.560891 0.316533 0
0.541772 0.343511 0.0536355
0.487312 0.376364 0.221408
0.438224 0.408377 0.367788
0.433188 0.433188 0.433188
0.452537 0.452537 0.452537
0.470375 0.470375 0.470375
0.486244 0.486244 0.486244
0.500542 0.500542 0.500542
0.513375 0.513375 0.513375
0.525368 0.525368 0.525368
0.536843 0.536843 0.536843
0.548089 0.548089 0.548089
0.558465 0.558465 0.558465
0.568048 0.568048 0.568048
0.576501 0.576501 0.576501
0.584466 0.584466 0.584466
0 0.329046 0.178897
0 0.330434 0.179995
0 0.339559 0.189258
0 0.347906 0.19649
0 0.354528 0.200275
0 0.360006 0.201511
0 0.364355 0.199817
0 0.367315 0.1944
0 0.369177 0.185168
0 0.370581 0.171527
0.00976577 0.371328 0.150591
0.103059 0.363439 0.146685
0.208301 0.352605 0.14342
0.300999 0.348394 0.10309
0.394965 0.347143 0.0414893
0.488609 0.34876 0
0.568826 0.355459 0
0.605356 0.369253 0
0.589822 0.391836 0.0883955
0.546944 0.419242 0.233295
0.506767 0.446418 0.361425
0.480613 0.470878 0.457496
0.489296 0.489296 0.489296
0.505043 0.505043 0.505043
0.519539 0.519539 0.519539
0.532906 0.532906 0.532906
0.545602 0.545602 0.545602
0.556954 0.556954 0.556954
0.568231 0.568231 0.568231
0.579202 0.579202 0.579202
0.588968 0.588968 0.588968
0.59794 0.59794 0.59794
0.606577 0.606577 0.606577
0 0.374548 0.222889
0 0.376257 0.22417
0 0.386816 0.233997
0 0.397162 0.242664
0 0.405951 0.248447
0 0.412665 0.251011
0 0.418219 0.251652
0 0.422141 0.249485
0 0.424781 0.244343
0 0.426047 0.235431
0.0213321 0.426368 0.222385
0.0555886 0.426368 0.203586
0.157946 0.419135 0.198291
0.26424 0.408392 0.196353
0.357748 0.405142 0.160266
0.450904 0.404974 0.111864
0.540444 0.406867 0.0514229
0.617746 0.412497 0.00511177
0.660975 0.423728 0.0169375
0.665125 0.441077 0.0884108
0.64448 0.462684 0.192172
0.619562 0.484779 0.291936
0.600763 0.505318 0.372793
0.590478 0.523812 0.433524
0.588052 0.540276 0.476951
0.593194 0.555154 0.505776
0.602213 0.568124 0.524712
0.615396 0.579614 0.53492
0.62945 0.590387 0.542458
0.643503 0.601221 0.550164
0.659342 0.610391 0.552239
0.67863 0.618402 0.548089
0.700038 0.625254 0.539528
0 0.418006 0.267582
0 0.420142 0.269169
0 0.432731 0.27985
0 0.444862 0.289296
0 0.455756 0.296513
0 0.46479 0.301137
0 0.471778 0.303151
0 0.476982 0.302831
0 0.480415 0.300328
0.00527962 0.482399 0.294987
0.0410468 0.482994 0.286473
0.0773327 0.48249 0.274434
0.120256 0.482963 0.254704
0.222766 0.475135 0.251637
0.326848 0.465599 0.250111
0.418036 0.463722 0.216846
0.506249 0.464073 0.178637
0.588815 0.466667 0.140246
0.662608 0.472114 0.100023
0.716457 0.480812 0.0818799
0.747021 0.493492 0.100084
0.758633 0.508202 0.141817
0.761242 0.523964 0.192035
0.762539 0.539498 0.238865
0.76733 0.554269 0.276509
0.776822 0.567605 0.303197
0.790005 0.579416 0.321004
0.807263 0.589853 0.330739
0.828077 0.599588 0.335439
0.844129 0.609125 0.343526
0.860883 0.617685 0.348211
0.878706 0.62565 0.350072
0.894499 0.632547 0.351095
0 0.460487 0.312444
0 0.462669 0.313863
0 0.477638 0.325643
0 0.491859 0.33608
0 0.504341 0.34406
0 0.514672 0.349508
0 0.523171 0.352834
0 0.529595 0.353841
0 0.534112 0.352926
0.0324254 0.536782 0.350027
0.0699779 0.538125 0.344732
0.106584 0.538064 0.336706
0.14342 0.537667 0.324071
0.187732 0.5402 0.302403
0.297292 0.530159 0.306203
0.39443 0.52221 0.302571
0.480186 0.522393 0.271809
0.560952 0.52398 0.242954
0.634333 0.527657 0.21883
0.698955 0.53344 0.196323
0.753567 0.540795 0.180377
0.795254 0.549935 0.177752
0.826291 0.560311 0.185458
0.850172 0.571664 0.199832
0.869017 0.58291 0.216358
0.884978 0.593927 0.232929
0.899382 0.604593 0.248417
0.912749 0.614832 0.262318
0.925353 0.624949 0.275257
0.936522 0.634348 0.286839
0.947082 0.643214 0.297017
0.957015 0.651576 0.305913
0.965774 0.659098 0.313542
0 0.503502 0.356741
0 0.506371 0.358633
0 0.522545 0.370474
0 0.537743 0.380957
0 0.551324 0.389425
0 0.562814 0.395666
0 0.572457 0.400015
0.00402838 0.580102 0.402472
0.0360876 0.585595 0.403067
0.0721447 0.588922 0.40177
0.108522 0.590875 0.398779
0.139635 0.591577 0.393713
0.172442 0.59144 0.384985
0.213382 0.592538 0.369711
0.271015 0.593698 0.352056
0.377661 0.582834 0.359472
0.465095 0.577737 0.353094
0.543053 0.580301 0.324269
0.614023 0.5832 0.304921
0.676555 0.587366 0.289784
0.731121 0.593164 0.276707
0.777188 0.600275 0.267994
0.815763 0.60853 0.264439
0.847166 0.61767 0.266743
0.872358 0.626871 0.27248
0.89279 0.636179 0.280598
0.909895 0.645533 0.290059
0.924361 0.655039 0.30045
0.937469 0.664164 0.309987
0.94844 0.672892 0.319539
0.957839 0.681544 0.329702
0.965438 0.689296 0.339452
0.971756 0.696712 0.349447
0 0.547356 0.399222
0 0.550378 0.401144
0 0.567407 0.413046
0 0.583749 0.424063
0 0.597894 0.432853
0 0.610071 0.43975
0.0239414 0.62005 0.444739
0.0538643 0.628061 0.448112
0.0878157 0.634073 0.450019
0.120211 0.637964 0.45034
0.148577 0.640146 0.448692
0.174258 0.64097 0.445151
0.204807 0.641276 0.438331
0.243137 0.642313 0.426627
0.285359 0.645594 0.40827
0.368795 0.640909 0.4056
0.460349 0.633356 0.410071
0.536171 0.631556 0.400626
0.604135 0.635828 0.37319
0.663874 0.639155 0.362188
0.716274 0.643931 0.353429
0.761181 0.650416 0.347402
0.798764 0.657313 0.343755
0.830243 0.664866 0.343175
0.856413 0.672892 0.345495
0.877852 0.681163 0.350103
0.895659 0.689845 0.356878
0.911192 0.6981 0.363287
0.923949 0.706203 0.371389
0.934508 0.714595 0.381582
0.942824 0.722393 0.392203
0.949325 0.729839 0.403479
0.954406 0.737255 0.415717
0 0.592111 0.439582
0 0.59527 0.441566
0 0.613046 0.453773
0.00350958 0.629526 0.464836
0.026276 0.643839 0.473991
0.0522927 0.655833 0.481239
0.0816205 0.665553 0.486778
0.11165 0.672984 0.490669
0.138705 0.678477 0.493233
0.163989 0.682277 0.494301
0.187411 0.684733 0.493767
0.210513 0.686 0.491356
0.24036 0.686961 0.485634
0.276722 0.688304 0.475807
0.317418 0.691539 0.461219
0.371557 0.693828 0.447166
0.46392 0.684962 0.455451
0.539452 0.680781 0.455009
0.60354 0.681926 0.443458
0.661082 0.687526 0.418265
0.71075 0.691371 0.414832
0.752895 0.696498 0.410986
0.788479 0.702541 0.408957
0.818128 0.709072 0.409064
0.842741 0.716167 0.411399
0.863127 0.723766 0.416602
0.881025 0.731487 0.422614
0.895582 0.739193 0.430579
0.907652 0.747066 0.440497
0.91725 0.754314 0.450767
0.92491 0.761349 0.46186
0.93106 0.768566 0.474357
0.93579 0.775174 0.486458
0.00894179 0.638285 0.478538
0.0113832 0.640848 0.480095
0.0311742 0.658 0.491966
0.0556497 0.673854 0.502907
0.0834974 0.687236 0.511986
0.112322 0.697978 0.519249
0.138033 0.706447 0.525048
0.161639 0.713176 0.529442
0.183719 0.718456 0.53254
0.204669 0.722271 0.534203
0.224445 0.724804 0.534356
0.248035 0.726604 0.532143
0.278172 0.72842 0.527123
0.313558 0.730541 0.518593
0.351736 0.733623 0.505684
0.389441 0.739162 0.487007
0.47628 0.731044 0.494804
0.550423 0.725643 0.49839
0.61239 0.724971 0.494057
0.66569 0.728435 0.482536
0.712947 0.734005 0.463996
0.751827 0.737896 0.462959
0.784848 0.743023 0.463004
0.81268 0.749111 0.465751
0.835981 0.755749 0.470863
0.855711 0.762493 0.476585
0.872129 0.769329 0.484123
0.885771 0.776593 0.49395
0.896956 0.783673 0.504799
0.90605 0.790494 0.516289
0.913481 0.797345 0.528756
0.91928 0.803571 0.540749
0.923903 0.809476 0.552651
0.0561532 0.68246 0.514443
0.0602426 0.685267 0.516304
0.0863966 0.700893 0.527642
0.115282 0.714565 0.537896
0.141299 0.725795 0.546731
0.164645 0.735103 0.554131
0.18584 0.742794 0.560052
0.205554 0.749004 0.564584
0.224155 0.753948 0.56788
0.242069 0.757733 0.570001
0.26273 0.760891 0.570367
0.287907 0.763363 0.568032
0.317586 0.765499 0.562814
0.351385 0.767834 0.554498
0.387823 0.771145 0.54255
0.423896 0.776486 0.525917
0.500267 0.770565 0.530785
0.57084 0.764782 0.535821
0.629175 0.762951 0.534524
0.67863 0.764858 0.527977
0.721355 0.769253 0.518669
0.758663 0.774884 0.509194
0.78912 0.779477 0.51371
0.814633 0.784756 0.519188
0.836545 0.790799 0.525628
0.854795 0.797116 0.533822
0.870207 0.803784 0.543908
0.882597 0.810071 0.55436
0.892912 0.816327 0.565667
0.901534 0.822644 0.577935
0.908721 0.829007 0.591012
0.914443 0.834882 0.60351
0.919219 0.840696 0.616312
0.111406 0.724315 0.548806
0.116258 0.726619 0.550484
0.142702 0.739437 0.56109
0.167605 0.750683 0.570871
0.190143 0.759899 0.579019
0.209842 0.7682 0.58613
0.227985 0.775265 0.591943
0.245029 0.781094 0.596536
0.261204 0.785779 0.599924
0.279744 0.789563 0.601465
0.302052 0.792737 0.6009
0.328527 0.795438 0.598032
0.358816 0.797864 0.592584
0.391913 0.800397 0.584161
0.426673 0.803952 0.57258
0.460472 0.809461 0.556909
0.533608 0.802945 0.56376
0.598688 0.797635 0.569802
0.652644 0.795712 0.571466
0.698024 0.796948 0.56968
0.737423 0.800824 0.566766
0.771206 0.806363 0.562097
0.799573 0.811688 0.563455
0.823011 0.816617 0.570764
0.842786 0.821973 0.579156
0.859617 0.827939 0.589532
0.87361 0.83389 0.600595
0.885222 0.839872 0.612482
0.895048 0.846006 0.625284
0.903044 0.851621 0.637491
0.909697 0.857099 0.64976
0.915389 0.862684 0.662638
0.920104 0.867903 0.674922
0.162493 0.76257 0.582269
0.166064 0.764187 0.583597
0.188418 0.775219 0.593561
0.209735 0.785138 0.602701
0.229374 0.793439 0.610376
0.247211 0.800092 0.61651
0.263645 0.80531 0.621256
0.279911 0.809277 0.624628
0.298619 0.813382 0.626917
0.320104 0.817044 0.627451
0.344503 0.82005 0.625864
0.372061 0.82269 0.622385
0.403189 0.825483 0.617166
0.436042 0.828473 0.609628
0.469444 0.832334 0.599634
0.503853 0.836973 0.588067
0.573266 0.829892 0.598123
0.632013 0.825437 0.605539
0.681727 0.824262 0.610346
0.723308 0.825681 0.612696
0.758419 0.82887 0.613748
0.788052 0.833448 0.615228
0.814343 0.839826 0.61294
0.836027 0.844968 0.622263
0.854047 0.85008 0.632807
0.869017 0.855283 0.643778
0.881621 0.860609 0.655314
0.892454 0.866346 0.668223
0.901473 0.87187 0.680919
0.909102 0.877241 0.693614
0.915633 0.882628 0.706538
0.920928 0.887449 0.718318
0.925399 0.892027 0.729595
0.205539 0.79527 0.612116
0.20911 0.796948 0.613642
0.228824 0.806836 0.623041
0.247517 0.815686 0.631525
0.264302 0.822751 0.638285
0.279988 0.828199 0.643565
0.296529 0.832425 0.64741
0.316426 0.835767 0.649516
0.339284 0.838346 0.650385
0.365194 0.840482 0.650095
0.392798 0.843168 0.648981
0.421958 0.845975 0.646525
0.452735 0.848737 0.642359
0.484565 0.851926 0.636484
0.516716 0.856138 0.628962
0.556344 0.858808 0.62475
0.618296 0.853284 0.636027
0.670085 0.849821 0.644404
0.713863 0.848951 0.65069
0.75108 0.850523 0.655772
0.782757 0.853864 0.660288
0.809491 0.858686 0.66479
0.832166 0.863966 0.66833
0.851926 0.869703 0.672374
0.86807 0.874479 0.683909
0.881712 0.87953 0.696056
0.893462 0.884871 0.708934
0.903059 0.889876 0.721141
0.911223 0.894789 0.733272
0.918425 0.899947 0.74609
0.924468 0.904753 0.758175
0.92961 0.909361 0.769818
0.934142 0.913893 0.781308
0.243778 0.824018 0.639139
0.246448 0.825208 0.640253
0.263676 0.833814 0.648737
0.280552 0.84123 0.656245
0.296529 0.846891 0.662089
0.314305 0.851164 0.666224
0.335348 0.854444 0.669444
0.359487 0.857114 0.671855
0.385901 0.859388 0.673396
0.41413 0.861326 0.673869
0.444038 0.863188 0.673426
0.475563 0.865354 0.672175
0.506447 0.868589 0.669978
0.53817 0.87245 0.666773
0.568292 0.876875 0.661799
0.610025 0.877592 0.663584
0.663539 0.873259 0.674968
0.709438 0.871046 0.684642
0.748379 0.871046 0.692714
0.781186 0.872969 0.699672
0.808621 0.876341 0.705287
0.832135 0.880751 0.71162
0.852171 0.885695 0.718822
0.870069 0.891585 0.723918
0.884581 0.896498 0.733852
0.896605 0.901076 0.745815
0.906981 0.905882 0.758144
0.915801 0.910719 0.77055
0.923506 0.915633 0.783154
0.929885 0.920089 0.794629
0.935347 0.924392 0.805722
0.94023 0.928695 0.816861
0.944381 0.932662 0.8271
0.276921 0.847974 0.662318
0.27982 0.849165 0.663523
0.295735 0.85594 0.670741
0.312932 0.86157 0.677058
0.333104 0.865888 0.682399
0.356756 0.869383 0.687221
0.382223 0.87216 0.691142
0.409155 0.874449 0.694194
0.437964 0.876631 0.696788
0.468513 0.878828 0.698878
0.499336 0.88098 0.700023
0.530358 0.883284 0.700359
0.561486 0.886076 0.699977
0.591821 0.889876 0.69894
0.620569 0.894713 0.696925
0.662699 0.89427 0.703609
0.708949 0.891218 0.715236
0.748562 0.889952 0.725216
0.782513 0.890684 0.734203
0.810925 0.893095 0.741848
0.835065 0.896498 0.748959
0.855772 0.900786 0.756802
0.873213 0.905348 0.764904
0.888609 0.910567 0.772549
0.901854 0.915938 0.780545
0.912657 0.920409 0.792706
0.921798 0.924849 0.804501
0.929534 0.929183 0.815961
0.936324 0.933547 0.827405
0.942412 0.938018 0.839139
0.947478 0.942061 0.849683
0.951812 0.945815 0.85948
0.955718 0.949493 0.869062
0.307759 0.866758 0.681712
0.310491 0.867536 0.682643
0.329961 0.872877 0.689677
0.353796 0.877531 0.696757
0.379751 0.881117 0.703044
0.406806 0.884062 0.708522
0.43534 0.886671 0.713527
0.464698 0.889036 0.717876
0.494209 0.891249 0.721569
