public/textures/grade/Sony/Gems-SLog3.cube
TITLE "Generated by Resolve"
LUT_3D_SIZE 5
0 0.00196841 0.00932326
0.105806 0.000274662 0
0.464866 0.222538 0.0216526
0.471672 0.471672 0.471672
0.526955 0.526955 0.526955
0 0.0576486 0.0128328
0.0420996 0.0616617 0
0.500648 0.222934 0
0.483574 0.483574 0.483574
0.544518 0.544518 0.544518
0 0.401389 0.25069
0 0.442191 0.278248
0.387045 0.434134 0.191608
0.678935 0.560296 0.408042
0.808179 0.627939 0.430976
0.250126 0.825742 0.64126
0.325109 0.85153 0.667002
0.578576 0.877974 0.657496
0.894347 0.899016 0.741497
0.943877 0.931456 0.824567
0.569818 0.920363 0.787045
0.699504 0.936858 0.833158
0.888457 0.966201 0.900389
0.993744 0.995178 0.985519
1 1 1
0 0 0.131502
0.054902 0.0152743 0.136812
0.479347 0.204135 0.0134127
0.478843 0.478843 0.478843
0.534279 0.534279 0.534279
0 0.0579538 0.139391
0.0525826 0.0670481 0.0953994
0.557168 0.215091 0
0.494011 0.494011 0.494011
0.555291 0.555291 0.555291
0 0.415274 0.299641
0 0.453544 0.324285
0.404639 0.45156 0.24622
0.771634 0.573434 0.349432
0.902998 0.635645 0.37734
0.276402 0.834028 0.658732
0.363149 0.857114 0.689433
0.616053 0.886702 0.694011
0.907088 0.91107 0.782727
0.952743 0.942382 0.859358
0.616678 0.924071 0.816953
0.740734 0.942092 0.862226
0.909743 0.973693 0.922942
0.99968 1 1
1 1 1
0 0 0.413931
0 0 0.514321
0.484092 0.305577 0.718914
0.80557 0.510521 0.449622
0.656519 0.594919 0.575845
0 0.0102846 0.467964
0 0.0444343 0.567361
0.480339 0.322499 0.702403
0.917769 0.521279 0.449943
0.841856 0.59498 0.536171
0.188647 0.246159 0.259113
0.0346532 0.378851 0.466239
0.429328 0.465385 0.530449
1 0.575219 0.428092
1 0.645228 0.499825
0.276081 0.838621 0.778134
0.353017 0.870802 0.823499
0.692134 0.890379 0.826276
0.92549 0.928893 0.863203
0.966995 0.957595 0.918334
0.636515 0.940093 0.921553
0.771099 0.956924 0.944045
0.943008 0.980423 0.967407
1 1 1
1 1 1
0 0 0
0.0115358 0.0115358 0.0115358
0.260456 0.233951 0.359747
0.887724 0.646937 1
0.981582 0.738552 1
0.0213321 0.0213321 0.0213321
0.0675364 0.0675364 0.0675364
0.330434 0.272679 0.587381
0.885451 0.658579 1
0.98436 0.752758 1
0.218936 0.218936 0.218936
0.297337 0.297337 0.297337
0.421408 0.478386 0.977157
0.855741 0.712139 0.971069
0.927398 0.788083 0.942901
0.349035 0.839277 0.961776
0.446799 0.880247 1
0.74165 0.909804 0.972503
0.94548 0.947112 0.950378
0.979431 0.972442 0.971603
0.731731 0.948226 1
0.842847 0.964828 0.998199
0.968765 0.990295 0.995865
1 1 1
1 1 1
0 0 0
0.01149 0.01149 0.01149
0.26978 0.263127 0.297963
0.884459 0.624552 1
0.981292 0.727687 1
0.0257572 0.0257572 0.0257572
0.0738537 0.0738537 0.0738537
0.336477 0.293477 0.548486
0.888014 0.64419 1
0.988876 0.74757 1
0.240391 0.240391 0.240391
0.321477 0.321477 0.321477
0.44715 0.503639 1
0.857816 0.713344 1
0.926192 0.79202 1
0.392859 0.83241 0.984436
0.473075 0.88513 1
0.767117 0.917144 1
0.954147 0.95584 0.967788
0.982834 0.980911 0.984955
0.773648 0.952682 1
0.873518 0.969726 1
0.9841 0.995026 0.999374
1 1 1
1 1 1
