public/textures/grade/Sony/Gems-SLog3.cube
TITLE "Generated by Resolve"
LUT_3D_SIZE 33
0 0.00196841 0.00932326
0.00328069 0.00254826 0.0074464
0.00918593 0.00381476 0.00512703
0.0207828 0.00274662 0.00190738
0.0324254 0.00215152 0
0.0444953 0.00149538 0
0.0586862 0.000900282 0
0.0778973 0.000442512 0
0.105806 0.000274662 0
0.141649 0.00140383 0
0.187472 0.00508125 0
0.244846 0.0121309 0
0.314275 0.0260929 0
0.396063 0.0507057 0
0.479286 0.0923323 0
0.523003 0.150332 0
0.464866 0.222538 0.0216526
0.329595 0.298161 0.268925
0.340887 0.340887 0.340887
0.372244 0.372244 0.372244
0.396902 0.396902 0.396902
0.415503 0.415503 0.415503
0.430732 0.430732 0.430732
0.453086 0.453086 0.453086
0.471672 0.471672 0.471672
0.486259 0.486259 0.486259
0.497627 0.497627 0.497627
0.506355 0.506355 0.506355
0.513115 0.513115 0.513115
0.518227 0.518227 0.518227
0.521996 0.521996 0.521996
0.524865 0.524865 0.524865
0.526955 0.526955 0.526955
0 0.00636301 0.00918593
0.000274662 0.00633249 0.0068513
0.00885023 0.00595102 0.00396735
0.0183871 0.00553903 0.00123598
0.0293126 0.00514229 0
0.041001 0.00491341 0
0.0544137 0.00503548 0
0.073991 0.00444038 0
0.102556 0.0040589 0
0.139193 0.00477607 0
0.185611 0.00772107 0
0.243046 0.0148623 0
0.312688 0.0291295 0
0.394736 0.0542 0
0.478721 0.0956436 0
0.524361 0.152529 0
0.465675 0.223484 0.021149
0.330541 0.298833 0.269154
0.341466 0.341466 0.341466
0.372793 0.372793 0.372793
0.397482 0.397482 0.397482
0.416114 0.416114 0.416114
0.431876 0.431876 0.431876
0.45507 0.45507 0.45507
0.473716 0.473716 0.473716
0.48838 0.48838 0.48838
0.499748 0.499748 0.499748
0.508492 0.508492 0.508492
0.515328 0.515328 0.515328
0.520546 0.520546 0.520546
0.524422 0.524422 0.524422
0.527367 0.527367 0.527367
0.529519 0.529519 0.529519
0 0.0108797 0.00968948
0 0.0105287 0.00753796
0.00328069 0.0109102 0.00437934
0.0137484 0.0101472 0.0016022
0.0251316 0.00956741 0
0.0371252 0.00900282 0
0.0518807 0.00825513 0
0.0723278 0.007187 0
0.100237 0.00671397 0
0.136553 0.00740063 0
0.182956 0.0105287 0
0.240558 0.0179446 0
0.310262 0.0323186 0
0.392325 0.0574044 0
0.477256 0.0986801 0
0.525353 0.154681 0
0.467536 0.22417 0.0189517
0.332692 0.299138 0.267536
0.34197 0.34197 0.34197
0.373297 0.373297 0.373297
0.397955 0.397955 0.397955
0.416602 0.416602 0.416602
0.433829 0.433829 0.433829
0.457008 0.457008 0.457008
0.475578 0.475578 0.475578
0.490242 0.490242 0.490242
0.501732 0.501732 0.501732
0.510597 0.510597 0.510597
0.51751 0.51751 0.51751
0.522759 0.522759 0.522759
0.52668 0.52668 0.52668
0.529671 0.529671 0.529671
0.531884 0.531884 0.531884
0 0.0158999 0.0102846
0 0.0160983 0.0083772
0 0.0167391 0.00523384
0.00724804 0.0161746 0.00308232
0.0187381 0.0156252 0
0.0309758 0.0148775 0
0.0459907 0.0139315 0
0.0669566 0.0127718 0
0.0959029 0.011368 0
0.133715 0.0107881 0
0.179553 0.0136873 0
0.23682 0.0209049 0
0.306554 0.0353399 0
0.388815 0.0606699 0
0.474647 0.101411 0
0.525231 0.156191 0
0.47071 0.224521 0.0146487
0.33608 0.299168 0.264134
0.342351 0.342351 0.342351
0.373617 0.373617 0.373617
0.398337 0.398337 0.398337
0.418784 0.418784 0.418784
0.435737 0.435737 0.435737
0.458595 0.458595 0.458595
0.477272 0.477272 0.477272
0.492012 0.492012 0.492012
0.503502 0.503502 0.503502
0.512383 0.512383 0.512383
0.519387 0.519387 0.519387
0.524773 0.524773 0.524773
0.528832 0.528832 0.528832
0.531914 0.531914 0.531914
0.534203 0.534203 0.534203
0 0.0215457 0.0110018
0 0.0220798 0.00900282
0 0.0227817 0.00601205
0 0.0236667 0.0021973
0.0113222 0.0221256 0.000839246
0.0236667 0.0216678 0
0.0390021 0.020798 0
0.0603952 0.0195315 0
0.0892042 0.017792 0
0.127245 0.0167391 0
0.175372 0.0175326 0
0.232761 0.0242008 0
0.302235 0.0383917 0
0.38436 0.0633707 0
0.471138 0.103624 0
0.524529 0.157488 0
0.474678 0.224613 0.00888075
0.340719 0.298726 0.258549
0.342596 0.342596 0.342596
0.373877 0.373877 0.373877
0.398596 0.398596 0.398596
0.420676 0.420676 0.420676
0.437934 0.437934 0.437934
0.460014 0.460014 0.460014
0.478614 0.478614 0.478614
0.493355 0.493355 0.493355
0.504982 0.504982 0.504982
0.514061 0.514061 0.514061
0.521141 0.521141 0.521141
0.526558 0.526558 0.526558
0.530663 0.530663 0.530663
0.533776 0.533776 0.533776
0.536141 0.536141 0.536141
0 0.0271916 0.0112764
0 0.0280613 0.00961318
0 0.0289311 0.00683604
0 0.0303807 0.00263981
0.0034638 0.0293584 0.00131228
0.0162814 0.0282139 0
0.0317235 0.0276646 0
0.0532082 0.0263218 0
0.0821393 0.0245518 0
0.120867 0.0233463 0
0.169268 0.023743 0
0.228779 0.027512 0
0.297887 0.0413062 0
0.380056 0.0662699 0
0.467613 0.105882 0
0.523339 0.158511 0
0.478706 0.224598 0.00277714
0.345312 0.298314 0.252995
0.342763 0.342763 0.342763
0.374014 0.374014 0.374014
0.399908 0.399908 0.399908
0.422477 0.422477 0.422477
0.439841 0.439841 0.439841
0.461082 0.461082 0.461082
0.479774 0.479774 0.479774
0.494636 0.494636 0.494636
0.506386 0.506386 0.506386
0.51545 0.51545 0.51545
0.522515 0.522515 0.522515
0.528161 0.528161 0.528161
0.532296 0.532296 0.532296
0.535622 0.535622 0.535622
0.537972 0.537972 0.537972
0 0.0345922 0.0116732
0 0.0356909 0.0102541
0 0.0366674 0.00761425
0 0.038056 0.00383001
0 0.0393683 0
0.00602731 0.0370947 0
0.0218662 0.0361334 0
0.0436103 0.0352789 0
0.0722667 0.0335546 0
0.111482 0.031754 0
0.160418 0.0314641 0
0.220478 0.0346838 0
0.292073 0.044892 0
0.373831 0.0690318 0
0.462089 0.107607 0
0.520897 0.159228 0
0.484291 0.224277 0
0.352163 0.297322 0.243885
0.342809 0.342809 0.342809
0.374075 0.374075 0.374075
0.40145 0.40145 0.40145
0.424125 0.424125 0.424125
0.44181 0.44181 0.44181
0.462196 0.462196 0.462196
0.480858 0.480858 0.480858
0.495735 0.495735 0.495735
0.50753 0.50753 0.50753
0.516762 0.516762 0.516762
0.523995 0.523995 0.523995
0.529747 0.529747 0.529747
0.533913 0.533913 0.533913
0.537301 0.537301 0.537301
0.539757 0.539757 0.539757
0 0.0446174 0.0121157
0 0.0460059 0.0109865
0 0.047303 0.00874342
0 0.0487984 0.00535592
0 0.0507973 0.000747692
0 0.0508431 0
0.00810254 0.0482948 0
0.0301823 0.0471199 0
0.059205 0.0458076 0
0.0981765 0.044007 0
0.148165 0.0430762 0
0.208774 0.0451057 0
0.28159 0.0531014 0
0.365499 0.0731975 0
0.454566 0.110292 0
0.516869 0.160006 0
0.491753 0.223697 0
0.361868 0.295857 0.230594
0.342748 0.342748 0.342748
0.374014 0.374014 0.374014
0.40322 0.40322 0.40322
0.426352 0.426352 0.426352
0.444327 0.444327 0.444327
0.463416 0.463416 0.463416
0.48217 0.48217 0.48217
0.497185 0.497185 0.497185
0.509087 0.509087 0.509087
0.518425 0.518425 0.518425
0.525734 0.525734 0.525734
0.531624 0.531624 0.531624
0.535973 0.535973 0.535973
0.539528 0.539528 0.539528
0.542031 0.542031 0.542031
0 0.0576486 0.0128328
0 0.059205 0.011902
0 0.0606851 0.0099031
0 0.0624399 0.00698863
0 0.0642863 0.00289921
0 0.0666667 0
0 0.0658579 0
0.0128176 0.0629282 0
0.0420996 0.0616617 0
0.07953 0.0598459 0
0.130922 0.0583505 0
0.192935 0.0593576 0
0.266575 0.0657359 0
0.352605 0.08159 0
0.444068 0.113176 0
0.510674 0.160876 0
0.500648 0.222934 0
0.375036 0.29366 0.211673
0.34255 0.34255 0.34255
0.375509 0.375509 0.375509
0.405097 0.405097 0.405097
0.42858 0.42858 0.42858
0.447105 0.447105 0.447105
0.464866 0.464866 0.464866
0.483574 0.483574 0.483574
0.498634 0.498634 0.498634
0.510674 0.510674 0.510674
0.520195 0.520195 0.520195
0.527825 0.527825 0.527825
0.533715 0.533715 0.533715
0.538277 0.538277 0.538277
0.541787 0.541787 0.541787
0.544518 0.544518 0.544518
0 0.0765087 0.0150301
0 0.0786603 0.0146944
0 0.0807965 0.0133822
0 0.0829175 0.0107881
0 0.0848402 0.00727855
0 0.086656 0.00263981
0 0.0895247 0
0 0.0874189 0
0.0199283 0.0830243 0
0.057435 0.0809644 0
0.107805 0.0784924 0
0.171359 0.0785077 0
0.246586 0.0832837 0
0.333639 0.0958267 0
0.429679 0.118669 0
0.501183 0.161669 0
0.510048 0.222171 0
0.392493 0.290623 0.185351
0.342016 0.342016 0.342016
0.376791 0.376791 0.376791
0.406943 0.406943 0.406943
0.430854 0.430854 0.430854
0.44979 0.44979 0.44979
0.466072 0.466072 0.466072
0.484962 0.484962 0.484962
0.500114 0.500114 0.500114
0.51223 0.51223 0.51223
0.522057 0.522057 0.522057
0.529778 0.529778 0.529778
0.535912 0.535912 0.535912
0.540703 0.540703 0.540703
0.544335 0.544335 0.544335
0.547173 0.547173 0.547173
0 0.1037 0.0209354
0 0.106157 0.0212406
0 0.108629 0.0207218
0 0.110765 0.0188907
0 0.112749 0.0161288
0 0.114229 0.0120851
0 0.116258 0.00656138
0 0.119295 0
0 0.115816 0
0.0297704 0.110567 0
0.0777752 0.10779 0
0.142733 0.105089 0
0.219745 0.105501 0
0.308675 0.1131 0
0.408011 0.131228 0
0.488045 0.163485 0
0.507912 0.21973 0
0.414893 0.286595 0.149432
0.341207 0.341207 0.341207
0.377768 0.377768 0.377768
0.408423 0.408423 0.408423
0.433112 0.433112 0.433112
0.452705 0.452705 0.452705
0.468421 0.468421 0.468421
0.486183 0.486183 0.486183
0.501549 0.501549 0.501549
0.513863 0.513863 0.513863
0.523796 0.523796 0.523796
0.53167 0.53167 0.53167
0.537957 0.537957 0.537957
0.542947 0.542947 0.542947
0.546853 0.546853 0.546853
0.549767 0.549767 0.549767
0 0.137682 0.0334478
0 0.140368 0.0345769
0 0.143084 0.0349432
0 0.145464 0.0340124
0 0.147555 0.0320745
0 0.149248 0.0290837
0 0.150896 0.0243992
0 0.153201 0.0168002
0 0.15613 0.00383001
0 0.151827 0.00201419
0.0436866 0.145251 0
0.106722 0.141299 0
0.185046 0.138369 0
0.276066 0.139528 0
0.378119 0.149462 0
0.473243 0.172885 0
0.501976 0.217655 0
0.442008 0.281666 0.102144
0.341558 0.341558 0.341558
0.378485 0.378485 0.378485
0.409598 0.409598 0.409598
0.435004 0.435004 0.435004
0.455436 0.455436 0.455436
0.471809 0.471809 0.471809
0.487327 0.487327 0.487327
0.5028 0.5028 0.5028
0.515328 0.515328 0.515328
0.525322 0.525322 0.525322
0.533471 0.533471 0.533471
0.539834 0.539834 0.539834
0.544915 0.544915 0.544915
0.548775 0.548775 0.548775
0.551888 0.551888 0.551888
0 0.178698 0.0561685
0 0.181888 0.0587167
0 0.18468 0.0599222
0 0.187549 0.060502
0 0.189822 0.0595865
0 0.191821 0.0578317
0 0.193637 0.0544137
0 0.195621 0.0482338
0 0.197894 0.038117
0 0.200595 0.0216831
0 0.196002 0.0177768
0.0632181 0.187823 0.0131685
0.143877 0.182742 0
0.23621 0.179873 0
0.340719 0.18204 0
0.448997 0.194278 0
0.510109 0.224491 0
0.470039 0.277943 0.0476539
0.37438 0.33753 0.293217
0.379034 0.379034 0.379034
0.410361 0.410361 0.410361
0.436469 0.436469 0.436469
0.457633 0.457633 0.457633
0.474922 0.474922 0.474922
0.489128 0.489128 0.489128
0.504356 0.504356 0.504356
0.517159 0.517159 0.517159
0.527581 0.527581 0.527581
0.536004 0.536004 0.536004
0.543008 0.543008 0.543008
0.548333 0.548333 0.548333
0.552834 0.552834 0.552834
0.556329 0.556329 0.556329
0 0.227024 0.093843
0 0.230503 0.0974899
0 0.233936 0.100359
0 0.236942 0.101915
0 0.239796 0.10277
0 0.24184 0.102068
0 0.244251 0.100877
0 0.246571 0.0972
0 0.248631 0.0898146
0 0.250599 0.0767834
0 0.253147 0.0569162
0.00740063 0.249027 0.0479744
0.0944991 0.238956 0.0439612
0.190249 0.232883 0.00721752
0.295903 0.230365 0
0.41091 0.233371 0
0.508415 0.248142 0
0.518746 0.284184 0
0.439353 0.336492 0.20441
0.384115 0.384115 0.384115
0.415229 0.415229 0.415229
0.441505 0.441505 0.441505
0.463569 0.463569 0.463569
0.481941 0.481941 0.481941
0.497276 0.497276 0.497276
0.510765 0.510765 0.510765
0.523995 0.523995 0.523995
0.535241 0.535241 0.535241
0.544274 0.544274 0.544274
0.551629 0.551629 0.551629
0.557748 0.557748 0.557748
0.562631 0.562631 0.562631
0.566369 0.566369 0.566369
0 0.282109 0.140719
0 0.286244 0.145296
0 0.289952 0.148699
0 0.293675 0.15169
0 0.296696 0.153307
0 0.299397 0.154314
0 0.301961 0.154406
0 0.304891 0.153506
0 0.307729 0.1505
0 0.309941 0.143999
0 0.311772 0.132677
0 0.313512 0.113741
0.0236667 0.310521 0.0975052
0.137316 0.298421 0.095964
0.24622 0.291798 0.0504463
0.362249 0.290013 0
0.482277 0.294041 0
0.559182 0.310857 0
0.534768 0.346639 0.0779431
0.460822 0.391501 0.2972
0.428855 0.428855 0.428855
0.454627 0.454627 0.454627
0.477028 0.477028 0.477028
0.496117 0.496117 0.496117
0.51252 0.51252 0.51252
0.526558 0.526558 0.526558
0.539193 0.539193 0.539193
0.550622 0.550622 0.550622
0.560327 0.560327 0.560327
0.568475 0.568475 0.568475
0.574868 0.574868 0.574868
0.580377 0.580377 0.580377
0.584756 0.584756 0.584756
0 0.342046 0.193591
0 0.346838 0.198581
0 0.351629 0.203143
0 0.35584 0.206622
0 0.359609 0.209339
0 0.362737 0.211185
0 0.366125 0.212879
0 0.369696 0.21384
0 0.373083 0.21326
0 0.376059 0.210529
0 0.378378 0.204685
0 0.380285 0.194965
0.00196841 0.381247 0.1785
0.0521553 0.379721 0.156451
0.193408 0.365759 0.158953
0.311894 0.359472 0.118883
0.433341 0.358709 0.0420386
0.551461 0.363226 0
0.6168 0.378576 0
0.596994 0.408499 0.124727
0.542657 0.444251 0.304341
0.504158 0.476478 0.438468
0.501472 0.501472 0.501472
0.520745 0.520745 0.520745
0.537621 0.537621 0.537621
0.552285 0.552285 0.552285
0.564996 0.564996 0.564996
0.576822 0.576822 0.576822
0.586892 0.586892 0.586892
0.59527 0.59527 0.59527
0.602518 0.602518 0.602518
0.608103 0.608103 0.608103
0.612909 0.612909 0.612909
0 0.401389 0.25069
0 0.407645 0.25658
0 0.413382 0.261479
0 0.41883 0.265766
0 0.423957 0.269581
0 0.427924 0.271962
0 0.432502 0.274708
0 0.437369 0.276921
0 0.442191 0.278248
0 0.446799 0.278569
0 0.450095 0.276295
0 0.452522 0.271183
0.0179751 0.45391 0.262196
0.0590982 0.453925 0.247517
0.11783 0.454002 0.222217
0.26537 0.439139 0.227588
0.387045 0.434134 0.191608
0.505852 0.433997 0.134112
0.616434 0.438865 0.0631876
0.690135 0.451041 0.0438544
0.709026 0.471672 0.10869
0.695796 0.49662 0.211002
0.680201 0.520912 0.30248
0.674464 0.542245 0.367269
0.678935 0.560296 0.408042
0.691615 0.575235 0.430014
0.710262 0.587625 0.438636
0.730251 0.597833 0.440848
0.74548 0.607065 0.446006
0.763058 0.614603 0.445045
0.779171 0.620172 0.441474
0.79527 0.624735 0.436027
0.808179 0.627939 0.430976
0 0.459541 0.310124
0 0.466789 0.316106
0 0.473915 0.321645
0 0.481178 0.327092
0 0.487251 0.331258
0 0.492699 0.334768
0 0.498009 0.337774
0 0.504311 0.341115
0 0.510582 0.343679
0 0.516426 0.34519
0 0.521279 0.345068
0.00923171 0.524727 0.342962
0.0493019 0.526848 0.33817
0.093431 0.527443 0.329656
0.138231 0.527031 0.314748
0.210147 0.527199 0.291814
0.351156 0.513252 0.297215
0.468071 0.511223 0.263325
0.576654 0.513481 0.224247
0.671717 0.519509 0.188769
0.748714 0.529091 0.163622
0.800748 0.541787 0.163836
0.834089 0.556619 0.182376
0.857557 0.572 0.207614
0.876173 0.586374 0.231479
0.892485 0.599298 0.251301
0.907256 0.610773 0.267018
0.920119 0.62089 0.279759
0.931304 0.630152 0.290898
0.940536 0.63769 0.299413
0.948333 0.643885 0.305806
0.955032 0.649165 0.310918
0.960555 0.653483 0.314824
0 0.518044 0.369116
0 0.52604 0.375082
0 0.534371 0.381109
0 0.542046 0.386374
0 0.54902 0.390951
0 0.555001 0.394644
0 0.561105 0.398154
0 0.568612 0.402365
0 0.575936 0.405859
0 0.583017 0.408698
0.025742 0.589181 0.410285
0.0604715 0.593835 0.410285
0.100984 0.596872 0.408453
0.137179 0.598077 0.403555
0.175051 0.598077 0.394369
0.226383 0.59971 0.375647
0.322896 0.596475 0.363806
0.447593 0.586069 0.365316
0.551446 0.588037 0.332403
0.642451 0.592096 0.309087
0.719036 0.598978 0.291218
0.780499 0.60824 0.279927
0.828458 0.618952 0.276448
0.864347 0.630289 0.280659
0.891249 0.641535 0.289158
0.911604 0.652369 0.299596
0.927291 0.662531 0.310475
0.940352 0.671855 0.32015
0.950545 0.680385 0.329717
0.958206 0.687297 0.338048
0.964065 0.693492 0.346105
0.968414 0.698268 0.352575
0.97171 0.702541 0.358694
0 0.577157 0.424643
0 0.586282 0.431174
0 0.594766 0.437018
0 0.602991 0.442527
0 0.610742 0.447623
0 0.6168 0.451347
0.00680552 0.623621 0.455573
0.0220798 0.630976 0.4598
0.0417029 0.638514 0.463859
0.0671855 0.646128 0.467842
0.0972 0.652461 0.470619
0.127367 0.657328 0.47219
0.156878 0.6607 0.472053
0.185153 0.662516 0.469642
0.219959 0.663386 0.463066
0.267353 0.665141 0.449485
0.320851 0.670558 0.425086
0.443137 0.659419 0.432135
0.545388 0.654978 0.427024
0.631464 0.6607 0.395758
0.70312 0.665614 0.385748
0.761334 0.672923 0.378347
0.807294 0.681804 0.375586
0.842741 0.691325 0.377249
0.869673 0.700832 0.381872
0.890333 0.710094 0.388861
0.907027 0.71931 0.397513
0.919387 0.727764 0.407462
0.928512 0.735119 0.41738
0.935347 0.741817 0.427466
0.940047 0.747143 0.436042
0.943664 0.751888 0.44416
0.946075 0.755459 0.450462
0.00895705 0.638025 0.477165
0.0188144 0.646693 0.483284
0.0296025 0.654932 0.488991
0.0422522 0.663264 0.494759
0.0545357 0.670222 0.499458
0.0669871 0.676356 0.503578
0.0810407 0.682307 0.507485
0.0999161 0.689174 0.512016
0.120333 0.695964 0.516548
0.141375 0.702205 0.520638
0.163317 0.707866 0.524102
0.186053 0.712642 0.526604
0.209064 0.716197 0.527596
0.233921 0.718486 0.526268
0.268742 0.720378 0.520592
0.313542 0.722896 0.509331
0.363882 0.727901 0.490166
0.455909 0.724285 0.486473
0.556329 0.717067 0.490852
0.636194 0.718303 0.480385
0.70341 0.725383 0.455909
0.756191 0.730663 0.453758
0.797894 0.737697 0.453498
0.83035 0.745861 0.457847
0.855894 0.754559 0.46537
0.875639 0.762829 0.473976
0.890562 0.770718 0.48426
0.901762 0.778103 0.495445
0.910231 0.784909 0.506859
0.916533 0.790799 0.517388
0.921096 0.795911 0.527047
0.924468 0.799893 0.534798
0.926955 0.803418 0.541894
0.075761 0.695506 0.524498
0.0894331 0.70312 0.530175
0.104936 0.710719 0.535897
0.119127 0.717311 0.541054
0.132586 0.723354 0.545907
0.14345 0.727993 0.549615
0.155871 0.733242 0.553887
0.169894 0.738827 0.558373
0.18526 0.744533 0.562814
0.201907 0.750256 0.567178
0.219623 0.755611 0.571084
0.237842 0.760113 0.573922
0.258152 0.763821 0.575311
0.28542 0.766949 0.573678
0.320562 0.769726 0.568063
0.36289 0.772641 0.557305
0.409934 0.777646 0.540261
0.486671 0.776593 0.533425
0.580926 0.768582 0.540413
0.654963 0.767666 0.53724
0.714748 0.772335 0.527123
0.763684 0.779538 0.515846
0.801083 0.785519 0.522454
0.830732 0.792844 0.530907
0.854047 0.800519 0.540902
0.871809 0.807904 0.552254
0.885283 0.814878 0.564279
0.895705 0.821729 0.577218
0.903517 0.82768 0.589059
0.909468 0.832837 0.599802
0.91397 0.837507 0.609888
0.917403 0.841367 0.618357
0.919783 0.844251 0.62475
0.147829 0.74699 0.568521
0.15993 0.752956 0.573785
0.171725 0.758526 0.578759
0.183795 0.76405 0.583749
0.194202 0.768551 0.587793
0.203738 0.772503 0.591363
0.213581 0.776303 0.594766
0.225971 0.780911 0.598962
0.238987 0.785611 0.603052
0.252598 0.790692 0.607202
0.267048 0.795377 0.610819
0.285145 0.79968 0.613138
0.308782 0.803571 0.613397
0.338674 0.806943 0.610788
0.374701 0.809934 0.604456
0.415976 0.813397 0.593744
0.46009 0.81886 0.578225
0.534783 0.816709 0.57673
0.618708 0.809766 0.585763
0.685039 0.808652 0.588602
0.738384 0.812421 0.587823
0.781079 0.818967 0.586145
0.815137 0.826047 0.588373
0.841367 0.832517 0.599817
0.862089 0.839475 0.612863
0.877974 0.84625 0.626337
0.89012 0.852552 0.639612
0.899428 0.858335 0.652338
0.906844 0.863905 0.664973
0.912444 0.868559 0.675746
0.916732 0.872633 0.685389
0.920089 0.876051 0.693523
0.922621 0.87892 0.70045
0.203815 0.790204 0.607843
0.21442 0.795621 0.612985
0.224308 0.800458 0.617563
0.23415 0.805081 0.621958
0.243275 0.809171 0.625849
0.251164 0.812497 0.628992
0.259556 0.815824 0.632136
0.269596 0.819425 0.635538
0.281209 0.823011 0.639002
0.29575 0.826368 0.641764
0.314366 0.829236 0.643259
0.337819 0.831754 0.643565
0.365026 0.835142 0.64303
0.39765 0.838529 0.640665
0.435019 0.841932 0.635721
0.475593 0.845899 0.627649
0.517189 0.851759 0.616053
0.591058 0.847868 0.622614
0.663966 0.842741 0.633906
0.721553 0.8421 0.64062
0.7682 0.845594 0.645777
0.805188 0.851698 0.650904
0.835355 0.859449 0.652811
0.858274 0.865538 0.665263
0.876371 0.871778 0.679667
0.890562 0.878035 0.694331
0.901732 0.884138 0.708888
0.91014 0.889403 0.721614
0.916701 0.894072 0.733104
0.922042 0.898451 0.743954
0.926009 0.902007 0.752819
0.92929 0.905196 0.760845
0.93164 0.907607 0.766918
0.250126 0.825742 0.64126
0.259113 0.830381 0.645853
0.267582 0.834409 0.649851
0.27602 0.838102 0.653574
0.284215 0.841413 0.656962
0.290944 0.843778 0.659419
0.299382 0.846403 0.661997
0.310536 0.849012 0.664546
0.325109 0.85153 0.667002
0.344488 0.85417 0.669535
0.367788 0.856519 0.671458
0.395438 0.858717 0.672618
0.427207 0.860822 0.672694
0.46305 0.863218 0.671595
0.500587 0.867094 0.669169
0.53994 0.871748 0.664652
0.578576 0.877974 0.657496
0.648341 0.87277 0.669963
0.711009 0.869551 0.683101
0.761059 0.870161 0.693187
0.800793 0.873823 0.70135
0.832502 0.879606 0.709529
0.858152 0.886427 0.718151
0.878767 0.8934 0.726909
0.894347 0.899016 0.741497
0.906722 0.904707 0.755993
0.916594 0.910231 0.770092
0.924331 0.915267 0.783001
0.930251 0.919539 0.793912
0.935073 0.9234 0.803861
0.938674 0.926513 0.811856
0.941695 0.929335 0.81912
0.943877 0.931456 0.824567
0.288563 0.853101 0.667994
0.296651 0.856565 0.671748
0.304799 0.859525 0.675074
0.314092 0.862272 0.678309
0.324025 0.864698 0.681331
0.333379 0.866514 0.683711
0.345434 0.868559 0.686549
0.360693 0.870619 0.689586
0.379644 0.872755 0.692744
0.401953 0.87483 0.695796
0.427939 0.87689 0.698589
0.458076 0.879103 0.701152
0.491569 0.881468 0.70312
0.527504 0.884123 0.704158
0.565469 0.887495 0.704311
0.603403 0.8925 0.703441
0.641215 0.898482 0.701915
0.703792 0.893645 0.717433
0.756191 0.891844 0.73077
0.799084 0.893584 0.742657
0.832898 0.897688 0.752529
0.859831 0.903059 0.762432
0.881575 0.909194 0.773663
0.899672 0.916182 0.782818
0.913314 0.921752 0.796429
0.923919 0.926848 0.810025
0.932601 0.931945 0.823438
0.939391 0.936477 0.835294
0.944778 0.940444 0.845701
0.949172 0.944015 0.855009
0.952407 0.946807 0.862272
0.955108 0.949279 0.868696
0.957076 0.951125 0.873518
0.325292 0.87245 0.68925
0.336141 0.87512 0.693095
0.34789 0.877501 0.696803
0.361227 0.879774 0.700664
0.373709 0.881559 0.703899
0.385916 0.883131 0.706844
0.39939 0.884657 0.709819
0.417288 0.886534 0.713542
0.438819 0.888548 0.717617
0.463172 0.890608 0.721706
0.490455 0.892729 0.725673
0.520684 0.895048 0.729503
0.55407 0.897749 0.733288
0.589578 0.900954 0.736751
0.625589 0.904768 0.739391
0.661158 0.909606 0.741299
0.699977 0.914061 0.745663
0.753414 0.911208 0.761563
0.79762 0.910872 0.775097
0.833463 0.913252 0.786892
0.862501 0.917556 0.798047
0.885801 0.922942 0.809506
0.90399 0.928466 0.820752
0.919112 0.9346 0.831235
0.931334 0.940429 0.843366
0.940673 0.945357 0.856641
0.947967 0.949752 0.868376
0.953765 0.953719 0.878889
0.958572 0.957397 0.888533
0.962448 0.960601 0.89691
0.965438 0.963195 0.903716
0.967926 0.965484 0.909667
0.969848 0.96733 0.914458
0.370092 0.886305 0.708995
0.383703 0.888472 0.713283
0.397971 0.890486 0.717494
0.412818 0.892363 0.721645
0.428031 0.894163 0.725765
0.441108 0.895552 0.729
0.456748 0.897139 0.73286
0.475303 0.898894 0.737072
0.496895 0.900801 0.741634
