public/textures/grade/Sony/Gems-SLog.cube
TITLE "Generated by Resolve"
LUT_3D_SIZE 33
0 0 0.00790417
0.00210575 0.000823987 0.00367742
0.0127718 0.00047303 0.000457771
0.0265049 0 0
0.0441444 0 0
0.0650339 0 0
0.0919051 0 0
0.125383 0 0
0.16492 0 0
0.211078 0.00296025 0
0.263752 0.0104372 0
0.323079 0.0231937 0
0.38912 0.0429999 0
0.455467 0.0721752 0
0.504448 0.113298 0
0.51487 0.162936 0
0.467918 0.220859 0.0164492
0.364263 0.278859 0.201572
0.321736 0.321736 0.321736
0.348669 0.348669 0.348669
0.371878 0.371878 0.371878
0.391348 0.391348 0.391348
0.407233 0.407233 0.407233
0.420111 0.420111 0.420111
0.434195 0.434195 0.434195
0.450675 0.450675 0.450675
0.467079 0.467079 0.467079
0.481254 0.481254 0.481254
0.493263 0.493263 0.493263
0.503319 0.503319 0.503319
0.511727 0.511727 0.511727
0.518608 0.518608 0.518608
0.524132 0.524132 0.524132
0 0.00486763 0.00762951
0.000228885 0.00386053 0.00268559
0.00933852 0.00352483 0
0.0229648 0.00296025 0
0.040177 0.00251774 0
0.0616312 0.00178531 0
0.0888533 0.000854505 0
0.122896 0.000793469 0
0.163027 0.00239567 0
0.209461 0.00653086 0
0.262318 0.0143435 0
0.321752 0.0273594 0
0.387915 0.0474556 0
0.454917 0.0769055 0
0.505409 0.117403 0
0.518318 0.166003 0
0.468238 0.222263 0.0168307
0.364736 0.279988 0.202762
0.322652 0.322652 0.322652
0.349523 0.349523 0.349523
0.372686 0.372686 0.372686
0.392111 0.392111 0.392111
0.408042 0.408042 0.408042
0.420966 0.420966 0.420966
0.434562 0.434562 0.434562
0.453361 0.453361 0.453361
0.469902 0.469902 0.469902
0.484092 0.484092 0.484092
0.496284 0.496284 0.496284
0.506462 0.506462 0.506462
0.5149 0.5149 0.5149
0.521874 0.521874 0.521874
0.527565 0.527565 0.527565
0 0.0101778 0.0080415
0 0.00959792 0.00358587
0.00277714 0.00955215 0.000747692
0.016846 0.00874342 0
0.0353246 0.00767529 0
0.0580606 0.00637827 0
0.0862593 0.00476081 0
0.120104 0.00445563 0
0.159869 0.00604257 0
0.206226 0.0102846 0
0.259266 0.0184787 0
0.318837 0.0317693 0
0.385046 0.0519417 0
0.45272 0.0813764 0
0.504891 0.120882 0
0.520943 0.168521 0
0.470283 0.223316 0.0145724
0.367361 0.280583 0.200763
0.323354 0.323354 0.323354
0.350179 0.350179 0.350179
0.373342 0.373342 0.373342
0.392798 0.392798 0.392798
0.408728 0.408728 0.408728
0.421653 0.421653 0.421653
0.436713 0.436713 0.436713
0.455955 0.455955 0.455955
0.472526 0.472526 0.472526
0.486748 0.486748 0.486748
0.498939 0.498939 0.498939
0.509239 0.509239 0.509239
0.517876 0.517876 0.517876
0.525002 0.525002 0.525002
0.530831 0.530831 0.530831
0 0.0168307 0.00863661
0 0.0168612 0.00425727
0 0.018204 0.000396735
0.00787366 0.0169223 0
0.0266117 0.0159609 0
0.049958 0.0144503 0
0.0779278 0.012665 0
0.11371 0.0113375 0
0.15523 0.0112001 0
0.201602 0.0147707 0
0.254246 0.0226596 0
0.313802 0.0359655 0
0.380118 0.0563211 0
0.448569 0.0858473 0
0.502647 0.123873 0
0.522271 0.170306 0
0.474632 0.223774 0.00849927
0.372457 0.280568 0.195102
0.323903 0.323903 0.323903
0.350637 0.350637 0.350637
0.3738 0.3738 0.3738
0.393286 0.393286 0.393286
0.409262 0.409262 0.409262
0.424369 0.424369 0.424369
0.438941 0.438941 0.438941
0.458152 0.458152 0.458152
0.47483 0.47483 0.47483
0.489113 0.489113 0.489113
0.501335 0.501335 0.501335
0.511696 0.511696 0.511696
0.52047 0.52047 0.52047
0.527916 0.527916 0.527916
0.534035 0.534035 0.534035
0 0.0254978 0.00914015
0 0.0260929 0.00491341
0 0.0275731 0.00166323
0 0.0284581 0
0.014725 0.0264744 0
0.0383459 0.0253147 0
0.0670176 0.0234073 0
0.102831 0.021622 0
0.144991 0.0210269 0
0.193317 0.0224918 0
0.247562 0.0276646 0
0.306645 0.0403601 0
0.372854 0.0603494 0
0.442206 0.0897078 0
0.498527 0.126528 0
0.522087 0.17145 0
0.481224 0.223606 0
0.380621 0.279728 0.184558
0.324208 0.324208 0.324208
0.350942 0.350942 0.350942
0.374044 0.374044 0.374044
0.393545 0.393545 0.393545
0.411399 0.411399 0.411399
0.427329 0.427329 0.427329
0.440894 0.440894 0.440894
0.460044 0.460044 0.460044
0.476631 0.476631 0.476631
0.491005 0.491005 0.491005
0.503395 0.503395 0.503395
0.513924 0.513924 0.513924
0.522881 0.522881 0.522881
0.530465 0.530465 0.530465
0.536843 0.536843 0.536843
0 0.0363317 0.00943008
0 0.0375067 0.00581369
0 0.0391546 0.00292973
0 0.0415198 0
0 0.0399329 0
0.0236667 0.0383764 0
0.052781 0.0370642 0
0.0881971 0.0349126 0
0.131304 0.0335241 0
0.180362 0.0341344 0
0.235752 0.0379644 0
0.297688 0.0462348 0
0.36379 0.065095 0
0.433463 0.0931716 0
0.492103 0.128618 0
0.520302 0.172152 0
0.489342 0.223148 0
0.391485 0.278264 0.169619
0.324269 0.324269 0.324269
0.350958 0.350958 0.350958
0.374121 0.374121 0.374121
0.394629 0.394629 0.394629
0.41387 0.41387 0.41387
0.430167 0.430167 0.430167
0.443793 0.443793 0.443793
0.461753 0.461753 0.461753
0.47834 0.47834 0.47834
0.492699 0.492699 0.492699
0.505226 0.505226 0.505226
0.51606 0.51606 0.51606
0.525216 0.525216 0.525216
0.532967 0.532967 0.532967
0.539544 0.539544 0.539544
0 0.0491951 0.00961318
0 0.0508736 0.00654612
0 0.0530251 0.00428779
0 0.0553902 0
0 0.05832 0
0.00537118 0.0542458 0
0.03505 0.0529641 0
0.0696422 0.0512856 0
0.113603 0.0493782 0
0.163729 0.0489204 0
0.220035 0.0515755 0
0.282673 0.0587625 0
0.351919 0.0719921 0
0.422553 0.0970779 0
0.483299 0.130526 0
0.516243 0.172259 0
0.498573 0.222431 0
0.40502 0.276249 0.150057
0.324102 0.324102 0.324102
0.350713 0.350713 0.350713
0.373907 0.373907 0.373907
0.396597 0.396597 0.396597
0.416312 0.416312 0.416312
0.432807 0.432807 0.432807
0.446738 0.446738 0.446738
0.463096 0.463096 0.463096
0.47982 0.47982 0.47982
0.494331 0.494331 0.494331
0.506996 0.506996 0.506996
0.517876 0.517876 0.517876
0.527291 0.527291 0.527291
0.535409 0.535409 0.535409
0.54229 0.54229 0.54229
0 0.0650187 0.0103151
0 0.0670939 0.00770581
0 0.069749 0.00604257
0 0.0725719 0.00221256
0 0.0759899 0
0 0.0758984 0
0.0137331 0.0714122 0
0.0488594 0.0701457 0
0.0915389 0.0684672 0
0.143023 0.0674907 0
0.200443 0.0686656 0
0.263905 0.0739605 0
0.333898 0.0856947 0
0.408453 0.103502 0
0.472114 0.132876 0
0.510124 0.172457 0
0.50454 0.220874 0
0.42182 0.273396 0.124193
0.32845 0.322942 0.317128
0.350271 0.350271 0.350271
0.374716 0.374716 0.374716
0.398306 0.398306 0.398306
0.418326 0.418326 0.418326
0.435309 0.435309 0.435309
0.449638 0.449638 0.449638
0.464256 0.464256 0.464256
0.481132 0.481132 0.481132
0.495796 0.495796 0.495796
0.508614 0.508614 0.508614
0.519661 0.519661 0.519661
0.529244 0.529244 0.529244
0.537636 0.537636 0.537636
0.545022 0.545022 0.545022
0 0.0874495 0.0136721
0 0.0901045 0.01178
0 0.0932174 0.0108492
0 0.0961929 0.00773632
0 0.0992294 0.00175479
0 0.103105 0
0 0.0996567 0
0.0245365 0.0947433 0
0.0655528 0.0928817 0
0.117678 0.0905623 0
0.17644 0.0898756 0
0.24123 0.0927596 0
0.312154 0.101183 0
0.388312 0.115679 0
0.458488 0.137713 0
0.501305 0.172854 0
0.503731 0.218662 0
0.441199 0.269978 0.0923476
0.345998 0.319356 0.290471
0.349615 0.349615 0.349615
0.375998 0.375998 0.375998
0.399725 0.399725 0.399725
0.420066 0.420066 0.420066
0.437507 0.437507 0.437507
0.452399 0.452399 0.452399
0.465568 0.465568 0.465568
0.482261 0.482261 0.482261
0.496956 0.496956 0.496956
0.509941 0.509941 0.509941
0.521309 0.521309 0.521309
0.531182 0.531182 0.531182
0.539879 0.539879 0.539879
0.547372 0.547372 0.547372
0 0.114305 0.0205997
0 0.117586 0.0199588
0 0.12105 0.0200504
0 0.124041 0.0177005
0 0.126787 0.0125887
0 0.129793 0.00434882
0 0.133837 0
0 0.127733 0
0.0384527 0.122316 0
0.0876631 0.119493 0
0.147707 0.117037 0
0.213993 0.116579 0
0.28658 0.120317 0
0.36376 0.130037 0
0.440391 0.147509 0
0.491417 0.175021 0
0.500572 0.216571 0
0.461906 0.266407 0.055436
0.366857 0.315145 0.25745
0.349126 0.349126 0.349126
0.376654 0.376654 0.376654
0.400885 0.400885 0.400885
0.421653 0.421653 0.421653
0.43946 0.43946 0.43946
0.455024 0.455024 0.455024
0.46836 0.46836 0.46836
0.483406 0.483406 0.483406
0.498177 0.498177 0.498177
0.511208 0.511208 0.511208
0.522866 0.522866 0.522866
0.532982 0.532982 0.532982
0.541878 0.541878 0.541878
0.549569 0.549569 0.549569
0 0.145296 0.0331579
0 0.148669 0.033341
0 0.152575 0.0347143
0 0.156024 0.0337835
0 0.158923 0.0299229
0 0.161593 0.0230259
0 0.164553 0.0123598
0 0.166873 0
0.00425727 0.159976 0.000686656
0.0554971 0.153811 0
0.114733 0.150378 0
0.182345 0.148074 0
0.256306 0.147799 0
0.335119 0.152087 0
0.416724 0.162676 0
0.481315 0.182864 0
0.499245 0.215961 0
0.473716 0.262486 0.0219272
0.39118 0.310323 0.216739
0.349355 0.349355 0.349355
0.376974 0.376974 0.376974
0.401526 0.401526 0.401526
0.422995 0.422995 0.422995
0.441459 0.441459 0.441459
0.457282 0.457282 0.457282
0.471015 0.471015 0.471015
0.484184 0.484184 0.484184
0.499123 0.499123 0.499123
0.51252 0.51252 0.51252
0.524071 0.524071 0.524071
0.534218 0.534218 0.534218
0.543297 0.543297 0.543297
0.551431 0.551431 0.551431
0 0.180148 0.0529488
0 0.183886 0.0544442
0 0.188037 0.0570993
0 0.191821 0.0576028
0 0.195407 0.055848
0 0.198245 0.0505989
0 0.200656 0.0415351
0 0.203113 0.0278172
0 0.204166 0.0133516
0.01738 0.196765 0.0150759
0.0775158 0.189944 0.00767529
0.146715 0.186053 0
0.221439 0.183398 0
0.301701 0.183383 0
0.386419 0.188174 0
0.46479 0.200351 0
0.506813 0.223865 0
0.486366 0.260822 0
0.419974 0.305806 0.167086
0.357671 0.348714 0.337819
0.377325 0.377325 0.377325
0.402121 0.402121 0.402121
0.423804 0.423804 0.423804
0.442756 0.442756 0.442756
0.459251 0.459251 0.459251
0.473594 0.473594 0.473594
0.486275 0.486275 0.486275
0.500526 0.500526 0.500526
0.514046 0.514046 0.514046
0.526116 0.526116 0.526116
0.536873 0.536873 0.536873
0.546578 0.546578 0.546578
0.555657 0.555657 0.555657
0 0.218509 0.0819409
0 0.222904 0.0854353
0 0.227573 0.0898299
0 0.231907 0.092195
0 0.235554 0.091722
0 0.238788 0.0887007
0 0.24155 0.0821698
0 0.243748 0.0707256
0 0.245823 0.0541695
0 0.24654 0.0370184
0.0337377 0.238361 0.038819
0.107134 0.230396 0.0310216
0.183444 0.226123 0
0.26424 0.223636 0
0.350591 0.224155 0
0.438437 0.229358 0
0.505302 0.242969 0
0.519554 0.26894 0
0.472862 0.3066 0.0903487
0.407263 0.347234 0.270527
0.381277 0.381277 0.381277
0.405661 0.405661 0.405661
0.427298 0.427298 0.427298
0.44651 0.44651 0.44651
0.463554 0.463554 0.463554
0.47892 0.47892 0.47892
0.492576 0.492576 0.492576
0.505348 0.505348 0.505348
0.519127 0.519127 0.519127
0.53167 0.53167 0.53167
0.543114 0.543114 0.543114
0.553826 0.553826 0.553826
0.56347 0.56347 0.56347
0 0.260166 0.117693
0 0.265232 0.122423
0 0.270573 0.127901
0 0.275349 0.131395
0 0.279423 0.132601
0 0.282979 0.131624
0 0.286061 0.128298
0 0.288945 0.122454
0 0.290944 0.111818
0 0.292485 0.0948348
0 0.29305 0.0719615
0.0546273 0.284077 0.0742351
0.143236 0.275135 0.0670481
0.225742 0.271214 0.0284276
0.312032 0.269017 0
0.402182 0.269459 0
0.488609 0.275105 0
0.541131 0.28986 0
0.533791 0.316609 0.00509651
0.478599 0.351461 0.177371
0.422095 0.38677 0.339574
0.414405 0.414405 0.414405
0.435889 0.435889 0.435889
0.455222 0.455222 0.455222
0.472724 0.472724 0.472724
0.488502 0.488502 0.488502
0.502739 0.502739 0.502739
0.515846 0.515846 0.515846
0.529137 0.529137 0.529137
0.542062 0.542062 0.542062
0.554345 0.554345 0.554345
0.56553 0.56553 0.56553
0.576028 0.576028 0.576028
0 0.305089 0.157153
0 0.310445 0.162234
0 0.316167 0.168154
0 0.321553 0.172717
0 0.326436 0.175616
0 0.330617 0.176562
0 0.334417 0.175799
0 0.337331 0.172366
0 0.339712 0.166232
0 0.341421 0.156451
0 0.342489 0.14136
0 0.343404 0.118212
0.0890059 0.334112 0.12076
0.185641 0.324453 0.115999
0.273014 0.320424 0.0737011
0.363226 0.318746 0.0154269
0.455207 0.319615 0
0.538277 0.325933 0
0.580209 0.340352 0
0.564324 0.364691 0.0641031
0.514107 0.395117 0.224857
0.467353 0.425361 0.367117
0.450843 0.450843 0.450843
0.470176 0.470176 0.470176
0.487617 0.487617 0.487617
0.503563 0.503563 0.503563
0.518227 0.518227 0.518227
0.531868 0.531868 0.531868
0.545037 0.545037 0.545037
0.558572 0.558572 0.558572
0.571069 0.571069 0.571069
0.582849 0.582849 0.582849
0.594034 0.594034 0.594034
0 0.349905 0.198703
0 0.356481 0.2047
0 0.36318 0.21117
0 0.369406 0.216342
0 0.375479 0.220539
0 0.380789 0.223178
0 0.385183 0.224033
0 0.388678 0.222782
0 0.391409 0.219333
0 0.393484 0.213397
0 0.395209 0.204807
0.00299077 0.395773 0.191257
0.031693 0.395758 0.171191
0.13431 0.387198 0.169467
0.234958 0.37705 0.166491
0.325567 0.373632 0.129458
0.4177 0.373129 0.0737774
0.508751 0.374594 0.0116884
0.587793 0.380056 0
0.628397 0.392599 0
0.62153 0.413108 0.0881514
0.586282 0.438483 0.220386
0.551385 0.464164 0.340139
0.526711 0.487572 0.433417
0.513787 0.508537 0.501411
0.52517 0.52517 0.52517
0.540139 0.540139 0.540139
0.554391 0.554391 0.554391
0.567941 0.567941 0.567941
0.58114 0.58114 0.58114
0.594064 0.594064 0.594064
0.606439 0.606439 0.606439
0.618296 0.618296 0.618296
0 0.39321 0.241794
0 0.401129 0.248493
0 0.409277 0.255818
0 0.417182 0.262196
0 0.424308 0.266987
0 0.430777 0.270512
0 0.436606 0.27277
0 0.441505 0.273472
0 0.445136 0.272267
0 0.44802 0.269322
0 0.449729 0.263584
0.0161898 0.450584 0.254963
0.0489815 0.450477 0.242573
0.0866865 0.450599 0.223377
0.190173 0.442359 0.220996
0.29221 0.432776 0.219257
0.383001 0.430213 0.185061
0.473106 0.429969 0.141436
0.559625 0.431952 0.0913405
0.636484 0.437247 0.0407263
0.685969 0.447852 0.0392004
0.701671 0.46334 0.0886244
0.693843 0.482444 0.168811
0.678172 0.502632 0.253025
0.665934 0.522026 0.324208
0.661494 0.53994 0.377661
0.665751 0.556298 0.414145
0.676249 0.570733 0.437217
0.692866 0.583688 0.449119
0.712642 0.595743 0.455329
0.732372 0.607614 0.461234
0.75903 0.618067 0.457053
0.791974 0.627131 0.444541
0 0.435477 0.28603
0 0.444724 0.293217
0 0.454551 0.301381
0 0.463783 0.308339
0 0.472496 0.314153
0 0.480385 0.318685
0 0.487449 0.321889
0 0.493736 0.323934
0 0.498756 0.324331
0 0.502297 0.322927
0.00511177 0.504479 0.319509
0.0380865 0.505608 0.313787
0.0729229 0.505699 0.305409
0.10959 0.505577 0.294133
0.151293 0.506935 0.273411
0.256474 0.497673 0.274434
0.354971 0.488655 0.271412
0.443229 0.487694 0.239384
0.52845 0.488624 0.205432
0.608164 0.492042 0.174151
0.679438 0.49749 0.141649
0.736309 0.505608 0.123278
0.774517 0.516564 0.127504
0.797436 0.529702 0.150072
0.812192 0.543923 0.181781
0.825544 0.558404 0.213428
0.83888 0.571969 0.240299
0.853971 0.58468 0.261463
0.870512 0.596674 0.27776
0.887129 0.608362 0.2916
0.903059 0.620127 0.304784
0.919783 0.631235 0.314717
0.936004 0.641474 0.322332
0 0.47776 0.33048
0 0.48893 0.338689
0 0.499657 0.346868
0 0.509987 0.354177
0 0.519524 0.360281
0 0.528511 0.365438
0 0.536858 0.36965
0 0.54403 0.372473
0 0.54995 0.373831
0.00538643 0.554589 0.373846
0.0370642 0.557702 0.372396
0.0712596 0.559457 0.368994
0.106065 0.560265 0.36376
0.136828 0.559915 0.35581
0.174777 0.560265 0.342168
0.219211 0.563104 0.31986
0.331258 0.551553 0.328099
0.423346 0.544747 0.323171
0.506111 0.546273 0.293706
0.583307 0.548318 0.268498
0.653132 0.552087 0.247883
0.714626 0.557977 0.229358
0.766949 0.56553 0.216434
0.809171 0.574975 0.213931
0.841856 0.585092 0.219074
0.867674 0.595987 0.229664
0.888838 0.607263 0.243076
0.906783 0.618585 0.257374
0.92253 0.629786 0.271504
0.937362 0.641352 0.285359
0.950607 0.652415 0.298253
0.962554 0.663249 0.310552
0.973327 0.673793 0.322683
0 0.521569 0.374548
0 0.533196 0.382544
0 0.544686 0.390814
0 0.555627 0.398215
0 0.566003 0.40473
0 0.576196 0.410773
0 0.585184 0.415518
0 0.593088 0.41912
0.0215152 0.59968 0.421454
0.0495155 0.604822 0.422492
0.0822766 0.608652 0.422507
0.113985 0.611093 0.421027
0.141863 0.612146 0.417487
0.16875 0.612161 0.411887
0.203296 0.612451 0.401816
0.244007 0.614374 0.385458
0.312886 0.613504 0.37464
0.411887 0.603922 0.38085
0.494331 0.600214 0.373266
0.56849 0.603372 0.344656
0.635523 0.606271 0.328359
0.694881 0.610773 0.315785
0.746548 0.617517 0.306416
0.790204 0.625071 0.300389
0.826932 0.633463 0.298253
0.857237 0.642481 0.300267
0.882017 0.651972 0.306004
0.902327 0.661891 0.314488
0.919966 0.672496 0.324727
0.935134 0.682734 0.334783
0.947585 0.692851 0.346303
0.957778 0.702922 0.359365
0.965972 0.713115 0.374136
0 0.566049 0.416434
0 0.578271 0.424567
0 0.590341 0.43299
0 0.602075 0.440833
0 0.61326 0.44799
0.00663767 0.623224 0.453941
0.0263981 0.632242 0.458961
0.0493782 0.640208 0.463081
0.075761 0.646937 0.466148
0.104479 0.652369 0.46833
0.131182 0.656275 0.469352
0.155795 0.658763 0.468803
0.178866 0.660105 0.466636
0.203738 0.66067 0.462379
0.236347 0.661372 0.454398
0.275319 0.663417 0.441871
0.316075 0.667857 0.422415
0.408438 0.659983 0.427192
0.492576 0.653468 0.429496
0.564004 0.652995 0.419257
0.628672 0.658 0.392432
0.685374 0.661891 0.384878
0.734203 0.666941 0.378103
0.776059 0.673289 0.37351
0.811399 0.680674 0.372061
0.840833 0.688716 0.373617
0.865293 0.697536 0.378149
0.885588 0.706264 0.384009
0.903456 0.715389 0.391577
0.917998 0.724834 0.401999
0.92961 0.73434 0.41474
0.938704 0.743786 0.429221
0.945739 0.753552 0.44593
0 0.612451 0.457008
0 0.624857 0.465202
0.0087892 0.636881 0.473533
0.0244297 0.648539 0.481437
0.0421149 0.659083 0.488334
0.0624704 0.668711 0.494469
0.0855268 0.677272 0.499718
0.109728 0.684535 0.504112
0.13312 0.690898 0.508019
0.154879 0.695766 0.510628
0.175967 0.699519 0.512139
0.196277 0.70219 0.512444
0.21622 0.703792 0.511238
0.241627 0.705135 0.507668
0.273442 0.706569 0.500877
0.310033 0.708568 0.489982
0.348928 0.712535 0.474037
0.416266 0.710903 0.468574
0.500206 0.703304 0.475013
0.570321 0.700694 0.473075
0.630686 0.702892 0.461311
0.685023 0.708766 0.438941
0.730694 0.712673 0.436484
0.769741 0.717937 0.434165
0.802609 0.724132 0.433631
0.830365 0.731502 0.436515
0.853529 0.7393 0.442008
0.873518 0.747494 0.449088
0.889982 0.755764 0.458396
0.903395 0.764187 0.469902
0.914229 0.7729 0.483589
0.923018 0.782132 0.49984
0.929778 0.790936 0.516548
0.0296635 0.65893 0.495415
0.0450446 0.671214 0.503792
0.062211 0.68249 0.511864
0.08159 0.692897 0.519234
0.103182 0.702358 0.525902
0.123964 0.710628 0.531991
0.143908 0.717998 0.537438
0.163485 0.724712 0.542397
0.181903 0.730251 0.546273
0.199817 0.734859 0.549172
0.217365 0.738476 0.551095
0.234485 0.741161 0.551858
0.255421 0.743389 0.550835
0.281758 0.745495 0.547509
0.312657 0.747372 0.541039
0.347387 0.749752 0.531136
0.383978 0.753582 0.517006
0.435737 0.755322 0.506508
0.517617 0.747723 0.514794
0.585306 0.743847 0.516594
0.642145 0.74406 0.510796
0.691295 0.747723 0.499138
0.734966 0.753567 0.483986
0.771038 0.758068 0.485512
0.801785 0.763958 0.489281
0.827359 0.770214 0.49456
0.849332 0.777188 0.501289
0.867765 0.784665 0.510582
0.883101 0.792416 0.521996
0.895766 0.800504 0.535592
0.905928 0.808377 0.550042
0.914214 0.816327 0.565774
0.920958 0.824491 0.582864
0.0840467 0.703716 0.53167
0.103899 0.714122 0.539223
0.123354 0.72372 0.546914
0.141894 0.732418 0.554116
0.159655 0.740368 0.560739
0.176745 0.747646 0.566796
0.193668 0.754467 0.572457
0.209522 0.760311 0.577081
0.225055 0.765438 0.580972
0.24036 0.769802 0.584085
0.255665 0.773373 0.586221
0.274479 0.776669 0.586999
0.296712 0.779187 0.585397
0.323156 0.781445 0.581567
0.35378 0.783703 0.575158
0.387503 0.786419 0.565698
0.422415 0.790417 0.552529
0.469444 0.792615 0.542412
0.545022 0.785016 0.550301
0.60827 0.780865 0.553613
0.661418 0.780499 0.551949
0.706661 0.783169 0.546609
0.745739 0.788128 0.540139
0.779995 0.794003 0.535744
0.807965 0.799115 0.542763
0.831815 0.805127 0.550332
0.851835 0.81146 0.559518
0.868559 0.818112 0.570352
0.882811 0.825345 0.583551
0.894621 0.832715 0.598108
0.904295 0.840085 0.613443
0.912276 0.847349 0.629374
0.918883 0.854627 0.645869
0.141131 0.746517 0.567987
0.158358 0.754803 0.574975
0.174731 0.762753 0.582101
0.190539 0.769955 0.588586
0.206409 0.776745 0.594766
0.221393 0.782559 0.600031
0.236072 0.787717 0.6047
0.250431 0.792142 0.608637
0.263752 0.796826 0.61239
0.278111 0.80087 0.615167
0.29604 0.804669 0.616739
0.316777 0.807752 0.616434
0.340871 0.810346 0.61413
0.368048 0.81265 0.609689
0.398123 0.815015 0.602869
0.430716 0.818067 0.59379
0.46424 0.822614 0.582055
0.51371 0.822965 0.577356
0.581506 0.816327 0.585946
0.638682 0.812619 0.591165
0.687205 0.812222 0.59321
0.728786 0.814801 0.593439
0.764126 0.819226 0.593301
0.794705 0.825177 0.590387
0.820233 0.830564 0.595285
0.841749 0.836042 0.605341
0.860014 0.842039 0.616846
0.875547 0.848554 0.630076
0.88835 0.854871 0.643519
0.899123 0.861402 0.658
0.908309 0.868193 0.673625
0.91606 0.875074 0.689845
0.922728 0.882017 0.7066
0.190158 0.783612 0.601373
0.204822 0.790753 0.607874
0.218936 0.797772 0.614527
0.233158 0.804486 0.62089
0.246494 0.810239 0.626322
0.259373 0.815305 0.631098
0.272084 0.819654 0.635203
0.285206 0.823255 0.63856
0.300893 0.826291 0.640726
0.319875 0.828992 0.641794
0.341131 0.831128 0.641596
0.364034 0.833936 0.640818
0.389975 0.836561 0.638727
0.418448 0.839155 0.635157
0.449454 0.84213 0.630091
0.480781 0.845396 0.622812
0.512047 0.849897 0.613443
0.564233 0.848371 0.615488
0.624338 0.843137 0.625208
0.67541 0.840436 0.632395
0.718898 0.840543 0.637476
0.755657 0.842817 0.641062
0.786999 0.846967 0.644709
0.813611 0.852277 0.648432
0.837308 0.858824 0.649027
0.856443 0.863828 0.6607
0.872831 0.869429 0.673548
0.886717 0.875288 0.687205
0.898497 0.881331 0.701503
0.908385 0.887358 0.716075
0.916777 0.8934 0.730922
0.924193 0.899763 0.746746
0.930648 0.906142 0.762783
0.233127 0.816114 0.631632
0.246204 0.822553 0.637812
0.258503 0.828733 0.643885
0.270497 0.83415 0.649256
0.282414 0.838834 0.653971
0.294438 0.842756 0.657969
0.308309 0.846052 0.660945
0.325368 0.848981 0.663523
0.3449 0.851331 0.665415
0.367117 0.853422 0.666651
0.39173 0.855299 0.66714
0.418326 0.857023 0.666697
0.446769 0.858778 0.665324
0.476097 0.861784 0.663478
0.506157 0.864973 0.660227
0.536553 0.868757 0.655589
0.565988 0.873549 0.649332
0.618235 0.870268 0.656992
0.670344 0.866361 0.66743
0.715648 0.864973 0.67657
0.753704 0.865629 0.683696
0.785794 0.868101 0.689632
0.812802 0.872068 0.694896
0.836179 0.876982 0.701228
0.856947 0.882994 0.707073
0.874586 0.888914 0.715785
0.888853 0.893904 0.728634
0.90103 0.899184 0.742
0.911604 0.904753 0.75613
0.920729 0.910475 0.770718
0.928695 0.916381 0.785794
0.935378 0.92192 0.800031
0.941253 0.927474 0.814298
0.27126 0.844144 0.658518
0.282963 0.849287 0.663798
0.294087 0.853986 0.668833
0.305638 0.858 0.673182
0.319356 0.861494 0.677195
0.335637 0.864546 0.680964
0.355032 0.867323 0.684657
0.375998 0.869612 0.687709
0.398596 0.87158 0.690166
