public/textures/grade/Sony/Gems-SLog2.cube
TITLE "Generated by Resolve"
LUT_3D_SIZE 5
0 0 0.00790417
0.221088 0.00411994 0
0.310445 0.309728 0.309056
0.456611 0.456611 0.456611
0.524132 0.524132 0.524132
0 0.12018 0.022797
0.0930495 0.125216 0
0.409277 0.295018 0.168383
0.473274 0.473274 0.473274
0.549935 0.549935 0.549935
0 0.460487 0.312444
0 0.534112 0.352926
0.480186 0.522393 0.271809
0.869017 0.58291 0.216358
0.965774 0.659098 0.313542
0.205539 0.79527 0.612116
0.339284 0.838346 0.650385
0.618296 0.853284 0.636027
0.86807 0.874479 0.683909
0.934142 0.913893 0.781308
0.549493 0.918074 0.7794
0.754681 0.944472 0.85066
0.914916 0.967483 0.912764
0.989151 0.991821 0.977417
1 1 1
0 0 0.249226
0.134081 0.0417487 0.263371
0.416831 0.291875 0.20415
0.469902 0.469902 0.469902
0.536263 0.536263 0.536263
0 0.118181 0.236378
0.113985 0.13576 0.176974
0.609415 0.289754 0.0458076
0.510216 0.510216 0.510216
0.571283 0.571283 0.571283
0 0.485695 0.382177
0.0897383 0.553552 0.422202
0.50869 0.550958 0.345647
0.915953 0.610117 0.271519
1 0.68365 0.368704
0.254612 0.808515 0.645106
0.397528 0.851682 0.697063
0.653284 0.874739 0.689601
0.889158 0.89453 0.752071
0.947829 0.931731 0.841596
0.626383 0.922942 0.832746
0.812314 0.952804 0.897231
0.941421 0.979446 0.945678
0.999969 1 1
1 1 1
0 0 0.192432
0.0313268 0.0170748 0.440558
0.572244 0.376242 0.810376
1 0.472786 0.491768
0.947738 0.556283 0.51873
0 0.038529 0.351354
0.0335393 0.118196 0.626215
0.562951 0.400092 0.780423
1 0.516838 0.535851
1 0.582605 0.555367
0.295979 0.295979 0.295979
0.0873579 0.511177 0.624033
0.533028 0.565393 0.62324
0.959655 0.634104 0.552758
1 0.709072 0.620172
0.238346 0.784939 0.762142
0.330266 0.869856 0.853788
0.715694 0.879362 0.830839
0.906538 0.911376 0.847623
0.962158 0.946136 0.906157
0.614954 0.942428 0.940795
0.826673 0.967727 0.965026
0.964202 0.986389 0.979065
1 1 1
1 1 1
0 0 0
0.0352331 0.0352331 0.0352331
0.308385 0.26775 0.42034
0.864958 0.626581 1
0.982071 0.736477 0.980499
0.0465095 0.0465095 0.0465095
0.141527 0.143359 0.152331
0.424338 0.322194 0.778119
0.872206 0.655528 1
0.97174 0.750439 0.982406
0.257328 0.257328 0.257328
0.398306 0.398306 0.398306
0.533791 0.577157 0.94287
0.833021 0.725811 0.932021
0.918181 0.806409 0.905562
0.333684 0.800732 0.913054
0.464805 0.872847 0.994446
0.74844 0.896498 0.955169
0.924178 0.927001 0.932021
0.972122 0.959319 0.957626
0.708049 0.945876 1
0.882658 0.971603 0.994644
0.980117 0.993561 0.996368
1 1 1
1 1 1
0 0 0
0.0346532 0.0346532 0.0346532
0.299977 0.296361 0.311574
0.857481 0.597147 1
0.979248 0.72488 1
0.0552224 0.0552224 0.0552224
0.157214 0.157214 0.157214
0.42089 0.348196 0.708522
0.859571 0.628031 1
0.973663 0.745266 1
0.28455 0.28455 0.28455
0.424155 0.433021 0.441642
0.558679 0.603189 1
0.836606 0.731304 1
0.915267 0.816907 0.983581
0.466667 0.763348 0.866117
0.499199 0.877379 1
0.77499 0.90547 0.998184
0.935531 0.938277 0.958724
0.973938 0.97026 0.977691
0.760815 0.950713 1
0.913176 0.977249 1
0.995819 0.998688 1
1 1 1
1 1 1
