public/textures/grade/Sony/Gems-SLog.cube
TITLE "Generated by Resolve"
LUT_3D_SIZE 9
0 0 0.00790417
0.0441444 0 0
0.16492 0 0
0.38912 0.0429999 0
0.467918 0.220859 0.0164492
0.371878 0.371878 0.371878
0.434195 0.434195 0.434195
0.493263 0.493263 0.493263
0.524132 0.524132 0.524132
0 0.0254978 0.00914015
0.014725 0.0264744 0
0.144991 0.0210269 0
0.372854 0.0603494 0
0.481224 0.223606 0
0.374044 0.374044 0.374044
0.440894 0.440894 0.440894
0.503395 0.503395 0.503395
0.536843 0.536843 0.536843
0 0.0874495 0.0136721
0 0.0992294 0.00175479
0.0655528 0.0928817 0
0.312154 0.101183 0
0.503731 0.218662 0
0.375998 0.375998 0.375998
0.452399 0.452399 0.452399
0.509941 0.509941 0.509941
0.547372 0.547372 0.547372
0 0.218509 0.0819409
0 0.235554 0.091722
0 0.245823 0.0541695
0.183444 0.226123 0
0.505302 0.242969 0
0.381277 0.381277 0.381277
0.463554 0.463554 0.463554
0.519127 0.519127 0.519127
0.56347 0.56347 0.56347
0 0.39321 0.241794
0 0.424308 0.266987
0 0.445136 0.272267
0.0489815 0.450477 0.242573
0.383001 0.430213 0.185061
0.685969 0.447852 0.0392004
0.665934 0.522026 0.324208
0.692866 0.583688 0.449119
0.791974 0.627131 0.444541
0 0.566049 0.416434
0 0.61326 0.44799
0.075761 0.646937 0.466148
0.178866 0.660105 0.466636
0.316075 0.667857 0.422415
0.628672 0.658 0.392432
0.811399 0.680674 0.372061
0.903456 0.715389 0.391577
0.945739 0.753552 0.44593
0.141131 0.746517 0.567987
0.206409 0.776745 0.594766
0.263752 0.796826 0.61239
0.340871 0.810346 0.61413
0.46424 0.822614 0.582055
0.687205 0.812222 0.59321
0.820233 0.830564 0.595285
0.88835 0.854871 0.643519
0.922728 0.882017 0.7066
0.306432 0.866087 0.680964
0.369558 0.879545 0.700359
0.460578 0.888365 0.716655
0.57055 0.897002 0.72781
0.684932 0.91043 0.734432
0.824613 0.908583 0.775509
0.901015 0.924971 0.811307
0.942946 0.944976 0.855787
0.966598 0.963531 0.90457
0.549493 0.918074 0.7794
0.639658 0.929091 0.811505
0.728664 0.940734 0.841932
0.811444 0.953399 0.869474
0.885466 0.965423 0.897795
0.948241 0.973632 0.93341
0.981857 0.987259 0.966583
1 0.999603 1
1 1 1
0 0 0.0623178
0.0213779 0.00476081 0.0628214
0.161761 0.00503548 0.00769055
0.394965 0.0343938 0
0.459068 0.21181 0.0223697
0.368612 0.368612 0.368612
0.435325 0.435325 0.435325
0.496986 0.496986 0.496986
0.527993 0.527993 0.527993
0 0.0247807 0.0740826
0.0192416 0.0281376 0.0463569
0.143465 0.028748 0.00794995
0.378378 0.0628519 0
0.471214 0.216556 0.0093843
0.378653 0.378653 0.378653
0.449882 0.449882 0.449882
0.508537 0.508537 0.508537
0.54226 0.54226 0.54226
0 0.093492 0.068864
0 0.101045 0.0602884
0.0729686 0.0993057 0.0222782
0.317662 0.110704 0
0.518853 0.217731 0
0.386526 0.386526 0.386526
0.463386 0.463386 0.463386
0.51722 0.51722 0.51722
0.554772 0.554772 0.554772
0 0.223636 0.131563
0 0.241169 0.140063
0 0.250278 0.114443
0.193576 0.235554 0.0515602
0.526131 0.253071 0
0.396612 0.394034 0.390951
0.477089 0.477089 0.477089
0.529747 0.529747 0.529747
0.574228 0.574228 0.574228
0 0.403922 0.269871
0 0.435019 0.294514
0 0.45481 0.300069
0.0867475 0.460441 0.27509
0.396918 0.443778 0.219287
0.710536 0.461097 0.0699931
0.721553 0.532647 0.290028
0.75288 0.593057 0.409155
0.865003 0.630976 0.391348
0 0.582498 0.43595
0.0142061 0.627497 0.466896
0.109056 0.659312 0.485664
0.200671 0.672023 0.486931
0.33785 0.680858 0.443168
0.643107 0.672084 0.412146
0.82269 0.694301 0.392264
0.90956 0.728344 0.418723
0.947768 0.765499 0.479011
0.166201 0.756603 0.582025
0.226734 0.784833 0.607797
0.28011 0.806348 0.626123
0.360784 0.819379 0.626429
0.485771 0.831968 0.597696
0.702785 0.822446 0.613016
0.830915 0.84062 0.622232
0.895445 0.86453 0.672816
0.928161 0.890898 0.734157
0.325719 0.870222 0.691859
0.39675 0.882734 0.714183
0.491524 0.892058 0.733623
0.601053 0.90164 0.748043
0.705852 0.917342 0.754788
0.839399 0.916152 0.797162
0.910857 0.932219 0.833341
0.949889 0.951644 0.875929
0.972152 0.969589 0.921904
0.58117 0.920928 0.796933
0.669612 0.932616 0.82948
0.755474 0.944839 0.859754
0.83389 0.957656 0.886809
0.900801 0.970245 0.913039
0.957977 0.978653 0.946944
0.98822 0.991836 0.978378
1 1 1
1 1 1
0 0 0.193301
0.0119326 0 0.190845
0.0935683 0.0244602 0.203159
0.377905 0.0595407 0.0583352
0.53196 0.193271 0
0.379202 0.379202 0.379202
0.450446 0.450446 0.450446
0.503349 0.503349 0.503349
0.534493 0.534493 0.534493
0 0.00669871 0.186236
0.00590524 0.020676 0.178042
0.0913405 0.0448463 0.186481
0.364019 0.0861677 0.0624552
0.572503 0.205524 0
0.393545 0.393545 0.393545
0.466682 0.466682 0.466682
0.516228 0.516228 0.516228
0.550072 0.550072 0.550072
0 0.0868544 0.191058
0 0.0958419 0.193378
0.0831617 0.101823 0.136843
0.313375 0.121492 0.0557259
0.598642 0.216236 0
0.40354 0.40354 0.40354
0.481209 0.481209 0.481209
0.52665 0.52665 0.52665
0.564324 0.564324 0.564324
0 0.228321 0.201984
0 0.2439 0.20882
0.0184939 0.247379 0.191562
0.199115 0.240452 0.141207
0.546624 0.258961 0
0.480323 0.400702 0.317662
0.495552 0.495552 0.495552
0.548379 0.548379 0.548379
0.586725 0.586725 0.586725
0 0.409613 0.312078
0 0.438804 0.333272
0.00077821 0.459327 0.339803
0.129061 0.465583 0.319661
0.406348 0.453468 0.263767
0.735622 0.471183 0.125307
0.792432 0.539437 0.255177
0.825086 0.59939 0.369772
0.92372 0.6374 0.374853
0 0.59678 0.463096
0.0466621 0.639048 0.492988
0.141726 0.66862 0.511604
0.223682 0.681651 0.513024
0.358831 0.690044 0.471046
0.654261 0.683406 0.435508
0.834073 0.705226 0.416083
0.919615 0.739437 0.451057
0.954101 0.776593 0.518227
0.191226 0.76434 0.600534
0.246479 0.793301 0.626154
0.298817 0.814343 0.645029
0.382864 0.826658 0.648295
0.508904 0.838148 0.62472
0.714717 0.832029 0.639567
0.840879 0.850202 0.652995
0.902815 0.873655 0.706676
0.933806 0.899672 0.767407
0.353613 0.871153 0.711666
0.431113 0.883696 0.738369
0.526635 0.893858 0.760662
0.629923 0.905638 0.776471
0.730541 0.921538 0.784253
0.851408 0.924025 0.820722
0.92015 0.939361 0.857282
0.95639 0.95787 0.897398
0.977279 0.975158 0.939178
0.614954 0.922591 0.822644
0.70045 0.93521 0.854002
0.781964 0.948089 0.882139
0.855924 0.961181 0.907088
0.914672 0.975036 0.929046
0.96672 0.983597 0.960037
0.994018 0.996048 0.98912
1 1 1
1 1 1
0 0 0.410986
0 0 0.409995
0.0603037 0 0.426764
0.256352 0.126162 0.435203
0.666636 0.212146 0.223911
0.418631 0.401862 0.391196
0.471443 0.471443 0.471443
0.510582 0.510582 0.510582
0.541985 0.541985 0.541985
0 0 0.397299
0 0.00846876 0.397894
0.0796826 0.0314794 0.401953
0.255756 0.144076 0.425711
0.659602 0.229847 0.232044
0.494835 0.406104 0.351827
0.490211 0.490211 0.490211
0.527855 0.527855 0.527855
0.562158 0.562158 0.562158
0 0.0384222 0.374975
0 0.0627756 0.372625
0.0547494 0.0912947 0.360265
0.233097 0.159258 0.38291
0.624949 0.242481 0.216571
0.595346 0.399619 0.279561
0.509102 0.509102 0.509102
0.554055 0.554055 0.554055
0.584161 0.584161 0.584161
0 0.206043 0.351507
0 0.227817 0.374594
0 0.244907 0.373449
0.211948 0.242649 0.298253
0.54696 0.271305 0.187808
0.723064 0.383825 0.161059
0.524727 0.524727 0.524727
0.579858 0.579858 0.579858
0.621973 0.621973 0.621973
0 0.388144 0.352163
0 0.433814 0.386282
0.0227817 0.457832 0.398184
0.175235 0.463462 0.382177
0.409186 0.45742 0.324483
0.754833 0.476158 0.203342
0.885557 0.538796 0.246998
0.937194 0.597848 0.337575
1 0.638865 0.378836
0.0117494 0.604562 0.499245
0.0948348 0.643565 0.527169
0.178714 0.671595 0.546105
0.251225 0.686 0.549355
0.381659 0.693126 0.513085
0.661051 0.690883 0.474586
0.846357 0.713252 0.461204
0.932265 0.74789 0.502144
0.965545 0.785748 0.570504
0.219135 0.769421 0.628183
0.276631 0.797864 0.659358
0.331533 0.818189 0.684291
0.414206 0.830503 0.691997
0.539712 0.840604 0.67451
0.722362 0.841627 0.679438
0.849699 0.858808 0.694774
0.91136 0.882139 0.744427
0.941558 0.907851 0.800412
0.396262 0.868299 0.751217
0.475883 0.881926 0.781155
0.564157 0.895323 0.80412
0.658335 0.908858 0.817975
0.756756 0.923613 0.824506
0.860365 0.93225 0.848554
0.927977 0.946166 0.882002
0.962661 0.963958 0.917617
0.982208 0.980362 0.95491
0.651957 0.923506 0.86096
0.733181 0.937072 0.887846
0.809064 0.950576 0.910658
0.873442 0.964431 0.929412
0.929412 0.977737 0.947601
0.974197 0.988251 0.972274
0.99794 1 0.998383
1 1 1
1 1 1
0 0 0.40325
0 0 0.45594
0.01355 0 0.550805
0.175036 0.0269932 0.649226
0.481254 0.301793 0.716838
0.864271 0.429191 0.510689
0.906981 0.457221 0.401007
0.71014 0.543053 0.498177
0.631861 0.595346 0.583474
0 0 0.435813
0 0.0028687 0.49337
0.0181582 0.0261387 0.58378
0.197726 0.0694133 0.685374
0.485084 0.316075 0.713695
0.864012 0.442863 0.520928
0.954482 0.467872 0.41323
0.807157 0.549355 0.489494
0.759487 0.591806 0.547173
0 0.0243229 0.47039
0 0.0492256 0.529
0.00494392 0.0814832 0.603281
0.211002 0.136324 0.664714
0.470832 0.323033 0.687282
0.854292 0.447044 0.513161
0.99234 0.478935 0.419059
0.902647 0.55729 0.483375
0.883772 0.598962 0.533349
0 0.111177 0.396582
0 0.157305 0.503059
0 0.198978 0.593439
0.179553 0.23154 0.597009
0.432944 0.329961 0.624399
0.827176 0.434928 0.472435
1 0.484367 0.40499
0.997528 0.554009 0.454948
1 0.59321 0.495949
0.197864 0.232197 0.239887
0.118059 0.315221 0.361913
0 0.416388 0.534264
0.068452 0.466346 0.622446
0.427832 0.46389 0.529015
0.757885 0.493355 0.439857
0.9635 0.545083 0.413062
1 0.598398 0.446143
1 0.644419 0.498192
0.22414 0.477348 0.469184
0.157427 0.56231 0.548501
0.0866102 0.652552 0.628702
0.181292 0.694957 0.659602
0.437263 0.688197 0.625635
0.666896 0.697108 0.578103
0.860945 0.720577 0.560601
0.947219 0.75581 0.59736
0.97908 0.794491 0.656901
0.194522 0.769085 0.702098
0.236378 0.801343 0.740917
0.283406 0.825589 0.770367
0.40885 0.837095 0.77911
0.582834 0.839643 0.760494
0.72433 0.855406 0.740764
0.858366 0.867323 0.75761
0.92047 0.890135 0.796521
0.949889 0.915434 0.842832
0.333715 0.876158 0.8271
0.414542 0.89546 0.856306
0.529976 0.908812 0.874418
0.661509 0.917144 0.880537
0.784619 0.925261 0.878279
0.86508 0.942992 0.881865
0.934859 0.95256 0.911208
0.968353 0.969467 0.939437
0.98674 0.985061 0.969894
0.619516 0.937896 0.918074
0.715984 0.950149 0.935546
0.803815 0.961028 0.948394
0.881041 0.970397 0.95758
0.942672 0.980331 0.967224
0.980407 0.992523 0.983124
1 1 1
1 1 1
1 1 1
0 0 0
0 0 0
0.0205081 0.0243381 0.0967727
0.121569 0.0835584 0.377325
0.299977 0.180758 0.59852
0.688167 0.474372 0.909377
0.885817 0.598321 0.759609
1 0.588891 0.698848
1 0.590265 0.676402
0 0 0
0.0133669 0.0192111 0.0564431
0.038941 0.0505837 0.185382
0.152499 0.112963 0.5037
0.341726 0.207019 0.713649
0.697307 0.490013 0.91339
0.894118 0.614557 0.77467
1 0.605676 0.715709
1 0.613779 0.704631
0.011017 0.0275731 0.0882277
0.0263981 0.0553902 0.172366
0.0521706 0.0941939 0.333532
0.168597 0.152361 0.653269
0.373602 0.232258 0.828855
0.697719 0.503014 0.906096
0.900206 0.630274 0.784131
1 0.632639 0.740108
1 0.641215 0.732799
0.0327764 0.0931716 0.204303
0.0440223 0.136446 0.31339
0.0530709 0.183764 0.490181
0.156878 0.231617 0.752834
0.392859 0.287648 0.879301
0.678767 0.508232 0.873808
0.888899 0.634302 0.770871
1 0.645335 0.739803
1 0.662974 0.742672
0.183719 0.183719 0.183719
0.23682 0.23682 0.23682
0.271565 0.3037 0.328817
0.124575 0.416312 0.769879
0.414893 0.461692 0.790555
0.648737 0.552331 0.800153
0.857374 0.644495 0.720867
1 0.664805 0.704692
1 0.696773 0.722301
0.422538 0.422538 0.422538
0.375296 0.51017 0.538506
0.229648 0.621073 0.716686
0.21181 0.688899 0.834531
0.410254 0.701808 0.828016
0.687739 0.709804 0.748486
0.866651 0.737697 0.72105
0.950439 0.772107 0.737774
0.981033 0.809506 0.774884
0.485145 0.627024 0.633295
0.371664 0.723354 0.742901
0.280613 0.81117 0.848096
0.350469 0.851438 0.888975
0.541161 0.858564 0.872404
0.754757 0.859022 0.838346
0.868223 0.876509 0.835981
0.930266 0.899153 0.857328
0.957931 0.923308 0.889799
0.320089 0.872694 0.896971
0.401907 0.904005 0.933791
0.530892 0.91809 0.943832
0.654582 0.929076 0.944091
0.773144 0.938323 0.93727
0.888975 0.94406 0.928527
0.941619 0.959564 0.940108
0.973724 0.97464 0.960479
0.990723 0.989273 0.982742
0.639887 0.944121 0.967575
0.738338 0.955337 0.974014
0.822675 0.965957 0.978027
0.890471 0.97641 0.981506
0.946853 0.986038 0.985321
0.988586 0.995087 0.993118
1 1 1
1 1 1
1 1 1
0 0 0
0 0 0
0.0230106 0.0230106 0.0230106
0.0930343 0.0930343 0.0930343
0.254124 0.216938 0.379782
0.598001 0.387488 1
0.822003 0.59028 1
0.931151 0.695598 0.940826
1 0.71754 0.932723
0 0 0
0.0192416 0.0192416 0.0192416
0.0556039 0.0556039 0.0556039
0.134157 0.132082 0.194568
0.300999 0.243366 0.516854
0.620142 0.409979 1
0.824491 0.600244 1
0.933043 0.703838 0.946258
1 0.729656 0.945891
0.0320592 0.0320592 0.0320592
0.0616465 0.0616465 0.0616465
0.105592 0.105592 0.105592
0.172396 0.176761 0.391592
0.349447 0.267857 0.707958
0.636927 0.432639 1
0.837354 0.621485 1
0.927428 0.709407 0.943191
0.998703 0.73431 0.946273
0.0962692 0.0962692 0.0962692
0.13724 0.13724 0.13724
0.153384 0.186114 0.270604
0.191791 0.248295 0.615473
0.397406 0.315343 0.911864
0.637751 0.452628 1
0.834852 0.636484 0.998169
0.92549 0.723537 0.939727
0.986252 0.746563 0.939757
0.200565 0.200565 0.200565
0.252888 0.252888 0.252888
0.296788 0.314717 0.333761
0.203433 0.414603 0.779339
0.413901 0.46952 0.939132
0.632258 0.533852 0.984939
0.804578 0.667124 0.933333
0.891112 0.744808 0.889769
0.947433 0.774487 0.894621
0.375814 0.375814 0.375814
0.437415 0.437415 0.437415
0.500069 0.500069 0.500069
0.378668 0.610376 0.746761
0.429419 0.689097 0.975738
0.691737 0.716106 0.878279
0.813336 0.766674 0.880278
0.888945 0.814145 0.86099
0.933928 0.84387 0.874022
0.329946 0.728954 0.819348
0.310369 0.787976 0.906935
0.34165 0.826886 0.959182
0.447852 0.849393 0.973693
0.611933 0.858274 0.949203
0.771206 0.86833 0.915328
0.880903 0.886519 0.89633
0.935973 0.909361 0.906752
0.961852 0.932097 0.927672
0.377447 0.886961 0.971664
0.480507 0.906584 0.98706
0.604807 0.917403 0.982727
0.710903 0.929763 0.977401
0.810162 0.940963 0.967697
0.893614 0.952667 0.960189
0.95082 0.965225 0.962753
0.979065 0.979767 0.976028
0.995804 0.992508 0.992584
0.691783 0.945342 0.995865
0.778744 0.956817 0.994858
0.853758 0.967529 0.992691
0.913924 0.978469 0.992309
0.961639 0.988785 0.993622
0.995468 0.998032 0.999313
1 1 1
1 1 1
1 1 1
0 0 0
0 0 0
0.0205081 0.0205081 0.0205081
0.0875715 0.0875715 0.0875715
0.254337 0.238361 0.317006
0.51313 0.382849 0.820111
0.812528 0.558663 1
0.92723 0.679774 1
0.978714 0.732341 1
0 0 0
0.0187991 0.0187991 0.0187991
0.0560464 0.0560464 0.0560464
0.135119 0.135119 0.135119
0.299443 0.263645 0.453773
0.547524 0.395926 0.913451
0.818799 0.572915 1
0.931609 0.691035 1
0.986099 0.745403 1
0.0340581 0.0340581 0.0340581
0.0650492 0.0650492 0.0650492
0.110964 0.110964 0.110964
0.186572 0.190143 0.275227
0.350072 0.290883 0.646189
0.583154 0.420554 0.994629
0.818753 0.587152 1
0.923476 0.696193 1
0.979232 0.750591 1
0.104555 0.104555 0.104555
0.146609 0.146609 0.146609
0.195575 0.195575 0.195575
0.225925 0.265599 0.521385
0.409705 0.339895 0.904067
0.608774 0.444541 1
0.82237 0.611261 1
0.915877 0.709453 1
0.957977 0.755993 1
0.216678 0.216678 0.216678
0.269139 0.269139 0.269139
0.327138 0.327138 0.327138
0.254002 0.426459 0.771908
0.4271 0.484443 0.997253
0.634134 0.539055 1
0.800488 0.658625 1
0.887861 0.742992 0.993194
0.926146 0.788571 0.976699
0.376577 0.376577 0.376577
0.44007 0.44007 0.44007
0.503365 0.503365 0.503365
0.390204 0.625635 0.809644
0.476616 0.695583 1
0.701991 0.727718 0.941894
0.815427 0.770932 0.952422
0.88127 0.824018 0.931868
0.914214 0.861189 0.928649
0.603479 0.63267 0.641703
0.447425 0.738689 0.84126
0.368063 0.815839 0.997696
0.457038 0.848386 1
0.623621 0.860655 1
0.785672 0.872709 0.963226
0.887968 0.893706 0.930236
0.929366 0.920043 0.942046
0.95433 0.94342 0.952575
0.428794 0.891325 1
0.534493 0.907958 1
0.648737 0.919692 1
0.749905 0.931914 0.995697
0.838834 0.943999 0.983841
0.912306 0.956313 0.97464
0.95903 0.970367 0.975982
0.984482 0.984451 0.985443
0.99762 0.997436 0.997909
0.735561 0.947326 1
0.812604 0.959197 1
0.879118 0.970306 0.998932
0.933013 0.981201 0.996597
0.974151 0.991699 0.997177
1 1 1
1 1 1
1 1 1
1 1 1
0 0 0
0 0 0
0.0209964 0.0209964 0.0209964
0.0883497 0.0883497 0.0883497
0.26273 0.258778 0.279347
0.475975 0.394293 0.679103
0.800519 0.549126 1
0.926619 0.668833 1
0.979248 0.72488 1
0 0 0
0.0212406 0.0212406 0.0212406
0.0594186 0.0594186 0.0594186
0.139956 0.139956 0.139956
0.305806 0.280308 0.422797
0.518654 0.40734 0.803357
0.811856 0.564996 1
0.933227 0.683162 1
0.988907 0.74078 1
0.0389868 0.0389868 0.0389868
0.0711833 0.0711833 0.0711833
0.117983 0.117983 0.117983
0.201572 0.202731 0.226963
0.3561 0.304372 0.627924
0.562448 0.424399 0.932754
0.81207 0.577356 1
0.927535 0.691798 1
0.983169 0.748074 1
0.114366 0.114366 0.114366
0.156863 0.156863 0.156863
0.206821 0.206821 0.206821
0.248234 0.281956 0.506416
0.423102 0.358099 0.906416
0.603052 0.452033 1
0.819257 0.605341 1
0.914107 0.704234 1
0.956054 0.752895 1
0.230808 0.230808 0.230808
0.284276 0.284276 0.284276
0.343496 0.343496 0.343496
0.283055 0.444282 0.793439
0.445563 0.502159 1
0.644739 0.553002 1
0.803601 0.663554 1
0.889723 0.745754 1
0.926406 0.791714 1
0.389807 0.389807 0.389807
0.453498 0.453498 0.453498
0.518441 0.518441 0.518441
0.382681 0.650492 0.889876
0.507652 0.708415 1
0.715969 0.74139 0.969512
0.823316 0.781888 0.978012
0.886015 0.831464 0.962722
0.917861 0.868055 0.955505
0.631022 0.631022 0.631022
0.493202 0.735637 0.832425
0.389868 0.82118 1
0.485557 0.853498 1
0.649683 0.866957 1
0.806302 0.8804 0.975174
0.896559 0.902174 0.946532
0.934951 0.926574 0.957961
0.958175 0.949493 0.96614
0.447852 0.894606 1
0.557275 0.911406 1
0.671199 0.923903 1
0.771069 0.936385 1
0.854673 0.948959 0.994644
0.922393 0.961379 0.984909
0.965728 0.975113 0.984146
0.988891 0.988861 0.990967
1 1 1
0.760815 0.950713 1
0.833906 0.962783 1
0.896696 0.974044 1
0.947021 0.984771 0.999374
0.983963 0.99498 0.999374
1 1 1
1 1 1
1 1 1
1 1 1
