public/textures/grade/Sony/Gems-SLog2.cube
TITLE "Generated by Resolve"
LUT_3D_SIZE 9
0 0 0.00790417
0.0522469 0 0
0.221088 0.00411994 0
0.483497 0.0919203 0
0.310445 0.309728 0.309056
0.400427 0.400427 0.400427
0.456611 0.456611 0.456611
0.502281 0.502281 0.502281
0.524132 0.524132 0.524132
0 0.0297093 0.00917067
0.0179294 0.0310674 0
0.198642 0.0274968 0
0.470268 0.108461 0
0.328756 0.30988 0.291234
0.404227 0.404227 0.404227
0.466835 0.466835 0.466835
0.513603 0.513603 0.513603
0.538064 0.538064 0.538064
0 0.12018 0.022797
0 0.133974 0.012726
0.0930495 0.125216 0
0.3991 0.140612 0
0.409277 0.295018 0.168383
0.412894 0.412894 0.412894
0.473274 0.473274 0.473274
0.521904 0.521904 0.521904
0.549935 0.549935 0.549935
0 0.282307 0.137118
0 0.304143 0.154055
0 0.316426 0.122805
0.249073 0.294972 0.0479591
0.560891 0.316533 0
0.433188 0.433188 0.433188
0.500542 0.500542 0.500542
0.548089 0.548089 0.548089
0.584466 0.584466 0.584466
0 0.460487 0.312444
0 0.504341 0.34406
0 0.534112 0.352926
0.14342 0.537667 0.324071
0.480186 0.522393 0.271809
0.753567 0.540795 0.180377
0.869017 0.58291 0.216358
0.925353 0.624949 0.275257
0.965774 0.659098 0.313542
0.00894179 0.638285 0.478538
0.0834974 0.687236 0.511986
0.183719 0.718456 0.53254
0.278172 0.72842 0.527123
0.47628 0.731044 0.494804
0.712947 0.734005 0.463996
0.835981 0.755749 0.470863
0.896956 0.783673 0.504799
0.923903 0.809476 0.552651
0.205539 0.79527 0.612116
0.264302 0.822751 0.638285
0.339284 0.838346 0.650385
0.452735 0.848737 0.642359
0.618296 0.853284 0.636027
0.782757 0.853864 0.660288
0.86807 0.874479 0.683909
0.911223 0.894789 0.733272
0.934142 0.913893 0.781308
0.345098 0.881315 0.699962
0.432746 0.893523 0.724376
0.551827 0.904021 0.7476
0.667674 0.915816 0.763348
0.791608 0.922026 0.791867
0.885771 0.930724 0.828794
0.935607 0.94786 0.864103
0.962448 0.963653 0.903975
0.977905 0.97673 0.938201
0.549493 0.918074 0.7794
0.649454 0.930343 0.814984
0.754681 0.944472 0.85066
0.839826 0.958633 0.879332
0.914916 0.967483 0.912764
0.963653 0.978607 0.945953
0.989151 0.991821 0.977417
1 1 1
1 1 1
0 0 0.0726329
0.0257725 0.0059968 0.0722515
0.220523 0.00723278 0
0.493599 0.08542 0
0.302907 0.302907 0.302907
0.400671 0.400671 0.400671
0.460945 0.460945 0.460945
0.506539 0.506539 0.506539
0.528527 0.528527 0.528527
0 0.0293278 0.0852979
0.0234989 0.033402 0.0533455
0.19736 0.0373541 0
0.481926 0.103929 0
0.329458 0.307774 0.287617
0.414801 0.414801 0.414801
0.472969 0.472969 0.472969
0.519738 0.519738 0.519738
0.544213 0.544213 0.544213
0 0.126131 0.0881361
0 0.136873 0.081239
0.102358 0.132982 0.0287785
0.407218 0.151553 0
0.443519 0.298024 0.148165
0.425666 0.425666 0.425666
0.486381 0.486381 0.486381
0.530709 0.530709 0.530709
0.558648 0.558648 0.558648
0 0.289036 0.181659
0 0.311955 0.197177
0 0.324208 0.175326
0.262242 0.307668 0.110948
0.593606 0.328038 0
0.449699 0.449699 0.449699
0.517159 0.517159 0.517159
0.563012 0.563012 0.563012
0.598215 0.598215 0.598215
0 0.476219 0.339544
0 0.517586 0.369421
0.0352941 0.546349 0.380056
0.17496 0.550683 0.354437
0.496651 0.538476 0.302327
0.769635 0.557305 0.216266
0.890593 0.597742 0.239689
0.946273 0.638911 0.29247
0.984054 0.671794 0.331365
0.0307622 0.656031 0.498634
0.117189 0.701701 0.531579
0.20766 0.730816 0.552041
0.300465 0.741253 0.545785
0.495277 0.744884 0.512963
0.72694 0.747478 0.482704
0.846159 0.76878 0.496529
0.902266 0.796384 0.539666
0.927901 0.821881 0.589426
0.228107 0.804242 0.626123
0.283116 0.829862 0.650767
0.36553 0.844877 0.664866
0.480095 0.856962 0.661173
0.638926 0.862516 0.657618
0.797406 0.864073 0.685924
0.87866 0.884474 0.715328
0.919173 0.904418 0.763485
0.940719 0.922698 0.808591
0.373739 0.88455 0.714672
0.466743 0.896681 0.742428
0.58645 0.908248 0.768963
0.699092 0.920974 0.787701
0.810803 0.929702 0.814191
0.898665 0.938247 0.851301
0.944427 0.954894 0.885634
0.969268 0.97023 0.92311
0.983688 0.982803 0.955016
0.583963 0.92108 0.798932
0.682078 0.934218 0.835081
0.78233 0.948928 0.870085
0.862104 0.963058 0.898024
0.929488 0.973205 0.929274
0.973053 0.984222 0.960739
0.995331 0.996658 0.989822
1 1 1
1 1 1
0 0 0.249226
0.0159915 0 0.24535
0.134081 0.0417487 0.263371
0.485832 0.10312 0.0745861
0.416831 0.291875 0.20415
0.417945 0.417945 0.417945
0.469902 0.469902 0.469902
0.514015 0.514015 0.514015
0.536263 0.536263 0.536263
0 0.00634775 0.237751
0.00430304 0.0235752 0.231601
0.130526 0.065507 0.245563
0.471077 0.129488 0.083238
0.491722 0.297276 0.15848
0.434531 0.434531 0.434531
0.48957 0.48957 0.48957
0.529976 0.529976 0.529976
0.55462 0.55462 0.55462
0 0.118181 0.236378
0 0.130419 0.243687
0.113985 0.13576 0.176974
0.403601 0.16376 0.0714733
0.609415 0.289754 0.0458076
0.448798 0.448798 0.448798
0.510216 0.510216 0.510216
0.545068 0.545068 0.545068
0.571283 0.571283 0.571283
0 0.2916 0.25536
0 0.313252 0.267582
0.0513161 0.321935 0.25275
0.268177 0.313542 0.19794
0.636439 0.334737 0.0127108
0.550759 0.459464 0.363333
0.53991 0.53991 0.53991
0.585672 0.585672 0.585672
0.620188 0.620188 0.620188
0 0.485695 0.382177
0 0.525505 0.410666
0.0897383 0.553552 0.422202
0.210895 0.559136 0.400885
0.50869 0.550958 0.345647
0.787228 0.569726 0.260273
0.915953 0.610117 0.271519
0.974136 0.650553 0.322301
1 0.68365 0.368704
0.0650339 0.671763 0.529381
0.152911 0.712566 0.560342
0.233967 0.740902 0.579767
0.322179 0.752056 0.573144
0.504356 0.758572 0.535607
0.738994 0.759441 0.514473
0.857832 0.780789 0.535134
0.911955 0.808026 0.582101
0.935485 0.833982 0.635676
0.254612 0.808515 0.645106
0.311299 0.833539 0.675029
0.397528 0.851682 0.697063
0.512093 0.86334 0.697719
0.653284 0.874739 0.689601
0.810391 0.874586 0.72166
0.889158 0.89453 0.752071
0.927779 0.91426 0.800107
0.947829 0.931731 0.841596
0.415351 0.884428 0.745418
0.510567 0.897475 0.776822
0.626886 0.910704 0.804761
0.729 0.925826 0.822202
0.825284 0.939193 0.840482
0.910567 0.946578 0.876982
0.953368 0.962203 0.910399
0.975982 0.97673 0.943557
0.989166 0.98854 0.971557
0.626383 0.922942 0.832746
0.718563 0.937163 0.86598
0.812314 0.952804 0.897231
0.884245 0.967178 0.920989
0.941421 0.979446 0.945678
0.981521 0.989578 0.974762
0.999969 1 1
1 1 1
1 1 1
0 0 0.490532
0 0 0.502571
0.0927291 0 0.533806
0.336141 0.187228 0.541985
0.776638 0.284047 0.311742
0.532601 0.445289 0.403235
0.503639 0.503639 0.503639
0.531289 0.531289 0.531289
0.553506 0.553506 0.553506
0 0 0.481468
0 0.00935378 0.493812
0.113588 0.0450752 0.508522
0.336034 0.204211 0.532677
0.773037 0.29836 0.318669
0.644144 0.444755 0.359335
0.528115 0.528115 0.528115
0.555947 0.555947 0.555947
0.579507 0.579507 0.579507
0 0.0536049 0.451301
0 0.0876783 0.461723
0.0760204 0.123629 0.451194
0.304906 0.214817 0.47866
0.732937 0.309255 0.298619
0.764309 0.435477 0.298634
0.55465 0.55465 0.55465
0.591485 0.591485 0.591485
0.616739 0.616739 0.616739
0 0.209796 0.307988
0 0.278462 0.412345
0 0.319951 0.465019
0.282765 0.316548 0.379217
0.645487 0.348043 0.266835
0.859434 0.433326 0.226246
0.804028 0.534401 0.384405
0.824048 0.587579 0.461036
0.899336 0.611734 0.470512
0 0.44419 0.41091
0 0.513405 0.466651
0.104952 0.553201 0.49189
0.256489 0.557 0.474495
0.511849 0.555337 0.414038
0.803494 0.575494 0.338933
0.948638 0.616358 0.347585
1 0.657526 0.397116
1 0.691554 0.449714
0.119265 0.675868 0.568505
0.202335 0.713451 0.603983
0.277928 0.742321 0.630564
0.357321 0.754894 0.630045
0.507256 0.768063 0.584985
0.747066 0.767926 0.573663
0.869673 0.789868 0.59585
0.92401 0.817426 0.640955
0.946639 0.843107 0.689906
0.298024 0.809674 0.691447
0.358083 0.834577 0.729458
0.441672 0.85304 0.755581
0.548913 0.865599 0.758541
0.675242 0.880751 0.745144
0.81973 0.884215 0.768688
0.89781 0.902953 0.793774
0.935851 0.922225 0.835401
0.95523 0.939376 0.872007
0.451453 0.88304 0.800412
0.539406 0.899367 0.831891
0.661311 0.913481 0.854536
0.756039 0.928847 0.866545
0.841566 0.945006 0.875196
0.918914 0.953872 0.903166
0.96022 0.968231 0.932296
0.981552 0.982132 0.960037
0.9935 0.993011 0.98352
0.64097 0.928847 0.881254
0.735927 0.943252 0.90724
0.834287 0.956802 0.928618
0.90219 0.970703 0.945098
0.952132 0.983734 0.961975
0.988006 0.993866 0.985779
1 1 1
1 1 1
1 1 1
0 0 0.192432
0 0 0.265049
0.0313268 0.0170748 0.440558
0.213886 0.0734722 0.623636
0.572244 0.376242 0.810376
0.880171 0.511574 0.626535
1 0.472786 0.491768
0.989639 0.5187 0.489784
0.947738 0.556283 0.51873
0 0 0.25275
0 0.0153658 0.341253
0.044007 0.0491035 0.528786
0.250599 0.116335 0.724987
0.577981 0.391867 0.808942
0.882582 0.527031 0.638819
1 0.493904 0.517769
1 0.532235 0.510201
1 0.559762 0.527398
0 0.038529 0.351354
0 0.0733196 0.456199
0.0335393 0.118196 0.626215
0.270634 0.180087 0.760174
0.562951 0.400092 0.780423
0.875898 0.534524 0.633417
1 0.516838 0.535851
1 0.556634 0.5364
1 0.582605 0.555367
0.043534 0.125338 0.205783
0.0112001 0.190784 0.377859
0 0.265476 0.64358
0.25507 0.307866 0.688258
0.523857 0.414435 0.711803
0.847135 0.524666 0.589105
1 0.534981 0.525017
1 0.57499 0.534264
1 0.605158 0.559899
0.295979 0.295979 0.295979
0.275654 0.378012 0.400626
0.0873579 0.511177 0.624033
0.180941 0.564538 0.719371
0.533028 0.565393 0.62324
0.808591 0.593851 0.558556
0.959655 0.634104 0.552758
1 0.674479 0.581186
1 0.709072 0.620172
0.452796 0.487755 0.487602
0.372519 0.582818 0.582635
0.212772 0.705608 0.705318
0.249882 0.771496 0.7617
0.565713 0.762234 0.717708
0.755459 0.77586 0.687938
0.883024 0.798962 0.693599
0.937179 0.826886 0.72842
0.958511 0.852201 0.766461
0.238346 0.784939 0.762142
0.260441 0.826261 0.809796
0.330266 0.869856 0.853788
0.515801 0.879255 0.853391
0.715694 0.879362 0.830839
0.8262 0.895994 0.827634
0.906538 0.911376 0.847623
0.943664 0.929564 0.87776
0.962158 0.946136 0.906157
0.347448 0.897169 0.883665
0.468528 0.917311 0.909926
0.6168 0.931426 0.92311
0.750881 0.939773 0.924041
0.865187 0.9467 0.920623
0.925002 0.962097 0.930556
0.966125 0.973541 0.953704
0.986282 0.986709 0.975082
0.997223 0.996902 0.993332
0.614954 0.942428 0.940795
0.726146 0.95491 0.954513
0.826673 0.967727 0.965026
0.906813 0.977234 0.971237
0.964202 0.986389 0.979065
0.993774 0.997635 0.994446
1 1 1
1 1 1
1 1 1
0 0 0
0 0 0
0.0397955 0.0397955 0.0397955
0.188571 0.140261 0.414237
0.42446 0.272999 0.788769
0.744305 0.523247 0.948821
0.891356 0.630274 0.836576
1 0.656535 0.809354
1 0.661967 0.801205
0.00173953 0.00173953 0.00173953
0.0263218 0.0263218 0.0263218
0.0690471 0.0730907 0.125765
0.229557 0.171984 0.565698
0.457603 0.296635 0.86659
0.756756 0.542077 0.956374
0.898268 0.644144 0.84918
1 0.670573 0.822034
1 0.682261 0.821836
0.0417639 0.0417639 0.0417639
0.0659648 0.0782788 0.121263
0.0954452 0.132372 0.325902
0.251575 0.207507 0.737423
0.480323 0.31899 0.940032
0.761944 0.561318 0.953323
0.910994 0.667063 0.864134
1 0.692958 0.83917
1 0.704616 0.840238
0.12108 0.126894 0.135225
0.129061 0.18114 0.259159
0.11397 0.249058 0.506264
0.2439 0.311513 0.841062
0.486183 0.370352 0.950851
0.738796 0.571618 0.91162
0.887861 0.673884 0.836835
0.985046 0.7019 0.821393
1 0.71989 0.827253
0.24741 0.24741 0.24741
0.310262 0.310262 0.310262
0.386954 0.386954 0.386954
0.224216 0.527642 0.877546
0.528771 0.567483 0.832578
0.719493 0.641154 0.837369
0.859174 0.712993 0.785412
0.954635 0.736843 0.783536
0.990097 0.761105 0.797406
0.441566 0.52987 0.547173
0.315328 0.643565 0.71693
0.253742 0.735882 0.865263
0.340215 0.770367 0.909438
0.56524 0.775692 0.871214
0.774121 0.788663 0.813764
0.889052 0.813718 0.80557
0.940642 0.840345 0.82356
0.961105 0.864805 0.847639
0.378744 0.747158 0.779187
0.306844 0.830869 0.888426
0.384787 0.874235 0.937484
0.542611 0.887205 0.932952
0.703258 0.89485 0.91136
0.844251 0.902464 0.892073
0.915236 0.919509 0.899046
0.951263 0.93724 0.917098
0.968307 0.952743 0.93666
0.387304 0.902831 0.953246
0.521584 0.920287 0.967132
0.662516 0.933898 0.968338
0.771267 0.945846 0.964935
0.864286 0.956405 0.959258
0.939315 0.965225 0.958328
0.971832 0.97879 0.970977
0.990372 0.990677 0.986358
1 1 1
0.660136 0.944701 0.980957
0.762966 0.956985 0.9841
0.855619 0.969665 0.985504
0.920882 0.980972 0.987518
0.969512 0.990921 0.991272
1 1 1
1 1 1
1 1 1
1 1 1
0 0 0
0 0 0
0.0352331 0.0352331 0.0352331
0.151476 0.147906 0.176089
0.308385 0.26775 0.42034
0.693294 0.45684 1
0.864958 0.626581 1
0.943954 0.705974 0.993133
0.982071 0.736477 0.980499
0 0 0
0.0254826 0.0254826 0.0254826
0.075227 0.075227 0.075227
0.203281 0.187884 0.342992
0.362325 0.295567 0.561944
0.709712 0.47866 1
0.867216 0.637247 1
0.94696 0.715862 0.998047
0.987518 0.749264 0.992004
0.0465095 0.0465095 0.0465095
0.0846265 0.0846265 0.0846265
0.141527 0.143359 0.152331
0.245411 0.229618 0.574609
0.424338 0.322194 0.778119
0.727565 0.508995 1
0.872206 0.655528 1
0.938521 0.721965 0.989685
0.97174 0.750439 0.982406
0.13698 0.13698 0.13698
0.185687 0.185687 0.185687
0.199359 0.251057 0.359609
0.26508 0.326711 0.811063
0.485679 0.38706 0.996155
0.718288 0.536583 1
0.858564 0.672358 1
0.922103 0.736767 0.964858
0.952255 0.766979 0.958862
0.257328 0.257328 0.257328
0.320607 0.320607 0.320607
0.398306 0.398306 0.398306
0.28101 0.530648 0.928801
0.533791 0.577157 0.94287
0.712902 0.634806 0.971939
0.833021 0.725811 0.932021
0.889326 0.779446 0.904997
0.918181 0.806409 0.905562
0.472877 0.472877 0.472877
0.542229 0.542229 0.542229
0.47718 0.644205 0.715724
0.350256 0.752987 0.998215
0.581842 0.772305 0.974136
0.780407 0.795758 0.894118
0.86009 0.832929 0.899947
0.906111 0.865309 0.895766
0.93283 0.886717 0.906432
0.333684 0.800732 0.913054
0.353765 0.844709 0.973342
0.464805 0.872847 0.994446
0.607965 0.886458 0.980819
0.74844 0.896498 0.955169
0.85864 0.909667 0.935393
0.924178 0.927001 0.932021
0.9561 0.944579 0.943725
0.972122 0.959319 0.957626
0.461646 0.906569 0.998764
0.587503 0.92108 0.998383
0.716533 0.934203 0.989471
0.809781 0.947326 0.983047
0.888624 0.959182 0.976043
0.944884 0.971313 0.975296
0.977981 0.983307 0.982544
0.993561 0.99443 0.994476
1 1 1
0.708049 0.945876 1
0.799283 0.958663 0.998444
0.882658 0.971603 0.994644
0.938903 0.983185 0.994278
0.980117 0.993561 0.996368
1 1 1
1 1 1
1 1 1
1 1 1
0 0 0
0 0 0
0.0339208 0.0339208 0.0339208
0.147616 0.147616 0.147616
0.298589 0.28333 0.345342
0.653468 0.45037 1
0.861112 0.605325 1
0.942458 0.693004 1
0.978714 0.730266 1
0 0 0
0.026154 0.026154 0.026154
0.0767224 0.0767224 0.0767224
0.201999 0.198322 0.245136
0.352193 0.307958 0.498772
0.676036 0.465843 1
0.865812 0.62005 1
0.947677 0.705974 1
0.986923 0.745235 1
0.0501717 0.0501717 0.0501717
0.0896773 0.0896773 0.0896773
0.150378 0.150378 0.150378
0.25243 0.244114 0.499901
0.418463 0.33817 0.724804
0.701244 0.493904 1
0.862272 0.634958 1
0.93286 0.709194 1
0.970672 0.746502 1
0.145998 0.145998 0.145998
0.196094 0.196094 0.196094
0.237171 0.261295 0.314
0.287785 0.342809 0.781369
0.494896 0.405219 1
0.708217 0.52929 1
0.853483 0.660914 1
0.918074 0.729946 1
0.947311 0.76437 1
0.271977 0.271977 0.271977
0.336416 0.336416 0.336416
0.414786 0.414786 0.414786
0.313603 0.542107 0.95581
0.545556 0.590249 0.993851
0.71722 0.642084 1
0.833341 0.725765 1
0.889174 0.781186 0.969268
0.913832 0.812528 0.959701
0.470436 0.470436 0.470436
0.540505 0.540505 0.540505
0.52781 0.638163 0.694453
0.382544 0.754803 1
0.615167 0.77821 0.997925
0.789075 0.804868 0.931334
0.864073 0.838575 0.940337
0.905165 0.873106 0.934615
0.926711 0.896864 0.937499
0.430549 0.767391 0.873213
0.376898 0.837766 0.998352
0.478202 0.87335 1
0.6224 0.888869 1
0.760403 0.900755 0.987076
0.868864 0.914641 0.961151
0.929992 0.932815 0.949752
0.955367 0.951308 0.961318
0.970596 0.966384 0.970443
0.502907 0.9084 1
0.622751 0.923125 1
0.744549 0.936996 1
0.833066 0.95024 0.993286
0.905058 0.962478 0.985031
0.955352 0.974762 0.983047
0.983429 0.987106 0.989075
0.998001 0.997986 0.998154
1 1 1
0.743725 0.947982 1
0.826429 0.961135 1
0.901793 0.974395 0.998428
0.953002 0.985962 0.99704
0.988861 0.996353 0.998825
1 1 1
1 1 1
1 1 1
1 1 1
0 0 0
0 0 0
0.0346532 0.0346532 0.0346532
0.14905 0.14905 0.14905
0.299977 0.296361 0.311574
0.630335 0.454536 1
0.857481 0.597147 1
0.942504 0.685924 1
0.979248 0.72488 1
0.00167849 0.00167849 0.00167849
0.0287633 0.0287633 0.0287633
0.0799725 0.0799725 0.0799725
0.207263 0.207263 0.207263
0.352926 0.318257 0.473075
0.660578 0.469139 1
0.865446 0.613931 1
0.949569 0.701381 1
0.989349 0.742184 1
0.0552224 0.0552224 0.0552224
0.0962387 0.0962387 0.0962387
0.157214 0.157214 0.157214
0.260868 0.254322 0.481086
0.42089 0.348196 0.708522
0.690776 0.49308 1
0.859571 0.628031 1
0.93608 0.707057 1
0.973663 0.745266 1
0.154726 0.154726 0.154726
0.205325 0.205325 0.205325
0.255985 0.273152 0.311406
0.304646 0.356695 0.779995
0.50576 0.41976 1
0.707866 0.533165 1
0.853437 0.659907 1
0.918105 0.729213 1
0.947402 0.764767 1
0.28455 0.28455 0.28455
0.349676 0.349676 0.349676
0.424155 0.433021 0.441642
0.335897 0.555566 0.977035
0.558679 0.603189 1
0.725231 0.652537 1
0.836606 0.731304 1
0.891188 0.785351 0.995926
0.915267 0.816907 0.983581
0.478996 0.478996 0.478996
0.548669 0.548669 0.548669
0.508232 0.660136 0.746166
0.405921 0.763668 1
0.637583 0.786755 1
0.798276 0.813794 0.947677
0.869673 0.845869 0.955398
0.909346 0.878904 0.951919
0.930327 0.90222 0.952956
0.466667 0.763348 0.866117
0.391882 0.841962 1
0.499199 0.877379 1
0.641718 0.892897 1
0.77499 0.90547 0.998184
0.88014 0.919905 0.968872
0.935531 0.938277 0.958724
0.959411 0.955779 0.969635
0.973938 0.97026 0.977691
0.521401 0.911009 1
0.641962 0.926131 1
0.760708 0.940444 1
0.846738 0.953765 0.999466
0.914611 0.96614 0.990951
0.961501 0.978363 0.988464
0.987518 0.990311 0.993118
1 1 1
1 1 1
0.760815 0.950713 1
0.840909 0.963989 1
0.913176 0.977249 1
0.962448 0.988769 0.999084
0.995819 0.998688 1
1 1 1
1 1 1
1 1 1
1 1 1
