public/textures/grade/Sony/Gems-SLog.cube
TITLE "Generated by Resolve"
LUT_3D_SIZE 5
0 0 0.00790417
0.16492 0 0
0.467918 0.220859 0.0164492
0.434195 0.434195 0.434195
0.524132 0.524132 0.524132
0 0.0874495 0.0136721
0.0655528 0.0928817 0
0.503731 0.218662 0
0.452399 0.452399 0.452399
0.547372 0.547372 0.547372
0 0.39321 0.241794
0 0.445136 0.272267
0.383001 0.430213 0.185061
0.665934 0.522026 0.324208
0.791974 0.627131 0.444541
0.141131 0.746517 0.567987
0.263752 0.796826 0.61239
0.46424 0.822614 0.582055
0.820233 0.830564 0.595285
0.922728 0.882017 0.7066
0.549493 0.918074 0.7794
0.728664 0.940734 0.841932
0.885466 0.965423 0.897795
0.981857 0.987259 0.966583
1 1 1
0 0 0.193301
0.0935683 0.0244602 0.203159
0.53196 0.193271 0
0.450446 0.450446 0.450446
0.534493 0.534493 0.534493
0 0.0868544 0.191058
0.0831617 0.101823 0.136843
0.598642 0.216236 0
0.481209 0.481209 0.481209
0.564324 0.564324 0.564324
0 0.409613 0.312078
0.00077821 0.459327 0.339803
0.406348 0.453468 0.263767
0.792432 0.539437 0.255177
0.92372 0.6374 0.374853
0.191226 0.76434 0.600534
0.298817 0.814343 0.645029
0.508904 0.838148 0.62472
0.840879 0.850202 0.652995
0.933806 0.899672 0.767407
0.614954 0.922591 0.822644
0.781964 0.948089 0.882139
0.914672 0.975036 0.929046
0.994018 0.996048 0.98912
1 1 1
0 0 0.40325
0.01355 0 0.550805
0.481254 0.301793 0.716838
0.906981 0.457221 0.401007
0.631861 0.595346 0.583474
0 0.0243229 0.47039
0.00494392 0.0814832 0.603281
0.470832 0.323033 0.687282
0.99234 0.478935 0.419059
0.883772 0.598962 0.533349
0.197864 0.232197 0.239887
0 0.416388 0.534264
0.427832 0.46389 0.529015
0.9635 0.545083 0.413062
1 0.644419 0.498192
0.194522 0.769085 0.702098
0.283406 0.825589 0.770367
0.582834 0.839643 0.760494
0.858366 0.867323 0.75761
0.949889 0.915434 0.842832
0.619516 0.937896 0.918074
0.803815 0.961028 0.948394
0.942672 0.980331 0.967224
1 1 1
1 1 1
0 0 0
0.0230106 0.0230106 0.0230106
0.254124 0.216938 0.379782
0.822003 0.59028 1
1 0.71754 0.932723
0.0320592 0.0320592 0.0320592
0.105592 0.105592 0.105592
0.349447 0.267857 0.707958
0.837354 0.621485 1
0.998703 0.73431 0.946273
0.200565 0.200565 0.200565
0.296788 0.314717 0.333761
0.413901 0.46952 0.939132
0.804578 0.667124 0.933333
0.947433 0.774487 0.894621
0.329946 0.728954 0.819348
0.34165 0.826886 0.959182
0.611933 0.858274 0.949203
0.880903 0.886519 0.89633
0.961852 0.932097 0.927672
0.691783 0.945342 0.995865
0.853758 0.967529 0.992691
0.961639 0.988785 0.993622
1 1 1
1 1 1
0 0 0
0.0209964 0.0209964 0.0209964
0.26273 0.258778 0.279347
0.800519 0.549126 1
0.979248 0.72488 1
0.0389868 0.0389868 0.0389868
0.117983 0.117983 0.117983
0.3561 0.304372 0.627924
0.81207 0.577356 1
0.983169 0.748074 1
0.230808 0.230808 0.230808
0.343496 0.343496 0.343496
0.445563 0.502159 1
0.803601 0.663554 1
0.926406 0.791714 1
0.631022 0.631022 0.631022
0.389868 0.82118 1
0.649683 0.866957 1
0.896559 0.902174 0.946532
0.958175 0.949493 0.96614
0.760815 0.950713 1
0.896696 0.974044 1
0.983963 0.99498 0.999374
1 1 1
1 1 1
