public/textures/grade/Sony/Guardians-SLog.cube
TITLE "Generated by Resolve"
LUT_3D_SIZE 33
0 0.00486763 0.00132753
0.0255741 0.00106813 0
0.0485084 0 0
0.0724041 0 0
0.0978103 0 0
0.125444 0 0
0.155596 0 0
0.187991 0 0
0.222843 0 0
0.260105 0 0
0.299794 0 0
0.341772 0 0
0.38558 0 0
0.431403 0 0
0.478721 0 0
0.527657 0 0
0.577035 0 0
0.626825 0 0
0.676753 0 0
0.726162 0 0
0.775036 0 0
0.822171 0 0
0.867628 0 0
0.911208 0 0
0.952728 0 0
0.992096 0 0
1 0 0
1 0 0
1 0 0
1 0 0
1 0 0
1 0 0
1 0 0
0 0.0214389 0
0.0170596 0.0176699 0
0.0409857 0.0144503 0
0.0656443 0.0110933 0
0.0918441 0.0074464 0
0.12015 0.00347906 0
0.150942 0 0
0.183658 0 0
0.218448 0 0
0.255741 0 0
0.295521 0 0
0.337758 0 0
0.381735 0 0
0.42742 0 0
0.474693 0 0
0.523613 0 0
0.573022 0 0
0.622889 0 0
0.672618 0 0
0.721874 0 0
0.770642 0 0
0.817731 0 0
0.863096 0 0
0.906615 0 0
0.947906 0 0
0.987198 0 0
1 0 0
1 0 0
1 0 0
1 0 0
1 0 0
1 0 0
1 0 0
0 0.0361486 0
0.0096437 0.0330053 0
0.0328069 0.0303502 0
0.0588693 0.0270695 0
0.0865187 0.0234989 0
0.115755 0.0196384 0
0.147097 0.0153048 0
0.180438 0.0106355 0
0.215976 0.00550851 0
0.253651 0 0
0.293599 0 0
0.335607 0 0
0.379522 0 0
0.425254 0 0
0.472465 0 0
0.521248 0 0
0.570657 0 0
0.620371 0 0
0.670024 0 0
0.719142 0 0
0.767712 0 0
0.814725 0 0
0.860014 0 0
0.903334 0 0
0.944472 0 0
0.983581 0 0
1 0 0
1 0 0
1 0 0
1 0 0
1 0 0
1 0 0
1 0 0
0 0.0527657 0
0.00163272 0.0502785 0
0.0242008 0.0480964 0
0.0501106 0.0453651 0
0.0787518 0.0419318 0
0.109194 0.0381628 0
0.141482 0.0339361 0
0.175448 0.0294041 0
0.211582 0.024567 0
0.249943 0.0193942 0
0.290318 0.0136416 0
0.332784 0.00735485 0
0.376898 0.000793469 0
0.42266 0 0
0.469718 0 0
0.518441 0 0
0.567514 0 0
0.616999 0 0
0.666514 0 0
0.715541 0 0
0.764065 0 0
0.810819 0 0
0.855879 0 0
0.899062 0 0
0.940093 0 0
0.97908 0 0
1 0 0
1 0 0
1 0 0
1 0 0
1 0 0
1 0 0
1 0 0
0 0.0712596 0
0 0.0695354 0
0.0154116 0.0679484 0
0.0405737 0.0656291 0
0.0690776 0.0625467 0
0.100313 0.0589609 0
0.133776 0.054963 0
0.16875 0.05066 0
0.205631 0.046067 0
0.244373 0.041001 0
0.285237 0.0355993 0
0.328176 0.0297704 0
0.372625 0.0235904 0
0.418708 0.0171511 0
0.466224 0.010605 0
0.515084 0.00376898 0
0.564202 0 0
0.613336 0 0
0.662425 0 0
0.711315 0 0
0.759579 0 0
0.806149 0 0
0.850996 0 0
0.893935 0 0
0.934874 0 0
0.9738 0 0
1 0 0
1 0 0
1 0 0
1 0 0
1 0 0
1 0 0
1 0 0
0 0.0919203 0
0 0.0907607 0
0.00512703 0.0897078 0
0.0304265 0.0879225 0
0.0585489 0.0853895 0
0.0897688 0.0821088 0
0.124056 0.0784619 0
0.159991 0.0743877 0
0.197711 0.0699474 0
0.237125 0.0651102 0
0.278462 0.0598917 0
0.321828 0.0543984 0
0.366857 0.0488441 0
0.413214 0.0428168 0
0.460792 0.0364996 0
0.509773 0.0299687 0
0.559091 0.0235904 0
0.608713 0.0174258 0
0.658152 0.0114595 0
0.706828 0.00560006 0
0.754849 0.000106813 0
0.801114 0 0
0.845579 0 0
0.888365 0 0
0.929 0 0
0.967636 0 0
1 0 0
1 0 0
1 0 0
1 0 0
1 0 0
1 0 0
1 0 0
0 0.114839 0
0 0.113939 0
0 0.113603 0
0.0195621 0.112032 0
0.0476387 0.110109 0
0.0789044 0.107576 0
0.113069 0.104097 0
0.149508 0.100206 0
0.188037 0.0960098 0
0.228367 0.0914931 0
0.27042 0.0866102 0
0.314397 0.0815137 0
0.359594 0.0760662 0
0.406271 0.0704509 0
0.45417 0.0646525 0
0.503319 0.0585641 0
0.552728 0.0526131 0
0.602441 0.046891 0
0.651865 0.0412909 0
0.700679 0.0359808 0
0.74876 0.0309148 0
0.795087 0.0264591 0
0.839887 0.0229343 0
0.882628 0.0198825 0
0.923201 0.0175174 0
0.96173 0.0157473 0
0.997604 0.0148318 0
1 0.0149081 0
1 0.0158236 0
1 0.0172885 0
1 0.0194095 0
1 0.0223087 0
1 0.0259556 0
0 0.139605 0
0 0.139223 0
0 0.139422 0
0.00766003 0.138338 0
0.0362249 0.136904 0
0.0671855 0.134798 0
0.101335 0.131914 0
0.137957 0.128405 0
0.176913 0.124407 0
0.218112 0.120317 0
0.260945 0.115755 0
0.305425 0.110857 0
0.351064 0.105715 0
0.398016 0.100359 0
0.446159 0.0949264 0
0.49575 0.089601 0
0.545266 0.0840925 0
0.594858 0.0786145 0
0.644236 0.0733654 0
0.693004 0.068513 0
0.741161 0.0640879 0
0.78761 0.0603799 0
0.832151 0.0569924 0
0.874769 0.0543069 0
0.915267 0.0524147 0
0.95378 0.0512093 0
0.98967 0.0509499 0
1 0.0514382 0
1 0.0525673 0
1 0.0545052 0
1 0.0571908 0
1 0.0605631 0
1 0.0648203 0
0 0.16643 0
0 0.166445 0
0 0.16733 0
0 0.167239 0
0.0240482 0.165713 0
0.054963 0.163973 0
0.0889601 0.161608 0
0.125643 0.158694 0
0.165072 0.155352 0
0.20647 0.151324 0
0.249821 0.146944 0
0.294926 0.142351 0
0.341222 0.137621 0
0.388617 0.132647 0
0.437201 0.127764 0
0.486732 0.122515 0
0.5364 0.117464 0
0.58616 0.112551 0
0.635538 0.107774 0
0.684245 0.103334 0
0.732403 0.0994888 0
0.778668 0.0960861 0
0.823163 0.0932784 0
0.86566 0.0910658 0
0.906004 0.0895399 0
0.944533 0.0890669 0
0.98027 0.089189 0
1 0.0900435 0
1 0.0915999 0
1 0.0938735 0
1 0.0970779 0
1 0.101137 0
1 0.105638 0
0 0.195438 0
0 0.195895 0
0 0.197086 0
0 0.197559 0
0.0110781 0.196643 0
0.0424353 0.19527 0
0.0763104 0.193317 0
0.113069 0.191058 0
0.152346 0.188052 0
0.194018 0.184527 0
0.237751 0.180484 0
0.283299 0.176089 0
0.330266 0.171832 0
0.378225 0.1673 0
0.427024 0.162615 0
0.476783 0.157717 0
0.526513 0.152987 0
0.576318 0.14844 0
0.626001 0.144488 0
0.674693 0.140551 0
0.722576 0.136873 0
0.768673 0.133822 0
0.813031 0.131456 0
0.855497 0.129824 0
0.895888 0.129107 0
0.934081 0.12871 0
0.969635 0.129152 0
1 0.130434 0
1 0.132494 0
1 0.135332 0
1 0.138964 0
1 0.143114 0
1 0.147982 0
0 0.226566 0
0 0.227375 0
0 0.22887 0
0 0.22974 0
0 0.229709 0
0.029633 0.228626 0
0.0638743 0.227253 0
0.100237 0.225238 0
0.139315 0.222629 0
0.180987 0.219547 0
0.22501 0.216022 0
0.271153 0.212253 0
0.318318 0.208072 0
0.366583 0.203738 0
0.415763 0.199405 0
0.465888 0.19498 0
0.515831 0.190646 0
0.565911 0.18674 0
0.615335 0.182834 0
0.664027 0.179339 0
0.711894 0.176196 0
0.7579 0.173617 0
0.80209 0.171618 0
0.844526 0.170611 0
0.884642 0.170062 0
0.922728 0.170169 0
0.958144 0.171023 0
0.991196 0.172625 0
1 0.175357 0
1 0.1785 0
1 0.18233 0
1 0.186801 0
1 0.191913 0
0 0.259327 0
0 0.260548 0
0 0.262547 0
0 0.26389 0
0 0.264515 0
0.0163729 0.263752 0
0.0509804 0.262699 0
0.0875257 0.261234 0
0.126513 0.259129 0
0.167987 0.256443 0
0.212238 0.253559 0
0.258366 0.250034 0
0.305837 0.246281 0
0.354421 0.242267 0
0.40383 0.238163 0
0.454368 0.234241 0
0.504631 0.230426 0
0.55465 0.226673 0
0.604089 0.223133 0
0.652674 0.219944 0
0.70045 0.217166 0
0.746624 0.215381 0
0.790707 0.213855 0
0.832776 0.212909 0
0.872694 0.212665 0
0.910613 0.213123 0
0.945922 0.214435 0
0.979049 0.2168 0
1 0.219471 0
1 0.222858 0
1 0.226978 0
1 0.2318 0
1 0.237293 0
0 0.293996 0
0 0.295521 0
0 0.297902 0
0 0.299916 0
0 0.300999 0
0.00250248 0.300847 0
0.0382391 0.299825 0
0.0749218 0.298741 0
0.114153 0.297307 0
0.155749 0.295323 0
0.199542 0.292592 0
0.245548 0.289418 0
0.293095 0.286046 0
0.341955 0.282475 0
0.391836 0.278965 0
0.44242 0.275181 0
0.492714 0.27155 0
0.54284 0.268147 0
0.592401 0.265034 0
0.640986 0.262242 0
0.688853 0.26009 0
0.734646 0.258305 0
0.778622 0.257145 0
0.820584 0.256641 0
0.860334 0.256779 0
0.898054 0.257511 0
0.933394 0.259449 0
0.966186 0.261784 0
0.996658 0.26482 0
1 0.268482 0
1 0.272786 0
1 0.278187 0
1 0.283848 0
0 0.330327 0
0 0.332296 0
0 0.335119 0
0 0.337255 0
0 0.338796 0
0 0.339483 0
0.0259861 0.338659 0
0.063035 0.337972 0
0.102251 0.336934 0
0.143633 0.335286 0
0.187381 0.33312 0
0.233249 0.330388 0
0.280659 0.327352 0
0.329793 0.324407 0
0.379614 0.32108 0
0.430304 0.317617 0
0.480705 0.314275 0
0.530831 0.311116 0
0.580545 0.308507 0
0.629252 0.306218 0
0.676844 0.304143 0
0.722484 0.302647 0
0.766262 0.301747 0
0.808042 0.301518 0
0.847852 0.302327 0
0.885451 0.303456 0
0.920378 0.305287 0
0.953002 0.307805 0
0.983307 0.311055 0
1 0.314977 0
1 0.319921 0
1 0.325078 0
1 0.330846 0
0 0.368277 0
0 0.370611 0
0 0.373648 0
0 0.376135 0
0 0.377997 0
0 0.379171 0
0.0146792 0.37908 0
0.0521553 0.378637 0
0.0912032 0.377798 0
0.132403 0.376501 0
0.175952 0.374731 0
0.221836 0.372625 0
0.269352 0.370245 0
0.317998 0.367346 0
0.367681 0.364294 0
0.418372 0.361151 0
0.468864 0.35819 0
0.519203 0.355566 0
0.568811 0.35314 0
0.617288 0.350942 0
0.66479 0.349157 0
0.710338 0.348013 0
0.753979 0.347417 0
0.795758 0.347692 0
0.835187 0.348455 0
0.872557 0.349783 0
0.907332 0.351873 0
0.939757 0.35462 0
0.969894 0.358022 0
0.998077 0.362448 0
1 0.367132 0
1 0.372442 0
1 0.378317 0
0 0.407202 0
0 0.409766 0
0 0.413138 0
0 0.416037 0
0 0.418296 0
0 0.42005 0
0.0041352 0.420249 0
0.0424659 0.419974 0
0.0817426 0.419562 0
0.122911 0.418662 0
0.166308 0.417334 0
0.212009 0.415686 0
0.259068 0.413535 0
0.307576 0.411093 0
0.357092 0.408408 0
0.407568 0.405524 0
0.458228 0.403143 0
0.508339 0.400641 0
0.557763 0.398383 0
0.606119 0.396445 0
0.653437 0.394858 0
0.69894 0.394095 0
0.742504 0.393927 0
0.783886 0.394186 0
0.823056 0.395071 0
0.860182 0.396536 0
0.894728 0.398764 0
0.927153 0.401968 0
0.957183 0.405615 0
0.984985 0.409766 0
1 0.414511 0
1 0.419852 0
1 0.425757 0
0 0.447105 0
0 0.449973 0
0 0.453559 0
0 0.456977 0
0 0.459586 0
0 0.461509 0
0 0.462348 0
0.0345922 0.462058 0
0.0739452 0.461921 0
0.115496 0.461723 0
0.158663 0.460731 0
0.2038 0.459236 0
0.250477 0.457404 0
0.298634 0.455299 0
0.347982 0.453071 0
0.398489 0.450797 0
0.448569 0.448356 0
0.498421 0.446052 0
0.547646 0.444007 0
0.595834 0.442329 0
0.643107 0.441138 0
0.688365 0.440558 0
0.731548 0.44036 0
0.772686 0.440772 0
0.811612 0.441825 0
0.848508 0.443442 0
0.882994 0.446036 0
0.915084 0.449134 0
0.944839 0.452735 0
0.972457 0.456947 0
0.997971 0.461723 0
1 0.467079 0
1 0.47335 0
0 0.487572 0
0 0.490776 0
0 0.494926 0
0 0.498314 0
0 0.501137 0
0 0.503349 0
0 0.504646 0
0.0290837 0.504646 0
0.0688487 0.505043 0
0.109819 0.504814 0
0.152758 0.504158 0
0.197665 0.503044 0
0.243992 0.501564 0
0.291752 0.499809 0
0.340887 0.498054 0
0.390738 0.495827 0
0.440513 0.493675 0
0.490059 0.491615 0
0.538949 0.489769 0
0.587152 0.488594 0
0.633982 0.487419 0
0.678828 0.486824 0
0.721721 0.486763 0
0.762554 0.487266 0
0.801297 0.488548 0
0.838056 0.490471 0
0.872114 0.492866 0
0.903883 0.495903 0
0.933394 0.499519 0
0.9608 0.5037 0
0.986252 0.508675 0
1 0.514122 0
1 0.519951 0
0 0.528466 0
0 0.532158 0
0 0.536294 0
0 0.539971 0
0 0.543023 0
0 0.545434 0
0 0.54725 0
0.0265812 0.54757 0
0.0659342 0.547982 0
0.106706 0.548012 0
0.149294 0.547601 0
0.193805 0.546761 0
0.240146 0.545937 0
0.287434 0.544442 0
0.335744 0.542687 0
0.385077 0.540688 0
0.434363 0.538766 0
0.483528 0.536965 0
0.532341 0.535622 0
0.579828 0.534264 0
0.626261 0.533196 0
0.670726 0.532692 0
0.713268 0.532723 0
0.753872 0.53344 0
0.79237 0.534874 0
0.828641 0.536599 0
0.862364 0.538994 0
0.893843 0.541985 0
0.923095 0.545571 0
0.950423 0.549935 0
0.975631 0.554757 0
0.998642 0.559945 0
1 0.565637 0.00404364
0 0.569818 0
0 0.573419 0
0 0.577691 0
0 0.581521 0
0 0.584833 0
0 0.587701 0
0 0.589487 0
0.0265507 0.58999 0
0.0657206 0.590616 0
0.106294 0.590936 0
0.148608 0.590784 0
0.193088 0.590509 0
0.238499 0.589578 0
0.285237 0.588342 0
0.333013 0.586847 0
0.381765 0.585077 0
0.430518 0.583368 0
0.479423 0.58201 0
0.527398 0.580499 0
0.574395 0.579263 0
0.620371 0.578317 0
0.664393 0.57789 0
0.706828 0.578317 0
0.746883 0.578927 0
0.784787 0.580118 0
0.820691 0.581842 0
0.854124 0.584222 0
0.885344 0.587259 0
0.914458 0.590997 0
0.941344 0.595026 0
0.966232 0.599603 0
0.98909 0.60473 0.00575265
1 0.610239 0.0131533
0 0.610636 0
0 0.614466 0
0 0.618891 0
0 0.622858 0
0 0.626551 0
0 0.629343 0
0 0.63122 0
0.0298161 0.631922 0
0.0686046 0.632761 0
0.109148 0.633494 0
0.151141 0.633646 0
0.19472 0.63328 0
0.239582 0.632578 0
0.285695 0.631525 0
0.33283 0.630213 0
0.381323 0.628977 0
0.429404 0.62742 0
0.477333 0.625895 0
0.524697 0.624506 0
0.571099 0.623362 0
0.616495 0.622446 0
0.660319 0.622415 0
0.701946 0.622522 0
0.741558 0.623133 0
0.779004 0.624277 0
0.81445 0.62591 0
0.847532 0.62829 0
0.878553 0.631449 0
0.907164 0.634836 0
0.933745 0.638712 0.00216678
0.958328 0.643107 0.00868238
0.98088 0.64799 0.0161898
1 0.653437 0.0244602
0 0.651057 0
0 0.654978 0
0 0.659678 0
0 0.66392 0
0 0.667414 0
0 0.670253 0
0 0.672099 0
0.036286 0.673075 0
0.0749828 0.674342 0
0.114839 0.675105 0
0.156191 0.675349 0
0.199191 0.675151 0
0.243442 0.674601 0
0.288914 0.673732 0
0.335729 0.672892 0
0.383124 0.671489 0
0.430442 0.670054 0
0.477623 0.66862 0
0.5243 0.667323 0
0.570062 0.666255 0
0.615167 0.665736 0
0.658015 0.665339 0
0.699046 0.6654 0
0.73814 0.66598 0
0.775113 0.667094 0
0.810376 0.669001 0
0.842893 0.671153 0
0.873274 0.673854 0.000656138
0.901579 0.677165 0.00666819
0.92781 0.680888 0.0135042
0.952056 0.685084 0.0208896
0.974411 0.689921 0.0290074
0.994766 0.694911 0.0372168
0 0.690822 0
0 0.694942 0
0 0.699718 0
0 0.703853 0
0 0.707408 0
0 0.710277 0
0.00900282 0.711849 0
0.0464332 0.713573 0
0.084184 0.714778 0
0.123354 0.715602 0
0.164141 0.715999 0
0.206516 0.715923 0
0.250355 0.715709 0
0.295216 0.715053 0
0.340856 0.714031 0
0.387442 0.712718 0
0.433982 0.711406 0
0.480369 0.710048 0
0.526543 0.709056 0
0.571588 0.708034 0
0.615641 0.707225 0
0.657847 0.706828 0
0.698238 0.706828 0
0.73666 0.707301 0
0.773373 0.708644 0
0.807889 0.71017 0.00158694
0.839963 0.71223 0.00721752
0.869841 0.714733 0.0133669
0.897597 0.717708 0.0199741
0.923415 0.721218 0.0271153
0.947478 0.725444 0.0350652
0.969329 0.729778 0.0429847
0.989334 0.734447 0.0511788
0 0.730037 0
0 0.734096 0
0 0.73872 0
0 0.74284 0
0 0.746365 0
0 0.749249 0
0.0230564 0.751003 0
0.0589914 0.752682 0
0.0960861 0.754009 0
0.13463 0.754925 0
0.174731 0.755398 0
0.216678 0.755596 0
0.259678 0.755444 0
0.303593 0.754772 0
0.348394 0.753811 0
0.394064 0.752544 0
0.43975 0.751278 0
0.485634 0.750256 0
0.530739 0.749081 0
0.574884 0.747997 0
0.618097 0.747097 0
0.659586 0.74667 0
0.699367 0.746685 0.000427253
0.737484 0.747417 0.00549325
0.77319 0.748241 0.010544
0.807019 0.749508 0.0159915
0.838544 0.751385 0.0219883
0.867948 0.753735 0.028397
0.895476 0.756832 0.035584
0.92076 0.759976 0.042649
0.944137 0.763577 0.0501106
0.965621 0.767651 0.0580148
0.985336 0.772091 0.0662547
0 0.767895 0
0 0.771939 0
0 0.776532 0
0 0.780621 0
0 0.784146 0
0.004654 0.786694 0
0.0392615 0.788632 0
0.0743267 0.790448 0
0.110765 0.791882 0
0.148608 0.792889 0
0.188464 0.793729 0
0.229297 0.79379 0
0.271275 0.793515 0
0.314382 0.79292 0
0.358343 0.792035 0
0.403326 0.790982 0
0.448234 0.789837 0
0.492851 0.78854 0
0.537041 0.787366 0.000167849
0.580377 0.786297 0.00399786
0.622751 0.785367 0.00790417
0.663615 0.785016 0.0124056
0.702617 0.784924 0.0170443
0.739712 0.785214 0.0219425
0.774792 0.785931 0.0271916
0.807965 0.787015 0.0326848
0.838819 0.788586 0.0385748
0.867872 0.790967 0.0453498
0.894682 0.793561 0.0521401
0.919539 0.796521 0.0592203
0.942443 0.799817 0.0665446
0.963455 0.803494 0.0741894
0.982757 0.807599 0.0822309
0 0.804501 0
0 0.808515 0
0 0.813016 0
0 0.817243 0
0 0.820462 0
0.0249027 0.82269 0
0.0581064 0.824933 0
0.0923323 0.82681 0
0.128069 0.828321 0
0.165545 0.829572 0
0.204166 0.830167 0
0.244221 0.830289 0
0.285313 0.830014 0
0.327459 0.829404 0
0.370672 0.828672 0.002533
0.414755 0.827665 0.00686656
0.458534 0.826398 0.0108186
0.502159 0.82504 0.0146181
0.545296 0.823728 0.0183871
0.587686 0.822583 0.0223087
0.62945 0.82182 0.0266575
0.669337 0.821271 0.0310369
0.707408 0.82092 0.0354925
0.743648 0.820981 0.040238
0.778012 0.821515 0.0454261
0.810575 0.822461 0.0509346
0.841093 0.824155 0.0572366
0.869245 0.825956 0.0633707
0.895415 0.828183 0.0698711
0.919783 0.830869 0.0767987
0.94229 0.833967 0.084062
0.963088 0.837629 0.0919509
0.981949 0.841367 0.0996872
0 0.83975 0
0 0.843656 0
0 0.848341 0
0 0.852079 0
0.0157168 0.854765 0
0.0467842 0.857404 0
0.0790723 0.859724 0
0.112642 0.861708 0
0.147906 0.863432 0
0.184146 0.864439 0
0.221881 0.864988 0.00274662
0.261082 0.86511 0.00827039
0.30132 0.864866 0.0134585
0.342947 0.864515 0.018677
0.384894 0.863554 0.0230564
0.427665 0.862287 0.0271153
0.470466 0.861006 0.0311131
0.513146 0.859648 0.0349889
0.555459 0.858396 0.038941
0.597009 0.857267 0.0429541
0.637522 0.856123 0.0468147
0.676463 0.85539 0.0510109
0.713741 0.854963 0.055436
0.749203 0.854871 0.0600748
0.78291 0.855314 0.0652476
0.814801 0.856092 0.0706798
0.844419 0.857313 0.0764172
0.872038 0.85893 0.0824598
0.897642 0.860899 0.0887465
0.921386 0.863203 0.0953078
0.943557 0.866178 0.102617
0.963775 0.869398 0.110002
0.982254 0.872847 0.11754
0 0.873838 0
0 0.877592 0
0 0.881712 0
0.0115358 0.884901 0
0.04065 0.887968 0
0.0706035 0.890715 0
0.102449 0.893294 0
0.135058 0.895201 0.00523384
0.169131 0.896681 0.012253
