public/textures/grade/Sony/Guardians-SLog.cube
TITLE "Generated by Resolve"
LUT_3D_SIZE 9
0 0.00486763 0.00132753
0.0978103 0 0
0.222843 0 0
0.38558 0 0
0.577035 0 0
0.775036 0 0
0.952728 0 0
1 0 0
1 0 0
0 0.0712596 0
0.0690776 0.0625467 0
0.205631 0.046067 0
0.372625 0.0235904 0
0.564202 0 0
0.759579 0 0
0.934874 0 0
1 0 0
1 0 0
0 0.16643 0
0.0240482 0.165713 0
0.165072 0.155352 0
0.341222 0.137621 0
0.5364 0.117464 0
0.732403 0.0994888 0
0.906004 0.0895399 0
1 0.0915999 0
1 0.105638 0
0 0.293996 0
0 0.300999 0
0.114153 0.297307 0
0.293095 0.286046 0
0.492714 0.27155 0
0.688853 0.26009 0
0.860334 0.256779 0
0.996658 0.26482 0
1 0.283848 0
0 0.447105 0
0 0.459586 0
0.0739452 0.461921 0
0.250477 0.457404 0
0.448569 0.448356 0
0.643107 0.441138 0
0.811612 0.441825 0
0.944839 0.452735 0
1 0.47335 0
0 0.610636 0
0 0.626551 0
0.0686046 0.632761 0
0.239582 0.632578 0
0.429404 0.62742 0
0.616495 0.622446 0
0.779004 0.624277 0
0.907164 0.634836 0
1 0.653437 0.0244602
0 0.767895 0
0 0.784146 0
0.110765 0.791882 0
0.271275 0.793515 0
0.448234 0.789837 0
0.622751 0.785367 0.00790417
0.774792 0.785931 0.0271916
0.894682 0.793561 0.0521401
0.982757 0.807599 0.0822309
0 0.906142 0
0.0667887 0.919753 0.00469978
0.191714 0.928191 0.035996
0.338109 0.929351 0.059617
0.498985 0.924941 0.0766155
0.657633 0.918914 0.0905776
0.796216 0.916701 0.107256
0.905638 0.920317 0.128573
0.986007 0.929519 0.154177
0.0863508 1 0.0776684
0.180102 1 0.113405
0.290913 1 0.142168
0.421454 1 0.162127
0.56495 1 0.174365
0.707576 1 0.183719
0.832303 1 0.19469
0.930922 1 0.209751
1 1 0.228595
0 0.00285344 0.0912337
0.0877546 0 0.073518
0.218433 0 0.0489815
0.383032 0 0.0211795
0.574945 0 0
0.772808 0 0
0.950347 0 0
1 0 0
1 0 0
0 0.0690776 0.0677501
0.0535744 0.065919 0.0645609
0.206775 0.04654 0.039704
0.372961 0.0250553 0.0198978
0.56434 0 0
0.759319 0 0
0.934234 0 0
1 0 0
1 0 0
0 0.1664 0.0266117
0.0233921 0.167773 0.0297551
0.166537 0.157839 0.0226596
0.345495 0.140795 0.00968948
0.539467 0.121828 0
0.734478 0.104784 0
0.907408 0.0957046 0
1 0.0986343 0
1 0.113603 0.000350958
0 0.295933 0
0 0.304021 0
0.117281 0.301961 0
0.298299 0.291417 0
0.498497 0.277623 0
0.693431 0.267063 0
0.863951 0.264759 0
0.999664 0.273732 0.00444038
1 0.29366 0.0252995
0 0.450828 0
0 0.464164 0
0.0816815 0.467842 0
0.257496 0.464271 0
0.455924 0.455772 0
0.649805 0.449119 0
0.817487 0.450813 0.00486763
0.949844 0.462379 0.0242618
1 0.483131 0.0524147
0 0.615686 0
0 0.631983 0
0.0796368 0.639231 0
0.249119 0.639902 0
0.438285 0.63537 0.00796521
0.62472 0.630854 0.0193027
0.78613 0.63299 0.0361181
0.913069 0.643595 0.0602121
1 0.661814 0.0910201
0 0.773388 0
0 0.789776 0
0.123232 0.798413 0.0248722
0.282109 0.800488 0.0465553
0.457404 0.796841 0.0618753
0.630777 0.792462 0.075639
0.781537 0.792966 0.0934462
0.900252 0.800443 0.11725
0.987335 0.814221 0.146288
0 0.91136 0.0409705
0.0805219 0.925185 0.0769207
0.203525 0.93373 0.107179
0.348074 0.93489 0.128954
0.506996 0.930159 0.143359
0.664652 0.924315 0.155535
0.802045 0.921965 0.170214
0.910262 0.925216 0.189548
0.989746 0.934142 0.213642
0.0991836 1 0.146807
0.191623 1 0.18117
0.300755 1 0.208026
0.429679 1 0.226047
0.571786 1 0.236362
0.713176 1 0.243732
0.836759 1 0.252689
0.934142 1 0.265507
1 1 0.282918
0 0 0.232456
0.0742657 0 0.217227
0.203769 0 0.189242
0.373663 0 0.154208
0.568444 0 0.117922
0.767697 0 0.0843977
0.945708 0 0.0593576
1 0 0.0461738
1 0 0.0446632
0 0.0636454 0.207553
0.05243 0.0603189 0.201007
0.190005 0.046067 0.177844
0.365881 0.023621 0.149172
0.559838 0 0.12076
0.755856 0 0.0941482
0.931228 0 0.0768749
1 0 0.071458
1 0 0.0778973
0 0.162554 0.164675
0.0174563 0.166308 0.168399
0.140368 0.162799 0.164889
0.34612 0.140581 0.131792
0.538903 0.123201 0.115068
0.733577 0.107225 0.0998703
0.906493 0.0995956 0.0927443
1 0.103426 0.0965286
1 0.119081 0.111528
0 0.294438 0.109255
0 0.303822 0.121279
0.112947 0.304585 0.124239
0.299321 0.294133 0.114061
0.502663 0.280873 0.102998
0.695918 0.271473 0.0975052
0.865461 0.270405 0.10016
1 0.280018 0.112856
1 0.29987 0.135225
0 0.451408 0.0604257
0 0.465431 0.0818036
0.0847028 0.471305 0.0952773
0.259632 0.469017 0.100282
0.460548 0.460792 0.0990768
0.654719 0.454688 0.100679
0.821073 0.456992 0.110948
0.952178 0.46894 0.130434
1 0.48957 0.158099
0 0.617777 0.0437018
0 0.634638 0.0734417
0.0868086 0.643305 0.0952621
0.254505 0.644846 0.109667
0.44332 0.640589 0.117617
0.63003 0.636332 0.12517
0.7906 0.638666 0.139452
0.916335 0.649317 0.161791
1 0.667323 0.190982
0 0.776181 0.0745251
0 0.792767 0.108705
0.131868 0.802243 0.135607
0.28896 0.804776 0.154849
0.462959 0.801205 0.166674
0.635904 0.796963 0.177005
0.785779 0.797314 0.191531
0.903349 0.804532 0.212619
0.989609 0.818204 0.239673
0 0.913634 0.148379
0.0906844 0.928023 0.182742
0.211887 0.936828 0.210712
0.354788 0.938109 0.229847
0.512261 0.933318 0.241138
0.668894 0.92726 0.249943
0.805386 0.924681 0.261509
0.912673 0.927703 0.278187
0.991424 0.936416 0.300145
0.108919 1 0.246799
0.200031 1 0.278889
0.307622 1 0.303227
0.434775 1 0.31841
0.575677 1 0.326131
0.716121 1 0.330678
0.838941 1 0.337026
0.935531 1 0.347463
1 1 0.362737
0 0 0.432303
0.0604868 0 0.418296
0.185595 0 0.393118
0.35613 0 0.355459
0.555062 0 0.313222
0.756893 0 0.274434
0.936233 0 0.245167
1 0 0.22858
1 0 0.224781
0 0.0541085 0.403891
0.0432136 0.0512551 0.396475
0.172183 0.0400092 0.378119
0.347784 0.0189364 0.346487
0.547585 0 0.310704
0.7467 0 0.279133
0.923262 0 0.257969
1 0 0.249607
1 0 0.25391
0 0.155154 0.357717
0.0121767 0.159411 0.358984
0.141268 0.155718 0.350607
0.324926 0.140185 0.324727
0.529564 0.121065 0.297627
0.72697 0.105501 0.277485
0.900679 0.0988174 0.26685
1 0.10367 0.267979
1 0.119844 0.280583
0 0.28896 0.297093
0 0.299336 0.307332
0.102846 0.303395 0.311254
0.26717 0.299535 0.307271
0.50222 0.279576 0.273121
0.693751 0.271855 0.265324
0.862638 0.271824 0.265156
0.99707 0.282216 0.275288
1 0.302617 0.295338
0 0.448066 0.239628
0 0.463081 0.258686
0.0817121 0.471305 0.270893
0.251728 0.471168 0.273625
0.45948 0.461814 0.262608
0.656855 0.456077 0.258137
0.821393 0.459266 0.265446
0.951232 0.471778 0.282322
1 0.492729 0.307469
0 0.616114 0.21265
0 0.633738 0.239673
0.0889143 0.644068 0.259297
0.253727 0.646799 0.270558
0.442191 0.642695 0.273045
0.631708 0.638376 0.274235
0.792279 0.640864 0.283909
0.916625 0.651392 0.302556
1 0.669764 0.329229
0 0.775128 0.232227
0.00572213 0.792508 0.263722
0.136126 0.803082 0.287861
0.290944 0.806195 0.303624
0.463844 0.802899 0.311284
0.637201 0.798535 0.316457
0.787182 0.798718 0.326177
0.903792 0.80557 0.343099
0.989288 0.819181 0.367102
0 0.912871 0.294667
0.0969406 0.927993 0.326177
0.216159 0.937087 0.35079
0.357198 0.938567 0.366476
0.513558 0.933913 0.374228
0.669764 0.927642 0.378759
0.80592 0.924697 0.385946
0.912505 0.927352 0.39881
0.9906 0.935882 0.417746
0.115068 1 0.381552
0.2047 1 0.410361
0.310826 1 0.431571
0.436332 1 0.443519
0.576196 1 0.448157
0.715953 1 0.449073
0.838285 1 0.451728
0.934447 1 0.459174
1 1 0.471778
0 0 0.67837
0.0442512 0 0.664469
0.167803 0 0.640665
0.336202 0 0.604547
0.53669 0 0.560189
0.741482 0 0.517037
0.922911 0 0.483726
1 0 0.463584
1 0 0.456703
0 0.041413 0.644999
0.0303197 0.0391546 0.636484
0.157412 0.0292058 0.618708
0.328557 0.0101167 0.589029
0.529809 0 0.550759
0.732815 0 0.514443
0.911543 0 0.488685
1 0 0.476326
1 0 0.477043
0 0.144945 0.591989
0.00332647 0.14966 0.590616
0.133227 0.146944 0.580621
0.306691 0.134981 0.559213
0.511681 0.116762 0.529397
0.714641 0.101091 0.502754
0.890761 0.0948806 0.48687
1 0.100526 0.483711
1 0.117571 0.492561
0 0.281056 0.523415
0 0.292424 0.530571
0.0999924 0.297108 0.530556
0.270115 0.292882 0.520211
0.480446 0.279683 0.496498
0.684031 0.270085 0.47808
0.855482 0.270359 0.472236
0.990463 0.281254 0.47776
1 0.302373 0.493889
0 0.442039 0.455985
0 0.458244 0.471916
0.0779431 0.468254 0.481605
0.240955 0.470619 0.48368
0.428031 0.467002 0.479713
0.656107 0.454566 0.453086
0.818448 0.458793 0.456931
0.947234 0.471504 0.469413
1 0.493095 0.490883
0 0.611597 0.416327
0 0.63035 0.439857
0.0881208 0.642329 0.456535
0.248249 0.646479 0.465049
0.432334 0.644022 0.465446
0.62945 0.638102 0.456748
0.792279 0.640162 0.459464
0.915053 0.651102 0.474311
1 0.669657 0.497246
0 0.771893 0.421927
0.0102083 0.790158 0.44947
0.137392 0.80174 0.470039
0.288762 0.80531 0.481834
0.459571 0.802838 0.486275
0.633814 0.798154 0.485878
0.786068 0.797726 0.488853
0.90251 0.80444 0.500999
0.987106 0.817929 0.521065
0.00129702 0.910079 0.469398
0.100587 0.925902 0.497047
0.217578 0.935332 0.517632
0.356023 0.936889 0.52932
0.510918 0.932601 0.533837
0.666941 0.926131 0.534096
0.803662 0.922484 0.535821
0.910445 0.924987 0.544381
0.987869 0.933181 0.559472
0.118807 1 0.541772
0.20676 1 0.566522
0.311192 1 0.583993
0.435035 1 0.592706
0.573571 1 0.594293
0.712886 1 0.59176
0.835218 1 0.590127
0.931365 1 0.593912
1 1 0.603296
0 0 0.934661
0.0273899 0 0.920302
0.151095 0 0.896635
0.318303 0 0.861479
0.518547 0 0.817472
0.725048 0 0.772564
0.908415 0 0.736294
1 0 0.713008
1 0 0.702922
0 0.0280766 0.895796
0.0166323 0.0266117 0.885969
0.143786 0.0177005 0.867353
0.312779 0 0.837903
0.512856 0 0.799695
0.717922 0 0.761486
0.898756 0 0.732204
1 0 0.716014
1 0 0.712932
0 0.13434 0.835019
0 0.139895 0.831403
0.124239 0.137865 0.819165
0.294896 0.127596 0.797436
0.496223 0.111131 0.767971
0.700923 0.0963455 0.73875
0.879499 0.090547 0.718441
1 0.0967575 0.710704
1 0.11458 0.715251
0 0.27303 0.756405
0 0.285206 0.760204
0.0966201 0.290394 0.756374
0.266056 0.287434 0.743618
0.466285 0.277562 0.722805
0.670542 0.268589 0.701778
0.845945 0.26865 0.690166
0.982498 0.279606 0.690227
1 0.301427 0.701717
0 0.436088 0.677363
0 0.45333 0.689372
0.0775006 0.464134 0.694728
0.241413 0.466941 0.691859
0.433051 0.462974 0.681361
0.638498 0.456306 0.665492
0.810834 0.458534 0.659815
0.941527 0.471061 0.666316
1 0.492775 0.682704
0 0.60734 0.624689
0 0.626856 0.643763
0.088838 0.639918 0.656382
0.246235 0.64506 0.661097
0.424063 0.644556 0.660166
0.604654 0.642618 0.65774
0.791424 0.638697 0.64271
0.912322 0.650126 0.653864
1 0.668742 0.67245
0 0.768475 0.615305
0.0142214 0.787457 0.638422
0.139025 0.799832 0.654856
0.287587 0.804181 0.66302
0.454215 0.802625 0.664942
0.62446 0.79855 0.662974
0.78291 0.796048 0.657542
0.901061 0.802457 0.664088
0.984482 0.815991 0.680568
0.00680552 0.907012 0.64715
0.10399 0.923369 0.670588
0.21883 0.933028 0.686915
0.355077 0.935042 0.695125
0.507134 0.931029 0.696651
0.661234 0.924575 0.694331
0.79942 0.920226 0.691676
0.907713 0.922087 0.694957
0.984771 0.929992 0.706142
0.122225 1 0.704555
0.208728 1 0.725216
0.311009 1 0.738613
0.433219 1 0.74432
0.569818 1 0.743267
0.708003 1 0.73843
0.830839 1 0.733669
0.927611 1 0.733516
0.997024 1 0.739437
0 0 1
0.0132906 0 1
0.137591 0 1
0.304448 0 1
0.504234 0 1
0.711498 0 0.997452
0.896071 0 0.959594
1 0 0.93402
1 0 0.921538
0 0.0170443 1
0.00541695 0.0166476 1
0.133288 0.00863661 1
0.301442 0 1
0.50071 0 1
0.706127 0 0.978286
0.888167 0 0.946944
1 0 0.92784
1 0 0.921843
0 0.125841 1
0 0.132586 1
0.1178 0.131395 1
0.287358 0.122362 1
0.486625 0.107301 0.97557
0.690822 0.0935988 0.945083
0.870527 0.0885481 0.922225
1 0.0951247 0.910948
1 0.113924 0.911955
0 0.267308 0.960983
0 0.280446 0.961975
0.094789 0.286275 0.955032
0.263249 0.284062 0.939666
0.460487 0.276265 0.91809
0.662165 0.268711 0.896117
0.838529 0.269154 0.881529
0.976318 0.280354 0.877684
1 0.302495 0.884947
0 0.432746 0.871138
0 0.45069 0.879469
0.0796826 0.461997 0.880873
0.243885 0.465187 0.874052
0.43415 0.46244 0.861082
0.63093 0.458259 0.846525
0.803601 0.460502 0.83827
0.936645 0.472694 0.840269
1 0.494285 0.852094
0 0.605417 0.806256
0 0.625513 0.821225
0.0931258 0.639124 0.829679
0.249897 0.644648 0.830091
0.427695 0.644434 0.82475
0.610849 0.641962 0.816892
0.780255 0.641627 0.810269
0.908202 0.651377 0.814557
0.998932 0.669413 0.828214
0 0.767163 0.783597
0.0203098 0.786557 0.802548
0.143511 0.799237 0.814786
0.290517 0.804074 0.819211
0.454734 0.803082 0.817792
0.620035 0.8 0.814328
0.767544 0.79942 0.813321
0.900603 0.801709 0.809018
0.98262 0.815167 0.822416
0.0137484 0.905653 0.801694
0.109407 0.922225 0.821103
0.22266 0.932036 0.833616
0.357153 0.934356 0.838483
0.506691 0.930617 0.83711
0.657298 0.924376 0.832959
0.79292 0.920043 0.829847
0.905318 0.920424 0.828168
0.982788 0.927871 0.835569
0.127306 1 0.845838
0.212619 1 0.862913
0.313481 1 0.873014
0.43389 1 0.8757
0.568307 1 0.872129
0.704143 1 0.865431
0.826169 1 0.859709
0.924193 1 0.856977
0.993957 1 0.859678
0 0 1
0.00373846 0 1
0.12874 0 1
0.295476 0 1
0.495048 0 1
0.702541 0 1
0.887724 0 1
1 0 1
1 0 1
0 0.0102693 1
0 0.0108339 1
0.127169 0.00350958 1
0.295033 0 1
0.493904 0 1
0.699184 0 1
0.881621 0 1
1 0 1
1 0 1
0 0.121492 1
0 0.129122 1
0.115404 0.128908 1
0.28426 0.120775 1
0.482536 0.107179 1
0.685878 0.0944991 1
0.865614 0.090074 1
1 0.0975662 1
1 0.117067 1
0 0.265492 1
0 0.2795 1
0.0964981 0.286076 1
0.264408 0.284794 1
0.459831 0.278187 1
0.659586 0.271824 1
0.835279 0.272618 1
0.973617 0.28455 1
1 0.30695 1
0 0.433051 1
0 0.451637 1
0.085069 0.463401 1
0.249058 0.467201 1
0.437781 0.465309 0.999603
0.631022 0.462333 0.983871
0.80148 0.464851 0.973877
0.935042 0.477317 0.973526
1 0.498772 0.982238
0 0.606897 0.945724
0 0.627405 0.957519
0.100404 0.641001 0.962478
0.257221 0.647166 0.959991
0.434302 0.64715 0.951583
0.615366 0.64506 0.941527
0.778408 0.646113 0.935332
0.906447 0.655528 0.937682
0.998199 0.672938 0.948196
0 0.768917 0.912856
0.0294957 0.788525 0.928496
0.151385 0.801129 0.93727
0.297459 0.806271 0.938674
0.460395 0.805341 0.934112
0.624826 0.802182 0.927489
0.773297 0.801053 0.923079
0.89601 0.805112 0.924025
0.981689 0.816999 0.933196
0.0234226 0.907027 0.920378
0.117861 0.923552 0.936553
0.229618 0.933242 0.945891
0.362707 0.935653 0.947967
0.510552 0.931991 0.943999
0.658946 0.925673 0.937392
0.791653 0.921706 0.933165
0.898939 0.922454 0.933623
0.982483 0.927687 0.936568
0.135058 1 0.954192
0.219028 1 0.968307
0.318715 1 0.97583
0.437675 1 0.97612
0.570413 1 0.970367
0.704234 1 0.961791
0.824247 1 0.955016
0.921324 1 0.952117
0.992554 1 0.952819
0 0 1
0 0 1
0.124514 0 1
0.291142 0 1
0.490486 0 1
0.697932 0 1
0.883375 0 1
1 0 1
1 0 1
0 0.00773632 1
0 0.00909438 1
0.125521 0.00251774 1
0.293065 0 1
0.491646 0 1
0.696666 0 1
0.879088 0 1
1 0 1
1 0 1
0 0.121263 1
0 0.12961 1
0.11696 0.130266 1
0.285512 0.123186 1
0.483009 0.110826 1
0.685527 0.0991684 1
0.86482 0.0954452 1
1 0.103716 1
1 0.123857 1
0 0.267445 1
0 0.282185 1
0.10164 0.289464 1
0.269245 0.289265 1
0.463355 0.28365 1
0.66154 0.278218 1
0.836301 0.279637 1
0.974395 0.292042 1
1 0.314733 1
0 0.43682 1
0 0.456016 1
0.0933547 0.467994 1
0.257115 0.472633 1
0.444389 0.471427 1
0.635233 0.469093 1
0.803998 0.472267 1
0.936919 0.484764 1
1 0.506065 1
0 0.611612 1
0 0.63241 1
0.111101 0.64622 1
0.26714 0.652644 1
0.443061 0.652873 1
0.621729 0.650782 1
0.781918 0.652552 1
0.908537 0.661891 1
1 0.678935 1
0 0.773541 1
0.0414282 0.79321 1
0.162463 0.805875 1
0.307347 0.811032 1
0.468864 0.809995 1
0.631724 0.806394 1
0.778683 0.805508 1
0.897551 0.810025 1
0.982986 0.821073 1
0.0355688 0.910918 1
0.128557 0.927092 1
0.239475 0.936889 1
0.370993 0.939101 1
0.517266 0.935271 1
0.664302 0.928832 1
0.796048 0.924636 1
0.90309 0.924849 1
0.982467 0.930007 1
0.145357 1 1
0.227756 1 1
0.326329 1 1
0.443854 1 1
0.575158 1 1
0.707591 1 1
0.8262 1 1
0.921798 1 1
0.992615 1 1
