public/textures/grade/Sony/Guardians-SLog3.cube
TITLE "Generated by Resolve"
LUT_3D_SIZE 33
0.00730907 0.0145724 0.0120546
0.0299535 0.0109407 0.00709545
0.0462806 0.00900282 0.00526436
0.0635538 0.00672923 0.00318914
0.0804608 0.00434882 0.00105287
0.0962081 0.00218204 0
0.114488 0 0
0.138247 0 0
0.166476 0 0
0.19971 0 0
0.238407 0 0
0.282704 0 0
0.332265 0 0
0.387045 0 0
0.446418 0 0
0.509194 0 0
0.574594 0 0
0.641047 0 0
0.707027 0 0
0.771252 0 0
0.832364 0 0
0.889265 0 0
0.941238 0 0
0.988159 0 0
1 0 0
1 0 0
1 0 0
1 0 0
1 0 0
1 0 0
1 0 0
1 0 0
1 0 0
0.00454719 0.0247196 0.00856031
0.0217594 0.022446 0.00642405
0.041062 0.0196994 0.00390631
0.0598154 0.0172732 0.00172427
0.077348 0.0149538 0
0.0935073 0.0129397 0
0.112139 0.0103761 0
0.136217 0.00706493 0
0.164767 0.00285344 0
0.198215 0 0
0.237079 0 0
0.281392 0 0
0.330938 0 0
0.385595 0 0
0.444999 0 0
0.507851 0 0
0.573098 0 0
0.639384 0 0
0.705348 0 0
0.769497 0 0
0.830396 0 0
0.887144 0 0
0.939086 0 0
0.985901 0 0
1 0 0
1 0 0
1 0 0
1 0 0
1 0 0
1 0 0
1 0 0
1 0 0
1 0 0
0 0.0358892 0.00485237
0.0160067 0.034165 0.00355535
0.0338445 0.0321508 0.00216678
0.0538338 0.0295262 0.000213626
0.0725414 0.0270237 0
0.0893263 0.0249027 0
0.108415 0.0223392 0
0.132982 0.0191806 0
0.162036 0.0152132 0
0.195941 0.0104677 0
0.235142 0.00471504 0
0.279774 0 0
0.329381 0 0
0.383963 0 0
0.443259 0 0
0.505928 0 0
0.57116 0 0
0.637415 0 0
0.703166 0 0
0.767132 0 0
0.827985 0 0
0.884627 0 0
0.93637 0 0
0.983047 0 0
1 0 0
1 0 0
1 0 0
1 0 0
1 0 0
1 0 0
1 0 0
1 0 0
1 0 0
0 0.0481727 0.00102235
0.0107118 0.0466316 7.62951e-05
0.0272679 0.0449989 0
0.0466773 0.042771 0
0.0660868 0.0403143 0
0.0837873 0.0382391 0
0.103731 0.0357061 0
0.129 0.0326238 0
0.158495 0.0287022 0
0.192752 0.0240635 0
0.232395 0.018616 0
0.277485 0.0122683 0
0.327474 0.00497444 0
0.3823 0 0
0.441428 0 0
0.50399 0 0
0.569009 0 0
0.63505 0 0
0.70074 0 0
0.764599 0 0
0.825208 0 0
0.881682 0 0
0.933364 0 0
0.979934 0 0
1 0 0
1 0 0
1 0 0
1 0 0
1 0 0
1 0 0
1 0 0
1 0 0
1 0 0
0 0.0603647 0
0.00529488 0.059144 0
0.0217594 0.0579995 0
0.0403754 0.0561074 0
0.0595407 0.0539101 0
0.0774548 0.0517739 0
0.0979629 0.0491951 0
0.12401 0.0461128 0
0.154269 0.042359 0
0.189166 0.0379644 0
0.229175 0.0326848 0
0.274479 0.0264439 0
0.324834 0.0195315 0
0.380026 0.0117494 0
0.439567 0.00318914 0
0.502129 0 0
0.566796 0 0
0.632715 0 0
0.698131 0 0
0.761761 0 0
0.822293 0 0
0.87866 0 0
0.930114 0 0
0.976547 0 0
1 0 0
1 0 0
1 0 0
1 0 0
1 0 0
1 0 0
1 0 0
1 0 0
1 0 0
0 0.0721599 0
0 0.0713817 0
0.0161746 0.0701152 0
0.0343328 0.0684672 0
0.0532387 0.0666514 0
0.0710155 0.0646525 0
0.0920424 0.0623636 0
0.118563 0.0592203 0
0.149432 0.0554513 0
0.184939 0.0511788 0
0.225437 0.0460822 0
0.271244 0.0402075 0
0.321843 0.0335088 0
0.377172 0.0259098 0
0.436927 0.0176547 0
0.49984 0.00906386 0
0.564843 0.000137331 0
0.630289 0 0
0.695399 0 0
0.758923 0 0
0.819211 0 0
0.875364 0 0
0.926757 0 0
0.973129 0 0
1 0 0
1 0 0
1 0 0
1 0 0
1 0 0
1 0 0
1 0 0
1 0 0
1 0 0
0 0.085771 0
0 0.0852979 0
0.00999466 0.0842908 0
0.0282902 0.0831159 0
0.0467079 0.0814832 0
0.064271 0.0797742 0
0.0850843 0.0775311 0
0.111879 0.0744335 0
0.143618 0.0709239 0
0.179797 0.0667277 0
0.22092 0.0618143 0
0.267048 0.0560311 0
0.317922 0.0495308 0
0.373648 0.0423743 0
0.433646 0.0345159 0
0.49662 0.0261387 0
0.561791 0.0175937 0
0.627802 0.00927749 0
0.693004 0.00123598 0
0.756039 0 0
0.81593 0 0
0.871931 0 0
0.92311 0 0
0.969268 0 0
1 0 0
1 0 0
1 0 0
1 0 0
1 0 0
1 0 0
1 0 0
1 0 0
1 0 0
0 0.103822 0
0 0.103593 0
0.00141909 0.102998 0
0.0199435 0.101732 0
0.0383154 0.100542 0
0.0555428 0.0990768 0
0.0763256 0.0973068 0
0.103212 0.0945449 0
0.13521 0.0910201 0
0.172137 0.0869306 0
0.214115 0.0822309 0
0.261051 0.0767987 0
0.31252 0.0706951 0
0.368475 0.0637827 0
0.428687 0.0562753 0
0.491951 0.0484932 0
0.557153 0.0402838 0
0.623087 0.0321965 0
0.688472 0.0247349 0
0.751934 0.0180667 0
0.811994 0.0122683 0
0.867842 0.00761425 0
0.918898 0.00430304 0
0.964935 0.00215152 0
1 0.00109865 0
1 0.000915541 0
1 0.00175479 0
1 0.00309758 0
1 0.00463874 0
1 0.00643931 0
1 0.0081178 0
1 0.00985733 0
1 0.0111696 0
0 0.125612 0
0 0.125628 0
0 0.125566 0
0.010071 0.124681 0
0.0283207 0.123568 0
0.0455329 0.122499 0
0.0657664 0.120851 0
0.092607 0.118639 0
0.124788 0.115526 0
0.162295 0.111696 0
0.204974 0.107057 0
0.252628 0.101747 0
0.304768 0.0959335 0
0.361395 0.0895552 0
0.421942 0.082475 0
0.485313 0.0750439 0
0.550805 0.0675669 0
0.616953 0.0602579 0
0.682277 0.053254 0
0.745647 0.0470436 0
0.805768 0.0419165 0
0.861631 0.0378729 0
0.912566 0.0348821 0
0.958587 0.0332036 0
0.998856 0.0327153 0
1 0.0330663 0
1 0.0340124 0
1 0.0355535 0
1 0.0377203 0
1 0.0396277 0
1 0.041886 0
1 0.0435492 0
1 0.0453803 0
0 0.151492 0
0 0.15172 0
0 0.152132 0
0 0.151797 0
0.0169528 0.150958 0
0.0341039 0.150042 0
0.0543679 0.148852 0
0.0807813 0.146929 0
0.112673 0.144198 0
0.150317 0.140749 0
0.193729 0.136538 0
0.242344 0.131609 0
0.295186 0.126009 0
0.352529 0.120058 0
0.413489 0.113405 0
0.477195 0.106554 0
0.542748 0.0995193 0
0.608927 0.0927749 0
0.674342 0.0865492 0
0.737621 0.0809186 0
0.797559 0.0762951 0
0.85333 0.0729076 0
0.90425 0.0706645 0
0.950088 0.0694285 0
0.990188 0.069337 0
1 0.0701915 0
1 0.0716869 0
1 0.0738537 0
1 0.076112 0
1 0.078233 0
1 0.0806897 0
1 0.0826581 0
1 0.0845655 0
0 0.181857 0
0 0.182406 0
0 0.183139 0
0 0.18323 0
0.00296025 0.182834 0
0.0208438 0.182025 0
0.041413 0.181292 0
0.0677043 0.179797 0
0.0993668 0.177584 0
0.136797 0.174594 0
0.180499 0.170932 0
0.229801 0.166461 0
0.283528 0.161303 0
0.341329 0.155444 0
0.403052 0.149416 0
0.467109 0.143053 0
0.532921 0.13669 0
0.5991 0.130465 0
0.664469 0.124865 0
0.727718 0.120012 0
0.787518 0.11603 0
0.843061 0.113176 0
0.893828 0.111574 0
0.939544 0.111009 0
0.979507 0.111467 0
1 0.112703 0
1 0.114611 0
1 0.117372 0
1 0.119905 0
1 0.122316 0
1 0.125002 0
1 0.127016 0
1 0.129183 0
0 0.216602 0
0 0.217548 0
0 0.218677 0
0 0.21915 0
0 0.219181 0
0.00595102 0.218738 0
0.0268711 0.217975 0
0.0536049 0.217121 0
0.0852674 0.215503 0
0.122499 0.213123 0
0.165896 0.209857 0
0.215305 0.205814 0
0.269718 0.201205 0
0.328405 0.195956 0
0.390646 0.190265 0
0.455268 0.184512 0
0.521447 0.17882 0
0.587747 0.173281 0
0.653025 0.168246 0
0.716167 0.164065 0
0.77586 0.160845 0
0.831189 0.158618 0
0.881697 0.157549 0
0.92723 0.15758 0
0.967041 0.158648 0
1 0.160388 0
1 0.162661 0
1 0.165423 0
1 0.168643 0
1 0.171389 0
1 0.17435 0
1 0.176547 0
1 0.178851 0
0 0.255924 0
0 0.257313 0
0 0.258625 0
0 0.259739 0
0 0.260197 0
0 0.260441 0
0.0109407 0.259724 0
0.0379797 0.258991 0
0.0700084 0.258045 0
0.10721 0.256321 0
0.150408 0.253727 0
0.19968 0.250263 0
0.254276 0.246204 0
0.313527 0.24155 0
0.376364 0.236378 0
0.441444 0.231083 0
0.507942 0.225956 0
0.574487 0.221103 0
0.63975 0.216693 0
0.702739 0.213092 0
0.762112 0.210315 0
0.817197 0.208667 0
0.86746 0.208148 0
0.912779 0.208743 0
0.952468 0.210452 0
0.987076 0.212879 0
1 0.215564 0
1 0.218616 0
1 0.221866 0
1 0.225101 0
1 0.227909 0
1 0.230686 0
1 0.233143 0
0 0.299474 0
0 0.301091 0
0 0.302953 0
0 0.30425 0
0 0.305348 0
0 0.305776 0
0 0.306035 0
0.0223239 0.305241 0
0.0544442 0.304509 0
0.091722 0.303365 0
0.135027 0.30164 0
0.184146 0.298939 0
0.23859 0.295521 0
0.297978 0.291478 0
0.361105 0.286809 0
0.426383 0.281834 0
0.493156 0.27718 0
0.559884 0.272923 0
0.625208 0.269154 0
0.68806 0.266117 0
0.747372 0.264134 0
0.802335 0.263203 0
0.852354 0.263264 0
0.897353 0.264271 0
0.936736 0.266285 0
0.971069 0.268956 0
1 0.272007 0
1 0.275731 0
1 0.279072 0
1 0.282322 0
1 0.285573 0
1 0.288457 0
1 0.290654 0
0 0.346777 0
0 0.348913 0
0 0.350881 0
0 0.352773 0
0 0.354009 0
0 0.355047 0
0 0.35555 0
0.00646983 0.355261 0
0.0397803 0.355032 0
0.0772259 0.35436 0
0.120287 0.353109 0
0.169085 0.351034 0
0.223194 0.348257 0
0.282383 0.344854 0
0.345647 0.340932 0
0.411261 0.336721 0
0.478172 0.33257 0
0.544991 0.328817 0
0.61033 0.325628 0
0.672908 0.322957 0
0.732006 0.321508 0
0.786557 0.320867 0
0.836316 0.321431 0
0.881056 0.322835 0
0.920333 0.325475 0
0.954467 0.328542 0
0.983703 0.331884 0
1 0.33547 0
1 0.338994 0
1 0.342687 0
1 0.345724 0
1 0.348714 0
1 0.351339 0
0 0.397543 0
0 0.399725 0
0 0.402228 0
0 0.404196 0
0 0.405905 0
0 0.407095 0
0 0.408026 0
0 0.408789 0
0.0263371 0.408331 0
0.0640574 0.408072 0
0.107118 0.40737 0
0.155718 0.405936 0
0.209445 0.403815 0
0.268284 0.401129 0
0.331182 0.397772 0
0.396674 0.394186 0
0.463493 0.390539 0
0.530221 0.387243 0
0.595453 0.384527 0
0.657969 0.382513 0
0.716777 0.38143 0
0.77113 0.381384 0
0.820554 0.382315 0
0.864958 0.384085 0
0.903761 0.386694 0
0.937575 0.389883 0
0.966598 0.393408 0
0.990784 0.397177 0
1 0.401175 0
1 0.404547 0
1 0.408026 0
1 0.410666 0
1 0.413306 0
0 0.450477 0
0 0.453147 0
0 0.455695 0
0 0.457923 0
0 0.460014 0
0 0.461372 0
0 0.462867 0
0 0.463859 0
0.0155184 0.463813 0
0.0540169 0.464164 0
0.0970321 0.46392 0
0.145418 0.463096 0
0.198734 0.461601 0
0.256931 0.459449 0
0.319341 0.456764 0
0.38436 0.453758 0
0.450599 0.450431 0
0.516976 0.447547 0
0.581765 0.44509 0
0.643977 0.443458 0
0.702388 0.442695 0
0.756344 0.442924 0
0.805386 0.444114 0
0.849424 0.446113 0
0.887892 0.44889 0
0.921401 0.452186 0
0.950347 0.456107 0
0.974334 0.459968 0
0.994324 0.463645 0
1 0.467369 0
1 0.470527 0
1 0.473548 0
1 0.475776 0
0 0.504906 0
0 0.507774 0
0 0.510506 0
0 0.513237 0
0 0.515282 0
0 0.517143 0
0 0.518608 0
0 0.519966 0
0.00915541 0.520638 0
0.0475166 0.520989 0
0.090425 0.521141 0
0.138506 0.52079 0
0.191363 0.519844 0
0.248875 0.518242 0
0.310536 0.516075 0
0.374838 0.513588 0
0.44062 0.510918 0
0.506386 0.508431 0
0.570718 0.506416 0
0.632395 0.505074 0
0.690028 0.504265 0
0.743572 0.504799 0
0.791989 0.505959 0
0.835569 0.508049 0
0.873716 0.511009 0
0.907042 0.514611 0
0.93547 0.518196 0
0.959152 0.52195 0
0.978973 0.525643 0
0.99556 0.529335 0
1 0.532403 0.00187686
1 0.535378 0.00555428
1 0.537987 0.00840772
0 0.559792 0
0 0.562692 0
0 0.565927 0
0 0.568551 0
0 0.570932 0
0 0.572778 0
0 0.574456 0
0 0.576333 0
0.00761425 0.57705 0
0.0458991 0.577691 0
0.0885328 0.578195 0
0.136187 0.578225 0
0.188464 0.577737 0
0.245243 0.576577 0
0.305974 0.574853 0
0.369314 0.572778 0
0.434195 0.570535 0
0.499092 0.568368 0
0.562615 0.566598 0
0.623545 0.565454 0
0.680766 0.565118 0
0.733562 0.565637 0
0.78146 0.566979 0
0.824475 0.569085 0
0.862074 0.571923 0
0.894804 0.575204 0
0.922866 0.578698 0
0.946288 0.582376 0
0.966079 0.586282 0.0047303
0.982284 0.589563 0.0091249
0.995392 0.592905 0.0137026
1 0.595392 0.0172732
1 0.597879 0.0206912
0 0.614008 0
0 0.617319 0
0 0.620447 0
0 0.62324 0
0 0.625864 0
0 0.62768 0
0 0.629755 0
0 0.63151 0
0.0115358 0.632395 0
0.0496376 0.633555 0
0.0919814 0.634455 0
0.13901 0.634806 0
0.190539 0.634653 0
0.246433 0.633875 0
0.306111 0.632517 0
0.368322 0.630777 0
0.431846 0.628626 0
0.495506 0.626581 0
0.557992 0.62501 0
0.61796 0.623957 0
0.674311 0.623682 0
0.726329 0.624231 0
0.77351 0.625528 0
0.815854 0.627527 0
0.852888 0.630274 0
0.885161 0.633448 0.000503548
0.913069 0.637156 0.00654612
0.936126 0.640665 0.0124666
0.955337 0.643992 0.0180056
0.97145 0.647364 0.0234226
0.984115 0.650202 0.0279393
0.994568 0.652903 0.0321355
1 0.654887 0.0352636
0 0.666941 0
0 0.670115 0
0 0.673289 0
0 0.676448 0
0 0.678859 0
0 0.681025 0
0 0.682857 0
0 0.684825 0
0.0216373 0.685924 0
0.0586404 0.687221 0
0.100145 0.688258 0
0.146426 0.688838 0
0.19707 0.688914 0
0.251972 0.688426 0
0.310491 0.687312 0
0.37145 0.685802 0
0.43389 0.684047 0
0.496437 0.682353 0
0.557702 0.680888 0
0.61651 0.679881 0
0.671733 0.679515 0
0.722606 0.679774 0
0.769146 0.681208 0
0.810727 0.683055 0.00260929
0.847166 0.685695 0.00917067
0.878843 0.68867 0.0158541
0.905959 0.691798 0.022385
0.928542 0.695003 0.0286259
0.947555 0.698329 0.0346838
0.963195 0.701244 0.0399329
0.975616 0.703883 0.0445411
0.985855 0.706371 0.0487373
0.993805 0.708568 0.0523537
0 0.717189 0
0 0.720394 0
0 0.723903 0
0 0.726802 0
0 0.729534 0
0 0.731411 0
0 0.733501 0
0.00358587 0.734951 0
0.0361181 0.73637 0
0.072282 0.737881 0
0.113222 0.739223 0
0.158907 0.740154 0
0.208545 0.740398 0
0.262272 0.740063 0
0.319249 0.738964 0
0.378897 0.737652 0
0.439689 0.735851 0
0.500847 0.734234 0
0.560815 0.732845 0
0.618372 0.731838 0
0.672496 0.731472 0.00172427
0.722515 0.731838 0.00758373
0.767926 0.732906 0.0138857
0.808606 0.734508 0.0204013
0.844144 0.736736 0.0271763
0.87512 0.739391 0.0340276
0.901686 0.74226 0.0407111
0.924056 0.745541 0.0474708
0.942473 0.748348 0.0532235
0.957687 0.750927 0.05832
0.970047 0.753613 0.0632486
0.980011 0.75584 0.0673075
0.98764 0.757671 0.0706035
0 0.764645 0
0 0.767849 0
0 0.771038 0
0 0.774212 0
0 0.776593 0
0 0.778698 0
0 0.780316 0
0.0240787 0.781994 0
0.0551461 0.783719 0
0.0903944 0.785367 0
0.130266 0.786694 0
0.17467 0.787579 0
0.223194 0.787915 0
0.275669 0.787655 0
0.331609 0.786831 0
0.389822 0.785611 0
0.449348 0.784039 0.00077821
0.508949 0.782406 0.00573739
0.567468 0.780987 0.0109102
0.623652 0.779919 0.0162356
0.676448 0.779355 0.0218357
0.725124 0.77937 0.0277104
0.769375 0.780087 0.0339818
0.809369 0.781704 0.0409247
0.844053 0.783612 0.0476692
0.874266 0.785916 0.0544137
0.900236 0.788495 0.0610361
0.921859 0.791196 0.0673228
0.940108 0.794064 0.0734417
0.954986 0.796399 0.0784314
0.966949 0.798733 0.0830854
0.976577 0.800641 0.0868696
0.984176 0.802487 0.0903334
0 0.808255 0
0 0.811673 0
0 0.814786 0
0 0.817716 0
0 0.820096 0
0 0.821683 0
0.0201572 0.823316 0
0.0462348 0.825177 0
0.0768139 0.827283 0
0.111177 0.829007 0
0.150072 0.830381 0
0.1935 0.831296 0
0.24094 0.831724 0
0.292103 0.831479 0.00576791
0.346563 0.83064 0.0116426
0.403296 0.829404 0.0173037
0.461295 0.827817 0.0225986
0.51931 0.826078 0.0276493
0.575936 0.824231 0.0323796
0.630762 0.823072 0.0377813
0.682277 0.822339 0.0433661
0.729824 0.822202 0.0492409
0.773083 0.822751 0.0555428
0.811933 0.823896 0.062089
0.845823 0.825528 0.0687114
0.875288 0.827512 0.0752575
0.900816 0.829999 0.082002
0.92192 0.832425 0.0881208
0.939529 0.83476 0.0936904
0.954284 0.837171 0.09897
0.96582 0.839094 0.103197
0.975341 0.840986 0.107103
0.982605 0.842496 0.11017
0 0.847959 0
0 0.851179 0
0 0.854292 0
0 0.856855 0
0.00708019 0.8589 0
0.0249638 0.860471 0
0.0455787 0.86247 0
0.0707561 0.864424 0
0.100069 0.866331 0
0.134066 0.86836 0.00161746
0.171939 0.869703 0.00866712
0.214206 0.870558 0.0157168
0.260456 0.870939 0.0226444
0.310353 0.87068 0.0291142
0.363363 0.869749 0.03505
0.418524 0.868406 0.04065
0.474754 0.86656 0.0456092
0.531304 0.864744 0.0506447
0.586664 0.862959 0.0555276
0.640055 0.861601 0.0607309
0.690318 0.860731 0.0662242
0.736675 0.860365 0.0719005
0.778775 0.860578 0.0778515
0.816648 0.861418 0.084123
0.84976 0.862821 0.0905776
0.878508 0.8645 0.0968643
0.903258 0.866545 0.103151
0.923888 0.868727 0.109087
0.94107 0.870817 0.114412
0.955398 0.872908 0.119402
0.966751 0.874769 0.123644
0.976059 0.876509 0.127413
0.983047 0.87776 0.13019
0 0.883391 0
0 0.886549 0
0 0.889281 0
0.014847 0.891432 0
0.0344244 0.893767 0
0.0513771 0.895491 0
0.0712139 0.897505 0.00430304
0.0955978 0.899428 0.0105745
0.124086 0.901305 0.0174258
0.157244 0.903273 0.0251164
0.194202 0.90457 0.0323796
0.235355 0.905333 0.0394446
0.280324 0.905577 0.0462806
0.329 0.905272 0.052781
0.380728 0.904311 0.058732
0.434394 0.902831 0.0641489
0.489372 0.901045 0.0692302
0.544182 0.898909 0.0737469
0.598245 0.897047 0.0785687
0.650172 0.895415 0.08336
0.699138 0.894316 0.0885481
0.744442 0.893797 0.0940719
0.785519 0.893767 0.0997482
0.82237 0.894209 0.105547
0.854643 0.895308 0.11165
0.88275 0.896773 0.117739
0.907027 0.898665 0.123934
0.927031 0.900435 0.129366
0.943725 0.902205 0.134325
0.957748 0.904128 0.139162
0.968734 0.90573 0.143069
0.977844 0.907317 0.146715
0.98468 0.908476 0.149401
0 0.914626 0
0.00381476 0.917006 0
0.0225986 0.919585 0.00392157
0.0422522 0.922316 0.0108186
0.0604868 0.924453 0.0167086
0.0774395 0.926436 0.0222171
0.0962234 0.928176 0.0276341
0.120287 0.930236 0.0343633
0.148104 0.932082 0.0413214
0.179843 0.933654 0.0484627
0.21593 0.93489 0.0557412
0.256168 0.935622 0.0628367
0.300008 0.93576 0.0695506
0.347326 0.935256 0.0757763
0.397787 0.934203 0.08159
0.450233 0.932692 0.0869612
0.503807 0.930739 0.0917678
0.557488 0.928649 0.0963455
0.610285 0.926696 0.100969
0.661006 0.924941 0.105608
0.708629 0.923491 0.110231
0.75259 0.922499 0.115053
0.792752 0.922271 0.120455
0.828946 0.922667 0.126253
0.860441 0.923476 0.131991
0.887831 0.92462 0.137652
0.91136 0.92604 0.143191
0.930953 0.927642 0.148455
0.947417 0.929397 0.15349
0.960906 0.930877 0.157687
0.971618 0.93228 0.161349
0.980423 0.933623 0.164675
0.987289 0.934874 0.167575
0.0122377 0.940871 0.0125582
0.0304723 0.943481 0.0192721
0.0487221 0.94641 0.0265507
0.0670939 0.948852 0.0330968
0.0852064 0.951171 0.0394446
0.101122 0.952834 0.0444495
0.119905 0.954772 0.0503243
0.143084 0.956619 0.0567483
0.170184 0.958358 0.0636149
