public/textures/grade/Sony/Guardians-SLog.cube
TITLE "Generated by Resolve"
LUT_3D_SIZE 5
0 0.00486763 0.00132753
0.222843 0 0
0.577035 0 0
0.952728 0 0
1 0 0
0 0.16643 0
0.165072 0.155352 0
0.5364 0.117464 0
0.906004 0.0895399 0
1 0.105638 0
0 0.447105 0
0.0739452 0.461921 0
0.448569 0.448356 0
0.811612 0.441825 0
1 0.47335 0
0 0.767895 0
0.110765 0.791882 0
0.448234 0.789837 0
0.774792 0.785931 0.0271916
0.982757 0.807599 0.0822309
0.0863508 1 0.0776684
0.290913 1 0.142168
0.56495 1 0.174365
0.832303 1 0.19469
1 1 0.228595
0 0 0.232456
0.203769 0 0.189242
0.568444 0 0.117922
0.945708 0 0.0593576
1 0 0.0446632
0 0.162554 0.164675
0.140368 0.162799 0.164889
0.538903 0.123201 0.115068
0.906493 0.0995956 0.0927443
1 0.119081 0.111528
0 0.451408 0.0604257
0.0847028 0.471305 0.0952773
0.460548 0.460792 0.0990768
0.821073 0.456992 0.110948
1 0.48957 0.158099
0 0.776181 0.0745251
0.131868 0.802243 0.135607
0.462959 0.801205 0.166674
0.785779 0.797314 0.191531
0.989609 0.818204 0.239673
0.108919 1 0.246799
0.307622 1 0.303227
0.575677 1 0.326131
0.838941 1 0.337026
1 1 0.362737
0 0 0.67837
0.167803 0 0.640665
0.53669 0 0.560189
0.922911 0 0.483726
1 0 0.456703
0 0.144945 0.591989
0.133227 0.146944 0.580621
0.511681 0.116762 0.529397
0.890761 0.0948806 0.48687
1 0.117571 0.492561
0 0.442039 0.455985
0.0779431 0.468254 0.481605
0.428031 0.467002 0.479713
0.818448 0.458793 0.456931
1 0.493095 0.490883
0 0.771893 0.421927
0.137392 0.80174 0.470039
0.459571 0.802838 0.486275
0.786068 0.797726 0.488853
0.987106 0.817929 0.521065
0.118807 1 0.541772
0.311192 1 0.583993
0.573571 1 0.594293
0.835218 1 0.590127
1 1 0.603296
0 0 1
0.137591 0 1
0.504234 0 1
0.896071 0 0.959594
1 0 0.921538
0 0.125841 1
0.1178 0.131395 1
0.486625 0.107301 0.97557
0.870527 0.0885481 0.922225
1 0.113924 0.911955
0 0.432746 0.871138
0.0796826 0.461997 0.880873
0.43415 0.46244 0.861082
0.803601 0.460502 0.83827
1 0.494285 0.852094
0 0.767163 0.783597
0.143511 0.799237 0.814786
0.454734 0.803082 0.817792
0.767544 0.79942 0.813321
0.98262 0.815167 0.822416
0.127306 1 0.845838
0.313481 1 0.873014
0.568307 1 0.872129
0.826169 1 0.859709
0.993957 1 0.859678
0 0 1
0.124514 0 1
0.490486 0 1
0.883375 0 1
1 0 1
0 0.121263 1
0.11696 0.130266 1
0.483009 0.110826 1
0.86482 0.0954452 1
1 0.123857 1
0 0.43682 1
0.0933547 0.467994 1
0.444389 0.471427 1
0.803998 0.472267 1
1 0.506065 1
0 0.773541 1
0.162463 0.805875 1
0.468864 0.809995 1
0.778683 0.805508 1
0.982986 0.821073 1
0.145357 1 1
0.326329 1 1
0.575158 1 1
0.8262 1 1
0.992615 1 1
