public/textures/grade/Sony/Guardians-SLog3.cube
TITLE "Generated by Resolve"
LUT_3D_SIZE 9
0.00730907 0.0145724 0.0120546
0.0804608 0.00434882 0.00105287
0.166476 0 0
0.332265 0 0
0.574594 0 0
0.832364 0 0
1 0 0
1 0 0
1 0 0
0 0.0603647 0
0.0595407 0.0539101 0
0.154269 0.042359 0
0.324834 0.0195315 0
0.566796 0 0
0.822293 0 0
1 0 0
1 0 0
1 0 0
0 0.125612 0
0.0283207 0.123568 0
0.124788 0.115526 0
0.304768 0.0959335 0
0.550805 0.0675669 0
0.805768 0.0419165 0
0.998856 0.0327153 0
1 0.0377203 0
1 0.0453803 0
0 0.255924 0
0 0.260197 0
0.0700084 0.258045 0
0.254276 0.246204 0
0.507942 0.225956 0
0.762112 0.210315 0
0.952468 0.210452 0
1 0.221866 0
1 0.233143 0
0 0.450477 0
0 0.460014 0
0.0155184 0.463813 0
0.198734 0.461601 0
0.450599 0.450431 0
0.702388 0.442695 0
0.887892 0.44889 0
0.994324 0.463645 0
1 0.475776 0
0 0.666941 0
0 0.678859 0
0.0216373 0.685924 0
0.19707 0.688914 0
0.43389 0.684047 0
0.671733 0.679515 0
0.847166 0.685695 0.00917067
0.947555 0.698329 0.0346838
0.993805 0.708568 0.0523537
0 0.847959 0
0.00708019 0.8589 0
0.100069 0.866331 0
0.260456 0.870939 0.0226444
0.474754 0.86656 0.0456092
0.690318 0.860731 0.0662242
0.84976 0.862821 0.0905776
0.94107 0.870817 0.114412
0.983047 0.87776 0.13019
0.0370031 0.963623 0.0335546
0.107515 0.973754 0.0604257
0.190539 0.980667 0.0843214
0.335775 0.983612 0.11162
0.530297 0.977462 0.131701
0.726375 0.968917 0.147799
0.871794 0.967056 0.166705
0.955123 0.971252 0.185794
0.993301 0.975647 0.198444
0.105241 1 0.0953231
0.170626 1 0.121172
0.248157 1 0.143572
0.384054 1 0.168032
0.567056 1 0.18497
0.751842 1 0.197101
0.889113 1 0.211841
0.967666 1 0.227314
1 1 0.237812
0.00584421 0.0124361 0.0724651
0.0717632 0.00477607 0.0594949
0.16289 0 0.0428931
0.330922 0 0.0161135
0.573465 0 0
0.831113 0 0
1 0 0
1 0 0
1 0 0
0 0.0590829 0.0574655
0.0458686 0.0568246 0.0551461
0.155306 0.0424506 0.0357519
0.3252 0.0206912 0.0157015
0.566827 0 0
0.821973 0 0
1 0 0
1 0 0
1 0 0
0 0.125353 0.0307774
0.0262303 0.124788 0.03093
0.125032 0.117021 0.0243534
0.307439 0.0977646 0.00839246
0.552193 0.0701915 0
0.806531 0.045304 0
0.999298 0.0368811 0
1 0.0425116 0
1 0.0504311 0
0 0.257328 0
0 0.261997 0
0.0717327 0.260945 0
0.25745 0.249577 0
0.511604 0.229984 0
0.764843 0.215518 0
0.954513 0.216419 0
1 0.228504 0
1 0.239826 0.00914015
0 0.4533 0
0 0.463294 0
0.0222782 0.467887 0
0.203769 0.466331 0
0.456062 0.45594 0
0.707042 0.448692 0
0.891783 0.455619 0.00497444
0.997757 0.47071 0.0263371
1 0.483268 0.0427863
0 0.670802 0
0 0.682948 0
0.0307469 0.690303 0
0.204578 0.694011 0
0.440528 0.689693 0.0115969
0.677607 0.685542 0.0299077
0.851789 0.691615 0.0547036
0.951385 0.704112 0.0804608
0.997192 0.714183 0.0979782
0 0.851926 0
0.0179294 0.862867 0.0206302
0.10985 0.870909 0.0445258
0.268284 0.875349 0.0719768
0.481437 0.871275 0.0935836
0.695415 0.865141 0.111772
0.853788 0.867063 0.134585
0.944442 0.874922 0.157504
0.986191 0.881895 0.172946
0.0471046 0.967102 0.0827802
0.116915 0.977417 0.109346
0.19884 0.984222 0.13228
0.342916 0.987228 0.158343
0.535851 0.980896 0.17644
0.730694 0.972229 0.190585
0.87512 0.970153 0.207828
0.957732 0.974044 0.22565
0.995651 0.978378 0.237812
0.114336 1 0.142931
0.178897 1 0.167926
0.255589 1 0.189395
0.390631 1 0.212833
0.572076 1 0.227817
0.755474 1 0.237797
0.891844 1 0.250919
0.969863 1 0.2654
1 1 0.275166
0.000991836 0.00825513 0.164767
0.0619974 0.00207523 0.154711
0.151522 0 0.135805
0.325063 0 0.102342
0.570138 0 0.0602121
0.828519 0 0.0219577
1 0 0.00189212
1 0 0
1 0 0
0 0.0557412 0.150164
0.0458228 0.0530404 0.145281
0.141253 0.0430304 0.128374
0.320851 0.0199283 0.100008
0.564752 0 0.0645457
0.820294 0 0.0325628
1 0 0.0181888
1 0 0.0184482
1 0 0.0226596
0 0.122774 0.123156
0.020798 0.124025 0.124392
0.102815 0.12108 0.121462
0.30753 0.0978256 0.0893111
0.551751 0.0714427 0.0643931
0.806027 0.0476081 0.0424048
0.998657 0.0400397 0.0357977
1 0.0464027 0.0418708
1 0.054551 0.0495003
0 0.256611 0.0683299
0 0.262226 0.0757
0.0694285 0.262608 0.0778515
0.258412 0.251652 0.0690013
0.514519 0.232746 0.0546578
0.766522 0.219516 0.0472114
0.95552 0.221271 0.0531319
1 0.233875 0.0678416
1 0.245258 0.0801404
0 0.454795 0.00944533
0 0.464988 0.025452
0.0265354 0.470527 0.0374762
0.206485 0.47013 0.0471809
0.460212 0.460273 0.0496529
0.711269 0.454047 0.0561532
0.894743 0.461357 0.0740215
0.999893 0.47657 0.0965744
1 0.488762 0.11284
0 0.673213 0.00321965
0 0.685954 0.0267338
0.0381628 0.693538 0.0458534
0.210376 0.698054 0.0677501
0.445289 0.693996 0.0834211
0.681895 0.689937 0.0987564
0.855116 0.696056 0.121813
0.953979 0.708522 0.146609
0.999359 0.718441 0.16347
0 0.85478 0.0686351
0.0269932 0.865568 0.0936904
0.117388 0.873838 0.116777
0.274327 0.878492 0.142473
0.486137 0.874479 0.161379
0.699443 0.868513 0.176944
0.856886 0.870283 0.197391
0.946853 0.877989 0.218814
0.988052 0.884565 0.233082
0.0557717 0.969345 0.152712
0.124514 0.979675 0.178149
0.205707 0.986603 0.200061
0.348394 0.989593 0.22414
0.540322 0.983444 0.240146
0.733776 0.974334 0.251118
0.877333 0.97203 0.266072
0.959335 0.975692 0.282353
0.996994 0.979965 0.293812
0.121889 1 0.209934
0.185779 1 0.23386
0.261769 1 0.254185
0.395315 1 0.275471
0.575616 1 0.288228
0.757885 1 0.295506
0.893446 1 0.306477
0.970947 1 0.319539
1 1 0.328679
0 0 0.362402
0.0488441 0 0.353567
0.133318 0 0.337774
0.306783 0 0.300664
0.55819 0 0.249516
0.819455 0 0.203861
1 0 0.177829
1 0 0.170474
1 0 0.170916
0 0.0466011 0.345327
0.037171 0.044358 0.340063
0.123568 0.0370031 0.328008
0.3019 0.0156405 0.29575
0.553887 0 0.250217
0.812512 0 0.21181
1 0 0.192706
1 0 0.190738
1 0 0.194293
0 0.115312 0.316777
0.0154116 0.116777 0.316106
0.102174 0.113512 0.309422
0.286748 0.0965133 0.281773
0.543389 0.0691691 0.24535
0.800015 0.0465248 0.217365
0.993164 0.0402991 0.206836
1 0.0475776 0.211048
1 0.0563363 0.218097
0 0.251316 0.257145
0 0.257923 0.263691
0.0604715 0.260975 0.266697
0.227131 0.25713 0.262776
0.51397 0.232593 0.22472
0.764416 0.221241 0.213489
0.952773 0.224247 0.216358
1 0.237491 0.229297
1 0.249378 0.24094
0 0.452461 0.186618
0 0.463615 0.20145
0.0274205 0.470863 0.212497
0.202426 0.472953 0.21944
0.461677 0.463004 0.21146
0.71368 0.457023 0.210498
0.895247 0.465232 0.225269
0.999374 0.480812 0.245777
1 0.493294 0.261067
0 0.673304 0.167391
0 0.686229 0.188983
0.0446479 0.695155 0.206943
0.213458 0.700801 0.22536
0.447379 0.697459 0.23505
0.685054 0.693263 0.242786
0.857343 0.699458 0.26096
0.955184 0.711986 0.282994
0.999969 0.721767 0.298207
0 0.85507 0.220127
0.0364691 0.866682 0.243732
0.124544 0.875273 0.264332
0.27924 0.880461 0.286397
0.489174 0.876661 0.300099
0.701686 0.870237 0.309087
0.858366 0.871717 0.324453
0.947463 0.879133 0.342611
0.988312 0.88571 0.355413
0.0651408 0.96997 0.294453
0.132326 0.980377 0.317418
0.2121 0.987411 0.336843
0.352834 0.990539 0.357244
0.542519 0.98407 0.368139
0.735317 0.974807 0.37409
0.87805 0.972137 0.384482
0.959381 0.975601 0.397925
0.996414 0.979416 0.407401
0.129717 1 0.345159
0.192569 1 0.366796
0.267018 1 0.384421
0.398886 1 0.402274
0.577157 1 0.410391
0.758801 1 0.41326
0.893538 1 0.420035
0.970245 1 0.430198
1 1 0.437995
0 0 0.671351
0.0287785 0 0.66247
0.112337 0 0.647944
0.281834 0 0.613657
0.535622 0 0.558846
0.801663 0 0.50515
1 0 0.472953
1 0 0.461631
1 0 0.460365
0 0.0304417 0.649775
0.0202792 0.0287022 0.643641
0.105837 0.0226596 0.632151
0.277516 0.00392157 0.602792
0.532021 0 0.553475
0.796307 0 0.506645
0.994156 0 0.481071
1 0 0.474876
1 0 0.476387
0 0.101381 0.615122
0.00242618 0.103517 0.612726
0.0900893 0.101152 0.604974
0.263905 0.0880751 0.581964
0.521828 0.0623026 0.540932
0.785138 0.039765 0.502983
0.980621 0.0347601 0.485603
1 0.0429999 0.485374
1 0.0527047 0.490349
0 0.240864 0.545357
0 0.248417 0.549355
0.054963 0.251789 0.54873
0.228107 0.248203 0.53782
0.491279 0.231098 0.507347
0.753201 0.218418 0.482795
0.943603 0.222339 0.478325
1 0.236423 0.486549
1 0.248692 0.495537
0 0.445472 0.459403
0 0.457633 0.471351
0.024155 0.466239 0.479744
0.191409 0.471427 0.484611
0.429038 0.468025 0.480766
0.712154 0.456107 0.45452
0.891402 0.465568 0.4636
0.994705 0.481666 0.479545
1 0.494179 0.491997
0 0.668681 0.418311
0 0.682597 0.436759
0.0466621 0.692729 0.451514
0.210727 0.700435 0.465827
0.439399 0.698756 0.470054
0.683589 0.692821 0.464103
0.85655 0.698848 0.473716
0.952911 0.711452 0.491051
0.997116 0.72137 0.503899
0 0.85185 0.449119
0.0423896 0.864134 0.469139
0.128069 0.873335 0.486107
0.279164 0.879179 0.50277
0.485771 0.875914 0.510307
0.699245 0.869184 0.511025
0.85687 0.870024 0.518029
0.945296 0.87718 0.531182
0.985534 0.883497 0.541283
0.0713664 0.967071 0.506188
0.136614 0.977584 0.525292
0.214908 0.984955 0.541253
0.352468 0.988083 0.556115
0.539849 0.981918 0.561654
0.732296 0.972137 0.560662
0.875334 0.968795 0.564126
0.956161 0.971878 0.573007
0.992889 0.975631 0.580377
0.134722 1 0.547143
0.195499 1 0.56466
0.269062 1 0.579293
0.398169 1 0.592004
0.57438 1 0.595178
0.755398 1 0.591821
0.890227 1 0.592477
0.966476 1 0.59855
1 1 0.604089
0 0 1
0.00741588 0 0.994232
0.0915541 0 0.979126
0.259953 0 0.945602
0.512718 0 0.891524
0.781704 0 0.834836
0.98439 0 0.797818
1 0 0.782742
1 0 0.778912
0 0.0130159 0.976684
0.00158694 0.0122225 0.969573
0.0879377 0.00672923 0.956802
0.257939 0 0.927306
0.510628 0 0.878538
0.777768 0 0.82797
0.978241 0 0.796872
1 0 0.786343
1 0 0.785122
0 0.0866102 0.935027
0 0.0895857 0.930922
0.0762188 0.0876478 0.921111
0.248051 0.0766613 0.897108
0.501839 0.0534524 0.856107
0.767926 0.0322881 0.81384
0.966262 0.0283207 0.790158
1 0.0376898 0.785077
1 0.0475776 0.786847
0 0.230091 0.851652
0 0.238071 0.852552
0.0484016 0.242222 0.848829
0.220935 0.239994 0.834257
0.473762 0.227054 0.805325
0.737865 0.21561 0.775814
0.932036 0.219974 0.763561
1 0.23476 0.766049
1 0.247333 0.771679
0 0.438315 0.745998
0 0.451255 0.754131
0.0239109 0.460914 0.758663
0.192309 0.466972 0.756924
0.434409 0.46363 0.743648
0.695506 0.45713 0.725048
0.882856 0.465171 0.723003
0.987549 0.481254 0.732387
1 0.494179 0.741634
0 0.664179 0.681666
0 0.678416 0.695567
0.0499428 0.689784 0.7066
0.210407 0.698528 0.714855
0.43151 0.699001 0.714763
0.660563 0.69688 0.712016
0.855192 0.697444 0.7028
0.949676 0.710277 0.715496
0.993179 0.720073 0.725307
0 0.847883 0.687938
0.0479133 0.860914 0.704097
0.131884 0.870726 0.717098
0.279683 0.877272 0.72813
0.480934 0.874891 0.730556
0.689769 0.868223 0.727123
0.853315 0.867079 0.724117
0.94229 0.873808 0.731563
0.982025 0.880186 0.739361
0.0768139 0.963348 0.726619
0.140963 0.974227 0.741985
0.217365 0.981628 0.753826
0.352407 0.98526 0.763714
0.535454 0.979217 0.764096
0.725414 0.969207 0.758892
0.87042 0.964675 0.75584
0.951843 0.967071 0.759441
0.988266 0.970596 0.764324
0.138766 1 0.757061
0.198795 1 0.771206
0.270191 1 0.781674
0.397086 1 0.789807
0.569711 1 0.788251
0.748623 1 0.780835
0.884688 1 0.776104
0.961456 1 0.777813
0.995773 1 0.781079
0 0 1
0 0 1
0.0780804 0 1
0.24625 0 1
0.498527 0 1
0.768338 0 1
0.972442 0 1
1 0 1
1 0 1
0 0.00175479 1
0 0.0018616 1
0.0768444 0 1
0.246433 0 1
0.49836 0 1
0.766018 0 1
0.967819 0 1
1 0 1
1 0 1
0 0.0773938 1
0 0.081239 1
0.068452 0.0801251 1
0.239826 0.0705119 1
0.491814 0.0493782 1
0.757717 0.0298314 1
0.957259 0.0269322 1
1 0.0367742 1
1 0.0476539 1
0 0.224247 1
0 0.233371 1
0.0462196 0.238071 1
0.21854 0.237156 1
0.468208 0.226459 1
0.729946 0.216449 0.990219
0.925155 0.221515 0.973968
1 0.236759 0.97258
1 0.250004 0.976089
0 0.436362 0.956878
0 0.449836 0.962158
0.0275578 0.459648 0.963348
0.196963 0.466804 0.957366
0.436591 0.464454 0.939818
0.689738 0.460883 0.920928
0.877821 0.468894 0.914809
0.983734 0.484688 0.919905
1 0.497215 0.926299
0 0.663783 0.874189
0 0.678645 0.885069
0.0577096 0.690349 0.892653
0.217243 0.69958 0.895872
0.437201 0.700389 0.889723
0.667369 0.697353 0.879789
0.847501 0.700771 0.876875
0.94638 0.712139 0.883864
0.990799 0.721813 0.891188
0 0.847852 0.862699
0.0569772 0.861158 0.875715
0.13933 0.870848 0.885115
0.285466 0.877867 0.891707
0.483162 0.875578 0.88896
0.68687 0.869947 0.882887
0.842451 0.869764 0.882277
0.941924 0.873137 0.881468
0.980682 0.879347 0.887648
0.0855879 0.962921 0.88777
0.148119 0.97351 0.899763
0.223697 0.98114 0.908812
0.356237 0.984604 0.91429
0.536461 0.978866 0.910704
0.72224 0.969024 0.902785
0.864881 0.964111 0.898955
0.949538 0.965209 0.898604
0.986145 0.968246 0.901183
0.146105 1 0.910445
0.204913 1 0.921599
0.27541 1 0.929473
0.399756 1 0.933455
0.569696 1 0.928283
0.745449 1 0.918547
0.88014 1 0.912612
0.958343 1 0.911406
0.993011 1 0.912932
0 0 1
0 0 1
0.0724651 0 1
0.240696 0 1
0.492699 0 1
0.762585 0 1
0.967147 0 1
1 0 1
1 0 1
0 0 1
0 0 1
0.0730144 0 1
0.242588 0 1
0.494026 0 1
0.761563 0 1
0.963699 0 1
1 0 1
1 0 1
0 0.0747387 1
0 0.0789807 1
0.0669261 0.0785534 1
0.238132 0.0699321 1
0.48925 0.0501869 1
0.754513 0.0317388 1
0.954269 0.0297856 1
1 0.0404822 1
1 0.0515908 1
0 0.223957 1
0 0.233524 1
0.0484169 0.238819 1
0.220569 0.238895 1
0.468788 0.229557 1
0.728969 0.220783 1
0.923903 0.226535 1
1 0.242115 1
1 0.255329 1
0 0.438361 1
0 0.452308 1
0.0339971 0.462379 1
0.203296 0.470146 1
0.441352 0.468666 1
0.691218 0.466209 1
0.878096 0.474571 1
0.983993 0.490318 1
1 0.502693 1
0 0.666804 0.980362
0 0.681895 0.989487
0.0668193 0.693751 0.995148
0.225605 0.703166 0.995621
0.444434 0.704112 0.986404
0.672358 0.70135 0.974166
0.847623 0.70547 0.970825
0.946548 0.71635 0.976211
0.991302 0.72575 0.982361
0 0.850645 0.959091
0.0666056 0.86389 0.970199
0.148379 0.873671 0.977829
0.293156 0.880659 0.98172
0.489128 0.87837 0.976028
0.69131 0.872526 0.966918
0.847074 0.871687 0.963424
0.939681 0.876051 0.966247
0.980346 0.881331 0.970733
0.0947127 0.96492 0.976486
0.156725 0.975525 0.986862
0.23125 0.982956 0.994095
0.362295 0.986297 0.997116
0.540612 0.980438 0.990936
0.724361 0.970489 0.980667
0.864591 0.965545 0.975464
0.946654 0.966567 0.976303
0.986328 0.968597 0.977722
0.154391 1 0.994995
0.2121 1 1
0.282032 1 1
0.404974 1 1
0.573007 1 1
0.746715 1 0.993194
0.879423 1 0.98613
0.956878 1 0.985153
0.992401 1 0.986007
0 0 1
0 0 1
0.0707561 0 1
0.239231 0 1
0.490913 0 1
0.760708 0 1
0.965377 0 1
1 0 1
1 0 1
0 0 1
0 0 1
0.0723278 0 1
0.24213 0 1
0.493095 0 1
0.760418 0 1
0.962585 0 1
1 0 1
1 0 1
0 0.0746166 1
0 0.079118 1
0.0674449 0.078996 1
0.238743 0.0710918 1
0.489296 0.0519417 1
0.754253 0.0343175 1
0.953902 0.0328527 1
1 0.0440223 1
1 0.0550851 1
0 0.225391 1
0 0.234882 1
0.0510567 0.240589 1
0.223011 0.241154 1
0.470497 0.232502 1
0.730083 0.22475 1
0.924636 0.23093 1
1 0.246738 1
1 0.259907 1
0 0.440681 1
0 0.454856 1
0.039292 0.465415 1
0.207904 0.473182 1
0.445441 0.472511 1
0.693492 0.470268 1
0.879591 0.478859 1
0.985199 0.494469 1
1 0.507134 1
0 0.669917 1
0 0.684855 1
0.0730144 0.696666 1
0.231312 0.706157 1
0.449302 0.707195 1
0.676219 0.70489 1
0.849638 0.709178 1
0.948043 0.71986 1
0.992584 0.728878 1
0.00505074 0.853117 1
0.0729992 0.8663 1
0.154833 0.876341 1
0.298466 0.88304 1
0.493751 0.880903 1
0.694652 0.874632 1
0.849531 0.873671 1
0.940429 0.878172 1
0.981186 0.883406 1
0.100725 0.966842 1
0.162814 0.97763 1
0.236454 0.984771 1
0.366995 0.98819 1
0.544015 0.982071 1
0.726711 0.971939 1
0.866316 0.966766 1
0.948211 0.967453 1
0.986175 0.969757 1
0.159869 1 1
0.217487 1 1
0.286519 1 1
0.409003 1 1
0.575906 1 1
0.748394 1 1
0.880354 1 1
0.957336 1 1
0.992615 1 1
