public/textures/grade/Sony/Guardians-SLog2.cube
TITLE "Generated by Resolve"
LUT_3D_SIZE 9
0 0.00486763 0.00132753
0.109422 0 0
0.267765 0 0
0.454749 0 0
0.65658 0 0
0.847272 0 0
1 0 0
1 0 0
1 0 0
0 0.0797742 0
0.0778821 0.0704509 0
0.249577 0.049897 0
0.440162 0.0244602 0
0.641138 0 0
0.828595 0 0
0.98378 0 0
1 0 0
1 0 0
0 0.20148 0
0.0216526 0.202411 0
0.199878 0.190509 0
0.40032 0.172122 0
0.603845 0.153368 0
0.791119 0.140291 0
0.944228 0.136873 0
1 0.143389 0
1 0.156619 0
0 0.349111 0
0 0.358694 0
0.146319 0.355352 0
0.348638 0.344228 0
0.554559 0.331502 0
0.740581 0.324727 0
0.891112 0.327077 0
1 0.33814 0
1 0.354742 0
0 0.512062 0
0 0.527092 0
0.115862 0.530419 0
0.31284 0.525383 0
0.514992 0.517555 0
0.697414 0.514122 0
0.844053 0.518761 0
0.951537 0.530831 0
1 0.547082 0.000289921
0 0.673075 0
0 0.690654 0
0.127031 0.697444 0
0.315068 0.696132 0
0.506539 0.69073 0
0.680232 0.688243 0
0.819974 0.692348 0
0.92253 0.702876 0.0201114
0.991577 0.716686 0.0446174
0 0.8168 0
0.0135042 0.833173 0
0.179019 0.841779 0
0.353964 0.841367 0.00723278
0.531548 0.8365 0.0239567
0.692363 0.832807 0.0399329
0.822385 0.834714 0.059678
0.917678 0.841962 0.082414
0.981933 0.852399 0.10576
0 0.933257 0
0.103304 0.948119 0.0310979
0.253651 0.955962 0.066392
0.413382 0.954269 0.0881666
0.57586 0.948165 0.103136
0.723278 0.942611 0.116472
0.842496 0.941543 0.132494
0.930068 0.945434 0.151507
0.989044 0.952468 0.17113
0.0863508 1 0.0776684
0.191012 1 0.11693
0.327871 1 0.148913
0.474189 1 0.167452
0.622904 1 0.178256
0.758724 1 0.187747
0.868605 1 0.199359
0.949096 1 0.213519
1 1 0.228595
0 0.00244144 0.103166
0.0983749 0 0.0830243
0.263218 0 0.0522011
0.452079 0 0.0204471
0.654246 0 0
0.844648 0 0
1 0 0
1 0 0
1 0 0
0 0.0773022 0.076051
0.0610666 0.0741436 0.0728618
0.250629 0.0507057 0.043595
0.440726 0.0266575 0.0214389
0.641291 0.00047303 0
0.828351 0 0
0.983139 0 0
1 0 0
1 0 0
0 0.201923 0.0236667
0.022446 0.205097 0.0295109
0.202853 0.194278 0.0230259
0.405203 0.176318 0.0103761
0.60763 0.159152 0
0.793835 0.147189 0
0.946258 0.144778 0
1 0.152102 0.00349432
1 0.166094 0.0162509
0 0.351934 0
0 0.362692 0
0.151354 0.361395 0
0.355138 0.350866 0
0.56141 0.339178 0
0.746273 0.333532 0
0.895842 0.336858 0.00793469
1 0.348623 0.0236973
1 0.365332 0.0435645
0 0.516411 0
0 0.532616 0
0.125292 0.53753 0
0.321477 0.533455 0
0.52372 0.526406 0.00373846
0.705333 0.523659 0.013611
0.85069 0.528679 0.0293431
0.957229 0.54107 0.0507668
1 0.557458 0.0747082
0 0.678538 0
0 0.696925 0
0.139391 0.704921 0.00813306
0.32546 0.704082 0.0259403
0.516258 0.699382 0.038819
0.688914 0.697185 0.052903
0.827115 0.70106 0.0713512
0.928557 0.711589 0.0948196
0.996674 0.725124 0.119097
0 0.822766 0
0.029633 0.839445 0.0323949
0.191913 0.848646 0.0660258
0.364935 0.848524 0.0872206
0.540612 0.843458 0.101167
0.700374 0.839963 0.115221
0.828977 0.841627 0.132891
0.923156 0.84863 0.154147
0.986465 0.858625 0.176043
0.00207523 0.93846 0.0716564
0.117067 0.953506 0.111223
0.265126 0.961395 0.144442
0.423239 0.959915 0.164248
0.583993 0.953674 0.176623
0.730022 0.947936 0.187533
0.848142 0.946746 0.201633
0.934554 0.95021 0.218631
0.992752 0.956909 0.236774
0.100282 1 0.155505
0.20351 1 0.193164
0.338293 1 0.222721
0.482383 1 0.238499
0.629694 1 0.247135
0.764172 1 0.254292
0.872999 1 0.263966
0.952621 1 0.276463
1 1 0.289921
0 0 0.286137
0.081651 0 0.269245
0.245548 0 0.233845
0.440406 0 0.193347
0.645655 0 0.154757
0.83772 0 0.122972
0.995682 0 0.101961
1 0 0.0922713
1 0 0.0915389
0 0.0701152 0.256855
0.0586557 0.0667887 0.249622
0.231785 0.0493172 0.221622
0.431693 0.0242008 0.189059
0.635325 0 0.15964
0.823651 0 0.135943
0.978821 0 0.123293
1 0 0.121523
1 0 0.12784
0 0.197009 0.200687
0.0162814 0.203159 0.206806
0.174258 0.199924 0.20354
0.406149 0.176516 0.167987
0.606928 0.161151 0.153048
0.792523 0.150393 0.142672
0.944564 0.149111 0.141497
1 0.157473 0.149615
1 0.172076 0.16376
0 0.34995 0.138659
0 0.362631 0.155123
0.147036 0.364965 0.160937
0.356786 0.354253 0.150561
0.56611 0.343297 0.142031
0.749142 0.338994 0.141909
0.897063 0.342947 0.149798
1 0.355596 0.165805
1 0.372595 0.185489
0 0.517082 0.0957504
0 0.534157 0.122454
0.128664 0.541543 0.140215
0.324285 0.538872 0.146044
0.528618 0.531701 0.146212
0.710109 0.529351 0.151888
0.85417 0.535027 0.165728
0.959503 0.547677 0.185824
1 0.564355 0.208896
0 0.680644 0.0942702
0 0.699519 0.128695
0.146578 0.709041 0.154803
0.331136 0.7093 0.169177
0.521599 0.704723 0.176776
0.693828 0.702235 0.185687
0.831342 0.706508 0.201236
0.931472 0.716793 0.221988
0.998871 0.730419 0.244648
0 0.825147 0.137285
0.0416571 0.842527 0.174334
0.20061 0.85243 0.204623
0.371084 0.852338 0.221454
0.546029 0.847639 0.231434
0.70515 0.844068 0.241123
0.832837 0.845579 0.255131
0.925902 0.852262 0.27332
0.988403 0.861997 0.292958
0.0162051 0.940551 0.207874
0.127825 0.956176 0.244556
0.273365 0.964248 0.273976
0.429328 0.962737 0.289891
0.588403 0.956161 0.297948
0.733684 0.950332 0.305074
0.850874 0.948867 0.315663
0.936477 0.952148 0.329976
0.993713 0.958267 0.345434
0.111223 1 0.283742
0.212146 1 0.317662
0.344976 1 0.343618
0.487358 1 0.356069
0.633234 1 0.361089
0.766461 1 0.36434
0.874372 1 0.370703
0.953277 1 0.380697
1 1 0.392493
0 0 0.520699
0.0657206 0 0.504768
0.225254 0 0.472511
0.421118 0 0.429053
0.630426 0 0.384497
0.824964 0 0.34757
0.984237 0 0.322652
1 0 0.310048
1 0 0.307164
0 0.058732 0.486351
0.0478523 0.0562448 0.478126
0.212116 0.0420386 0.454658
0.412375 0.0180972 0.418753
0.621393 0 0.381888
0.812741 0 0.353124
0.96907 0 0.336522
1 0 0.332052
1 0 0.336217
0 0.188586 0.424109
0.0102998 0.195346 0.426902
0.175067 0.191913 0.417304
0.384024 0.175814 0.390021
0.596719 0.158877 0.36437
0.784924 0.148486 0.348531
0.937713 0.148074 0.343526
1 0.157183 0.348592
1 0.17261 0.360571
0 0.343755 0.354162
0 0.357702 0.36791
0.136355 0.363745 0.373709
0.32398 0.359808 0.369558
0.565774 0.342153 0.337301
0.746334 0.338872 0.333776
0.893629 0.343984 0.338659
1 0.356924 0.35137
1 0.374685 0.368933
0 0.513146 0.300328
0 0.531411 0.323659
0.125048 0.541466 0.339025
0.315511 0.540978 0.34197
0.527443 0.532601 0.331609
0.71165 0.530205 0.330358
0.853956 0.536599 0.340795
0.958053 0.549599 0.357839
1 0.566201 0.378012
0 0.678233 0.286397
0 0.698009 0.316884
0.147616 0.709361 0.339452
0.329091 0.710735 0.349752
0.519677 0.70605 0.35108
0.694636 0.703319 0.353124
0.831952 0.707515 0.363622
0.93109 0.717861 0.38085
0.997543 0.731228 0.400412
0 0.823331 0.316289
0.047715 0.841794 0.34966
0.203403 0.852537 0.375525
0.371435 0.852934 0.388098
0.545449 0.848219 0.393057
0.70515 0.844282 0.396963
0.832761 0.845396 0.405844
0.925246 0.851957 0.42034
0.987137 0.861585 0.437171
0.0236362 0.938964 0.374517
0.13286 0.955184 0.407187
0.275944 0.963577 0.432029
0.429679 0.962081 0.443641
0.588006 0.955627 0.447791
0.733181 0.949462 0.450233
0.850126 0.94757 0.456291
0.935164 0.950545 0.467018
0.991958 0.956573 0.479988
0.116823 1 0.43978
0.215732 1 0.469291
0.346288 1 0.49073
0.487266 1 0.499748
0.631983 1 0.500908
0.765209 1 0.500542
0.872816 1 0.503105
0.951141 1 0.509834
1 1 0.51928
0 0 0.781292
0.0485847 0 0.765316
0.206699 0 0.734325
0.401068 0 0.692134
0.612207 0 0.645609
0.809277 0 0.604822
0.970153 0 0.576074
1 0 0.560571
1 0 0.555261
0 0.045304 0.740871
0.0344396 0.0436408 0.731182
0.196872 0.0311284 0.707973
0.3935 0.00914015 0.673442
0.604227 0 0.634043
0.798688 0 0.600809
0.956832 0 0.579995
1 0 0.571817
1 0 0.573266
0 0.178408 0.669123
0.00202945 0.185901 0.668696
0.167514 0.18349 0.656382
0.366384 0.171023 0.632822
0.579705 0.154711 0.604166
0.772961 0.14464 0.582528
0.927855 0.144686 0.572442
1 0.154391 0.573312
1 0.170397 0.581872
0 0.336217 0.588754
0 0.35108 0.598337
0.134066 0.357717 0.598718
0.327642 0.35378 0.587793
0.545037 0.342596 0.566171
0.736965 0.337636 0.55259
0.886595 0.342855 0.551659
0.995743 0.356161 0.559884
1 0.374258 0.5738
0 0.507546 0.522911
0 0.526894 0.541878
0.122042 0.538842 0.553399
0.305303 0.540688 0.554864
0.497948 0.537575 0.551339
0.710918 0.528634 0.529137
0.851087 0.535851 0.536004
0.95433 0.549233 0.549218
1 0.565744 0.565713
0 0.674067 0.495079
0 0.694743 0.520821
0.146731 0.707713 0.539162
0.323491 0.710491 0.546395
0.509468 0.707012 0.545541
0.691981 0.702571 0.538079
0.831434 0.706264 0.54197
0.929152 0.716701 0.555474
0.99472 0.730129 0.571984
0 0.819852 0.510109
0.0512245 0.839277 0.538827
0.203784 0.850843 0.559884
0.368643 0.851987 0.568734
0.540215 0.847654 0.57026
0.700847 0.842817 0.568261
0.830686 0.843336 0.570962
0.92311 0.84976 0.581247
0.984466 0.859403 0.595132
0.0284581 0.93579 0.554223
0.135607 0.952575 0.582269
0.276158 0.961303 0.602289
0.42739 0.960067 0.610086
0.583978 0.953674 0.610819
0.729397 0.947127 0.60911
0.847089 0.944518 0.610056
0.93225 0.947234 0.616907
0.988632 0.953063 0.626978
0.120287 1 0.607736
0.217411 1 0.632654
0.345846 1 0.649622
0.484718 1 0.655085
0.62797 1 0.653132
0.761135 1 0.649302
0.869291 1 0.648051
0.947585 1 0.651408
0.999344 1 0.657877
0 0 1
0.0327916 0 1
0.19086 0 0.979751
0.384344 0 0.938338
0.595834 0 0.891859
0.794491 0 0.849515
0.956771 0 0.81828
1 0 0.800046
1 0 0.792721
0 0.032929 0.980911
0.0219272 0.0320745 0.969604
0.184115 0.0206302 0.945098
0.37911 0.000366217 0.910643
0.589548 0 0.871
0.785657 0 0.835752
0.945342 0 0.811856
1 0 0.800443
1 0 0.7991
0 0.169314 0.899565
0 0.177768 0.896406
0.160632 0.176349 0.881254
0.356451 0.165682 0.856931
0.566842 0.150973 0.82797
0.761486 0.141482 0.80354
0.918288 0.142061 0.789639
1 0.152255 0.786664
1 0.168368 0.791577
0 0.329931 0.80798
0 0.345647 0.813626
0.133013 0.352911 0.809339
0.325505 0.350164 0.795483
0.533257 0.341878 0.775921
0.725948 0.337499 0.759838
0.878706 0.342504 0.753933
0.989197 0.355901 0.757671
1 0.373922 0.767575
0 0.503212 0.729763
0 0.523369 0.744121
0.123339 0.536141 0.750378
0.306905 0.538293 0.746532
0.503609 0.534936 0.736812
0.695689 0.531014 0.724788
0.844572 0.536202 0.723247
0.949584 0.54931 0.731411
1 0.565759 0.74403
0 0.670832 0.688487
0 0.692271 0.709407
0.148577 0.706218 0.722805
0.32224 0.709575 0.725689
0.502571 0.707866 0.723522
0.67068 0.706615 0.721782
0.830945 0.705119 0.710903
0.927001 0.715831 0.721401
0.991775 0.729107 0.734676
0 0.817151 0.68957
0.054902 0.836912 0.713176
0.205386 0.849195 0.729488
0.36762 0.851072 0.734752
0.535195 0.847532 0.734112
0.692256 0.843198 0.73135
0.827832 0.841917 0.727214
0.921553 0.847623 0.732479
0.982071 0.857282 0.743877
0.0338293 0.933333 0.720623
0.139147 0.950378 0.743999
0.277562 0.959381 0.759411
0.426261 0.958404 0.763684
0.57998 0.952209 0.761868
0.723522 0.945434 0.758083
0.842939 0.942153 0.755489
0.929335 0.944137 0.757916
0.985519 0.949752 0.765209
0.124086 1 0.76286
0.21973 1 0.78352
0.346212 1 0.796292
0.482689 1 0.798367
0.624109 1 0.794369
0.756054 1 0.788556
0.864897 1 0.784482
0.943984 1 0.784649
0.99559 1 0.788663
0 0 1
0.0210727 0 1
0.179568 0 1
0.372625 0 1
0.584024 0 1
0.783337 0 1
0.946654 0 1
1 0 0.993332
1 0 0.984237
0 0.0242161 1
0.0133211 0.0242466 1
0.17586 0.0138399 1
0.369894 0 1
0.579736 0 1
0.776516 0 1
0.937102 0 0.998138
1 0 0.984512
1 0 0.980926
0 0.163516 1
0 0.172915 1
0.156985 0.172534 1
0.351537 0.163195 1
0.560037 0.149783 1
0.75433 0.1411 0.979904
0.911864 0.142245 0.963638
1 0.153017 0.958007
1 0.169512 0.960311
0 0.326711 0.983627
0 0.343252 0.986206
0.134051 0.351278 0.978469
0.325597 0.349569 0.962158
0.529854 0.342779 0.941482
0.720394 0.339391 0.924178
0.873808 0.34464 0.915648
0.985092 0.358144 0.916335
1 0.376349 0.923415
0 0.501701 0.894972
0 0.522667 0.905715
0.127642 0.535927 0.907683
0.311238 0.538521 0.900114
0.506157 0.535912 0.887861
0.690654 0.534035 0.87686
0.839689 0.539071 0.873213
0.946303 0.551644 0.877882
1 0.567941 0.887541
0 0.670436 0.842817
0 0.692271 0.859617
0.153933 0.706691 0.868635
0.326757 0.710353 0.867521
0.50663 0.708766 0.861448
0.676585 0.706828 0.8551
0.82211 0.708354 0.851789
0.923949 0.717418 0.856947
0.989792 0.73019 0.866941
0 0.816892 0.832593
0.0615396 0.836957 0.852171
0.210269 0.849363 0.864088
0.370871 0.851575 0.865873
0.535973 0.848219 0.862135
0.689036 0.844678 0.858244
0.815976 0.844984 0.858167
0.921492 0.847272 0.855436
0.98088 0.856733 0.864836
0.0409247 0.932815 0.852995
0.144961 0.949981 0.872541
0.281636 0.95906 0.884031
0.428458 0.958206 0.885191
0.579889 0.952193 0.880964
0.720287 0.94548 0.875731
0.837552 0.942168 0.873228
0.927321 0.942916 0.872206
0.98407 0.948135 0.876875
0.129747 1 0.886213
0.224094 1 0.903349
0.348913 1 0.912627
0.483742 1 0.912047
0.623178 1 0.905959
0.753124 1 0.898909
0.86096 1 0.894087
0.941131 1 0.892287
0.993255 1 0.894224
0 0 1
0.0140841 0 1
0.173037 0 1
0.365911 0 1
0.577111 0 1
0.776608 0 1
0.940429 0 1
1 0 1
1 0 1
0 0.0196078 1
0.0091249 0.0204623 1
0.172 0.010956 1
0.365621 0 1
0.575128 0 1
0.77171 0 1
0.932647 0 1
1 0 1
1 0 1
0 0.161364 1
0 0.171588 1
0.156802 0.172168 1
0.350698 0.163958 1
0.558038 0.15169 1
0.75169 0.143847 1
0.909209 0.145525 1
1 0.156771 1
1 0.173693 1
0 0.326772 1
0 0.344045 1
0.137667 0.352804 1
0.328481 0.352026 1
0.530846 0.346258 1
0.719692 0.343679 1
0.872694 0.349279 1
0.984085 0.362966 1
1 0.381155 1
0 0.503288 1
0 0.524834 1
0.134203 0.538521 1
0.317235 0.541573 1
0.510491 0.539544 0.995422
0.691798 0.538521 0.98349
0.839323 0.543908 0.978653
0.945998 0.556237 0.981399
1 0.572274 0.98912
0 0.672694 0.952255
0.00404364 0.694804 0.966155
0.161685 0.709453 0.97203
0.333776 0.713329 0.968231
0.512825 0.711788 0.959625
0.681041 0.710079 0.951598
0.821378 0.712474 0.948623
0.923125 0.72108 0.952468
0.989746 0.73344 0.960708
0 0.819089 0.934096
0.0702678 0.839246 0.950759
0.217807 0.851728 0.959609
0.377096 0.853971 0.958709
0.540795 0.850507 0.952407
0.693034 0.846784 0.946075
0.820615 0.846525 0.943465
0.917998 0.850278 0.945281
0.980331 0.858473 0.951965
0.0497139 0.934462 0.946899
0.152605 0.951537 0.963607
0.287861 0.960525 0.972229
0.433219 0.95964 0.971023
0.583154 0.953628 0.964721
0.721965 0.946929 0.957778
0.836912 0.943664 0.954284
0.922881 0.944625 0.955032
0.984176 0.948318 0.957275
0.137209 1 0.973693
0.230396 1 0.988251
0.353765 1 0.994949
0.487037 1 0.992218
0.625071 1 0.984405
0.753552 1 0.976013
0.859815 1 0.970459
0.939116 1 0.968719
0.992432 1 0.969528
0 0 1
0.0107424 0 1
0.170062 0 1
0.362875 0 1
0.573922 0 1
0.77351 0 1
0.937346 0 1
1 0 1
1 0 1
0 0.0180056 1
0.00823987 0.0196384 1
0.17145 0.0110628 1
0.364706 0 1
0.573846 0 1
0.770184 0 1
0.93109 0 1
1 0 1
1 0 1
0 0.161944 1
0 0.172793 1
0.15906 0.174212 1
0.352438 0.166873 1
0.558968 0.155505 1
0.75201 0.14844 1
0.90927 0.150652 1
1 0.162249 1
1 0.179767 1
0 0.329122 1
0 0.346929 1
0.142901 0.356359 1
0.333043 0.356283 1
0.534188 0.351324 1
0.721721 0.349325 1
0.874067 0.355245 1
0.985245 0.3691 1
1 0.387594 1
0 0.506996 1
0 0.528725 1
0.141741 0.542779 1
0.324224 0.546334 1
0.515938 0.544594 1
0.695293 0.54403 1
0.84152 0.549645 1
0.947814 0.561929 1
1 0.577722 1
0 0.676616 1
0.0131685 0.698833 1
0.170169 0.713603 1
0.341695 0.717815 1
0.519356 0.716075 1
0.68603 0.714549 1
0.824063 0.717235 1
0.924788 0.725643 1
0.991348 0.737667 1
0 0.822675 1
0.0798657 0.843046 1
0.226429 0.855543 1
0.384176 0.857481 1
0.54699 0.854093 1
0.6981 0.850019 1
0.824384 0.849546 1
0.919066 0.853605 1
0.981399 0.861479 1
0.0589761 0.937438 1
0.160891 0.954345 1
0.294926 0.96318 1
0.438987 0.962127 1
0.587701 0.955978 1
0.725811 0.949386 1
0.839857 0.945708 1
0.925765 0.946319 1
0.984054 0.950088 1
0.145357 1 1
0.237476 1 1
0.359594 1 1
0.491844 1 1
0.628382 1 1
0.755795 1 1
0.861204 1 1
0.939666 1 1
0.992615 1 1
