public/textures/grade/Sony/Guardians-SLog2.cube
TITLE "Generated by Resolve"
LUT_3D_SIZE 33
0 0.00486763 0.00132753
0.0021973 0.00424201 0.000808728
0.0405432 0 0
0.0742199 0 0
0.109422 0 0
0.146166 0 0
0.184634 0 0
0.225299 0 0
0.267765 0 0
0.312108 0 0
0.35819 0 0
0.405814 0 0
0.454749 0 0
0.504692 0 0
0.555184 0 0
0.606043 0 0
0.65658 0 0
0.706264 0 0
0.754803 0 0
0.801785 0 0
0.847272 0 0
0.890242 0 0
0.930968 0 0
0.969299 0 0
1 0 0
1 0 0
1 0 0
1 0 0
1 0 0
1 0 0
1 0 0
1 0 0
1 0 0
0 0.00920119 0.00015259
0.000457771 0.00860609 0
0.0389715 0.00404364 0
0.0722057 0 0
0.107576 0 0
0.144274 0 0
0.182834 0 0
0.223606 0 0
0.266133 0 0
0.310445 0 0
0.356573 0 0
0.404273 0 0
0.453361 0 0
0.503258 0 0
0.553674 0 0
0.604486 0 0
0.655055 0 0
0.704723 0 0
0.753277 0 0
0.800244 0 0
0.84567 0 0
0.888624 0 0
0.929335 0 0
0.967681 0 0
1 0 0
1 0 0
1 0 0
1 0 0
1 0 0
1 0 0
1 0 0
1 0 0
1 0 0
0 0.0309758 0
0 0.0302892 0
0.0272068 0.0256657 0
0.0634165 0.0209964 0
0.100816 0.0161135 0
0.138842 0.0108339 0
0.178195 0.00514229 0
0.219501 0 0
0.262287 0 0
0.306569 0 0
0.352712 0 0
0.400534 0 0
0.449531 0 0
0.499397 0 0
0.549737 0 0
0.600427 0 0
0.650858 0 0
0.700374 0 0
0.748821 0 0
0.79559 0 0
0.840818 0 0
0.883604 0 0
0.924132 0 0
0.962371 0 0
0.99765 0 0
1 0 0
1 0 0
1 0 0
1 0 0
1 0 0
1 0 0
1 0 0
1 0 0
0 0.0540627 0
0 0.0535592 0
0.0154879 0.0502174 0
0.0513161 0.0464485 0
0.0908675 0.0417182 0
0.1308 0.0366674 0
0.171435 0.0313573 0
0.213687 0.0256962 0
0.257267 0.0197299 0
0.302342 0.0132753 0
0.348913 0.00640879 0
0.396963 0 0
0.445869 0 0
0.495354 0 0
0.545464 0 0
0.595956 0 0
0.646159 0 0
0.695567 0 0
0.74374 0 0
0.790265 0 0
0.835279 0 0
0.877836 0 0
0.918227 0 0
0.956237 0 0
0.991333 0 0
1 0 0
1 0 0
1 0 0
1 0 0
1 0 0
1 0 0
1 0 0
1 0 0
0 0.0797742 0
0 0.0794232 0
0.0030518 0.0773632 0
0.0383917 0.0745403 0
0.0778821 0.0704509 0
0.119295 0.0657054 0
0.161517 0.0606394 0
0.205035 0.055375 0
0.249577 0.049897 0
0.295399 0.0440223 0
0.342504 0.0376898 0
0.390814 0.0311284 0
0.440162 0.0244602 0
0.490211 0.0176699 0
0.54052 0.0107881 0
0.590982 0.00393683 0
0.641138 0 0
0.689982 0 0
0.737682 0 0
0.783886 0 0
0.828595 0 0
0.871015 0 0
0.911116 0 0
0.948852 0 0
0.98378 0 0
1 0 0
1 0 0
1 0 0
1 0 0
1 0 0
1 0 0
1 0 0
1 0 0
0 0.107515 0
0 0.107149 0
0 0.106249 0
0.0251164 0.104097 0
0.0642557 0.10103 0
0.106004 0.0970016 0
0.14931 0.0923171 0
0.193988 0.0872511 0
0.239536 0.082063 0
0.286168 0.0766003 0
0.333898 0.0707561 0
0.38262 0.0646525 0
0.432334 0.0585641 0
0.48275 0.0524758 0
0.533303 0.0462196 0
0.583917 0.0399176 0
0.634043 0.0338598 0
0.683177 0.0282597 0
0.73106 0.0231174 0
0.777462 0.018677 0
0.822049 0.0144198 0
0.864149 0.0109255 0
0.904036 0.00814832 0
0.941604 0.00611887 0
0.976486 0.00495918 0
1 0.0041352 0
1 0.00402838 0
1 0.00471504 0
1 0.0059205 0
1 0.00746166 0
1 0.00935378 0
1 0.0118868 0
1 0.0143893 0
0 0.136919 0
0 0.136828 0
0 0.136828 0
0.0112764 0.135576 0
0.0504311 0.133211 0
0.0919051 0.129976 0
0.135531 0.125902 0
0.181018 0.121218 0
0.227604 0.116381 0
0.275166 0.111284 0
0.32369 0.105928 0
0.372946 0.100298 0
0.422904 0.0945449 0
0.473442 0.0888075 0
0.524193 0.0831311 0
0.575097 0.0776379 0
0.625284 0.0721904 0
0.674372 0.0670787 0
0.722225 0.0624704 0
0.76846 0.0583963 0
0.813016 0.0547341 0
0.855207 0.0520485 0
0.895018 0.0497444 0
0.932494 0.0481727 0
0.967208 0.0473487 0
0.999695 0.0473793 0
1 0.047776 0
1 0.0487068 0
1 0.0502632 0
1 0.0525826 0
1 0.054963 0
1 0.0576333 0
1 0.060853 0
0 0.168353 0
0 0.168368 0
0 0.169116 0
0 0.169009 0
0.0359045 0.166934 0
0.0772564 0.164431 0
0.120897 0.161166 0
0.166705 0.157076 0
0.213825 0.152514 0
0.262318 0.147906 0
0.311681 0.142992 0
0.361624 0.13785 0
0.412024 0.132525 0
0.462806 0.127199 0
0.513741 0.121996 0
0.564645 0.116884 0
0.614908 0.112016 0
0.664103 0.107637 0
0.711849 0.103502 0
0.757992 0.0999466 0
0.802487 0.09691 0
0.844419 0.0944991 0
0.884245 0.0930037 0
0.921553 0.0918746 0
0.956146 0.0915236 0
0.988403 0.0917983 0
1 0.093019 0
1 0.0944076 0
1 0.0962997 0
1 0.09897 0
1 0.101808 0
1 0.104891 0
1 0.108492 0
0 0.20148 0
0 0.201587 0
0 0.202853 0
0 0.203754 0
0.0216526 0.202411 0
0.0631266 0.200473 0
0.1066 0.197879 0
0.152468 0.194507 0
0.199878 0.190509 0
0.248646 0.186069 0
0.298665 0.181567 0
0.349355 0.176959 0
0.40032 0.172122 0
0.451423 0.167208 0
0.502525 0.162387 0
0.553536 0.157733 0
0.603845 0.153368 0
0.653025 0.149493 0
0.700771 0.145968 0
0.746761 0.142855 0
0.791119 0.140291 0
0.832944 0.13846 0
0.872572 0.137316 0
0.909819 0.136828 0
0.944228 0.136873 0
0.976318 0.137545 0
1 0.13904 0
1 0.1411 0
1 0.143389 0
1 0.146059 0
1 0.149493 0
1 0.15288 0
1 0.156619 0
0 0.236347 0
0 0.236561 0
0 0.238254 0
0 0.239963 0
0.00657664 0.239628 0
0.0489357 0.238163 0
0.0923018 0.236118 0
0.138033 0.233356 0
0.185519 0.230045 0
0.234531 0.226139 0
0.284749 0.221851 0
0.336019 0.217716 0
0.387457 0.213306 0
0.439017 0.208865 0
0.490364 0.20444 0
0.541466 0.200153 0
0.591821 0.196201 0
0.640986 0.192782 0
0.688777 0.189868 0
0.734646 0.187182 0
0.77882 0.185016 0
0.820493 0.183597 0
0.859937 0.182879 0
0.897124 0.182971 0
0.931365 0.183413 0
0.963272 0.184421 0
0.992401 0.18616 0
1 0.188708 0
1 0.191394 0
1 0.194415 0
1 0.198108 0
1 0.201694 0
1 0.205554 0
0 0.272648 0
0 0.272984 0
0 0.275334 0
0 0.277623 0
0 0.278386 0
0.0349737 0.277226 0
0.0785534 0.275746 0
0.124102 0.273518 0
0.171435 0.270771 0
0.220523 0.267491 0
0.270924 0.263722 0
0.32224 0.259739 0
0.374151 0.255833 0
0.426062 0.251804 0
0.477714 0.247852 0
0.528984 0.243946 0
0.579355 0.24033 0
0.62855 0.237354 0
0.676265 0.234836 0
0.722072 0.232639 0
0.76611 0.230884 0
0.807584 0.229801 0
0.846891 0.229511 0
0.883894 0.229953 0
0.918013 0.230823 0
0.949783 0.232197 0
0.978729 0.234165 0
1 0.237018 0
1 0.239979 0
1 0.24329 0
1 0.247272 0
1 0.251072 0
1 0.255009 0
0 0.310277 0
0 0.310704 0
0 0.313756 0
0 0.31664 0
0 0.318044 0
0.0213474 0.317449 0
0.065507 0.316533 0
0.111055 0.314885 0
0.15816 0.312612 0
0.207065 0.309834 0
0.257557 0.306691 0
0.309133 0.303365 0
0.360983 0.299626 0
0.413016 0.295872 0
0.464866 0.292271 0
0.51632 0.288808 0
0.566781 0.285588 0
0.615839 0.282795 0
0.663554 0.280705 0
0.70927 0.278904 0
0.753216 0.277577 0
0.794553 0.276875 0
0.833585 0.276768 0
0.870466 0.277607 0
0.904418 0.278798 0
0.936049 0.280491 0
0.964874 0.28278 0
0.991577 0.285863 0
1 0.288991 0
1 0.292485 0
1 0.296666 0
1 0.300664 0
1 0.304799 0
0 0.349111 0
0 0.349615 0
0 0.353262 0
0 0.356603 0
0 0.358694 0
0.00865187 0.358724 0
0.0535439 0.358129 0
0.0992905 0.357061 0
0.146319 0.355352 0
0.194934 0.353033 0
0.245457 0.350545 0
0.296742 0.347494 0
0.348638 0.344228 0
0.400687 0.34081 0
0.452537 0.337484 0
0.504036 0.334325 0
0.554559 0.331502 0
0.603861 0.329381 0
0.651255 0.327306 0
0.696803 0.325765 0
0.740581 0.324727 0
0.781781 0.324376 0
0.82089 0.324941 0
0.857343 0.325689 0
0.891112 0.327077 0
0.92256 0.329 0
0.951431 0.331884 0
0.977798 0.334829 0
1 0.33814 0
1 0.341772 0
1 0.346044 0
1 0.350149 0
1 0.354742 0
0 0.388968 0
0 0.389578 0
0 0.393668 0
0 0.397665 0
0 0.400122 0
0 0.401144 0
0.0428779 0.400549 0
0.0886854 0.399878 0
0.135821 0.398795 0
0.184466 0.397162 0
0.234409 0.394888 0
0.285389 0.392203 0
0.337118 0.389349 0
0.389151 0.386389 0
0.440955 0.383398 0
0.492348 0.380499 0
0.543084 0.378256 0
0.592035 0.376104 0
0.639368 0.374365 0
0.684764 0.373083 0
0.728328 0.372259 0
0.769528 0.372427 0
0.80824 0.372946 0
0.844526 0.373953 0
0.87808 0.37554 0
0.909316 0.3776 0
0.938018 0.380636 0
0.964233 0.383703 0
0.988067 0.387152 0
1 0.391226 0
1 0.395254 0
1 0.39939 0
1 0.404028 0
0 0.429465 0
0 0.430167 0
0 0.434821 0
0 0.439231 0
0 0.442344 0
0 0.443946 0
0.034165 0.443702 0
0.0800793 0.443381 0
0.127108 0.442725 0
0.175387 0.441428 0
0.22504 0.439597 0
0.275685 0.437324 0
0.327047 0.434791 0
0.378805 0.432151 0
0.430457 0.429541 0
0.481926 0.427176 0
0.53228 0.424949 0
0.581048 0.422995 0
0.628183 0.421485 0
0.673426 0.420462 0
0.716793 0.419883 0
0.757809 0.420279 0
0.796231 0.420874 0
0.832288 0.422019 0
0.865629 0.423774 0
0.89688 0.426307 0
0.9252 0.429114 0
0.951232 0.432242 0
0.974899 0.435737 0
0.996582 0.439902 0
1 0.4439 0
1 0.448081 0
1 0.452705 0
0 0.470497 0
0 0.471244 0
0 0.47628 0
0 0.481209 0
0 0.484688 0
0 0.486793 0
0.0275425 0.487022 0
0.0736248 0.487098 0
0.120287 0.486671 0
0.168246 0.485695 0
0.217533 0.484245 0
0.267857 0.482414 0
0.318868 0.480262 0
0.370184 0.477913 0
0.421836 0.475898 0
0.472816 0.473594 0
0.52282 0.471519 0
0.571328 0.46978 0
0.618189 0.468421 0
0.663233 0.467643 0
0.706554 0.467506 0
0.747051 0.467704 0
0.785214 0.468421 0
0.821012 0.469673 0
0.854307 0.471778 0
0.885161 0.474128 0
0.913237 0.476936 0
0.939071 0.48011 0
0.962737 0.483894 0
0.9841 0.487785 0
1 0.491753 0
1 0.496269 0
1 0.500465 0
0 0.512062 0
0 0.512596 0
0 0.517906 0
0 0.523156 0
0 0.527092 0
0 0.529549 0
0.0231632 0.530083 0
0.0692912 0.530465 0
0.115862 0.530419 0
0.163516 0.529793 0
0.212345 0.528649 0
0.262196 0.527123 0
0.31284 0.525383 0
0.364034 0.523629 0
0.414847 0.521523 0
0.465385 0.519432 0
0.514992 0.517555 0
0.563165 0.516014 0
0.60972 0.514839 0
0.654658 0.514443 0
0.697414 0.514122 0
0.737591 0.514412 0
0.775464 0.515206 0
0.810971 0.516533 0
0.844053 0.518761 0
0.874571 0.52105 0
0.902403 0.523842 0
0.928115 0.527138 0
0.951537 0.530831 0
0.972671 0.534585 0
0.991745 0.538521 0
1 0.542962 0
1 0.547082 0.000289921
0 0.553079 0
0 0.553964 0
0 0.559365 0
0 0.564843 0
0 0.569024 0
0 0.571832 0
0.022034 0.572671 0
0.0679179 0.573297 0
0.114214 0.573526 0
0.161547 0.57322 0
0.209979 0.572396 0
0.25948 0.571298 0
0.309651 0.569909 0
0.359991 0.568139 0
0.410285 0.566308 0
0.460304 0.564431 0
0.509407 0.562722 0
0.557366 0.561563 0
0.603555 0.560586 0
0.647776 0.55996 0
0.69015 0.559716 0
0.729946 0.560067 0
0.76762 0.56109 0
0.802869 0.562554 0
0.835355 0.564401 0
0.865599 0.56669 0
0.893187 0.569451 0
0.918791 0.572915 0
0.941848 0.576303 0
0.962783 0.579934 0
0.981888 0.584161 0
0.998734 0.588159 0.00402838
1 0.592233 0.00901808
0 0.593698 0
0 0.594629 0
0 0.60058 0
0 0.606195 0
0 0.610422 0
0 0.613397 0
0.0239567 0.614511 0
0.0695811 0.615412 0
0.11548 0.615854 0
0.162768 0.616098 0
0.210681 0.615534 0
0.259419 0.614542 0
0.308766 0.613214 0
0.35845 0.611658 0
0.408103 0.609995 0
0.457496 0.608301 0
0.506325 0.607019 0
0.553536 0.605798 0
0.599115 0.604822 0
0.642832 0.604227 0
0.684718 0.604013 0
0.724208 0.604517 0
0.761486 0.60557 0
0.796246 0.606867 0
0.828367 0.608667 0
0.858244 0.610849 0
0.885771 0.613901 0
0.910872 0.616922 0
0.9337 0.620249 0
0.954665 0.624155 0.00283818
0.973342 0.627878 0.00799573
0.989975 0.631693 0.0135958
1 0.635904 0.0196841
0 0.633722 0
0 0.634684 0
0 0.640772 0
0 0.646708 0
0 0.651255 0
0 0.654322 0
0.0295262 0.655604 0
0.0746471 0.656764 0
0.120089 0.657465 0
0.1664 0.657588 0
0.213703 0.657206 0
0.261784 0.656397 0
0.31046 0.655268 0
0.359457 0.653895 0
0.408453 0.65243 0
0.457481 0.651164 0
0.505302 0.649683 0
0.551797 0.648478 0
0.596796 0.647562 0
0.639963 0.647028 0
0.681651 0.647181 0
0.72047 0.647486 0
0.757076 0.648264 0
0.791394 0.649516 0
0.823148 0.651286 0
0.852949 0.653758 0
0.879835 0.656291 0
0.904601 0.659175 0.00196841
0.927321 0.662577 0.00746166
0.947906 0.666148 0.0134432
0.966323 0.669703 0.0193637
0.982956 0.673671 0.0256962
0.997513 0.677317 0.0315251
0 0.673075 0
0 0.673777 0
0 0.680018 0
0 0.686015 0
0 0.690654 0
0 0.693736 0
0.0376898 0.695232 0
0.0821698 0.69659 0
0.127031 0.697444 0
0.172747 0.697734 0
0.219409 0.69752 0
0.266804 0.696864 0
0.315068 0.696132 0
0.363348 0.694926 0
0.411505 0.693538 0
0.459434 0.692088 0
0.506539 0.69073 0
0.552316 0.689555 0
0.59675 0.688792 0
0.639445 0.688426 0
0.680232 0.688243 0
0.718532 0.688548 0
0.754604 0.68925 0
0.788586 0.690578 0
0.819974 0.692348 0
0.849134 0.694408 0.00273136
0.8757 0.69688 0.00814832
0.900374 0.699931 0.0142519
0.92253 0.702876 0.0201114
0.942641 0.706035 0.0260929
0.960815 0.709453 0.0322423
0.977188 0.713191 0.0386664
0.991577 0.716686 0.0446174
0 0.71104 0
0 0.712047 0
0 0.718364 0
0 0.724132 0
0 0.728756 0
0.00437934 0.731502 0
0.0485695 0.733455 0
0.0923781 0.734997 0
0.136614 0.735988 0
0.181857 0.736522 0
0.228016 0.736584 0
0.274647 0.736034 0
0.321767 0.73518 0
0.369162 0.734035 0
0.416464 0.732708 0
0.463539 0.731289 0
0.509834 0.729961 0
0.555261 0.729168 0
0.59881 0.728283 0
0.640604 0.727687 0
0.680674 0.727398 0
0.718379 0.727642 0
0.754269 0.728664 0.000747692
0.787579 0.729732 0.00552377
0.818341 0.731197 0.0106508
0.846937 0.732998 0.016022
0.873274 0.735546 0.0221408
0.897337 0.73814 0.0281224
0.919173 0.740948 0.034165
0.939086 0.744076 0.0404364
0.957 0.747326 0.0466621
0.972869 0.750515 0.0526436
0.987228 0.754116 0.0589914
0 0.747784 0
0 0.748791 0
0 0.755108 0
0 0.761135 0
0 0.765682 0
0.0195468 0.768246 0
0.0623941 0.77052 0
0.105394 0.772152 0
0.148898 0.773236 0
0.193194 0.773754 0
0.238346 0.773724 0
0.284108 0.773251 0
0.330358 0.772396 0
0.376913 0.771328 0
0.423407 0.770092 0
0.470008 0.769024 0
0.515404 0.767681 0
0.559579 0.766522 0
0.602411 0.765652 0
0.643534 0.765072 0.00151064
0.683253 0.765057 0.00605783
0.720241 0.765133 0.0104982
0.755108 0.765621 0.0152132
0.787839 0.766552 0.020264
0.818112 0.76791 0.0256199
0.84651 0.769879 0.0315557
0.872099 0.771893 0.0372625
0.895659 0.774166 0.0430915
0.917174 0.776837 0.0492103
0.936828 0.779873 0.0556344
0.95436 0.782803 0.061677
0.970184 0.786099 0.06804
0.984024 0.78912 0.0737926
0 0.78323 0
0 0.784054 0
0 0.790219 0
0 0.796155 0
0 0.800443 0
0.0363165 0.803098 0
0.0781415 0.805524 0
0.120333 0.807263 0
0.163027 0.808377 0
0.2065 0.808911 0
0.250828 0.808927 0
0.295796 0.808515 0
0.341619 0.808026 0
0.387182 0.806928 0
0.432731 0.805692 0
0.47808 0.804364 0.00207523
0.522667 0.803067 0.00587472
0.565988 0.801877 0.00968948
0.608194 0.801129 0.013962
0.648493 0.800443 0.0180972
0.687175 0.800046 0.0224002
0.723522 0.800076 0.0269627
0.757733 0.800412 0.0317082
0.790051 0.801389 0.0370794
0.819715 0.802518 0.0423438
0.847333 0.804028 0.0478523
0.872526 0.805905 0.0535897
0.895903 0.808301 0.0598154
0.916899 0.81062 0.0656596
0.935943 0.813123 0.071519
0.953292 0.816007 0.0776989
0.968719 0.818936 0.0837262
0.982345 0.821805 0.0894636
0 0.8168 0
0 0.817807 0
0 0.823941 0
0 0.829633 0
0.0135042 0.833173 0
0.0547799 0.836316 0
0.095552 0.838773 0
0.13695 0.840528 0
0.179019 0.841779 0
0.222034 0.842557 0
0.265431 0.842557 0
0.309453 0.84213 0.00242618
0.353964 0.841367 0.00723278
0.398672 0.840314 0.0116884
0.443244 0.839017 0.0157931
0.487572 0.837598 0.0196689
0.531548 0.8365 0.0239567
0.574029 0.835294 0.027863
0.615137 0.834257 0.0318151
0.654566 0.833417 0.0358282
0.692363 0.832807 0.0399329
0.728191 0.832883 0.0447395
0.761868 0.833219 0.0496223
0.793332 0.833783 0.054551
0.822385 0.834714 0.059678
0.849454 0.836011 0.0650339
0.874311 0.837858 0.0709087
0.897017 0.839796 0.0766155
0.917678 0.841962 0.082414
0.936599 0.844556 0.0885939
0.953399 0.846967 0.094255
0.968383 0.8495 0.0998398
0.981933 0.852399 0.10576
0 0.848859 0
0 0.849622 0
0 0.855619 0
0 0.861006 0
0.0350805 0.864698 0
0.0750744 0.867994 0
0.115007 0.870512 0
0.155489 0.872251 0
0.196521 0.873381 0.00347906
0.238346 0.873945 0.010071
0.280903 0.87396 0.0160067
0.323995 0.873472 0.0213169
0.367468 0.872618 0.0261234
0.411566 0.871763 0.0310063
0.455253 0.870497 0.0352026
0.49868 0.869047 0.0391089
0.541314 0.867567 0.0428168
0.582788 0.866194 0.0465248
0.623026 0.865049 0.0503853
0.662043 0.864439 0.0548409
0.699107 0.863767 0.0589151
0.733913 0.863432 0.0631723
0.766735 0.863432 0.0676432
0.797559 0.863828 0.0724041
0.826368 0.864927 0.0779126
0.852872 0.865995 0.0830854
0.876997 0.867399 0.0884108
0.899229 0.869093 0.093904
0.9196 0.871199 0.099733
0.937942 0.873335 0.105364
0.954467 0.875608 0.110933
0.96939 0.878233 0.116808
0.982422 0.880613 0.122057
0 0.878889 0
0 0.879835 0
0 0.885512 0
0.0179446 0.890166 0
0.0572976 0.894255 0
0.096025 0.897459 0
0.135073 0.899977 0.00788891
0.174777 0.901701 0.0161746
0.215274 0.902983 0.0239261
0.256184 0.903487 0.0305943
0.297765 0.903395 0.0365148
0.339971 0.902922 0.041886
0.382544 0.902037 0.0467079
0.425238 0.900832 0.0510262
0.467857 0.899397 0.0550088
0.510323 0.897887 0.058793
0.552392 0.89659 0.0628367
0.593118 0.895247 0.0666056
0.632395 0.893935 0.0702068
0.670146 0.892836 0.07393
0.706447 0.892042 0.0778515
0.740703 0.891707 0.0821851
0.773068 0.891783 0.0868391
0.803189 0.891936 0.09131
0.831037 0.89247 0.096025
0.856992 0.893355 0.100969
0.880934 0.894881 0.106615
0.902693 0.896361 0.111879
0.922438 0.898024 0.117144
0.940536 0.900099 0.122774
0.956664 0.902098 0.128038
0.971069 0.904265 0.133303
0.984085 0.906752 0.138842
0 0.907271 0
0 0.907897 0
0.00360113 0.912932 0
0.0419165 0.917922 0
0.0801709 0.922148 0.009308
0.11812 0.925399 0.0198367
0.156161 0.927779 0.0291142
0.194842 0.929381 0.0373541
0.23415 0.930404 0.0447852
