public/textures/grade/Sony/Guardians-SLog3.cube
TITLE "Generated by Resolve"
LUT_3D_SIZE 5
0.00730907 0.0145724 0.0120546
0.166476 0 0
0.574594 0 0
1 0 0
1 0 0
0 0.125612 0
0.124788 0.115526 0
0.550805 0.0675669 0
0.998856 0.0327153 0
1 0.0453803 0
0 0.450477 0
0.0155184 0.463813 0
0.450599 0.450431 0
0.887892 0.44889 0
1 0.475776 0
0 0.847959 0
0.100069 0.866331 0
0.474754 0.86656 0.0456092
0.84976 0.862821 0.0905776
0.983047 0.87776 0.13019
0.105241 1 0.0953231
0.248157 1 0.143572
0.567056 1 0.18497
0.889113 1 0.211841
1 1 0.237812
0.000991836 0.00825513 0.164767
0.151522 0 0.135805
0.570138 0 0.0602121
1 0 0.00189212
1 0 0
0 0.122774 0.123156
0.102815 0.12108 0.121462
0.551751 0.0714427 0.0643931
0.998657 0.0400397 0.0357977
1 0.054551 0.0495003
0 0.454795 0.00944533
0.0265354 0.470527 0.0374762
0.460212 0.460273 0.0496529
0.894743 0.461357 0.0740215
1 0.488762 0.11284
0 0.85478 0.0686351
0.117388 0.873838 0.116777
0.486137 0.874479 0.161379
0.856886 0.870283 0.197391
0.988052 0.884565 0.233082
0.121889 1 0.209934
0.261769 1 0.254185
0.575616 1 0.288228
0.893446 1 0.306477
1 1 0.328679
0 0 0.671351
0.112337 0 0.647944
0.535622 0 0.558846
1 0 0.472953
1 0 0.460365
0 0.101381 0.615122
0.0900893 0.101152 0.604974
0.521828 0.0623026 0.540932
0.980621 0.0347601 0.485603
1 0.0527047 0.490349
0 0.445472 0.459403
0.024155 0.466239 0.479744
0.429038 0.468025 0.480766
0.891402 0.465568 0.4636
1 0.494179 0.491997
0 0.85185 0.449119
0.128069 0.873335 0.486107
0.485771 0.875914 0.510307
0.85687 0.870024 0.518029
0.985534 0.883497 0.541283
0.134722 1 0.547143
0.269062 1 0.579293
0.57438 1 0.595178
0.890227 1 0.592477
1 1 0.604089
0 0 1
0.0780804 0 1
0.498527 0 1
0.972442 0 1
1 0 1
0 0.0773938 1
0.068452 0.0801251 1
0.491814 0.0493782 1
0.957259 0.0269322 1
1 0.0476539 1
0 0.436362 0.956878
0.0275578 0.459648 0.963348
0.436591 0.464454 0.939818
0.877821 0.468894 0.914809
1 0.497215 0.926299
0 0.847852 0.862699
0.13933 0.870848 0.885115
0.483162 0.875578 0.88896
0.842451 0.869764 0.882277
0.980682 0.879347 0.887648
0.146105 1 0.910445
0.27541 1 0.929473
0.569696 1 0.928283
0.88014 1 0.912612
0.993011 1 0.912932
0 0 1
0.0707561 0 1
0.490913 0 1
0.965377 0 1
1 0 1
0 0.0746166 1
0.0674449 0.078996 1
0.489296 0.0519417 1
0.953902 0.0328527 1
1 0.0550851 1
0 0.440681 1
0.039292 0.465415 1
0.445441 0.472511 1
0.879591 0.478859 1
1 0.507134 1
0.00505074 0.853117 1
0.154833 0.876341 1
0.493751 0.880903 1
0.849531 0.873671 1
0.981186 0.883406 1
0.159869 1 1
0.286519 1 1
0.575906 1 1
0.880354 1 1
0.992615 1 1
