public/textures/grade/Sony/Guardians-SLog2.cube
TITLE "Generated by Resolve"
LUT_3D_SIZE 5
0 0.00486763 0.00132753
0.267765 0 0
0.65658 0 0
1 0 0
1 0 0
0 0.20148 0
0.199878 0.190509 0
0.603845 0.153368 0
0.944228 0.136873 0
1 0.156619 0
0 0.512062 0
0.115862 0.530419 0
0.514992 0.517555 0
0.844053 0.518761 0
1 0.547082 0.000289921
0 0.8168 0
0.179019 0.841779 0
0.531548 0.8365 0.0239567
0.822385 0.834714 0.059678
0.981933 0.852399 0.10576
0.0863508 1 0.0776684
0.327871 1 0.148913
0.622904 1 0.178256
0.868605 1 0.199359
1 1 0.228595
0 0 0.286137
0.245548 0 0.233845
0.645655 0 0.154757
0.995682 0 0.101961
1 0 0.0915389
0 0.197009 0.200687
0.174258 0.199924 0.20354
0.606928 0.161151 0.153048
0.944564 0.149111 0.141497
1 0.172076 0.16376
0 0.517082 0.0957504
0.128664 0.541543 0.140215
0.528618 0.531701 0.146212
0.85417 0.535027 0.165728
1 0.564355 0.208896
0 0.825147 0.137285
0.20061 0.85243 0.204623
0.546029 0.847639 0.231434
0.832837 0.845579 0.255131
0.988403 0.861997 0.292958
0.111223 1 0.283742
0.344976 1 0.343618
0.633234 1 0.361089
0.874372 1 0.370703
1 1 0.392493
0 0 0.781292
0.206699 0 0.734325
0.612207 0 0.645609
0.970153 0 0.576074
1 0 0.555261
0 0.178408 0.669123
0.167514 0.18349 0.656382
0.579705 0.154711 0.604166
0.927855 0.144686 0.572442
1 0.170397 0.581872
0 0.507546 0.522911
0.122042 0.538842 0.553399
0.497948 0.537575 0.551339
0.851087 0.535851 0.536004
1 0.565744 0.565713
0 0.819852 0.510109
0.203784 0.850843 0.559884
0.540215 0.847654 0.57026
0.830686 0.843336 0.570962
0.984466 0.859403 0.595132
0.120287 1 0.607736
0.345846 1 0.649622
0.62797 1 0.653132
0.869291 1 0.648051
0.999344 1 0.657877
0 0 1
0.179568 0 1
0.584024 0 1
0.946654 0 1
1 0 0.984237
0 0.163516 1
0.156985 0.172534 1
0.560037 0.149783 1
0.911864 0.142245 0.963638
1 0.169512 0.960311
0 0.501701 0.894972
0.127642 0.535927 0.907683
0.506157 0.535912 0.887861
0.839689 0.539071 0.873213
1 0.567941 0.887541
0 0.816892 0.832593
0.210269 0.849363 0.864088
0.535973 0.848219 0.862135
0.815976 0.844984 0.858167
0.98088 0.856733 0.864836
0.129747 1 0.886213
0.348913 1 0.912627
0.623178 1 0.905959
0.86096 1 0.894087
0.993255 1 0.894224
0 0 1
0.170062 0 1
0.573922 0 1
0.937346 0 1
1 0 1
0 0.161944 1
0.15906 0.174212 1
0.558968 0.155505 1
0.90927 0.150652 1
1 0.179767 1
0 0.506996 1
0.141741 0.542779 1
0.515938 0.544594 1
0.84152 0.549645 1
1 0.577722 1
0 0.822675 1
0.226429 0.855543 1
0.54699 0.854093 1
0.824384 0.849546 1
0.981399 0.861479 1
0.145357 1 1
0.359594 1 1
0.628382 1 1
0.861204 1 1
0.992615 1 1
