public/textures/grade/Sony/Licorice-SLog2.cube
TITLE "Generated by Resolve"
LUT_3D_SIZE 33
0 0 0.0439918
0 0 0.043122
0 0 0.0373693
0.00366217 0 0.0337377
0.0403906 0 0.0340734
0.084123 0 0.0357977
0.136446 0 0.0371405
0.199252 0 0.0350958
0.269871 0 0.0281682
0.341436 0 0.0213169
0.409491 0 0.0143893
0.475288 0 0.00706493
0.541466 0 0
0.60766 0 0
0.673442 0 0
0.738231 0 0
0.801617 0 0
0.862821 0 0
0.921675 0 0
0.977951 0 0
1 0 0
1 0 0
1 0 0
1 0 0
1 0 0
1 0 0
1 0 0
1 0 0
1 0 0
1 0 0
1 0 0
1 0 0
1 0 0
0 0 0.0432593
0 0 0.0425574
0 0 0.0373693
0.00259403 0 0.0330968
0.0394293 0 0.0336919
0.0832227 0 0.0357061
0.13547 0 0.0372778
0.198199 0 0.0354925
0.269139 0 0.0286717
0.340993 0 0.0217899
0.40943 0 0.0148775
0.475303 0 0.0075227
0.541619 0 9.15541e-05
0.608057 0 0
0.674144 0 0
0.738994 0 0
0.802258 0 0
0.863584 0 0
0.922606 0 0
0.979034 0 0
1 0 0
1 0 0
1 0 0
1 0 0
1 0 0
1 0 0
1 0 0
1 0 0
1 0 0
1 0 0
1 0 0
1 0 0
1 0 0
0 0.00788891 0.0387732
0 0.00779736 0.0380713
0 0.00691234 0.0344701
0 0.00494392 0.0314031
0.0310674 0.00163272 0.0304723
0.0743725 0 0.0339055
0.126421 0 0.0372473
0.189075 0 0.0374304
0.261372 0 0.0314946
0.335729 0 0.0245365
0.406897 0 0.0176699
0.474128 0 0.0102998
0.541466 0 0.00291447
0.608911 0 0
0.6757 0 0
0.741299 0 0
0.805264 0 0
0.867231 0 0
0.926863 0 0
0.984024 0 0
1 0 0
1 0 0
1 0 0
1 0 0
1 0 0
1 0 0
1 0 0
1 0 0
1 0 0
1 0 0
1 0 0
1 0 0
1 0 0
0 0.0331273 0.0398413
0 0.0330968 0.0391699
0 0.0329595 0.0353246
0 0.0317388 0.0317998
0.0178836 0.0297704 0.0294499
0.0593881 0.0251621 0.0305791
0.11133 0.016495 0.0358282
0.174212 0.00463874 0.038529
0.247929 0 0.0345464
0.325521 0 0.0275883
0.399786 0 0.0204166
0.469215 0 0.0128023
0.537865 0 0.00523384
0.606516 0 0
0.67425 0 0
0.74078 0 0
0.805539 0 0
0.868269 0 0
0.928649 0 0
0.986603 0 0
1 0 0
1 0 0
1 0 0
1 0 0
1 0 0
1 0 0
1 0 0
1 0 0
1 0 0
1 0 0
1 0 0
1 0 0
1 0 0
0 0.0599069 0.0567941
0 0.0601053 0.0562905
0 0.0604105 0.0522774
0 0.0597543 0.0479286
0.00120546 0.0576791 0.0439765
0.0367132 0.0574197 0.0382239
0.0911727 0.0507973 0.0357977
0.152636 0.0408789 0.0377661
0.22594 0.0283207 0.0350042
0.307088 0.0132143 0.027985
0.386053 0 0.0213016
0.459602 0 0.0138857
0.530312 0 0.00601205
0.600107 0 0
0.668696 0 0
0.736202 0 0
0.801907 0 0
0.865476 0 0
0.926787 0 0
0.985183 0 0
1 0 0
1 0 0
1 0 0
1 0 0
1 0 0
1 0 0
1 0 0
1 0 0
1 0 0
1 0 0
1 0 0
1 0 0
1 0 0
0 0.0911879 0.0828412
0 0.0915389 0.0823835
0 0.0927901 0.0782025
0 0.0928664 0.0729534
0 0.0911116 0.0669718
0.016968 0.0887312 0.0614633
0.0617075 0.0875105 0.0470436
0.127901 0.0780804 0.0422065
0.202365 0.064622 0.0382696
0.285115 0.0491035 0.0300755
0.367269 0.0344244 0.0230106
0.444984 0.0210422 0.0158694
0.518669 0.00851453 0.00828565
0.591028 0 0.00108339
0.662165 0 0
0.731517 0 0
0.798611 0 0
0.863111 0 0
0.924712 0 0
0.983505 0 0
1 0 0
1 0 0
1 0 0
1 0 0
1 0 0
1 0 0
1 0 0
1 0 0
1 0 0
1 0 0
1 0 0
1 0 0
1 0 0
0 0.126757 0.113497
0 0.12726 0.113329
0 0.129442 0.111009
0 0.130282 0.106569
0 0.129442 0.100175
0 0.127581 0.092668
0.0366064 0.124239 0.078996
0.0958572 0.119722 0.055375
0.173587 0.107317 0.0439307
0.258671 0.0899214 0.0327001
0.343618 0.0729229 0.0243534
0.425208 0.0585946 0.0169528
0.502235 0.0455482 0.009308
0.577295 0.0330053 0.00209049
0.650462 0.0209964 0
0.72166 0.00959792 0
0.790616 0 0
0.857114 0 0
0.920378 0 0
0.980606 0 0
1 0 0
1 0 0
1 0 0
1 0 0
1 0 0
1 0 0
1 0 0
1 0 0
1 0 0
1 0 0
1 0 0
1 0 0
1 0 0
0 0.163775 0.140032
0 0.164385 0.140261
0 0.167636 0.140673
0 0.169848 0.138888
0 0.170199 0.134249
0 0.1691 0.127092
0.0104677 0.166003 0.115908
0.0537423 0.166155 0.0795911
0.139879 0.153841 0.0539406
0.228321 0.137667 0.0390631
0.315419 0.119783 0.0268101
0.400092 0.102953 0.0175326
0.480751 0.0878462 0.00924697
0.558831 0.0731518 0.00169375
0.634562 0.0601816 0
0.707866 0.0486763 0
0.778637 0.0377813 0
0.846571 0.0276951 0
0.911681 0.0186465 0
0.973175 0.0101625 0
1 0.00256352 0
1 0 0
1 0 0
1 0 0
1 0 0
1 0 0
1 0 0
1 0 0
1 0 0
1 0 0
1 0 0
1 0 0
1 0 0
0 0.20119 0.159548
0 0.201831 0.15993
0 0.206134 0.16231
0 0.209247 0.16318
0 0.21059 0.16141
0 0.210651 0.156802
0 0.20853 0.147448
0.0451362 0.206043 0.122377
0.109804 0.198657 0.0876326
0.19266 0.188373 0.0498054
0.284672 0.170809 0.0345159
0.372061 0.153185 0.0210422
0.455817 0.137026 0.0104372
0.537041 0.122194 0.00173953
0.615427 0.108141 0
0.691005 0.094728 0
0.763684 0.0819409 0
0.833326 0.0699931 0
0.899733 0.0598154 0
0.962936 0.051194 0
1 0.0433967 0
1 0.03682 0
1 0.0315862 0
1 0.0272831 0
1 0.0240482 0
1 0.0215763 0
1 0.0199588 0
1 0.019501 0
1 0.0197299 0
1 0.0205844 0
1 0.0218509 0
1 0.0241855 0
1 0.026627 0
0 0.240894 0.181399
0 0.241627 0.181842
0 0.246555 0.184619
0 0.249546 0.185275
0 0.251118 0.184024
0 0.251606 0.180774
0 0.250431 0.174075
0.041825 0.248783 0.156527
0.0728313 0.250187 0.11339
0.16228 0.234958 0.0908675
0.248005 0.224659 0.0480964
0.340673 0.207141 0.0307774
0.427695 0.190082 0.0156863
0.511925 0.174411 0.00421149
0.59292 0.159823 0
0.670909 0.146426 0
0.745647 0.134051 0
0.81706 0.122652 0
0.884962 0.112261 0
0.949676 0.103212 0
1 0.094728 0
1 0.0872511 0
1 0.0806897 0
1 0.0757458 0
1 0.0724193 0
1 0.0700084 0
1 0.0685893 0
1 0.0683146 0
1 0.0694896 0
1 0.0711986 0
1 0.0737621 0
1 0.0774701 0
1 0.0814221 0
0 0.282612 0.205707
0 0.283604 0.206363
0 0.28835 0.208988
0 0.291798 0.210117
0 0.293736 0.209445
0 0.294469 0.206928
0 0.293919 0.201953
0.041062 0.293797 0.187961
0.057496 0.297871 0.150256
0.132204 0.28716 0.125689
0.215488 0.274388 0.092134
0.304158 0.263264 0.0479286
0.396902 0.246067 0.0285344
0.484276 0.229526 0.0121157
0.568032 0.214206 0
0.648341 0.200183 0
0.725231 0.187549 0
0.798489 0.176165 0
0.867964 0.166033 0
0.934035 0.157473 0
0.996094 0.149645 0
1 0.143099 0
1 0.137667 0
1 0.133455 0
1 0.130724 0
1 0.128862 0
1 0.127977 0
1 0.128176 0
1 0.129763 0
1 0.131746 0
1 0.134478 0
1 0.138216 0
1 0.141833 0
0 0.325978 0.232029
0 0.326757 0.232502
0 0.331731 0.235386
0 0.335622 0.237003
0 0.338079 0.237003
0 0.339162 0.235218
0.00415045 0.339025 0.231388
0.0424964 0.340551 0.218357
0.0593881 0.344503 0.189578
0.101778 0.341955 0.155581
0.18677 0.326543 0.138277
0.270176 0.316152 0.0917067
0.361364 0.303792 0.0500496
0.454414 0.287236 0.0289921
0.541299 0.271107 0.0110018
0.623835 0.256245 0
0.702754 0.242893 0
0.77789 0.231113 0
0.848981 0.220783 0
0.916442 0.212161 0
0.979644 0.20444 0
1 0.198077 0
1 0.193057 0
1 0.189166 0
1 0.18677 0
1 0.185199 0
1 0.184558 0
1 0.185107 0
1 0.186694 0
1 0.188754 0
1 0.191485 0
1 0.195117 0
1 0.198657 0
0 0.370306 0.259785
0 0.371191 0.260349
0 0.376669 0.263737
0 0.380911 0.265782
0 0.383749 0.266285
0 0.385306 0.265232
0.0194858 0.385595 0.262318
0.0463417 0.388861 0.248615
0.0634775 0.392691 0.225559
0.0756847 0.395483 0.188525
0.158297 0.38262 0.173098
0.242298 0.367895 0.150576
0.326818 0.359976 0.0899672
0.419791 0.346044 0.0553445
0.511772 0.329686 0.0321508
0.597757 0.314214 0.0127718
0.678706 0.300175 0
0.755596 0.287663 0
0.828595 0.277058 0
0.897139 0.267842 0
0.961532 0.259876 0
1 0.253376 0
1 0.248295 0
1 0.244831 0
1 0.24213 0
1 0.24062 0
1 0.240055 0
1 0.240879 0
1 0.242145 0
1 0.244205 0
1 0.247074 0
1 0.250446 0
1 0.25388 0
0 0.415763 0.289082
0 0.416953 0.289891
0 0.422736 0.293599
0 0.427482 0.296162
0 0.43061 0.297078
0 0.432502 0.296529
0.0329137 0.434302 0.29247
0.0529488 0.438468 0.279072
0.070222 0.442115 0.259892
0.0838026 0.4448 0.230838
0.132616 0.439445 0.205112
0.214939 0.424247 0.191455
0.299565 0.411124 0.162158
0.384131 0.404334 0.0907912
0.478172 0.38912 0.0637522
0.568811 0.373388 0.038941
0.653239 0.358709 0.0182956
0.732036 0.345586 0.00213626
0.806699 0.334401 0
0.876463 0.324498 0
0.942016 0.316106 0
1 0.309255 0
1 0.303883 0
1 0.300221 0
1 0.297337 0
1 0.29572 0
1 0.295033 0
1 0.295781 0
1 0.296971 0
1 0.298863 0
1 0.301793 0
1 0.304784 0
1 0.308095 0
0 0.462287 0.319738
0 0.463523 0.320623
0 0.469963 0.324895
0 0.474861 0.327672
0 0.478401 0.329046
0.0154726 0.480522 0.328878
0.0423133 0.484672 0.321477
0.0624399 0.488823 0.309697
0.0799725 0.492393 0.293309
0.0937972 0.495003 0.269566
0.106859 0.495933 0.236454
0.188479 0.48217 0.226246
0.273365 0.466514 0.209628
0.357626 0.45507 0.172045
0.442466 0.448463 0.101442
0.536385 0.432944 0.0760815
0.62501 0.41799 0.0499275
0.707637 0.404562 0.0286259
0.783749 0.392447 0.0116579
0.854841 0.381933 0
0.921523 0.372915 0
0.983352 0.36556 0
1 0.360159 0
1 0.355764 0
1 0.35256 0
1 0.350652 0
1 0.350088 0
1 0.35024 0
1 0.351202 0
1 0.352926 0
1 0.355673 0
1 0.35848 0
1 0.361959 0
0 0.509438 0.351385
0 0.510781 0.352331
0 0.517555 0.356924
0 0.523033 0.360235
0 0.526696 0.361822
0.0332799 0.530846 0.358587
0.054963 0.5355 0.350896
0.0752728 0.539696 0.340429
0.092958 0.543297 0.326207
0.106081 0.545922 0.306233
0.115084 0.547097 0.277974
0.166857 0.539269 0.258991
0.247135 0.52398 0.247456
0.332799 0.509071 0.226627
0.416632 0.499535 0.180163
0.501976 0.492271 0.11548
0.5944 0.477485 0.0928969
0.680232 0.463371 0.065919
0.759518 0.450614 0.0434272
0.832609 0.43949 0.025803
0.900465 0.429969 0.0122072
0.963668 0.422415 0.00254826
1 0.416083 0
1 0.4112 0
1 0.407584 0
1 0.405295 0
1 0.404425 0
1 0.404211 0
1 0.404868 0
1 0.406683 0
1 0.40882 0
1 0.411399 0
1 0.414649 0.00216678
0 0.556832 0.383597
0 0.558221 0.384604
0 0.565377 0.389532
0 0.57113 0.393118
0.0267491 0.576532 0.392569
0.0498054 0.582086 0.387655
0.071519 0.58674 0.380667
0.0914321 0.590616 0.371054
0.107301 0.593881 0.358343
0.119707 0.596323 0.341054
0.128679 0.597559 0.317372
0.149828 0.594919 0.290837
0.223896 0.581186 0.281453
0.3084 0.565179 0.26807
0.393545 0.551888 0.24184
0.476616 0.544427 0.186542
0.56199 0.535912 0.133196
0.650828 0.521614 0.111208
0.733227 0.508492 0.0864118
0.809079 0.496757 0.0632181
0.879377 0.486854 0.0453956
0.943389 0.478508 0.0316167
1 0.471672 0.0213474
1 0.466285 0.0139467
1 0.462135 0.0087892
1 0.45977 0.00624094
1 0.458106 0.00476081
1 0.457527 0.00469978
1 0.458183 0.00616464
1 0.459266 0.00805676
1 0.461036 0.0108034
1 0.463584 0.014374
1 0.4663 0.0180667
0 0.604334 0.416281
0 0.605646 0.417212
0 0.613001 0.422324
0.0221256 0.620356 0.423606
0.0463569 0.6271 0.420996
0.069337 0.632593 0.416495
0.0909285 0.63714 0.410056
0.108721 0.640894 0.401282
0.12314 0.643992 0.389776
0.134661 0.646235 0.374456
0.143389 0.647395 0.354055
0.149386 0.646998 0.326818
0.205966 0.636759 0.31368
0.285847 0.621592 0.303746
0.371588 0.606104 0.287434
0.454871 0.594507 0.25452
0.536141 0.588586 0.190478
0.620615 0.578637 0.151476
0.705638 0.565301 0.130892
0.784619 0.553567 0.10927
0.856901 0.542794 0.0883345
0.922728 0.533669 0.0699168
0.982635 0.526284 0.0559854
1 0.520439 0.0455787
1 0.516182 0.0384527
1 0.512947 0.0333867
1 0.510765 0.0302586
1 0.509773 0.0289311
1 0.510048 0.0294041
1 0.510796 0.0306401
1 0.512215 0.0327001
1 0.514473 0.0359045
1 0.516762 0.0390784
0 0.651514 0.449027
0 0.652964 0.450095
0.0202182 0.661875 0.451728
0.0451057 0.670176 0.451499
0.0694438 0.676936 0.449195
0.0922408 0.682353 0.445045
0.111162 0.686763 0.439063
0.126894 0.690318 0.430884
0.140047 0.693202 0.420386
0.150683 0.695262 0.406561
0.158984 0.696315 0.388571
0.165316 0.6963 0.36527
0.194766 0.690455 0.345006
0.266926 0.676371 0.336355
0.350774 0.660273 0.324773
0.435142 0.645914 0.30396
0.516121 0.636378 0.263996
0.595315 0.632044 0.192248
0.67834 0.620783 0.170565
0.759091 0.608438 0.151644
0.833631 0.59733 0.132052
0.901411 0.587686 0.114107
0.962997 0.57969 0.0986038
1 0.57348 0.0859998
1 0.568399 0.0753033
1 0.564752 0.0678874
1 0.562188 0.0628214
1 0.560998 0.0602426
1 0.560464 0.0589303
1 0.560815 0.0590524
1 0.562264 0.0608835
1 0.563867 0.0629892
1 0.565896 0.0657664
0.0185092 0.699931 0.476967
0.0226444 0.701701 0.477455
0.0470436 0.711162 0.47924
0.0717021 0.719158 0.479057
0.095491 0.72575 0.476951
0.115068 0.730999 0.473045
0.131609 0.735271 0.46743
0.145708 0.738613 0.4598
0.157794 0.741482 0.450156
0.167697 0.743404 0.437583
0.175479 0.744289 0.421393
0.181308 0.743908 0.400671
0.187091 0.741543 0.374868
0.252567 0.728756 0.367041
0.332341 0.71313 0.357763
0.416861 0.697337 0.34345
0.498924 0.685039 0.317357
0.577386 0.677668 0.27042
0.653315 0.67306 0.207279
0.733791 0.661311 0.189425
0.810132 0.649882 0.17203
0.879866 0.639979 0.154955
0.943374 0.631754 0.139879
1 0.624674 0.126741
1 0.618936 0.11577
1 0.61474 0.107362
1 0.612039 0.101396
1 0.610193 0.0971084
1 0.609247 0.0944533
1 0.609461 0.0937667
1 0.610117 0.0939193
1 0.611414 0.0952163
1 0.613413 0.097612
0.0476081 0.747738 0.503624
0.0518044 0.749508 0.504143
0.0764172 0.758877 0.50602
0.100587 0.76704 0.506142
0.12079 0.773571 0.50425
0.137789 0.778683 0.500603
0.152377 0.782727 0.495262
0.164935 0.78584 0.488029
0.175692 0.788235 0.478859
0.184695 0.789792 0.46714
0.191928 0.790433 0.452323
0.197467 0.789914 0.433661
0.201328 0.787869 0.410163
0.242878 0.778653 0.396246
0.317739 0.764233 0.388418
0.400565 0.748043 0.377569
0.482994 0.733501 0.359304
0.561608 0.723095 0.326986
0.636805 0.717372 0.273548
0.70985 0.712077 0.222171
0.787549 0.700633 0.208286
0.858595 0.690318 0.192676
0.923217 0.681453 0.177752
0.981704 0.674006 0.164553
1 0.667964 0.153429
1 0.663294 0.144518
1 0.659663 0.137377
1 0.657328 0.132342
1 0.656184 0.129259
1 0.655909 0.127718
1 0.656245 0.127275
1 0.657465 0.128222
1 0.658839 0.129595
0.0803998 0.794385 0.529763
0.0843519 0.795819 0.530114
0.106874 0.80502 0.532036
0.127077 0.813016 0.53225
0.144503 0.819348 0.530449
0.159487 0.824277 0.52697
0.172503 0.828107 0.521874
0.18378 0.830945 0.514946
0.193515 0.833021 0.506233
0.201785 0.834318 0.495232
0.208499 0.834745 0.481498
0.213672 0.834104 0.464408
0.217609 0.832258 0.443381
0.238025 0.825986 0.424201
0.306752 0.812192 0.416709
0.386816 0.796277 0.407767
0.46923 0.780606 0.394186
0.548211 0.767926 0.370947
0.623392 0.759838 0.332555
0.695323 0.755779 0.273426
0.76643 0.748653 0.239216
0.838407 0.737896 0.226459
0.904036 0.728618 0.212528
0.963912 0.721004 0.199756
1 0.714458 0.188403
1 0.70927 0.179141
1 0.70518 0.17171
1 0.702617 0.166583
1 0.700832 0.16289
1 0.700038 0.160784
1 0.700191 0.160159
1 0.70103 0.160601
1 0.702098 0.161532
0.112245 0.83888 0.554788
0.11574 0.840604 0.555306
0.134798 0.849668 0.557305
0.151827 0.857145 0.557336
0.167163 0.863249 0.555627
0.180468 0.867903 0.552254
0.192157 0.871473 0.547326
0.202411 0.874067 0.540703
0.211337 0.87599 0.532418
0.218936 0.877073 0.522011
0.225086 0.877241 0.509087
0.229877 0.876387 0.493202
0.233371 0.874189 0.473732
0.236454 0.870222 0.450416
0.299672 0.85716 0.443259
0.376287 0.841733 0.435355
0.457816 0.825818 0.424613
0.53753 0.81181 0.407233
0.612573 0.801266 0.378347
0.683574 0.794888 0.333837
0.751705 0.791669 0.271901
0.820096 0.782757 0.256001
0.886854 0.773388 0.244511
0.94699 0.765118 0.232425
1 0.758068 0.221332
1 0.752483 0.212131
1 0.748379 0.204974
1 0.745174 0.19942
1 0.742977 0.195453
1 0.742 0.193301
1 0.74165 0.192203
1 0.741985 0.192157
1 0.743114 0.19321
0.140505 0.881483 0.578851
0.143496 0.883162 0.579355
0.15993 0.892012 0.581247
0.175296 0.89955 0.581476
0.189029 0.905425 0.579843
0.200977 0.909834 0.576577
0.211414 0.913069 0.57171
0.220615 0.915312 0.56524
0.228656 0.916838 0.557198
0.235492 0.917494 0.547143
0.241077 0.917296 0.534813
0.245441 0.916121 0.519829
0.248661 0.913787 0.501686
0.250843 0.909957 0.479942
0.296468 0.89958 0.468482
0.369375 0.884627 0.461097
0.448981 0.868482 0.451835
0.528511 0.853284 0.437888
0.603845 0.841108 0.415518
0.674922 0.832837 0.380941
0.742412 0.828153 0.330983
0.805844 0.823957 0.284962
0.871015 0.814771 0.272923
0.931563 0.806195 0.262547
0.986786 0.799115 0.252537
1 0.793118 0.243641
1 0.788281 0.23624
1 0.784756 0.230671
1 0.782559 0.226993
1 0.781048 0.224475
1 0.780346 0.223148
1 0.78056 0.223087
1 0.781033 0.223499
0.166308 0.922393 0.601907
0.168978 0.924041 0.602441
0.183322 0.932311 0.604196
0.197101 0.939559 0.604425
0.209277 0.945083 0.602686
0.22005 0.949218 0.59942
0.229618 0.952209 0.59472
0.237903 0.954131 0.588342
0.245151 0.955261 0.580438
0.251377 0.955596 0.570703
0.256519 0.955154 0.558923
0.260761 0.95404 0.544869
0.263645 0.951446 0.527733
0.265522 0.947433 0.507286
0.295369 0.938766 0.491829
0.365072 0.924239 0.48481
0.442786 0.90811 0.476585
0.52195 0.892378 0.465003
0.597604 0.878874 0.446983
0.668559 0.868803 0.419165
0.735332 0.862348 0.378958
0.798032 0.8589 0.325093
0.857542 0.853254 0.297993
0.918166 0.844312 0.289952
0.973098 0.836667 0.28098
1 0.830457 0.272847
1 0.825437 0.265919
1 0.821653 0.260563
1 0.818814 0.256519
1 0.816999 0.25388
1 0.816312 0.252766
1 0.816037 0.252293
1 0.816373 0.252613
0.189883 0.960662 0.623697
0.192248 0.962249 0.624186
0.205463 0.970489 0.626078
0.217899 0.977478 0.626261
0.228992 0.982712 0.624552
0.23856 0.986481 0.621134
0.247105 0.989136 0.616342
0.254749 0.990799 0.610132
0.261311 0.991638 0.602396
0.266896 0.991592 0.592859
0.271519 0.990738 0.581415
0.275212 0.989029 0.567742
0.277913 0.98613 0.5514
0.279667 0.981796 0.532006
0.297475 0.974456 0.513466
0.364797 0.960281 0.506844
0.440787 0.944244 0.499245
0.518975 0.928023 0.489067
0.594354 0.913466 0.473777
0.665049 0.901961 0.450538
0.731579 0.894163 0.417151
0.793591 0.889601 0.372564
0.851087 0.886381 0.325582
0.907683 0.878798 0.314199
0.962142 0.870695 0.306722
1 0.864408 0.299657
1 0.859068 0.293156
1 0.854948 0.287984
1 0.852033 0.28423
1 0.849928 0.281514
1 0.84863 0.279866
1 0.848203 0.279255
1 0.848295 0.279316
0.211963 0.996979 0.644511
0.214115 0.998489 0.645014
0.22591 1 0.646708
0.237064 1 0.646723
0.247105 1 0.644907
0.255894 1 0.641505
0.263508 1 0.636591
0.270298 1 0.630259
0.276341 1 0.622644
0.281498 1 0.613245
0.285801 1 0.602014
0.289326 1 0.588754
0.291844 1 0.572961
0.293553 1 0.554452
0.302281 1 0.533532
0.367391 0.992554 0.526909
0.441566 0.976471 0.519661
0.518837 0.960037 0.510506
0.5944 0.945068 0.497261
0.664775 0.932662 0.477363
0.730465 0.923461 0.448646
0.791379 0.917525 0.410452
0.848066 0.91426 0.362829
0.900923 0.909697 0.337362
0.954223 0.901808 0.330068
1 0.894957 0.323751
1 0.889296 0.317723
1 0.88513 0.312993
1 0.881849 0.309133
1 0.879545 0.306371
1 0.878248 0.304753
1 0.877379 0.30367
1 0.877058 0.303212
0.232074 1 0.663859
0.234043 1 0.664332
0.24506 1 0.666087
0.255421 1 0.666117
0.264454 1 0.664134
0.272374 1 0.660594
0.279332 1 0.655573
0.285481 1 0.649027
0.290913 1 0.641154
