public/textures/grade/Sony/Licorice-SLog.cube
TITLE "Generated by Resolve"
LUT_3D_SIZE 33
0 0 0.0439918
0 0 0.0404974
0 0 0.0356451
0.00190738 0 0.0337835
0.0281071 0 0.0337987
0.0591592 0 0.0348058
0.0964523 0 0.036286
0.141421 0 0.0371557
0.195285 0 0.0353857
0.257496 0 0.0294652
0.321935 0 0.0231632
0.385565 0 0.0169223
0.447395 0 0.010132
0.50985 0 0.0031281
0.573266 0 0
0.637247 0 0
0.701137 0 0
0.764401 0 0
0.826444 0 0
0.8869 0 0
0.945907 0 0
1 0 0
1 0 0
1 0 0
1 0 0
1 0 0
1 0 0
1 0 0
1 0 0
1 0 0
1 0 0
1 0 0
1 0 0
0 0 0.041001
0 0 0.0381781
0 0 0.0354314
0 0 0.0314488
0.0235599 0 0.0317693
0.0543221 0 0.0333715
0.091371 0 0.0356298
0.136324 0 0.0375219
0.19028 0 0.0369116
0.253254 0 0.0315404
0.319066 0 0.0251926
0.384146 0 0.0189059
0.447074 0 0.0121614
0.510475 0 0.00534066
0.574502 0 0
0.638865 0 0
0.70312 0 0
0.766842 0 0
0.829526 0 0
0.890608 0 0
0.949783 0 0
1 0 0
1 0 0
1 0 0
1 0 0
1 0 0
1 0 0
1 0 0
1 0 0
1 0 0
1 0 0
1 0 0
1 0 0
0 0.0137179 0.0380865
0 0.013489 0.0353399
0 0.0125429 0.0328985
0 0.0110018 0.0311742
0.0163424 0.0096437 0.02916
0.0467384 0.00543221 0.0310521
0.0839246 0 0.0344549
0.128573 0 0.0373999
0.1823 0 0.037995
0.245853 0 0.0335393
0.313497 0 0.0271611
0.380499 0 0.0208591
0.44506 0 0.0141146
0.50898 0 0.00712596
0.57377 0 0.000167849
0.638895 0 0
0.703761 0 0
0.767941 0 0
0.831128 0 0
0.892638 0 0
0.952392 0 0
1 0 0
1 0 0
1 0 0
1 0 0
1 0 0
1 0 0
1 0 0
1 0 0
1 0 0
1 0 0
1 0 0
1 0 0
0 0.0317845 0.0392157
0 0.0319066 0.0366369
0 0.0314794 0.033875
0 0.0304875 0.0313878
0.00791943 0.0288548 0.0293126
0.0363622 0.0267491 0.0291752
0.0725872 0.0215152 0.032166
0.117266 0.0137942 0.0363317
0.171191 0.00358587 0.038529
0.235309 0 0.0356451
0.305226 0 0.0293889
0.374289 0 0.0228885
0.440787 0 0.0159762
0.505638 0 0.00875868
0.57113 0 0.00164797
0.636973 0 0
0.702861 0 0
0.767712 0 0
0.831235 0 0
0.893156 0 0
0.953399 0 0
1 0 0
1 0 0
1 0 0
1 0 0
1 0 0
1 0 0
1 0 0
1 0 0
1 0 0
1 0 0
1 0 0
1 0 0
0 0.0510414 0.0504005
0 0.0513313 0.0478523
0 0.0510872 0.044892
0 0.0505684 0.0421912
0 0.0491493 0.0395514
0.0246738 0.0472267 0.0375372
0.057496 0.0456855 0.0324254
0.102586 0.0390326 0.0349737
0.155398 0.0305028 0.0374456
0.220005 0.0186007 0.0361334
0.291859 0.00495918 0.0297856
0.363882 0 0.0235447
0.433478 0 0.0167544
0.499809 0 0.00920119
0.565972 0 0.00140383
0.632639 0 0
0.698848 0 0
0.764462 0 0
0.828779 0 0
0.891096 0 0
0.951415 0 0
1 0 0
1 0 0
1 0 0
1 0 0
1 0 0
1 0 0
1 0 0
1 0 0
1 0 0
1 0 0
1 0 0
1 0 0
0 0.0729229 0.0672618
0 0.0736553 0.064744
0 0.0738079 0.0614939
0 0.0734875 0.0580453
0 0.072221 0.0544137
0.00865187 0.0708782 0.0514229
0.035172 0.0722667 0.0430457
0.0839704 0.0664073 0.0383764
0.138643 0.0576028 0.0392157
0.202319 0.0465095 0.0374151
0.275334 0.033341 0.0308843
0.349691 0.0199893 0.0244602
0.422415 0.0071107 0.0178683
0.491539 0 0.0108034
0.560189 0 0.00378424
0.628382 0 0
0.695689 0 0
0.761593 0 0
0.826383 0 0
0.88986 0 0
0.951217 0 0
1 0 0
1 0 0
1 0 0
1 0 0
1 0 0
1 0 0
1 0 0
1 0 0
1 0 0
1 0 0
1 0 0
1 0 0
0 0.0999619 0.0905928
0 0.101457 0.0886702
0 0.102083 0.0855268
0 0.101991 0.0814832
0 0.100969 0.0764782
0 0.0994888 0.0717174
0.0213474 0.0974289 0.0664378
0.05832 0.0968643 0.0513924
0.115862 0.0895094 0.0441901
0.181582 0.0769665 0.0404364
0.255802 0.0630045 0.0328679
0.332219 0.0489815 0.0258946
0.408087 0.0357214 0.0193637
0.479713 0.0234989 0.0122225
0.550271 0.0116121 0.00517281
0.620325 0 0
0.689464 0 0
0.757229 0 0
0.823575 0 0
0.887663 0 0
0.949783 0 0
1 0 0
1 0 0
1 0 0
1 0 0
1 0 0
1 0 0
1 0 0
1 0 0
1 0 0
1 0 0
1 0 0
1 0 0
0 0.129885 0.11603
0 0.131746 0.115023
0 0.133028 0.112947
0 0.133639 0.109789
0 0.133257 0.105348
0 0.132128 0.0999313
0 0.13051 0.0934005
0.0378882 0.127855 0.0796826
0.0889906 0.123629 0.0591592
0.156191 0.113954 0.0464637
0.232624 0.0986648 0.0358892
0.310994 0.0828412 0.0273442
0.389227 0.0678721 0.0200961
0.46392 0.0549477 0.0128786
0.536828 0.0426642 0.00572213
0.608789 0.0307317 0
0.679881 0.01944 0
0.749401 0.00856031 0
0.816953 0 0
0.882292 0 0
0.94551 0 0
1 0 0
1 0 0
1 0 0
1 0 0
1 0 0
1 0 0
1 0 0
1 0 0
1 0 0
1 0 0
1 0 0
1 0 0
0 0.161593 0.138705
0 0.164157 0.139391
0 0.166064 0.138918
0 0.167437 0.137301
0 0.168032 0.13431
0 0.167498 0.129488
0 0.166186 0.122866
0.0171511 0.162966 0.112566
0.0506294 0.164248 0.0787213
0.127733 0.152422 0.0599222
0.206104 0.139757 0.0425422
0.286336 0.123476 0.0305638
0.366537 0.107012 0.0211185
0.444038 0.0919814 0.0129549
0.519646 0.0775616 0.00541695
0.594171 0.0646677 0
0.667079 0.0530709 0
0.73814 0.0418555 0
0.807233 0.0313878 0
0.874037 0.0215915 0
0.938476 0.0123751 0
0.999924 0.0043946 0
1 0 0
1 0 0
1 0 0
1 0 0
1 0 0
1 0 0
1 0 0
1 0 0
1 0 0
1 0 0
1 0 0
0 0.194263 0.155856
0 0.197513 0.157809
0 0.200183 0.159106
0 0.202426 0.159716
0 0.203372 0.158465
0 0.203662 0.155444
0 0.203098 0.15024
0 0.200732 0.141222
0.0446021 0.198459 0.118914
0.100496 0.19266 0.0867475
0.174502 0.183627 0.0513619
0.258167 0.168109 0.038056
0.340948 0.151369 0.024979
0.420935 0.135393 0.014435
0.499397 0.120897 0.00578317
0.57612 0.106935 0
0.651133 0.0935378 0
0.724056 0.0802472 0
0.794705 0.0681468 0
0.863127 0.0576486 0
0.929076 0.0482948 0
0.99147 0.0403143 0
1 0.0330358 0
1 0.0267643 0
1 0.0215915 0
1 0.017792 0
1 0.014847 0
1 0.0128481 0
1 0.011902 0
1 0.0121157 0
1 0.0133974 0
1 0.0159915 0
1 0.0189517 0
0 0.229496 0.17496
0 0.233249 0.177188
0 0.236301 0.178744
0 0.238224 0.179004
0 0.239384 0.178164
0 0.239933 0.17612
0 0.239796 0.172396
0 0.238514 0.165805
0.0413519 0.236591 0.149874
0.0652781 0.238819 0.108751
0.147707 0.224506 0.0900893
0.224475 0.215763 0.0495155
0.312032 0.19942 0.0340734
0.395438 0.183291 0.0198978
0.476127 0.16759 0.00830091
0.555123 0.152941 0
0.632288 0.139376 0
0.707286 0.126711 0
0.779934 0.114977 0
0.849805 0.103929 0
0.916884 0.09337 0
0.980453 0.0839094 0
1 0.0751965 0
1 0.0681468 0
1 0.0627298 0
1 0.0584421 0
1 0.0554055 0
1 0.0536202 0
1 0.0530251 0
1 0.0537881 0
1 0.0563058 0
1 0.0597543 0
1 0.0644846 0
0 0.267628 0.196872
0 0.271427 0.199268
0 0.274113 0.200443
0 0.276234 0.200839
0 0.277775 0.200534
0 0.278599 0.199054
0 0.278904 0.196262
0 0.277882 0.191058
0.0398871 0.277104 0.178607
0.0550851 0.280903 0.144183
0.119783 0.272206 0.119814
0.196201 0.259892 0.0918746
0.278096 0.250309 0.0489357
0.366247 0.233997 0.0313268
0.45037 0.217899 0.01561
0.531823 0.202472 0.00302129
0.611078 0.188174 0
0.688396 0.175479 0
0.762707 0.163607 0
0.834089 0.152804 0
0.902586 0.142855 0
0.967315 0.134096 0
1 0.12665 0
1 0.120424 0
1 0.115206 0
1 0.111162 0
1 0.108415 0
1 0.107088 0
1 0.107424 0
1 0.10898 0
1 0.111666 0
1 0.115648 0
1 0.12076 0
0 0.307607 0.220798
0 0.311269 0.222995
0 0.31426 0.224491
0 0.316594 0.225223
0 0.318593 0.225391
0 0.319753 0.224445
0 0.32018 0.222217
0.00415045 0.3196 0.218189
0.0402075 0.320134 0.206867
0.0555123 0.323644 0.180316
0.0890974 0.323064 0.146792
0.1691 0.308858 0.13164
0.246921 0.298299 0.0920882
0.331777 0.287327 0.0498054
0.420905 0.271046 0.0301213
0.505898 0.255253 0.0130312
0.587839 0.240574 0
0.666728 0.22681 0
0.742763 0.21442 0
0.815778 0.203387 0
0.885801 0.193561 0
0.95201 0.185214 0
1 0.178134 0
1 0.172076 0
1 0.167346 0
1 0.163867 0
1 0.161624 0
1 0.160937 0
1 0.161364 0
1 0.162982 0
1 0.165789 0
1 0.169741 0
1 0.174716 0
0 0.348806 0.246174
0 0.352804 0.248707
0 0.356207 0.250599
0 0.359152 0.251926
0 0.361151 0.252232
0 0.362493 0.251652
0 0.36321 0.250019
0.0159609 0.363104 0.246952
0.0429084 0.365301 0.235294
0.0585794 0.368978 0.214084
0.0701915 0.37171 0.180316
0.141695 0.361334 0.163012
0.220295 0.347295 0.14313
0.299458 0.33875 0.0908217
0.387457 0.326268 0.0531624
0.47747 0.310445 0.0317388
0.562493 0.294972 0.013138
0.643549 0.280659 0
0.721416 0.267613 0
0.795972 0.256001 0
0.867796 0.246143 0
0.935119 0.237507 0
0.998611 0.230228 0
1 0.224262 0
1 0.219593 0
1 0.216434 0
1 0.214633 0
1 0.21384 0
1 0.214252 0
1 0.215885 0
1 0.218677 0
1 0.222812 0
1 0.227863 0
0 0.391867 0.273564
0 0.396109 0.276356
0 0.400061 0.278737
0 0.403098 0.280232
0 0.405432 0.280934
0 0.40705 0.280735
0 0.407965 0.279545
0.0309758 0.408804 0.276585
0.048249 0.412497 0.264317
0.0637675 0.415839 0.246601
0.0762798 0.418463 0.22002
0.11548 0.415152 0.192782
0.193378 0.400824 0.180102
0.273503 0.38819 0.15465
0.354314 0.381353 0.0885023
0.444663 0.367117 0.0596933
0.534127 0.351354 0.0361028
0.618616 0.3364 0.0161288
0.698512 0.322866 0.000350958
0.775143 0.310994 0
0.847959 0.300175 0
0.916442 0.291051 0
0.981003 0.283452 0
1 0.277317 0
1 0.272679 0
1 0.269566 0
1 0.267475 0
1 0.266621 0
1 0.266972 0
1 0.268589 0
1 0.271519 0
1 0.275486 0
1 0.280186 0
0 0.436515 0.302693
0 0.441276 0.305928
0 0.445197 0.308354
0 0.448447 0.310079
0 0.451041 0.311086
0 0.452964 0.311284
0.0128328 0.454429 0.310735
0.0387121 0.457282 0.30454
0.0558022 0.460777 0.293675
0.0714885 0.464027 0.278584
0.0849012 0.466682 0.256916
0.0939498 0.468193 0.224979
0.167895 0.456794 0.213062
0.247486 0.441947 0.198077
0.328145 0.43035 0.165072
0.410086 0.424063 0.0954299
0.502068 0.409018 0.0693828
0.590692 0.39379 0.0441749
0.674403 0.379889 0.0233463
0.752529 0.367132 0.0065919
0.82681 0.355734 0
0.896544 0.346044 0
0.962112 0.337926 0
1 0.331762 0
1 0.326696 0
1 0.323049 0
1 0.320745 0
1 0.319692 0
1 0.319982 0
1 0.321675 0
1 0.324193 0
1 0.32781 0
1 0.332341 0
0 0.482307 0.333135
0 0.487236 0.336538
0 0.491508 0.339284
0 0.495018 0.341299
0 0.497795 0.342519
0.00117494 0.500221 0.343236
0.0315251 0.503014 0.340383
0.0493782 0.506798 0.333227
0.0664683 0.510216 0.323522
0.0824598 0.513298 0.310369
0.0957198 0.516106 0.292287
0.105226 0.517784 0.266529
0.146685 0.512444 0.244648
0.221363 0.49836 0.233906
0.30312 0.483711 0.215488
0.384482 0.473671 0.174243
0.467933 0.467506 0.106706
0.560037 0.452232 0.0836652
0.647074 0.43769 0.0568856
0.728435 0.424247 0.0346227
0.804654 0.412253 0.0169223
0.875639 0.402029 0.00350958
0.942733 0.393729 0
1 0.386664 0
1 0.381109 0
1 0.377035 0
1 0.374365 0
1 0.373068 0
1 0.373312 0
1 0.374411 0
1 0.376654 0
1 0.37995 0
1 0.384192 0
0 0.528954 0.36463
0 0.534066 0.368185
0 0.538537 0.371145
0 0.542473 0.373526
0 0.545678 0.375143
0.0273594 0.549111 0.373693
0.0453651 0.55317 0.368872
0.0631876 0.556893 0.362356
0.0803388 0.560281 0.353643
0.0960555 0.5635 0.342153
0.108385 0.566049 0.326482
0.117723 0.56759 0.304952
0.12639 0.567346 0.275639
0.198383 0.55494 0.266987
0.278111 0.539788 0.254902
0.361074 0.52636 0.231998
0.442618 0.518044 0.182101
0.526894 0.510353 0.12282
0.61709 0.495659 0.100343
0.701869 0.481926 0.0737774
0.781109 0.469291 0.0505531
0.854551 0.458762 0.032929
0.922316 0.449561 0.0190433
0.985504 0.441932 0.0087129
1 0.435859 0.00135805
1 0.431312 0
1 0.42855 0
1 0.426749 0
1 0.42623 0
1 0.426993 0
1 0.428916 0
1 0.431891 0.00274662
1 0.436042 0.00822461
0 0.57615 0.396872
0 0.581491 0.400626
0 0.586221 0.403815
0.00523384 0.590341 0.406394
0.0267796 0.595056 0.405188
0.0448005 0.599603 0.402167
0.0627756 0.603677 0.397757
0.0805219 0.607309 0.39176
0.0974289 0.61091 0.383993
0.111238 0.613748 0.373541
0.122667 0.616053 0.359731
0.131701 0.617548 0.341253
0.138262 0.617685 0.316091
0.18143 0.610681 0.299199
0.255161 0.596689 0.28986
0.337911 0.581277 0.27541
0.420111 0.569039 0.246494
0.501167 0.562295 0.187884
0.585763 0.553216 0.14049
0.673716 0.539544 0.119265
0.756024 0.526619 0.0952316
0.831662 0.51516 0.0722057
0.901457 0.505302 0.0537423
0.965789 0.497093 0.0395819
1 0.490486 0.0290684
1 0.485756 0.0221103
1 0.482139 0.017319
1 0.479866 0.0146487
1 0.478843 0.0138399
1 0.479133 0.0147707
1 0.480613 0.0171969
1 0.483543 0.0213626
1 0.487007 0.0261387
0 0.623514 0.429557
0 0.629313 0.433707
0.0125734 0.634821 0.435615
0.029984 0.640452 0.435111
0.047776 0.645487 0.433509
0.0657664 0.650004 0.430732
0.0841382 0.654154 0.426749
0.100908 0.657954 0.421363
0.115312 0.661051 0.414054
0.127733 0.663691 0.404486
0.138308 0.665812 0.392111
0.146929 0.667185 0.375937
0.153582 0.667567 0.354467
0.169192 0.664897 0.330602
0.23592 0.652232 0.322438
0.315587 0.636866 0.312001
0.398856 0.62208 0.294041
0.480018 0.611566 0.258564
0.560357 0.606592 0.191882
0.644526 0.596078 0.159411
0.729168 0.582834 0.139025
0.807355 0.570962 0.117662
0.879423 0.560555 0.0976883
0.945678 0.55169 0.0797284
1 0.544839 0.0659648
1 0.539193 0.0554055
1 0.535012 0.0480049
1 0.532235 0.0432746
1 0.53077 0.0408789
1 0.530922 0.04094
1 0.531884 0.0422827
1 0.533974 0.0451972
1 0.537041 0.0494392
0.00311284 0.671839 0.461372
0.019791 0.678676 0.462913
0.0369573 0.684947 0.463569
0.0545357 0.690608 0.463249
0.0723888 0.695628 0.46183
0.0904707 0.70016 0.459342
0.106828 0.704356 0.455726
0.121141 0.707774 0.450553
0.133944 0.710719 0.443732
0.145251 0.713176 0.434958
0.154955 0.715084 0.423682
0.163333 0.71664 0.40943
0.169604 0.716777 0.390524
0.174121 0.715526 0.366339
0.221775 0.706127 0.353796
0.295903 0.691676 0.34522
0.378622 0.676112 0.332982
0.461051 0.662791 0.310552
0.540475 0.654108 0.268284
0.618524 0.649775 0.198718
0.701762 0.637888 0.178363
0.782025 0.625727 0.159701
0.856489 0.615091 0.140963
0.924743 0.605783 0.123751
0.987106 0.597955 0.108827
1 0.591714 0.0964828
1 0.586969 0.086717
1 0.583642 0.0792859
1 0.581949 0.0751965
1 0.581353 0.0732433
1 0.581872 0.0732891
1 0.583444 0.0750744
1 0.585977 0.0784161
0.0310216 0.721233 0.488838
0.0479438 0.728069 0.490486
0.0652934 0.734295 0.491249
0.0831159 0.739879 0.491035
0.100343 0.745205 0.489967
0.115511 0.749554 0.487617
0.129351 0.753353 0.484108
0.141955 0.756619 0.479225
0.153353 0.75935 0.472816
0.163577 0.761639 0.464637
0.172686 0.763622 0.454398
0.180179 0.764645 0.441245
0.18613 0.76466 0.424338
0.1906 0.763409 0.403037
0.213443 0.757733 0.384039
0.280888 0.744549 0.37644
0.360891 0.729168 0.367071
0.443488 0.714015 0.351644
0.523583 0.702266 0.323491
0.600809 0.695338 0.274327
0.676799 0.69044 0.214237
0.757702 0.678813 0.197726
0.833768 0.667765 0.18085
0.903578 0.657908 0.164065
0.967422 0.649516 0.14905
1 0.642695 0.13637
1 0.637385 0.126146
1 0.633814 0.118654
1 0.63122 0.112963
1 0.630045 0.109606
1 0.630121 0.108385
1 0.631327 0.109117
1 0.633738 0.111772
0.062562 0.769711 0.515938
0.0796674 0.776501 0.517632
0.0966049 0.78265 0.518502
0.112322 0.78851 0.518563
0.126421 0.793347 0.517418
0.139483 0.797559 0.51519
0.151553 0.80119 0.511818
0.162722 0.804273 0.507179
0.172976 0.806851 0.501137
0.182437 0.80914 0.493568
0.190478 0.810559 0.483833
0.19736 0.811307 0.471672
0.202991 0.81117 0.456321
0.207202 0.809918 0.437171
0.210407 0.807416 0.413611
0.270497 0.795193 0.40621
0.346029 0.780194 0.398093
0.427832 0.76437 0.386618
0.508568 0.750561 0.366979
0.586069 0.740902 0.33283
0.66128 0.735714 0.276905
0.734493 0.72987 0.230121
0.811627 0.718273 0.216846
0.882872 0.708125 0.201511
0.948089 0.699336 0.18677
1 0.692119 0.173938
1 0.686351 0.163272
1 0.68191 0.154803
1 0.678843 0.148623
1 0.677119 0.144656
1 0.676646 0.142733
1 0.677638 0.143038
1 0.67953 0.144778
0.0969863 0.817029 0.542504
0.11223 0.824002 0.544396
0.126146 0.830076 0.545312
0.139101 0.835447 0.545235
0.151339 0.840146 0.544167
0.162737 0.844205 0.542031
0.173434 0.847639 0.538796
0.183734 0.850813 0.534554
0.192828 0.853101 0.52871
0.201099 0.854856 0.52134
0.208438 0.856016 0.512154
0.21471 0.856504 0.500755
0.219883 0.856107 0.486534
0.224079 0.855009 0.469245
0.226917 0.852216 0.447822
0.264225 0.843198 0.434501
0.334859 0.828962 0.427115
0.414542 0.813046 0.417777
0.495674 0.797971 0.403265
0.573709 0.786206 0.378683
0.648264 0.778363 0.337972
0.719646 0.774472 0.276646
0.790982 0.766613 0.248188
0.863142 0.756024 0.235462
0.929671 0.747036 0.221942
0.990188 0.739422 0.20943
1 0.732998 0.198581
1 0.727977 0.189822
1 0.724422 0.183337
1 0.722271 0.179065
1 0.72166 0.177096
1 0.721889 0.176562
1 0.723171 0.17763
0.128573 0.863188 0.56849
0.141268 0.86981 0.570291
0.15314 0.875685 0.57116
0.164446 0.880858 0.57113
0.175082 0.885359 0.570047
0.185245 0.889204 0.568002
0.195102 0.89279 0.565057
0.203967 0.895415 0.560723
0.212161 0.897398 0.555093
0.219608 0.898817 0.547982
0.22623 0.899687 0.539193
0.231968 0.899931 0.52842
0.236942 0.899626 0.515282
0.24062 0.897978 0.499107
0.243168 0.895064 0.479362
0.261616 0.888563 0.461418
0.327657 0.875074 0.454475
0.404868 0.8598 0.446601
0.485023 0.843976 0.43505
0.563104 0.830259 0.416312
0.637766 0.820172 0.385626
0.708492 0.814237 0.339376
0.776226 0.810819 0.28101
0.845594 0.801709 0.266163
0.912322 0.792081 0.254536
0.973236 0.783932 0.242863
1 0.777203 0.232456
1 0.771786 0.223804
1 0.767803 0.217243
1 0.765301 0.212879
1 0.763989 0.210361
1 0.763851 0.209598
1 0.764691 0.210269
0.157 0.90753 0.593484
0.167941 0.913863 0.595209
0.178408 0.91957 0.596094
0.188388 0.92459 0.596048
0.198123 0.929091 0.595148
0.207141 0.932784 0.593103
0.215641 0.935744 0.590005
0.223682 0.938109 0.585824
0.231052 0.939864 0.580316
0.237797 0.940993 0.573449
0.244007 0.941802 0.565133
0.249165 0.941726 0.554803
0.253452 0.940841 0.542184
0.256825 0.93904 0.527016
0.259236 0.935973 0.508721
0.262043 0.931365 0.486931
0.324086 0.918715 0.480446
0.397971 0.903517 0.473075
0.476967 0.887449 0.463401
0.555154 0.872511 0.448493
0.629938 0.860487 0.424491
0.700359 0.852537 0.388342
0.76762 0.848341 0.33724
0.831235 0.843732 0.295247
0.897017 0.83418 0.284169
0.957946 0.825544 0.273991
1 0.818433 0.264378
1 0.812802 0.25626
1 0.808515 0.249928
1 0.805417 0.245319
1 0.803586 0.242527
1 0.803037 0.241474
1 0.803525 0.241917
0.183429 0.950042 0.617639
0.193057 0.956161 0.619303
0.202335 0.961593 0.620142
0.211444 0.966567 0.620188
0.22002 0.970748 0.619196
0.228092 0.974105 0.617121
0.235599 0.976791 0.613947
0.24271 0.978821 0.609705
0.249393 0.98027 0.604349
0.25568 0.98143 0.597772
0.261143 0.981689 0.589593
0.265751 0.981231 0.579599
0.269551 0.97998 0.567437
0.272572 0.97789 0.553017
0.274784 0.974609 0.535775
0.276616 0.970184 0.515404
0.323903 0.958938 0.504692
0.394949 0.943908 0.497704
0.472496 0.927687 0.489158
0.550515 0.912032 0.476753
0.625757 0.898924 0.457481
0.695781 0.889128 0.428153
0.761761 0.882979 0.386679
0.824384 0.879774 0.33167
0.884672 0.873152 0.310613
0.945388 0.864134 0.302647
1 0.856779 0.294347
1 0.850629 0.286702
1 0.845899 0.280522
1 0.842512 0.276066
1 0.840314 0.273167
1 0.839338 0.271839
1 0.839521 0.271962
0.208026 0.9906 0.640833
0.216785 0.996506 0.642527
0.225391 1 0.643473
0.23331 1 0.64332
0.240925 1 0.642191
0.248081 1 0.640024
0.254917 1 0.636881
0.261326 1 0.632654
0.267338 1 0.627298
