public/textures/grade/Sony/Licorice-SLog2.cube
TITLE "Generated by Resolve"
LUT_3D_SIZE 9
0 0 0.0439918
0.0403906 0 0.0340734
0.269871 0 0.0281682
0.541466 0 0
0.801617 0 0
1 0 0
1 0 0
1 0 0
1 0 0
0 0.0599069 0.0567941
0.00120546 0.0576791 0.0439765
0.22594 0.0283207 0.0350042
0.530312 0 0.00601205
0.801907 0 0
1 0 0
1 0 0
1 0 0
1 0 0
0 0.20119 0.159548
0 0.21059 0.16141
0.109804 0.198657 0.0876326
0.455817 0.137026 0.0104372
0.763684 0.0819409 0
1 0.0433967 0
1 0.0240482 0
1 0.0197299 0
1 0.026627 0
0 0.370306 0.259785
0 0.383749 0.266285
0.0634775 0.392691 0.225559
0.326818 0.359976 0.0899672
0.678706 0.300175 0
0.961532 0.259876 0
1 0.24213 0
1 0.242145 0
1 0.25388 0
0 0.556832 0.383597
0.0267491 0.576532 0.392569
0.107301 0.593881 0.358343
0.223896 0.581186 0.281453
0.56199 0.535912 0.133196
0.879377 0.486854 0.0453956
1 0.462135 0.0087892
1 0.458183 0.00616464
1 0.4663 0.0180667
0.0476081 0.747738 0.503624
0.12079 0.773571 0.50425
0.175692 0.788235 0.478859
0.201328 0.787869 0.410163
0.482994 0.733501 0.359304
0.787549 0.700633 0.208286
1 0.667964 0.153429
1 0.656184 0.129259
1 0.658839 0.129595
0.166308 0.922393 0.601907
0.209277 0.945083 0.602686
0.245151 0.955261 0.580438
0.263645 0.951446 0.527733
0.442786 0.90811 0.476585
0.735332 0.862348 0.378958
0.973098 0.836667 0.28098
1 0.818814 0.256519
1 0.816373 0.252613
0.251057 1 0.682185
0.280583 1 0.681819
0.304723 1 0.65771
0.318029 1 0.609094
0.45481 1 0.555138
0.736751 0.97322 0.496437
0.947127 0.953399 0.369116
1 0.932342 0.350515
1 0.925994 0.342901
0.313832 1 0.740658
0.337316 1 0.736202
0.354482 1 0.707118
0.3617 1 0.656748
0.50692 1 0.605966
0.768139 1 0.555184
0.961639 1 0.430884
1 1 0.404028
1 0.99353 0.394293
0 0 0.136751
0.0450141 0 0.116442
0.269596 0 0.0758068
0.544228 0 0.0395056
0.80206 0 0.0239261
1 0 0.00769055
1 0 0
1 0 0
1 0 0
0 0.0572366 0.120394
0.0233158 0.0569619 0.0999619
0.239384 0.0306859 0.0822766
0.542321 0 0.0484932
0.807752 0 0.0330663
1 0 0.0198062
1 0 0.0154269
1 0 0.0181582
1 0 0.0256046
0 0.202899 0.180621
0 0.210101 0.17792
0.121355 0.205524 0.128588
0.471321 0.147189 0.0680705
0.774487 0.0989853 0.0420233
1 0.0629282 0.0291905
1 0.0441138 0.0261234
1 0.0410163 0.0314031
1 0.0495155 0.0412604
0 0.37261 0.276036
0 0.386694 0.284047
0.10988 0.39202 0.261845
0.336492 0.368994 0.144427
0.690867 0.311269 0.0670939
0.970932 0.273701 0.0367742
1 0.257725 0.0300755
1 0.259037 0.0365759
1 0.271 0.0495766
0 0.560678 0.396796
0.0584421 0.578592 0.408408
0.1458 0.594339 0.381018
0.227298 0.590951 0.306889
0.573846 0.545403 0.181308
0.88922 0.497353 0.115145
1 0.473945 0.0836194
1 0.470146 0.080293
1 0.478843 0.0919814
0.0939193 0.749813 0.518547
0.156329 0.774838 0.520104
0.204883 0.788983 0.496132
0.230274 0.790494 0.436759
0.492256 0.742306 0.381857
0.797864 0.708598 0.243687
1 0.676387 0.196918
1 0.665064 0.177844
1 0.66807 0.178531
0.196994 0.923705 0.616709
0.236606 0.945602 0.618235
0.268513 0.955093 0.595392
0.285603 0.951995 0.546258
0.449317 0.914702 0.492607
0.744167 0.868589 0.398596
0.980789 0.842512 0.308522
1 0.824872 0.28632
1 0.822263 0.282368
0.276402 1 0.697902
0.304524 1 0.697734
0.326131 1 0.672389
0.336095 1 0.622995
0.463188 1 0.567239
0.744762 0.976959 0.510201
0.953674 0.956863 0.38854
1 0.935836 0.370535
1 0.929397 0.362646
0.337682 1 0.757031
0.360555 1 0.752773
0.376394 1 0.723476
0.380087 1 0.671168
0.515511 1 0.615534
0.773831 1 0.565957
0.966247 1 0.443809
1 1 0.419196
1 0.995331 0.409445
0 0 0.318791
0.0347753 0 0.301045
0.247059 0 0.260105
0.526604 0 0.184024
0.793927 0 0.137392
1 0 0.10956
1 0 0.0954604
1 0 0.0915236
1 0 0.0941329
0 0.0329595 0.299702
0.0167239 0.0425422 0.288182
0.230533 0.0281987 0.254475
0.531914 0 0.178836
0.803952 0 0.141009
1 0 0.119982
1 0 0.110903
1 0 0.111406
1 0 0.118746
0 0.200565 0.261677
0 0.208118 0.251637
0.174838 0.200244 0.216739
0.47602 0.163638 0.167376
0.783734 0.118654 0.129702
1 0.0886091 0.118837
1 0.0712444 0.11722
1 0.0695048 0.122942
1 0.0805524 0.133303
0 0.374517 0.318746
0 0.38793 0.326375
0.12842 0.386892 0.318044
0.340398 0.375891 0.227848
0.705867 0.320363 0.15465
0.977295 0.287739 0.128557
1 0.275196 0.122637
1 0.277852 0.126818
1 0.29073 0.136217
0 0.561502 0.42739
0.0390478 0.578775 0.439384
0.20856 0.580423 0.433783
0.240986 0.592233 0.356649
0.580133 0.551507 0.245792
0.895033 0.506249 0.193729
1 0.485084 0.171511
1 0.482826 0.167712
1 0.491814 0.172595
0.11017 0.746426 0.54818
0.215106 0.764263 0.560998
0.258686 0.775677 0.539117
0.278553 0.780011 0.483955
0.493416 0.747768 0.415564
0.80354 0.713512 0.295323
1 0.68246 0.256291
1 0.672206 0.240909
1 0.675563 0.240436
0.249973 0.913558 0.653544
0.28658 0.934234 0.65684
0.316014 0.941512 0.634653
0.327367 0.939635 0.584329
0.449393 0.91722 0.515846
0.74725 0.870878 0.430503
0.98294 0.844465 0.349187
1 0.827787 0.329183
1 0.825971 0.324742
0.322911 1 0.735164
0.350011 1 0.735912
0.370565 1 0.710765
0.376486 1 0.660212
0.466682 1 0.586343
0.746868 0.97731 0.532509
0.955505 0.956863 0.418662
1 0.93608 0.401099
1 0.929885 0.393179
0.382239 1 0.79556
0.404334 1 0.79205
0.419669 1 0.763775
0.423117 1 0.711223
0.517342 1 0.635538
0.773449 1 0.586053
0.966247 1 0.468544
1 1 0.445594
1 0.993713 0.435859
0 0 0.549416
0.0242618 0 0.533852
0.226947 0 0.500206
0.490608 0 0.444511
0.77026 0 0.373571
1 0 0.325292
1 0 0.299184
1 0 0.289784
1 0 0.291493
0 0.00221256 0.528359
0.00920119 0.0154726 0.519875
0.216251 0.0193332 0.490425
0.489235 0 0.443397
0.779919 0 0.375967
1 0 0.334569
1 0 0.315663
1 0 0.312459
1 0 0.319448
0 0.173983 0.477424
0 0.186633 0.476387
0.170108 0.186984 0.453422
0.441611 0.166918 0.413718
0.760494 0.128908 0.340017
1 0.106432 0.310536
1 0.0986648 0.300786
1 0.104067 0.303655
1 0.118318 0.314168
0 0.380133 0.423117
0 0.394553 0.424475
0.154406 0.391272 0.405066
0.362753 0.377569 0.370016
0.699748 0.335119 0.295705
0.970794 0.306676 0.263478
1 0.297948 0.260456
1 0.302327 0.266651
1 0.315755 0.278569
0 0.567849 0.492607
0 0.584726 0.503441
0.16376 0.58294 0.494041
0.323339 0.568566 0.467292
0.578683 0.556527 0.347158
0.897734 0.513176 0.287098
1 0.495842 0.266209
1 0.495842 0.264759
1 0.505837 0.27216
0.0129091 0.74902 0.596857
0.155627 0.765988 0.609171
0.275486 0.764187 0.601953
0.352834 0.754543 0.569741
0.485634 0.751278 0.473686
0.803113 0.715511 0.366049
1 0.686778 0.326757
1 0.67834 0.311742
1 0.682597 0.312306
0.230671 0.909072 0.702083
0.299977 0.923537 0.712703
0.376852 0.919387 0.703761
0.393347 0.913954 0.658686
0.443259 0.915282 0.559991
0.744335 0.870283 0.479881
0.980453 0.844099 0.405463
1 0.828611 0.387274
1 0.828061 0.384985
0.351751 1 0.792279
0.399756 1 0.799146
0.428733 1 0.776623
0.439307 1 0.729305
0.463752 1 0.62742
0.741527 0.975402 0.575143
0.952239 0.954543 0.470237
1 0.934218 0.454215
1 0.928512 0.447669
0.429252 1 0.857145
0.459266 1 0.856428
0.474632 1 0.828748
0.484886 1 0.778241
0.513298 1 0.676341
0.76582 1 0.628504
0.961089 1 0.519234
1 0.999893 0.496452
1 0.99057 0.487114
0 0 0.794049
0.0161898 0 0.779965
0.212329 0 0.743557
0.467964 0 0.703288
0.744747 0 0.647822
0.992874 0 0.594919
1 0 0.562051
1 0 0.548196
1 0 0.548074
0 0 0.77258
0.00410468 0 0.765667
0.206073 0.00144961 0.736019
0.468513 0 0.702235
0.753079 0 0.654536
1 0 0.607523
1 0 0.581125
1 0 0.573587
1 0 0.578805
0 0.139742 0.719722
0 0.157641 0.721035
0.166186 0.164508 0.701167
0.426719 0.161532 0.667826
0.720836 0.128176 0.628351
0.990539 0.103212 0.583932
1 0.0946517 0.563012
1 0.100084 0.560708
1 0.114351 0.569467
0 0.360571 0.655375
0 0.377417 0.661189
0.137179 0.376196 0.648066
0.359991 0.369451 0.614878
0.649363 0.347005 0.576165
0.937209 0.322286 0.516884
1 0.316182 0.498527
1 0.323217 0.498955
1 0.338293 0.508888
0 0.578683 0.605737
0 0.596918 0.616083
0.151904 0.59585 0.604166
0.305638 0.580774 0.574945
0.563729 0.565942 0.530709
0.87396 0.52903 0.456397
1 0.513588 0.428305
1 0.516564 0.432181
1 0.527794 0.442496
0 0.760143 0.681483
0.0102235 0.776989 0.692638
0.196002 0.773312 0.68127
0.33196 0.753719 0.651896
0.501945 0.747295 0.580346
0.79472 0.719829 0.483925
1 0.692958 0.442451
1 0.687266 0.430076
1 0.693233 0.43415
0.111803 0.916625 0.770779
0.211948 0.930205 0.780056
0.311238 0.923232 0.76759
0.403601 0.900801 0.738308
0.514153 0.890639 0.669779
0.736141 0.870268 0.56907
0.974243 0.844709 0.500496
1 0.831113 0.482856
1 0.831754 0.48098
0.270817 1 0.85272
0.32903 1 0.857862
0.398596 1 0.841031
0.474159 1 0.808774
0.550103 0.995377 0.733608
0.731807 0.974319 0.648142
0.946136 0.95285 0.55108
1 0.933074 0.536583
1 0.9281 0.530449
0.359548 1 0.912474
0.402579 1 0.912032
0.456062 1 0.891432
0.533349 1 0.857618
0.589334 1 0.774945
0.755016 1 0.695552
0.952834 1 0.596735
1 0.997009 0.571572
1 0.987976 0.561944
0 0 1
0.0120546 0 1
0.203677 0 0.96849
0.456046 0 0.925353
0.728283 0 0.882445
0.978637 0 0.839307
1 0 0.809171
1 0 0.795727
1 0 0.795514
0 0 0.995819
0.00300603 0 0.989853
0.202152 0 0.962783
0.459693 0 0.925139
0.738643 0 0.88983
0.99675 0 0.854231
1 0 0.830839
1 0 0.823713
1 0 0.828779
0 0.100801 0.941878
0 0.124514 0.94432
0.16527 0.136172 0.926589
0.420478 0.156008 0.89131
0.705928 0.125185 0.863783
0.973342 0.0999008 0.834745
1 0.0897536 0.815717
1 0.0943923 0.812375
1 0.108385 0.820203
0 0.338216 0.876753
0 0.357168 0.885313
0.130709 0.358709 0.874098
0.358724 0.357122 0.841443
0.637415 0.344976 0.808255
0.90724 0.322545 0.78024
1 0.313954 0.757183
1 0.319875 0.752209
1 0.334386 0.759136
0 0.567544 0.814511
0 0.587137 0.822919
0.163653 0.587015 0.810269
0.325765 0.572152 0.78378
0.561257 0.563043 0.745205
0.82182 0.544228 0.714946
1 0.531807 0.67364
1 0.535698 0.664103
1 0.548089 0.669642
0 0.773114 0.790661
0.0305943 0.790799 0.801495
0.173022 0.788128 0.789578
0.293462 0.769543 0.760327
0.517876 0.747494 0.72018
0.748287 0.735363 0.680644
0.987655 0.71014 0.620706
1 0.703136 0.595422
1 0.710628 0.598001
0 0.930404 0.861708
0.0816663 0.943709 0.86981
0.22591 0.935805 0.854612
0.34255 0.911269 0.821271
0.542092 0.881132 0.775509
0.725689 0.872145 0.692851
0.944961 0.85275 0.631632
1 0.838026 0.600702
1 0.838743 0.597299
0.150149 1 0.931594
0.232807 1 0.9346
0.322194 1 0.913909
0.420325 1 0.87744
0.596933 0.977478 0.831586
0.725002 0.975067 0.73756
0.935836 0.95436 0.645777
1 0.934356 0.629175
1 0.9299 0.623163
0.267475 1 0.983154
0.322881 1 0.980285
0.388754 1 0.956344
0.48777 1 0.918898
0.650462 1 0.873259
0.747021 1 0.774853
0.942138 1 0.686931
1 0.995941 0.653284
1 0.986969 0.644297
0 0 1
0.011902 0 1
0.200305 0 1
0.448112 0 1
0.720043 0 1
0.97055 0 1
1 0 0.998322
1 0 0.987564
1 0 0.988754
0 0 1
0.00564584 0 1
0.201678 0 1
0.454612 0 1
0.733608 0 1
0.991165 0 1
1 0 1
1 0 1
1 0 1
0 0.0615854 1
0 0.0915541 1
0.167971 0.107897 1
0.418036 0.153994 1
0.703822 0.123751 1
0.967483 0.0994888 1
1 0.0885328 1
1 0.0923018 1
1 0.105867 1
0 0.321675 1
0 0.34226 1
0.132799 0.345739 1
0.360525 0.347143 1
0.636545 0.34464 0.985077
0.899275 0.32369 0.964279
1 0.314244 0.950668
1 0.318883 0.948226
1 0.332601 0.955276
0 0.556695 0.989761
0 0.576989 0.999664
0.147402 0.57763 0.989609
0.320958 0.563958 0.963577
0.563226 0.558648 0.921675
0.814603 0.544472 0.894575
1 0.533165 0.877913
1 0.535042 0.869276
1 0.546304 0.872648
0 0.769955 0.94226
0.112856 0.788144 0.949172
0.238712 0.785794 0.933715
0.347921 0.7673 0.903456
0.537789 0.747707 0.8692
0.744167 0.739162 0.835447
0.944503 0.72549 0.815595
1 0.722103 0.787823
1 0.730159 0.782727
0 0.942657 0.95108
0.104463 0.956359 0.958892
0.20827 0.94902 0.943557
0.313909 0.924849 0.910323
0.511925 0.896422 0.867262
0.727718 0.87364 0.827558
0.893782 0.868757 0.797971
1 0.857618 0.767315
1 0.855665 0.747311
0.0373999 1 1
0.157122 1 1
0.26453 1 0.989136
0.375784 1 0.950332
0.56408 0.988128 0.903548
0.754574 0.964187 0.849287
0.900984 0.958343 0.797238
1 0.949477 0.773785
1 0.943847 0.754711
0.186709 1 1
0.256779 1 1
0.333196 1 1
0.445563 1 0.982712
0.619852 1 0.93608
0.772335 1 0.871015
0.91751 1 0.808728
1 1 0.773281
1 0.996078 0.756283
0 0 1
0.0142672 0 1
0.200214 0 1
0.444389 0 1
0.71696 0 1
0.967788 0 1
1 0 1
1 0 1
1 0 1
0 0 1
0.0107271 0 1
0.20412 0 1
0.453544 0 1
0.73315 0 1
0.990906 0 1
1 0 1
1 0 1
1 0 1
0 0.0347753 1
0 0.0661173 1
0.173342 0.0864118 1
0.420905 0.145937 1
0.705608 0.12578 1
0.968566 0.102174 1
1 0.0912184 1
1 0.0945907 1
1 0.107851 1
0 0.31284 1
0 0.334585 1
0.13872 0.339208 1
0.365606 0.342535 1
0.639246 0.347631 1
0.901335 0.327001 1
1 0.3178 1
1 0.321721 1
1 0.334859 1
0 0.551446 1
0 0.572335 1
0.145724 0.573358 1
0.323369 0.5608 1
0.567849 0.557916 1
0.81677 0.547127 1
1 0.536446 1
1 0.537545 0.999023
1 0.547829 1
0 0.767926 1
0.0802014 0.786267 1
0.221881 0.783917 1
0.338048 0.765301 1
0.535805 0.745937 0.99292
0.747204 0.73875 0.95346
0.941512 0.727306 0.935042
1 0.724788 0.924208
1 0.731929 0.919966
0.169528 0.944823 1
0.245792 0.958556 1
0.324254 0.950927 1
0.404486 0.927001 0.984848
0.561563 0.900221 0.941299
0.738277 0.882414 0.907225
0.889204 0.876799 0.885344
1 0.871061 0.875303
1 0.871229 0.864622
0.0995346 1 1
0.174258 1 1
0.255085 1 1
0.365179 1 1
0.548959 0.998444 0.964324
0.74081 0.973114 0.922484
0.883833 0.965499 0.889891
0.993469 0.960143 0.878355
1 0.956741 0.867536
0.155718 1 1
0.230869 1 1
0.309102 1 1
0.425101 1 1
0.598611 1 0.989242
0.778073 1 0.944274
0.898436 1 0.896223
0.999237 1 0.874235
1 1 0.870512
0 0 1
0.0178836 0 1
0.202319 0 1
0.444175 0 1
0.717403 0 1
0.968551 0 1
1 0 1
1 0 1
1 0 1
0 0 1
0.0166934 0 1
0.208225 0 1
0.455665 0 1
0.735698 0 1
0.993881 0 1
1 0 1
1 0 1
1 0 1
0 0.0220035 1
0 0.0543221 1
0.17969 0.0757305 1
0.42678 0.13994 1
0.710124 0.130327 1
0.973098 0.107057 1
1 0.0963302 1
1 0.0996567 1
1 0.112795 1
0 0.310842 1
0 0.333349 1
0.145586 0.338537 1
0.372442 0.343221 1
0.644419 0.35288 1
0.906203 0.332357 1
1 0.323415 1
1 0.327001 1
1 0.339773 1
0 0.551659 1
0 0.572808 1
0.150011 0.574075 1
0.328923 0.562173 1
0.57406 0.56054 1
0.821729 0.5523 1
1 0.541344 1
1 0.542321 1
1 0.551949 1
0 0.76936 1
0.0710155 0.787717 1
0.217472 0.785229 1
0.337377 0.766537 1
0.539284 0.747555 1
0.752117 0.741299 1
0.944488 0.731014 1
1 0.728939 0.995682
1 0.735576 0.993225
0.154025 0.947158 1
0.233982 0.960647 1
0.31519 0.952529 1
0.398642 0.928222 1
0.559411 0.90135 1
0.738521 0.883543 0.976959
0.891478 0.878981 0.94786
1 0.873335 0.938399
1 0.875822 0.933257
0.245228 1 1
0.285817 1 1
0.336492 1 1
0.410605 1 1
0.560388 1 1
0.734966 0.981949 0.965377
0.886442 0.967742 0.942596
0.991699 0.965011 0.923583
1 0.962814 0.919966
0.182498 1 1
0.234852 1 1
0.308003 1 1
0.423041 1 1
0.592676 1 1
0.765072 1 0.982422
0.901991 1 0.949187
0.991211 1 0.929961
1 1 0.925582
