public/textures/grade/Sony/Licorice-SLog3.cube
TITLE "Generated by Resolve"
LUT_3D_SIZE 33
0 0 0.0500496
0 0 0.0471656
0 0 0.0434577
0 0 0.0400549
0.0137179 0 0.039704
0.0303502 0 0.0397498
0.0508431 0 0.0400854
0.0787366 0 0.0409094
0.115419 0 0.0419776
0.163272 0 0.0420996
0.225498 0 0.0386358
0.299825 0 0.0311894
0.377737 0 0.0237278
0.455177 0 0.0157931
0.535958 0 0.00732433
0.619776 0 0
0.704646 0 0
0.788998 0 0
0.871107 0 0
0.94905 0 0
1 0 0
1 0 0
1 0 0
1 0 0
1 0 0
1 0 0
1 0 0
1 0 0
1 0 0
1 0 0
1 0 0
1 0 0
1 0 0
0 0.00259403 0.0474403
0 0.00204471 0.0451362
0 0.00120546 0.0428321
0 0.000564584 0.0399329
0.00973526 0.000228885 0.0375677
0.0262913 0 0.0378119
0.04654 0 0.038407
0.0743725 0 0.039826
0.11107 0 0.0416266
0.158877 0 0.0426032
0.220951 0 0.0400702
0.296239 0 0.032639
0.375738 0 0.0251926
0.454597 0 0.0173037
0.535851 0 0.00877394
0.620111 0 0
0.705684 0 0
0.79057 0 0
0.872938 0 0
0.95137 0 0
1 0 0
1 0 0
1 0 0
1 0 0
1 0 0
1 0 0
1 0 0
1 0 0
1 0 0
1 0 0
1 0 0
1 0 0
1 0 0
0 0.0150149 0.0449989
0 0.0146334 0.0426795
0 0.0138552 0.0406348
0 0.0129397 0.0389105
0.00543221 0.012192 0.0368811
0.02121 0.0113832 0.0358434
0.0413214 0.00862135 0.0365759
0.0688029 0.00433356 0.038407
0.105333 0 0.04094
0.153063 0 0.0428779
0.215213 0 0.041474
0.291676 0 0.0343175
0.372656 0 0.0267033
0.452873 0 0.018677
0.535012 0 0.0101625
0.620035 0 0.00144961
0.705974 0 0
0.791318 0 0
0.874357 0 0
0.95314 0 0
1 0 0
1 0 0
1 0 0
1 0 0
1 0 0
1 0 0
1 0 0
1 0 0
1 0 0
1 0 0
1 0 0
1 0 0
1 0 0
0 0.0288548 0.0433661
0 0.028809 0.0408942
0 0.0283665 0.0386358
0 0.0275883 0.03682
0.00108339 0.026276 0.0352789
0.0156405 0.0253758 0.0348363
0.0342107 0.0237736 0.0346838
0.0610361 0.0201267 0.0363165
0.0975814 0.0144045 0.0396582
0.145281 0.00585946 0.0426184
0.207599 0 0.0426184
0.285191 0 0.0360723
0.367926 0 0.0282444
0.450126 0 0.0201267
0.532952 0 0.011368
0.61857 0 0.002533
0.705348 0 0
0.791318 0 0
0.874678 0 0
0.95404 0 0
1 0 0
1 0 0
1 0 0
1 0 0
1 0 0
1 0 0
1 0 0
1 0 0
1 0 0
1 0 0
1 0 0
1 0 0
1 0 0
0 0.0421759 0.0471962
0 0.0420081 0.044831
0 0.0415961 0.0424506
0 0.0410315 0.0403449
0 0.040116 0.038529
0.00781262 0.0394751 0.0374762
0.026688 0.0383917 0.036286
0.0528115 0.0362707 0.0353857
0.0884413 0.0310674 0.0379644
0.135836 0.0228885 0.0415351
0.198169 0.0113985 0.0424506
0.277317 0 0.0373999
0.362448 0 0.0299229
0.446494 0 0.021561
0.53019 0 0.0124666
0.616693 0 0.00355535
0.703944 0 0
0.790402 0 0
0.874479 0 0
0.954482 0 0
1 0 0
1 0 0
1 0 0
1 0 0
1 0 0
1 0 0
1 0 0
1 0 0
1 0 0
1 0 0
1 0 0
1 0 0
1 0 0
0 0.0541238 0.0540475
0 0.054139 0.0517891
0 0.0540475 0.0495918
0 0.0534676 0.0472114
0 0.0526131 0.0451209
0.000762951 0.0517281 0.0435492
0.019852 0.0505989 0.0421149
0.043595 0.0501564 0.0390784
0.0803998 0.0458076 0.0379797
0.126482 0.0392004 0.0407416
0.188617 0.0280919 0.0424964
0.267948 0.0131685 0.0373236
0.3552 0 0.0298466
0.441993 0 0.0217441
0.526757 0 0.0123445
0.613321 0 0.00257877
0.701122 0 0
0.787839 0 0
0.87393 0 0
0.954314 0 0
1 0 0
1 0 0
1 0 0
1 0 0
1 0 0
1 0 0
1 0 0
1 0 0
1 0 0
1 0 0
1 0 0
1 0 0
1 0 0
0 0.0688334 0.0644083
0 0.0690013 0.0621195
0 0.068925 0.0596323
0 0.0684672 0.0569162
0 0.0676738 0.0544289
0 0.066804 0.0524605
0.0103151 0.065919 0.0507362
0.0349126 0.0647746 0.0480812
0.0664378 0.0641337 0.0405737
0.11577 0.0565499 0.0419165
0.17705 0.0467384 0.0428779
0.256352 0.0330816 0.0379797
0.345281 0.017319 0.0301976
0.434745 0.0016022 0.0222171
0.521859 0 0.0132906
0.61062 0 0.00440986
0.69897 0 0
0.786328 0 0
0.871351 0 0
0.952239 0 0
1 0 0
1 0 0
1 0 0
1 0 0
1 0 0
1 0 0
1 0 0
1 0 0
1 0 0
1 0 0
1 0 0
1 0 0
1 0 0
0 0.0891737 0.0805524
0 0.0896162 0.0782635
0 0.0899672 0.0757916
0 0.0897383 0.0728161
0 0.0890364 0.0697948
0 0.0881208 0.067155
0 0.0869306 0.0644083
0.0209964 0.0855573 0.0615702
0.0467231 0.0870375 0.0515297
0.0987106 0.0806592 0.0457771
0.161883 0.0701762 0.0452125
0.241352 0.0556649 0.0399176
0.332158 0.0394446 0.0317082
0.424613 0.0233463 0.023743
0.51426 0.00823987 0.014847
0.604807 0 0.00601205
0.69543 0 0
0.784543 0 0
0.870268 0 0
0.951217 0 0
1 0 0
1 0 0
1 0 0
1 0 0
1 0 0
1 0 0
1 0 0
1 0 0
1 0 0
1 0 0
1 0 0
1 0 0
1 0 0
0 0.115129 0.103136
0 0.11603 0.101472
0 0.116426 0.0991684
0 0.116686 0.0965133
0 0.116304 0.0934157
0 0.11577 0.0905013
0 0.114748 0.0869764
0.00131228 0.113405 0.0827344
0.0348516 0.111025 0.0763561
0.0748913 0.10988 0.0588235
0.140414 0.101122 0.0503243
0.222004 0.0855116 0.0429389
0.314412 0.0675822 0.0333104
0.409812 0.0505379 0.024918
0.502876 0.0349889 0.016022
0.596002 0.0197452 0.00726329
0.688533 0.00469978 0
0.779309 0 0
0.866865 0 0
0.949325 0 0
1 0 0
1 0 0
1 0 0
1 0 0
1 0 0
1 0 0
1 0 0
1 0 0
1 0 0
1 0 0
1 0 0
1 0 0
1 0 0
0 0.146197 0.128389
0 0.147448 0.127581
0 0.148363 0.126314
0 0.149035 0.124407
0 0.149035 0.121843
0 0.148821 0.119173
0 0.148104 0.115633
0 0.147356 0.111254
0.0108186 0.14551 0.10457
0.0482185 0.144579 0.0854047
0.112428 0.137102 0.0638285
0.196735 0.123491 0.0486152
0.291539 0.104555 0.0357977
0.389746 0.0850538 0.0258335
0.486412 0.0671855 0.0164187
0.582574 0.051606 0.0075227
0.677806 0.0364538 0
0.770626 0.0219577 0
0.859831 0.00859083 0
0.944183 0 0
1 0 0
1 0 0
1 0 0
1 0 0
1 0 0
1 0 0
1 0 0
1 0 0
1 0 0
1 0 0
1 0 0
1 0 0
1 0 0
0 0.181338 0.151644
0 0.18323 0.152529
0 0.184955 0.152926
0 0.186252 0.152529
0 0.186725 0.15108
0 0.186999 0.149294
0 0.186725 0.146456
0 0.186435 0.142611
0 0.185122 0.136248
0.0349126 0.181338 0.125216
0.0772869 0.180545 0.0897536
0.163897 0.168734 0.057496
0.262867 0.150164 0.0420691
0.364111 0.129946 0.028275
0.464637 0.110719 0.0170291
0.564157 0.0924849 0.0071107
0.662379 0.0747387 0
0.7579 0.0591592 0
0.849226 0.0457618 0
0.935241 0.0337835 0
1 0.0235599 0
1 0.0150149 0
1 0.00822461 0
1 0.00329595 0
1 0 0
1 0 0
1 0 0
1 0 0
1 0 0
1 0 0
1 0.00143435 0
1 0.00280766 0
1 0.00425727 0
0 0.220661 0.172168
0 0.223011 0.173526
0 0.224964 0.174487
0 0.226535 0.174868
0 0.22742 0.174563
0 0.228183 0.174044
0 0.228443 0.172656
0 0.228458 0.170077
0 0.228016 0.165576
0.0212711 0.225391 0.156634
0.0561227 0.226429 0.124727
0.133104 0.215122 0.0955062
0.226154 0.203265 0.0544747
0.332723 0.183108 0.0358282
0.437339 0.162814 0.0202182
0.540703 0.143664 0.00791943
0.642237 0.125902 0
0.740673 0.109514 0
0.834546 0.0942855 0
0.922515 0.0800183 0
1 0.0682994 0
1 0.058732 0
1 0.0514839 0
1 0.0463874 0
1 0.0434577 0
1 0.0418402 0
1 0.0414893 0
1 0.0420386 0
1 0.0433509 0
1 0.0453956 0
1 0.0473487 0
1 0.0494698 0
1 0.0514382 0
0 0.265751 0.19765
0 0.268147 0.198993
0 0.269932 0.19971
0 0.271397 0.200031
0 0.272725 0.200137
0 0.273442 0.19971
0 0.274159 0.198932
0 0.274418 0.197055
0 0.274067 0.193637
0.0218051 0.272694 0.187488
0.0539559 0.27425 0.164584
0.0980087 0.272358 0.126375
0.191348 0.256733 0.0984665
0.294102 0.24332 0.0523537
0.405158 0.222629 0.0305486
0.512825 0.202335 0.013077
0.617731 0.183413 0
0.719265 0.166659 0
0.815702 0.151736 0
0.906081 0.138827 0
0.989319 0.127901 0
1 0.118929 0
1 0.112093 0
1 0.107271 0
1 0.104387 0
1 0.103243 0
1 0.103975 0
1 0.105272 0
1 0.107271 0
1 0.109987 0
1 0.112306 0
1 0.115023 0
1 0.116884 0
0 0.315389 0.227237
0 0.317693 0.228428
0 0.31986 0.229496
0 0.321645 0.230152
0 0.322957 0.230335
0 0.324117 0.230381
0 0.324788 0.229786
0 0.325643 0.228809
0 0.325628 0.226246
0.0297856 0.324666 0.221607
0.0545357 0.32755 0.20264
0.0697185 0.33138 0.164172
0.157046 0.317784 0.142748
0.254276 0.304189 0.098909
0.365301 0.28867 0.0523384
0.479866 0.267735 0.0274205
0.589014 0.247852 0.00807202
0.693843 0.229984 0
0.793301 0.214649 0
0.886137 0.201785 0
0.971389 0.191226 0
1 0.182834 0
1 0.176684 0
1 0.172671 0
1 0.170352 0
1 0.169696 0
1 0.170321 0
1 0.171817 0
1 0.17435 0
1 0.176669 0
1 0.17937 0
1 0.181598 0
1 0.183825 0
0 0.369146 0.260609
0 0.372061 0.262409
0 0.37438 0.263661
0 0.376303 0.2645
0 0.378088 0.265171
0 0.379171 0.265278
0 0.380362 0.265232
0 0.381216 0.264454
0.000747692 0.381567 0.262638
0.0411688 0.382345 0.257816
0.0590677 0.38616 0.241138
0.0750896 0.389761 0.212924
0.122728 0.38587 0.180545
0.220356 0.368246 0.161059
0.32282 0.357046 0.0973068
0.440299 0.339071 0.0566415
0.556207 0.318349 0.0286107
0.664454 0.299138 0.00714122
0.766857 0.282643 0
0.862181 0.269001 0
0.949508 0.258076 0
1 0.249546 0
1 0.243442 0
1 0.239551 0
1 0.237446 0
1 0.236881 0
1 0.237934 0
1 0.23946 0
1 0.241566 0
1 0.244266 0
1 0.246509 0
1 0.249073 0
1 0.250843 0
0 0.427054 0.297932
0 0.429999 0.299809
0 0.432609 0.301366
0 0.435111 0.302724
0 0.436835 0.303426
0 0.438407 0.304006
0 0.439521 0.304021
0 0.440925 0.303883
0.0290227 0.441627 0.302663
0.0496529 0.444846 0.294255
0.0675517 0.448493 0.280476
0.0843214 0.451926 0.25861
0.0962234 0.454337 0.222385
0.184817 0.439948 0.205997
0.28838 0.422248 0.179355
0.395148 0.412879 0.0996109
0.516518 0.393057 0.0661784
0.631754 0.37322 0.0355535
0.737713 0.355688 0.0127108
0.835569 0.340948 0
0.924956 0.329137 0
1 0.319753 0
1 0.31342 0
1 0.309194 0
1 0.306889 0
1 0.306203 0
1 0.306706 0
1 0.308064 0
1 0.310414 0
1 0.312551 0
1 0.314824 0
1 0.317113 0
1 0.319173 0
0 0.487648 0.338018
0 0.490852 0.340154
0 0.494057 0.342214
0 0.496513 0.343603
0 0.498665 0.344717
0 0.500206 0.345327
0 0.501808 0.34583
0.0293126 0.503136 0.345785
0.0456855 0.5066 0.340368
0.0632181 0.51017 0.332448
0.0813764 0.51368 0.320729
0.0977951 0.517235 0.303166
0.109926 0.519585 0.275563
0.15465 0.513893 0.24773
0.253803 0.495308 0.232883
0.361242 0.47892 0.196338
0.471046 0.469932 0.113695
0.592813 0.449821 0.0830091
0.704952 0.431312 0.0501411
0.806287 0.415488 0.0260777
0.897826 0.402701 0.00943008
0.980621 0.39263 0
1 0.385275 0
1 0.380423 0
1 0.377569 0
1 0.376425 0
1 0.376608 0
1 0.377997 0
1 0.379675 0
1 0.381582 0
1 0.383871 0
1 0.385763 0.00143435
1 0.387671 0.00381476
0 0.550118 0.380209
0 0.553857 0.382788
0 0.556954 0.384802
0 0.559625 0.386404
0 0.562066 0.387793
0.0211032 0.563638 0.388495
0.0343938 0.56672 0.386694
0.0488441 0.570062 0.383444
0.065156 0.573587 0.378653
0.083299 0.577356 0.371832
0.100069 0.580713 0.361669
0.114672 0.583734 0.346731
0.126452 0.586023 0.32462
0.134661 0.586465 0.290867
0.22182 0.57116 0.278172
0.329519 0.551354 0.259571
0.438239 0.537408 0.210758
0.549767 0.527108 0.13518
0.667552 0.508141 0.105669
0.774304 0.491341 0.0736553
0.869322 0.477409 0.0488746
0.953964 0.466407 0.0315099
1 0.458183 0.0200809
1 0.452506 0.0131685
1 0.448905 0.00939956
1 0.447135 0.00808728
1 0.447074 0.00885023
1 0.44773 0.0104067
1 0.449012 0.0125582
1 0.450904 0.0153201
1 0.452522 0.0176547
1 0.454551 0.0203708
1 0.455909 0.0222477
0 0.61355 0.423758
0 0.617121 0.426215
0.0111849 0.620356 0.428367
0.0256199 0.624567 0.428351
0.0373999 0.62797 0.427436
0.0484016 0.631098 0.426413
0.0601358 0.633921 0.424491
0.0750134 0.637552 0.421759
0.0911269 0.640955 0.417426
0.106691 0.644297 0.41117
0.121279 0.64744 0.402121
0.134432 0.650217 0.389197
0.145464 0.652277 0.370718
0.153704 0.652796 0.343572
0.19823 0.644831 0.320485
0.298528 0.625772 0.308141
0.409064 0.606638 0.283162
0.517006 0.595605 0.220752
0.628168 0.584237 0.158984
0.739712 0.566964 0.132143
0.839124 0.552117 0.105165
0.926833 0.539742 0.081529
1 0.530465 0.0636454
1 0.524254 0.0525826
1 0.519905 0.0454719
1 0.517403 0.0416571
1 0.516426 0.0402838
1 0.516457 0.0404212
1 0.517617 0.0421302
1 0.518746 0.0437781
1 0.52018 0.0457923
1 0.521767 0.0480049
1 0.523247 0.0500496
0.0198978 0.67744 0.464363
0.0320287 0.682048 0.46508
0.0449531 0.686732 0.465568
0.057557 0.690715 0.465278
0.0698405 0.694377 0.464698
0.0804303 0.69723 0.463676
0.0921798 0.700069 0.462013
0.105333 0.703578 0.45951
0.118532 0.706813 0.455528
0.131731 0.709957 0.44979
0.144488 0.712856 0.441642
0.156176 0.715312 0.430137
0.166491 0.717357 0.414252
0.174273 0.717601 0.391424
0.184894 0.714855 0.361013
0.273335 0.698009 0.350881
0.382147 0.677363 0.335622
0.491295 0.660594 0.301534
0.596277 0.652583 0.225696
0.704005 0.639612 0.183566
0.807187 0.624186 0.159823
0.898619 0.61117 0.137072
0.978027 0.600977 0.118425
1 0.5935 0.10425
1 0.588296 0.0939803
1 0.585061 0.0872358
1 0.583444 0.0835126
1 0.582971 0.0819409
1 0.583566 0.0821851
1 0.584298 0.082887
1 0.585534 0.0843671
1 0.586603 0.0857252
1 0.587823 0.0872969
0.0573434 0.741527 0.500038
0.0702373 0.746441 0.501045
0.082948 0.750729 0.501411
0.0952621 0.754833 0.50135
0.105974 0.758343 0.500816
0.114672 0.761028 0.499855
0.124361 0.76408 0.498497
0.134966 0.767178 0.49604
0.146426 0.770535 0.4925
0.157763 0.77348 0.48719
0.168826 0.776074 0.479667
0.179217 0.77818 0.46923
0.188281 0.779614 0.454902
0.195636 0.779797 0.435096
0.200855 0.777905 0.40766
0.257115 0.766003 0.39057
0.359701 0.746075 0.379217
0.469566 0.726085 0.358358
0.574105 0.712444 0.312917
0.673899 0.706661 0.230518
0.776104 0.692332 0.208103
0.870314 0.678691 0.187366
0.952285 0.66772 0.168658
1 0.659388 0.15378
1 0.653284 0.142504
1 0.64921 0.134585
1 0.647181 0.12987
1 0.646113 0.127001
1 0.645991 0.125826
1 0.646647 0.125963
1 0.647257 0.126314
1 0.648386 0.127428
1 0.649149 0.128206
0.099382 0.803006 0.534493
0.110094 0.807492 0.535348
0.120653 0.812039 0.535958
0.130343 0.815839 0.535866
0.138903 0.819059 0.535286
0.146532 0.822003 0.5346
0.154299 0.824567 0.533135
0.163668 0.827863 0.531014
0.17322 0.830701 0.52752
0.183032 0.83331 0.522484
0.192721 0.835554 0.515404
0.201846 0.837293 0.505669
0.209995 0.838346 0.492576
0.21677 0.838193 0.474861
0.221637 0.836164 0.450767
0.248035 0.828443 0.427115
0.342382 0.809842 0.417395
0.450629 0.788861 0.402808
0.556435 0.771572 0.373678
0.655329 0.761944 0.317159
0.748486 0.755886 0.249363
0.843809 0.741894 0.231937
0.927687 0.730251 0.214389
0.999557 0.721233 0.199359
1 0.714397 0.187564
1 0.70959 0.179019
1 0.706538 0.173312
1 0.70486 0.169879
1 0.70457 0.168536
1 0.70457 0.16788
1 0.705165 0.168154
1 0.705745 0.168566
1 0.706508 0.169299
0.135988 0.860151 0.566613
0.145205 0.864881 0.567681
0.153597 0.86894 0.568124
0.162127 0.872938 0.568246
0.16939 0.87602 0.567712
0.175662 0.878614 0.566918
0.182513 0.881224 0.565606
0.19028 0.883955 0.563363
0.198825 0.886687 0.560159
0.207523 0.889235 0.555413
0.216007 0.891096 0.548638
0.224063 0.892378 0.539406
0.231342 0.893004 0.527184
0.23743 0.892485 0.510903
0.241871 0.890227 0.489158
0.245624 0.885435 0.460777
0.331838 0.868086 0.451789
0.436454 0.847211 0.440238
0.542214 0.827466 0.419532
0.641047 0.81387 0.380148
0.732754 0.807431 0.313634
0.82031 0.799222 0.268894
0.905119 0.786816 0.254673
0.977874 0.777157 0.240742
1 0.769757 0.229206
1 0.764569 0.220752
1 0.761074 0.214923
1 0.758831 0.211109
1 0.757778 0.209094
1 0.757671 0.208469
1 0.757687 0.208194
1 0.758297 0.208698
1 0.758816 0.209201
0.168399 0.912932 0.59649
0.175952 0.917144 0.597391
0.183551 0.921386 0.598032
0.19057 0.924895 0.59794
0.197223 0.928145 0.59762
0.202548 0.930434 0.59675
0.208576 0.932982 0.595483
0.215366 0.935454 0.593271
0.222583 0.937804 0.589914
0.230243 0.939834 0.585275
0.23798 0.94168 0.578882
0.245075 0.942535 0.569986
0.251514 0.942672 0.558343
0.256931 0.941711 0.543038
0.261006 0.939208 0.522988
0.263355 0.934096 0.496834
0.326574 0.919661 0.482307
0.42707 0.899199 0.472221
0.53257 0.878355 0.45626
0.631769 0.862028 0.426993
0.722667 0.852476 0.377417
0.806424 0.848127 0.305653
0.886992 0.837278 0.289464
0.959823 0.826963 0.277684
1 0.819043 0.267079
1 0.813245 0.258854
1 0.809201 0.252979
1 0.80676 0.249332
1 0.805249 0.247089
1 0.804517 0.245945
1 0.804517 0.245747
1 0.804746 0.24593
1 0.80499 0.246174
0.196872 0.960708 0.623774
0.203433 0.964706 0.624598
0.210163 0.968734 0.625238
0.216358 0.972061 0.625132
0.222034 0.974975 0.624659
0.226917 0.977295 0.623896
0.232288 0.979629 0.622629
0.238163 0.981888 0.62034
0.244541 0.983902 0.616968
0.251118 0.985626 0.612207
0.257877 0.986816 0.605844
0.264363 0.987472 0.597314
0.270008 0.987076 0.586007
0.274708 0.985519 0.571298
0.278401 0.982528 0.552377
0.280629 0.977234 0.528038
0.326604 0.964767 0.509483
0.423377 0.944518 0.500145
0.527581 0.92311 0.486809
0.626795 0.904891 0.463539
0.717083 0.892729 0.424323
0.799527 0.886473 0.365652
0.873884 0.880751 0.319692
0.945724 0.870192 0.309514
1 0.861723 0.300267
1 0.855512 0.292668
1 0.851133 0.287114
1 0.848341 0.283482
1 0.84651 0.281132
1 0.845426 0.279728
1 0.84509 0.279255
1 0.844984 0.279088
1 0.845151 0.27924
0.221897 1 0.648234
0.227741 1 0.649012
0.233692 1 0.649546
0.2392 1 0.649378
0.244465 1 0.648997
0.248676 1 0.648081
0.253361 1 0.646708
0.258732 1 0.64445
0.264332 1 0.641001
0.270085 1 0.636149
0.275944 1 0.629648
0.281819 1 0.621225
0.287098 1 0.610224
0.291386 1 0.59588
0.294591 1 0.577508
0.296696 1 0.554391
0.331228 1 0.533074
0.424994 0.982589 0.524117
0.527565 0.960815 0.51223
0.626398 0.941512 0.492561
0.716075 0.92755 0.459846
0.79707 0.919356 0.410971
0.869657 0.915557 0.348394
0.936355 0.906737 0.336065
0.997055 0.897856 0.32842
1 0.891218 0.321492
1 0.886519 0.316197
1 0.883421 0.312566
1 0.881422 0.310155
1 0.88011 0.308553
1 0.879515 0.30779
1 0.879255 0.307424
1 0.879103 0.307195
0.243519 1 0.669688
0.249165 1 0.670634
0.254368 1 0.67097
0.25951 1 0.670863
0.264027 1 0.670237
0.26775 1 0.669245
0.272053 1 0.667857
0.276844 1 0.665492
0.28188 1 0.661891
0.287373 1 0.657084
0.29247 1 0.650233
0.29752 1 0.641413
0.302373 1 0.630442
0.306401 1 0.616342
0.309438 1 0.598505
0.311437 1 0.576226
0.33962 1 0.553231
0.431769 1 0.54464
0.532021 0.99173 0.533349
0.629892 0.971679 0.515709
0.7187 0.956725 0.487129
0.798413 0.94725 0.444587
0.869276 0.942336 0.389212
0.931579 0.93666 0.358495
0.991012 0.927855 0.351492
1 0.921004 0.345296
1 0.916167 0.340337
1 0.912627 0.336446
1 0.910338 0.333852
1 0.909087 0.332296
1 0.908156 0.331136
1 0.907866 0.330694
1 0.907546 0.330236
0.262425 1 0.688502
0.267323 1 0.689189
0.272312 1 0.689616
0.27689 1 0.689296
0.280995 1 0.688518
0.284733 1 0.687617
0.288533 1 0.685954
0.292973 1 0.683421
0.297566 1 0.679591
