public/textures/grade/Sony/Licorice-SLog.cube
TITLE "Generated by Resolve"
LUT_3D_SIZE 9
0 0 0.0439918
0.0281071 0 0.0337987
0.195285 0 0.0353857
0.447395 0 0.010132
0.701137 0 0
0.945907 0 0
1 0 0
1 0 0
1 0 0
0 0.0510414 0.0504005
0 0.0491493 0.0395514
0.155398 0.0305028 0.0374456
0.433478 0 0.0167544
0.698848 0 0
0.951415 0 0
1 0 0
1 0 0
1 0 0
0 0.161593 0.138705
0 0.168032 0.13431
0.0506294 0.164248 0.0787213
0.366537 0.107012 0.0211185
0.667079 0.0530709 0
0.938476 0.0123751 0
1 0 0
1 0 0
1 0 0
0 0.307607 0.220798
0 0.318593 0.225391
0.0402075 0.320134 0.206867
0.246921 0.298299 0.0920882
0.587839 0.240574 0
0.885801 0.193561 0
1 0.167346 0
1 0.161364 0
1 0.174716 0
0 0.482307 0.333135
0 0.497795 0.342519
0.0664683 0.510216 0.323522
0.146685 0.512444 0.244648
0.467933 0.467506 0.106706
0.804654 0.412253 0.0169223
1 0.381109 0
1 0.373312 0
1 0.384192 0
0.00311284 0.671839 0.461372
0.0723888 0.695628 0.46183
0.133944 0.710719 0.443732
0.169604 0.716777 0.390524
0.378622 0.676112 0.332982
0.701762 0.637888 0.178363
0.987106 0.597955 0.108827
1 0.581949 0.0751965
1 0.585977 0.0784161
0.128573 0.863188 0.56849
0.175082 0.885359 0.570047
0.212161 0.897398 0.555093
0.236942 0.899626 0.515282
0.327657 0.875074 0.454475
0.637766 0.820172 0.385626
0.912322 0.792081 0.254536
1 0.767803 0.217243
1 0.764691 0.210269
0.231342 1 0.663172
0.260899 1 0.664164
0.284504 1 0.648753
0.301076 1 0.612634
0.334737 1 0.548287
0.627222 0.965927 0.510185
0.877546 0.936767 0.371344
1 0.911116 0.334325
1 0.902083 0.323751
0.313832 1 0.740658
0.335302 1 0.737469
0.351141 1 0.71696
0.359808 1 0.67689
0.40116 1 0.615244
0.67216 1 0.582773
0.899657 1 0.48336
1 1 0.407767
1 0.99353 0.394293
0 0 0.125093
0.0319371 0 0.106477
0.19881 0 0.0800183
0.451026 0 0.041886
0.702586 0 0.0259098
0.945998 0 0.007187
1 0 0
1 0 0
1 0 0
0 0.0480049 0.110658
0.0132143 0.0475929 0.0927291
0.17319 0.0301823 0.0798047
0.444312 0 0.051133
0.705684 0 0.0339361
0.955886 0 0.0173037
1 0 0.00766003
1 0 0.00784314
1 0 0.0164187
0 0.162432 0.153735
0 0.165866 0.142733
0.0877852 0.162997 0.110216
0.37702 0.11696 0.0682383
0.677729 0.0661936 0.0418708
0.944457 0.028336 0.0254978
1 0.00314336 0.0183871
1 0 0.0209964
1 0.000366217 0.0321965
0 0.309545 0.236378
0 0.320714 0.242298
0.062089 0.321798 0.233249
0.254459 0.30634 0.139742
0.599344 0.249928 0.0578927
0.895048 0.206638 0.0279698
1 0.183154 0.0183871
1 0.178714 0.0223087
1 0.19237 0.0368353
0 0.485664 0.345647
0 0.501167 0.355474
0.106645 0.510719 0.343877
0.148898 0.520439 0.26952
0.478126 0.475959 0.154009
0.814588 0.422431 0.0808576
1 0.39263 0.0466468
1 0.385748 0.0442054
1 0.397009 0.0595712
0.0306554 0.674983 0.473106
0.111421 0.697444 0.476112
0.164004 0.711971 0.459342
0.197971 0.718883 0.41326
0.385977 0.684611 0.353948
0.712291 0.646067 0.213977
0.995712 0.606821 0.156649
1 0.591028 0.131579
1 0.595407 0.133989
0.158816 0.864897 0.580972
0.201358 0.886717 0.583398
0.234882 0.898116 0.568368
0.258152 0.900587 0.531075
0.332662 0.881621 0.469139
0.646342 0.826993 0.403677
0.920668 0.798413 0.281254
1 0.774151 0.247593
1 0.771252 0.241642
0.254337 1 0.676509
0.282506 1 0.677928
0.304128 1 0.661768
0.31783 1 0.624521
0.341039 1 0.558877
0.634897 0.970001 0.52282
0.88455 0.94081 0.386847
1 0.914809 0.353704
1 0.905852 0.343038
0.334768 1 0.754879
0.355825 1 0.751904
0.370748 1 0.731212
0.37705 1 0.690242
0.41033 1 0.623117
0.67808 1 0.591943
0.90425 1 0.49369
1 1 0.421286
1 0.995285 0.40766
0 0 0.264164
0.0243229 0 0.248981
0.187411 0 0.218845
0.436637 0 0.149599
0.696773 0 0.106264
0.942626 0 0.0782483
1 0 0.0626535
1 0 0.0571756
1 0 0.0597238
0 0.0298314 0.249485
0.00770581 0.0367437 0.238071
0.171588 0.026627 0.212009
0.434501 0 0.149737
0.704463 0 0.109178
0.954986 0 0.0868849
1 0 0.0753033
1 0 0.0734264
1 0 0.0824292
0 0.158633 0.223941
0 0.164141 0.209567
0.130648 0.158251 0.182177
0.38088 0.129702 0.146426
0.688151 0.08159 0.104402
0.948333 0.0463264 0.0907301
1 0.022797 0.0862745
1 0.0144198 0.0901961
1 0.0218814 0.101076
0 0.310475 0.269886
0 0.321584 0.275944
0.0712291 0.321248 0.267857
0.260807 0.31194 0.201175
0.614649 0.257237 0.127062
0.903044 0.219242 0.100237
1 0.199344 0.0923323
1 0.196536 0.0954604
1 0.210925 0.10663
0 0.486152 0.369879
0 0.501671 0.380468
0.13698 0.505104 0.378149
0.199405 0.5131 0.327016
0.484245 0.482002 0.211353
0.821439 0.430488 0.155886
1 0.403082 0.131594
1 0.397482 0.128374
1 0.409934 0.137026
0.020798 0.674846 0.491402
0.149905 0.692256 0.503868
0.209705 0.703456 0.491676
0.238605 0.710643 0.448676
0.386801 0.690715 0.382025
0.718349 0.65127 0.260014
0.999329 0.613245 0.212787
1 0.598489 0.193332
1 0.603464 0.194461
0.203784 0.858549 0.60766
0.24242 0.879362 0.611429
0.27332 0.889357 0.59704
0.292103 0.891539 0.558892
0.333043 0.883818 0.487541
0.649683 0.830655 0.429358
0.924575 0.801663 0.317281
1 0.778088 0.287556
1 0.775799 0.281926
0.291371 1 0.703502
0.318166 1 0.705699
0.338598 1 0.689464
0.349432 1 0.651011
0.357931 1 0.578302
0.637186 0.971298 0.540139
0.887358 0.941741 0.410193
1 0.915938 0.380194
1 0.907195 0.36907
0.369024 1 0.783032
0.389624 1 0.780697
0.40412 1 0.760601
0.409171 1 0.720104
0.419715 1 0.64062
0.678996 1 0.605814
0.904891 1 0.510124
1 1 0.440879
1 0.994446 0.427222
0 0 0.464057
0.0146334 0 0.450065
0.171954 0 0.424414
0.401648 0 0.374823
0.674113 0 0.302937
0.929122 0 0.251667
1 0 0.222278
1 0 0.209949
1 0 0.211215
0 0.00483711 0.446647
0.000869764 0.0155489 0.438392
0.160891 0.0190127 0.414679
0.398108 0 0.372839
0.681849 0 0.3028
0.942672 0 0.258579
1 0 0.235966
1 0 0.229664
1 0 0.236622
0 0.133623 0.408209
0 0.144396 0.405417
0.12604 0.145922 0.386755
0.358968 0.129305 0.352163
0.670115 0.0890974 0.276326
0.937102 0.060441 0.244022
1 0.0453498 0.230015
1 0.0457008 0.229664
1 0.061326 0.241306
0 0.312947 0.362631
0 0.324773 0.362295
0.115358 0.323339 0.344289
0.290867 0.313146 0.31194
0.610986 0.271916 0.247898
0.902235 0.236606 0.21091
1 0.220798 0.203464
1 0.219944 0.207233
1 0.235355 0.222324
0 0.490562 0.424018
0 0.505974 0.433875
0.100298 0.50724 0.428977
0.24892 0.497749 0.410178
0.484398 0.487129 0.299428
0.828687 0.437247 0.234974
1 0.414145 0.211154
1 0.411032 0.208637
1 0.424506 0.219028
0 0.676463 0.530709
0.0990311 0.693202 0.542992
0.219959 0.695613 0.540841
0.301106 0.689906 0.5187
0.380362 0.694545 0.42887
0.720088 0.654261 0.320439
0.998795 0.618326 0.273625
1 0.6056 0.254414
1 0.611826 0.255253
0.198444 0.853712 0.64683
0.268818 0.869139 0.658412
0.327733 0.87216 0.652338
0.348363 0.871427 0.617578
0.36408 0.874144 0.538109
0.647562 0.831754 0.465797
0.92401 0.801999 0.362203
1 0.780224 0.334646
1 0.779385 0.3299
0.343465 1 0.754421
0.369131 1 0.757458
0.389059 1 0.741329
0.401343 1 0.70486
0.411978 1 0.63267
0.6336 0.970306 0.568841
0.886366 0.940261 0.446616
1 0.914931 0.419318
1 0.906844 0.409857
0.417563 1 0.833814
0.4374 1 0.831937
0.451469 1 0.812192
0.458122 1 0.773968
0.473243 1 0.696391
0.673808 1 0.636118
0.901289 1 0.544488
1 1 0.478691
1 0.99176 0.465721
0 0 0.698405
0.00570687 0 0.685924
0.157687 0 0.657557
0.37908 0 0.623194
0.645258 0 0.567559
0.908934 0 0.506477
1 0 0.465293
1 0 0.445579
1 0 0.444236
0 0 0.680125
0 0 0.673716
0.152102 0 0.65124
0.377646 0 0.620737
0.65095 0 0.572106
0.922499 0 0.515663
1 0 0.480674
1 0 0.46743
1 0 0.472541
0 0.097612 0.639902
0 0.114549 0.639704
0.121706 0.122408 0.623865
0.345342 0.12311 0.594018
0.626978 0.0889448 0.552834
0.911925 0.0579538 0.498894
1 0.0423438 0.47013
1 0.0426947 0.462974
1 0.0587778 0.473167
0 0.2916 0.583856
0 0.306249 0.588022
0.0928054 0.307164 0.577966
0.289342 0.301976 0.549844
0.566888 0.280858 0.51162
0.873396 0.250584 0.4448
1 0.238453 0.421958
1 0.24181 0.419791
1 0.260288 0.432456
0 0.499733 0.530831
0 0.516045 0.539361
0.112612 0.517754 0.53167
0.245457 0.506584 0.50808
0.484718 0.492485 0.467704
0.812207 0.452399 0.39118
1 0.432258 0.361975
1 0.432502 0.364508
1 0.447303 0.378103
0 0.685756 0.606607
0 0.702312 0.617914
0.142153 0.703182 0.612512
0.268559 0.689799 0.591348
0.43444 0.678279 0.542016
0.715175 0.658473 0.429541
0.993332 0.624521 0.378958
1 0.615076 0.363378
1 0.623194 0.368383
0.0906081 0.859083 0.705989
0.191531 0.873701 0.716655
0.279759 0.872496 0.711147
0.361791 0.85771 0.690791
0.449012 0.846967 0.639918
0.639094 0.833082 0.539925
0.919661 0.80267 0.446616
1 0.783017 0.419959
1 0.78378 0.416892
0.27892 1 0.805585
0.331258 1 0.813153
0.388098 1 0.804349
0.447242 0.99295 0.781079
0.489036 0.981399 0.720317
0.625391 0.968795 0.627298
0.881514 0.938094 0.518364
1 0.91368 0.491661
1 0.906615 0.483192
0.3906 1 0.888319
0.426291 1 0.889448
0.466804 1 0.875837
0.515511 1 0.849546
0.544625 1 0.778943
0.664805 1 0.689967
0.893217 1 0.606516
1 1 0.543603
1 0.988861 0.530465
0 0 0.933562
0 0 0.922087
0.14963 0 0.895476
0.365682 0 0.857145
0.625818 0 0.815824
0.890608 0 0.766812
1 0 0.726757
1 0 0.705165
1 0 0.702647
0 0 0.915373
0 0 0.90988
0.147433 0 0.889555
0.36701 0 0.855451
0.633387 0 0.820981
0.905119 0 0.778698
1 0 0.744808
1 0 0.729671
1 0 0.733684
0 0.0511177 0.874174
0 0.0729381 0.875029
0.120211 0.0869459 0.861189
0.337301 0.115892 0.829389
0.609384 0.0844282 0.801358
0.889525 0.0536812 0.765789
1 0.0361486 0.736324
1 0.0360418 0.726162
1 0.051957 0.734447
0 0.265049 0.816938
0 0.282399 0.823713
0.0857404 0.286519 0.815427
0.287007 0.286534 0.788998
0.553719 0.277424 0.75642
0.838514 0.250523 0.723964
1 0.23537 0.69192
1 0.238071 0.682078
1 0.256138 0.690806
0 0.485084 0.754971
0 0.503029 0.763043
0.0992599 0.505943 0.755673
0.254139 0.495293 0.735119
0.482567 0.487327 0.698497
0.759365 0.466743 0.664347
1 0.449561 0.61474
1 0.451804 0.603326
1 0.468254 0.611658
0 0.698405 0.719692
0 0.71577 0.730587
0.128344 0.717205 0.724117
0.234668 0.704845 0.702251
0.43299 0.685573 0.666789
0.679149 0.671962 0.624872
0.958206 0.640986 0.554803
1 0.632319 0.530312
1 0.642557 0.537942
0 0.87219 0.795865
0.042771 0.886564 0.805463
0.18439 0.884367 0.797314
0.289693 0.867567 0.773068
0.456168 0.841932 0.734585
0.633112 0.83566 0.649027
0.902495 0.808179 0.570169
1 0.789288 0.538201
1 0.792111 0.536431
0.162387 1 0.881102
0.235279 1 0.887037
0.309117 1 0.875212
0.382986 0.997055 0.847852
0.519844 0.966125 0.808194
0.620584 0.968139 0.70811
0.874022 0.93727 0.616175
1 0.914183 0.585275
1 0.908278 0.577417
0.305119 1 0.95436
0.349722 1 0.953368
0.399939 1 0.937179
0.464759 1 0.907759
0.596201 1 0.867399
0.658351 1 0.760632
0.881865 1 0.690059
1 1 0.624979
1 0.987121 0.612116
0 0 1
0 0 1
0.146212 0 1
0.355444 0 1
0.615641 0 1
0.878904 0 0.978576
1 0 0.945769
1 0 0.92755
1 0 0.926436
0 0 1
0 0 1
0.1467 0 1
0.359411 0 1
0.626261 0 1
0.895811 0 0.99118
1 0 0.965118
1 0 0.953643
1 0 0.959045
0 0.00662242 1
0 0.0294957 1
0.122606 0.0455634 1
0.334752 0.0946365 1
0.605158 0.0809186 1
0.880201 0.0514839 0.978363
1 0.0328832 0.957824
1 0.0317388 0.951186
1 0.0471504 0.960311
0 0.241947 1
0 0.261601 1
0.0879072 0.267796 1
0.287785 0.271107 0.99498
0.551095 0.275364 0.959991
0.827771 0.250263 0.936477
1 0.234394 0.91693
1 0.235538 0.909743
1 0.252644 0.918074
0 0.469459 0.956466
0 0.488548 0.966537
0.0797131 0.492073 0.961257
0.248493 0.483391 0.941405
0.483635 0.48014 0.902983
0.750179 0.466224 0.872557
0.993576 0.450599 0.851377
1 0.450324 0.838361
1 0.465461 0.84303
0 0.692149 0.901656
0.0276341 0.710231 0.909514
0.171313 0.7122 0.900633
0.276829 0.700038 0.878141
0.454078 0.682322 0.84715
0.675502 0.672862 0.809979
0.90901 0.65687 0.785763
1 0.651164 0.754299
1 0.66247 0.750973
0 0.885512 0.897124
0.0643626 0.900389 0.906416
0.168444 0.898878 0.898131
0.252201 0.882933 0.874205
0.421485 0.857954 0.836942
0.64564 0.834241 0.794644
0.846616 0.825513 0.759945
1 0.808606 0.714549
1 0.807111 0.691417
0.0161898 1 0.968612
0.132342 1 0.972839
0.231022 1 0.958938
0.319463 1 0.928664
0.478004 0.976364 0.886259
0.687053 0.944854 0.837034
0.849638 0.938994 0.763073
1 0.926436 0.724285
1 0.918151 0.698985
0.211734 1 1
0.270085 1 1
0.331533 1 1
0.410025 1 0.975494
0.559594 1 0.93283
0.730037 1 0.878279
0.867155 1 0.791547
1 1 0.730388
1 0.990951 0.708705
0 0 1
0.000244144 0 1
0.146548 0 1
0.350729 0 1
0.610666 0 1
0.873777 0 1
1 0 1
1 0 1
1 0 1
0 0 1
0 0 1
0.14966 0 1
0.358694 0 1
0.62388 0 1
0.893355 0 1
1 0 1
1 0 1
1 0 1
0 0 1
0 0 1
0.128374 0.0131075 1
0.337591 0.0637064 1
0.605188 0.0813306 1
0.879942 0.0527199 1
1 0.034287 1
1 0.0325475 1
1 0.0475319 1
0 0.225971 1
0 0.247456 1
0.0955367 0.254948 1
0.292363 0.260365 1
0.552728 0.277272 1
0.828977 0.252369 1
1 0.237263 1
1 0.237568 1
1 0.253864 1
0 0.460029 1
0 0.479896 1
0.0804761 0.484352 1
0.251148 0.477012 1
0.488075 0.476707 1
0.751827 0.468452 1
0.989517 0.453849 1
1 0.452506 1
1 0.466072 1
0 0.687053 1
0 0.705257 1
0.149416 0.707591 1
0.264546 0.695445 1
0.451682 0.678523 1
0.679026 0.67158 0.960433
0.905074 0.658656 0.938674
1 0.653315 0.927306
1 0.662638 0.92491
0.101183 0.886091 1
0.191867 0.900771 1
0.270329 0.899672 1
0.341939 0.883604 0.984833
0.474922 0.859586 0.94728
0.661646 0.839536 0.911238
0.84181 0.83241 0.881437
1 0.823804 0.866804
1 0.827298 0.84744
0.0719768 1 1
0.148653 1 1
0.219959 1 1
0.300221 1 1
0.458015 0.988083 0.961364
0.658717 0.960143 0.917144
0.839429 0.943481 0.88101
0.971969 0.940444 0.861021
1 0.935363 0.843183
0.158816 1 1
0.226444 1 1
0.292882 1 1
0.376959 1 1
0.530465 1 0.995407
0.71342 1 0.948959
0.846281 1 0.884215
0.98294 1 0.858839
1 1 0.846342
0 0 1
0.00447089 0 1
0.149401 0 1
0.352056 0 1
0.610498 0 1
0.874205 0 1
1 0 1
1 0 1
1 0 1
0 0 1
0.00419623 0 1
0.154849 0 1
0.362783 0 1
0.626398 0 1
0.896361 0 1
1 0 1
1 0 1
1 0 1
0 0 1
0 0 1
0.136217 0 1
0.34403 0.0471962 1
0.609918 0.0860914 1
0.884657 0.0576333 1
1 0.0400854 1
1 0.0383307 1
1 0.0532082 1
0 0.219791 1
0 0.242588 1
0.106294 0.25095 1
0.30045 0.257649 1
0.558831 0.28333 1
0.83476 0.258564 1
1 0.244099 1
1 0.244175 1
1 0.259907 1
0 0.458808 1
0 0.479057 1
0.0908064 0.484123 1
0.258778 0.477607 1
0.496132 0.47892 1
0.757824 0.474723 1
0.994522 0.460212 1
1 0.458717 1
1 0.47129 1
0 0.687694 1
0 0.705898 1
0.146471 0.708415 1
0.264637 0.696208 1
0.456565 0.679911 1
0.685786 0.674632 1
0.909545 0.663584 1
1 0.658564 1
1 0.667109 1
0.0728313 0.888441 1
0.173983 0.902968 1
0.256825 0.90161 1
0.331716 0.8851 1
0.470787 0.860838 1
0.662821 0.840894 1
0.846067 0.834867 0.971725
1 0.82707 0.956756
1 0.831022 0.94905
0.264057 1 1
0.311254 1 1
0.349157 1 1
0.39379 1 1
0.508446 0.993484 1
0.670832 0.968994 0.973098
0.831754 0.954238 0.945937
0.969467 0.947341 0.9243
1 0.944625 0.9196
0.182498 1 1
0.229709 1 1
0.289876 1 1
0.372717 1 1
0.523064 1 1
0.698695 1 0.998062
0.862989 1 0.961578
0.970565 1 0.935225
1 1 0.925582
