public/textures/grade/Sony/Licorice-SLog3.cube
TITLE "Generated by Resolve"
LUT_3D_SIZE 5
0 0 0.0500496
0.115419 0 0.0419776
0.704646 0 0
1 0 0
1 0 0
0 0.115129 0.103136
0.0348516 0.111025 0.0763561
0.688533 0.00469978 0
1 0 0
1 0 0
0 0.487648 0.338018
0.0456855 0.5066 0.340368
0.471046 0.469932 0.113695
1 0.377569 0
1 0.387671 0.00381476
0.196872 0.960708 0.623774
0.244541 0.983902 0.616968
0.326604 0.964767 0.509483
1 0.861723 0.300267
1 0.845151 0.27924
0.320699 1 0.743084
0.348424 1 0.728664
0.40441 1 0.616327
0.995727 1 0.419959
1 0.994018 0.396155
0 0 0.200336
0.118654 0 0.171084
0.704753 0 0.0631418
1 0 0.034287
1 0 0.0369879
0 0.111894 0.174716
0.0802625 0.110491 0.142855
0.700969 0.0240482 0.0697032
1 0 0.0542458
1 0 0.0658732
0 0.490364 0.361501
0.0813916 0.506264 0.369558
0.484108 0.481224 0.189319
1 0.3944 0.0980545
1 0.406149 0.111589
0.240818 0.95758 0.649378
0.283848 0.979019 0.643381
0.33193 0.9691 0.529259
1 0.867094 0.338384
1 0.851102 0.318898
0.358083 1 0.770779
0.384817 1 0.757046
0.415061 1 0.630838
0.99971 1 0.442329
1 0.995026 0.41886
0 0 0.697276
0.0929732 0 0.671809
0.649439 0 0.570916
1 0 0.458579
1 0 0.452094
0 0.0368353 0.65951
0.0684977 0.0578775 0.646922
0.64155 0.0254368 0.564523
1 0 0.471244
1 0 0.47837
0 0.504814 0.534401
0.0554818 0.519966 0.537667
0.485893 0.493568 0.46862
1 0.43183 0.362905
1 0.448508 0.379049
0.217716 0.946105 0.763317
0.314687 0.955596 0.767727
0.468009 0.924193 0.685405
1 0.866636 0.469596
1 0.854749 0.454322
0.395697 1 0.889738
0.450477 1 0.882963
0.545251 1 0.778912
0.989212 1 0.55053
1 0.988846 0.530907
0 0 1
0.0889296 0 1
0.618051 0 1
1 0 1
1 0 1
0 0 1
0.0733196 0 1
0.617899 0.0151217 1
1 0 1
1 0 1
0 0.469108 1
0.00523384 0.488609 1
0.486519 0.478706 0.991623
1 0.45069 0.936858
1 0.466316 0.939681
0.0335546 0.977829 0.983627
0.163531 0.986175 0.983902
0.435492 0.933516 0.909758
0.919203 0.892058 0.818463
1 0.881849 0.779019
0.186419 1 1
0.281086 1 1
0.542657 1 0.967376
0.941039 1 0.822644
1 0.999252 0.784894
0 0 1
0.0951095 0 1
0.616526 0 1
1 0 1
1 0 1
0 0 1
0.0861067 0 1
0.621836 0.0193942 1
1 0 1
1 0 1
0 0.464469 1
0.0167697 0.485176 1
0.497063 0.479912 1
1 0.458732 1
1 0.472496 1
0.202106 0.982635 1
0.293584 0.990234 1
0.504128 0.938109 1
0.916197 0.902129 0.936904
1 0.89958 0.926192
0.190356 1 1
0.266163 1 1
0.524071 1 1
0.914611 1 0.938338
1 1 0.925582
