public/textures/grade/Sony/Licorice-SLog3.cube
TITLE "Generated by Resolve"
LUT_3D_SIZE 9
0 0 0.0500496
0.0137179 0 0.039704
0.115419 0 0.0419776
0.377737 0 0.0237278
0.704646 0 0
1 0 0
1 0 0
1 0 0
1 0 0
0 0.0421759 0.0471962
0 0.040116 0.038529
0.0884413 0.0310674 0.0379644
0.362448 0 0.0299229
0.703944 0 0
1 0 0
1 0 0
1 0 0
1 0 0
0 0.115129 0.103136
0 0.116304 0.0934157
0.0348516 0.111025 0.0763561
0.314412 0.0675822 0.0333104
0.688533 0.00469978 0
1 0 0
1 0 0
1 0 0
1 0 0
0 0.265751 0.19765
0 0.272725 0.200137
0 0.274067 0.193637
0.191348 0.256733 0.0984665
0.617731 0.183413 0
0.989319 0.127901 0
1 0.104387 0
1 0.107271 0
1 0.116884 0
0 0.487648 0.338018
0 0.498665 0.344717
0.0456855 0.5066 0.340368
0.109926 0.519585 0.275563
0.471046 0.469932 0.113695
0.897826 0.402701 0.00943008
1 0.377569 0
1 0.379675 0
1 0.387671 0.00381476
0.0573434 0.741527 0.500038
0.105974 0.758343 0.500816
0.146426 0.770535 0.4925
0.188281 0.779614 0.454902
0.359701 0.746075 0.379217
0.776104 0.692332 0.208103
1 0.653284 0.142504
1 0.645991 0.125826
1 0.649149 0.128206
0.196872 0.960708 0.623774
0.222034 0.974975 0.624659
0.244541 0.983902 0.616968
0.270008 0.987076 0.586007
0.326604 0.964767 0.509483
0.717083 0.892729 0.424323
1 0.861723 0.300267
1 0.84651 0.281132
1 0.845151 0.27924
0.278584 1 0.704463
0.295888 1 0.703777
0.311437 1 0.694224
0.32781 1 0.660349
0.362158 1 0.583535
0.730861 1 0.524941
0.987991 0.972717 0.384726
1 0.953857 0.368246
1 0.949783 0.36321
0.320699 1 0.743084
0.335683 1 0.74049
0.348424 1 0.728664
0.360265 1 0.691798
0.40441 1 0.616327
0.754864 1 0.561776
0.995727 1 0.419959
1 0.999374 0.402197
1 0.994018 0.396155
0 0 0.10927
0.0157473 0 0.0939956
0.12166 0 0.0808118
0.379751 0 0.044831
0.705928 0 0.0215457
1 0 0
1 0 0
1 0 0
1 0 0
0 0.0386053 0.0986801
0.00224308 0.0375219 0.085481
0.103304 0.0288396 0.0746624
0.367468 0 0.0530861
0.707347 0 0.0271916
1 0 0.004654
1 0 0
1 0 0.000396735
1 0 0.00579843
0 0.115862 0.115938
0 0.115862 0.104311
0.0628977 0.110155 0.0895399
0.319844 0.0749828 0.0639811
0.694514 0.0139773 0.0325933
1 0 0.0120241
1 0 0.0065156
1 0 0.0122377
1 0 0.0192264
0 0.266773 0.209705
0 0.27393 0.213214
0 0.276188 0.209354
0.19498 0.262226 0.131884
0.626535 0.190921 0.0406958
0.994385 0.139223 0.0134432
1 0.118334 0.00987259
1 0.121736 0.0181582
1 0.131701 0.0269627
0 0.489845 0.346792
0 0.500954 0.353765
0.0742046 0.506859 0.353201
0.136568 0.520638 0.298161
0.478492 0.476066 0.14789
0.904341 0.410101 0.0555734
1 0.386038 0.0330205
1 0.38854 0.0400397
1 0.396643 0.0502632
0.0868849 0.743145 0.509361
0.130175 0.759472 0.510414
0.166949 0.771359 0.502464
0.206653 0.780346 0.467414
0.364111 0.751736 0.392432
0.78323 0.697795 0.231266
1 0.659144 0.172641
1 0.652049 0.158556
1 0.655283 0.160723
0.214771 0.961364 0.633066
0.239017 0.975479 0.634348
0.260014 0.983902 0.626413
0.283223 0.987106 0.594995
0.329992 0.968002 0.518288
0.722652 0.896437 0.435538
1 0.86511 0.316716
1 0.849928 0.298405
1 0.848692 0.296529
0.293858 1 0.71429
0.310857 1 0.713741
0.325658 1 0.703868
0.340307 1 0.669047
0.367712 1 0.58996
0.735637 1 0.532845
0.991699 0.974563 0.396277
1 0.95581 0.379812
1 0.951629 0.374609
0.335607 1 0.753246
0.350576 1 0.750881
0.362783 1 0.738949
0.373312 1 0.701656
0.410788 1 0.621851
0.75877 1 0.568566
0.998672 1 0.429374
1 1 0.411826
1 0.995193 0.405722
0 0 0.200336
0.0112764 0 0.187945
0.118654 0 0.171084
0.371801 0 0.109026
0.704753 0 0.0631418
1 0 0.0395209
1 0 0.034287
1 0 0.0347601
1 0 0.0369879
0 0.0276188 0.190967
0 0.0307927 0.181079
0.105089 0.025742 0.162799
0.363577 0 0.112535
0.70869 0 0.0667277
1 0 0.0460212
1 0 0.0409094
1 0 0.0447395
1 0 0.0491035
0 0.111894 0.174716
0 0.113939 0.161364
0.0802625 0.110491 0.142855
0.324895 0.0809339 0.11429
0.700969 0.0240482 0.0697032
1 0 0.0548409
1 0 0.0542458
1 0 0.0601358
1 0 0.0658732
0 0.267323 0.231205
0 0.274067 0.234791
0.00151064 0.275166 0.229755
0.201022 0.266331 0.170092
0.637812 0.19762 0.0894484
0.998276 0.151507 0.067216
1 0.13344 0.0653239
1 0.137682 0.0726024
1 0.147112 0.0792401
0 0.490364 0.361501
0 0.501411 0.368841
0.0813916 0.506264 0.369558
0.170108 0.516045 0.328893
0.484108 0.481224 0.189319
0.90901 0.416785 0.117037
1 0.3944 0.0980545
1 0.397604 0.103517
1 0.406149 0.111589
0.125658 0.740215 0.526223
0.163195 0.755962 0.528008
0.196536 0.767193 0.520607
0.231922 0.775906 0.485893
0.364996 0.756146 0.409308
0.788266 0.701915 0.261173
1 0.66389 0.209598
1 0.657206 0.197818
1 0.660533 0.199527
0.240818 0.95758 0.649378
0.263859 0.971145 0.651118
0.283848 0.979019 0.643381
0.304433 0.981781 0.611109
0.33193 0.9691 0.529259
0.725917 0.898634 0.451026
1 0.867094 0.338384
1 0.852171 0.320928
1 0.851102 0.318898
0.316838 1 0.731212
0.33373 1 0.73109
0.347814 1 0.72105
0.361181 1 0.685832
0.372732 1 0.598367
0.737972 1 0.543755
0.993515 0.975067 0.411795
1 0.956374 0.395331
1 0.9523 0.390051
0.358083 1 0.770779
0.372808 1 0.768704
0.384817 1 0.757046
0.394568 1 0.720058
0.415061 1 0.630838
0.760327 1 0.577951
0.99971 1 0.442329
1 1 0.425116
1 0.995026 0.41886
0 0 0.400183
0.00225834 0 0.390143
0.106447 0 0.37322
0.338216 0 0.326162
0.686397 0 0.237675
1 0 0.184955
1 0 0.163684
1 0 0.160952
1 0 0.16379
0 0.00430304 0.388495
0 0.0108644 0.381338
0.0958114 0.0178988 0.364157
0.332357 0 0.324331
0.692042 0 0.23711
1 0 0.191302
1 0 0.175235
1 0 0.176089
1 0 0.181003
0 0.0843977 0.364752
0 0.0919966 0.360693
0.0749981 0.0962844 0.347555
0.307225 0.0802777 0.312169
0.688991 0.0281376 0.224994
1 0 0.189181
1 0 0.178408
1 0 0.182956
1 0 0.190127
0 0.268025 0.320562
0 0.275074 0.318578
0.0522774 0.275532 0.306493
0.243595 0.265507 0.27039
0.645548 0.212375 0.196551
0.99762 0.172457 0.170169
1 0.158312 0.168582
1 0.163943 0.177111
1 0.173816 0.18558
0 0.493111 0.407446
0 0.50396 0.414618
0.046128 0.507393 0.414191
0.214343 0.501701 0.400504
0.486275 0.486488 0.268925
0.915053 0.425895 0.196048
1 0.407553 0.178744
1 0.41236 0.182162
1 0.421027 0.188327
0.0888533 0.739101 0.558572
0.167773 0.750866 0.567269
0.237858 0.755566 0.568841
0.291371 0.757946 0.543038
0.361196 0.759136 0.44509
0.791058 0.70486 0.313176
1 0.669123 0.26688
1 0.66363 0.255879
1 0.667826 0.256977
0.295644 0.944167 0.696056
0.317128 0.956634 0.69868
0.336049 0.963058 0.691432
0.356435 0.963134 0.66038
0.368292 0.95787 0.571633
0.725917 0.899016 0.481239
1 0.867369 0.377447
1 0.853513 0.361227
1 0.852628 0.359091
0.366827 1 0.777646
0.382956 1 0.777844
0.396887 1 0.768231
0.410224 1 0.733974
0.421744 1 0.645594
0.736568 1 0.569177
0.992645 0.973556 0.444999
1 0.955047 0.429114
1 0.951186 0.42446
0.406439 1 0.81767
0.420432 1 0.815854
0.432364 1 0.804791
0.442329 1 0.769451
0.455665 1 0.676677
0.75671 1 0.604044
0.99733 1 0.473899
1 0.998199 0.457954
1 0.992584 0.452003
0 0 0.697276
0 0 0.688991
0.0929732 0 0.671809
0.312505 0 0.636027
0.649439 0 0.570916
0.990005 0 0.495613
1 0 0.458579
1 0 0.45037
1 0 0.452094
0 0 0.684749
0 0 0.679469
0.0882734 0 0.665492
0.309819 0 0.632715
0.653422 0 0.574105
1 0 0.503197
1 0 0.471656
1 0 0.46772
1 0 0.472053
0 0.0368353 0.65951
0 0.0483864 0.657511
0.0684977 0.0578775 0.646922
0.290517 0.0708476 0.616236
0.64155 0.0254368 0.564523
0.999466 0 0.497612
1 0 0.471244
1 0 0.47155
1 0 0.47837
0 0.237766 0.603677
0 0.247974 0.606119
0.0270542 0.251148 0.600488
0.238041 0.249302 0.574472
0.589609 0.222904 0.525612
0.968978 0.187304 0.454627
1 0.179965 0.436698
1 0.190005 0.441184
1 0.201358 0.449195
0 0.504814 0.534401
0 0.515877 0.540154
0.0554818 0.519966 0.537667
0.2 0.511574 0.517403
0.485893 0.493568 0.46862
0.903609 0.443671 0.375586
1 0.43183 0.362905
1 0.439017 0.370581
1 0.448508 0.379049
0 0.747906 0.641291
0.0226902 0.759213 0.649195
0.14023 0.762188 0.64828
0.268635 0.752148 0.631357
0.436912 0.73521 0.575479
0.787182 0.708278 0.43238
1 0.676188 0.384207
1 0.673472 0.376333
1 0.678279 0.379278
0.217716 0.946105 0.763317
0.2645 0.954803 0.769574
0.314687 0.955596 0.767727
0.390036 0.94136 0.74902
0.468009 0.924193 0.685405
0.717571 0.898253 0.561395
1 0.866636 0.469596
1 0.854582 0.455344
1 0.854749 0.454322
0.342443 1 0.848966
0.373465 1 0.852018
0.408743 1 0.846799
0.4645 1 0.823911
0.514992 1 0.749828
0.725872 0.999634 0.638972
0.985626 0.970459 0.52694
1 0.952453 0.512322
1 0.948882 0.508202
0.395697 1 0.889738
0.421271 1 0.890364
0.450477 1 0.882963
0.498146 1 0.858534
0.545251 1 0.778912
0.744427 1 0.671489
0.989212 1 0.55053
1 0.994079 0.53698
1 0.988846 0.530907
0 0 1
0 0 0.994354
0.087892 0 0.978759
0.295811 0 0.938903
0.626734 0 0.888914
0.969985 0 0.832151
1 0 0.796216
1 0 0.786831
1 0 0.788373
0 0 0.989471
0 0 0.984985
0.085481 0 0.97258
0.295689 0 0.936309
0.632502 0 0.89221
0.982025 0 0.842069
1 0 0.811673
1 0 0.806592
1 0 0.810559
0 0 0.963851
0 0 0.962585
0.0677958 0.00392157 0.953674
0.281163 0.044892 0.922759
0.621836 0.0182345 0.882551
0.978424 0 0.839033
1 0 0.813275
1 0 0.811749
1 0 0.817716
0 0.199802 0.906493
0 0.212924 0.910201
0.023331 0.219821 0.906157
0.235477 0.22385 0.883375
0.572763 0.218585 0.842359
0.937026 0.184436 0.804776
1 0.174365 0.780835
1 0.183474 0.780713
1 0.194965 0.787411
0 0.484962 0.826917
0 0.497856 0.833051
0.0180209 0.50277 0.8309
0.199985 0.495949 0.814389
0.483528 0.48571 0.769024
0.841016 0.460746 0.727352
1 0.449668 0.689326
1 0.458076 0.686351
1 0.468193 0.6916
0 0.765545 0.782712
0 0.777157 0.789944
0.0946212 0.780941 0.788403
0.210971 0.770916 0.7691
0.426551 0.744884 0.725704
0.737636 0.725597 0.672053
1 0.694972 0.597284
1 0.693812 0.584817
1 0.700328 0.588479
0.0107271 0.961776 0.873976
0.102846 0.970275 0.879347
0.186496 0.970016 0.875273
0.291844 0.953246 0.851759
0.472938 0.916686 0.801984
0.706554 0.90016 0.697917
0.986267 0.871962 0.616678
1 0.860166 0.595422
1 0.861234 0.595026
0.209781 1 0.945373
0.254612 1 0.946532
0.303517 1 0.93843
0.377249 1 0.910475
0.544213 1 0.859083
0.716075 0.999313 0.747539
0.974212 0.97023 0.643931
1 0.9523 0.628183
1 0.949203 0.624842
0.281437 1 0.979446
0.316228 1 0.977951
0.355398 1 0.968063
0.41973 1 0.939178
0.585901 1 0.887663
0.733562 1 0.772854
0.978149 1 0.657221
1 0.992233 0.645075
1 0.986969 0.639246
0 0 1
0 0 1
0.0889296 0 1
0.289815 0 1
0.618051 0 1
0.960388 0 1
1 0 1
1 0 1
1 0 1
0 0 1
0 0 1
0.0888838 0 1
0.293233 0 1
0.626276 0 1
0.974502 0 1
1 0 1
1 0 1
1 0 1
0 0 1
0 0 1
0.0733196 0 1
0.281514 0 1
0.617899 0.0151217 1
0.971893 0 1
1 0 1
1 0 1
1 0 1
0 0.170199 1
0 0.185763 1
0.0298619 0.194476 1
0.238651 0.20209 1
0.570962 0.217365 1
0.929793 0.185183 1
1 0.1738 1
1 0.181827 1
1 0.192447 1
0 0.469108 1
0 0.482506 1
0.00523384 0.488609 1
0.195789 0.482979 1
0.486519 0.478706 0.991623
0.832563 0.462287 0.953506
1 0.45069 0.936858
1 0.457115 0.93518
1 0.466316 0.939681
0 0.760876 0.97705
0.0557565 0.773083 0.982055
0.155764 0.776913 0.978103
0.265263 0.767437 0.957229
0.4551 0.742473 0.917388
0.734203 0.728496 0.870176
0.984726 0.713191 0.845731
1 0.713527 0.826596
1 0.719905 0.824475
0.0335546 0.977829 0.983627
0.0991226 0.98616 0.988342
0.163531 0.986175 0.983902
0.248081 0.969451 0.959381
0.435492 0.933516 0.909758
0.715206 0.900145 0.853483
0.919203 0.892058 0.818463
1 0.88304 0.791852
1 0.881849 0.779019
0.0943923 1 1
0.161776 1 1
0.225315 1 1
0.312154 1 0.999924
0.50042 1 0.946151
0.760037 0.982757 0.883345
0.928725 0.977539 0.817319
1 0.969055 0.797635
1 0.965591 0.785916
0.186419 1 1
0.232532 1 1
0.281086 1 1
0.357549 1 1
0.542657 1 0.967376
0.778698 1 0.899992
0.941039 1 0.822644
1 1 0.796246
1 0.999252 0.784894
0 0 1
0 0 1
0.0922866 0 1
0.289967 0 1
0.615976 0 1
0.958816 0 1
1 0 1
1 0 1
1 0 1
0 0 1
0 0 1
0.0941024 0 1
0.295155 0 1
0.625971 0 1
0.97467 0 1
1 0 1
1 0 1
1 0 1
0 0 1
0 0 1
0.0806134 0 1
0.285222 0 1
0.619226 0.0167544 1
0.973526 0 1
1 0 1
1 0 1
1 0 1
0 0.155718 1
0 0.173022 1
0.0391394 0.182788 1
0.244572 0.192172 1
0.574212 0.220737 1
0.932738 0.189151 1
1 0.177905 1
1 0.185489 1
1 0.19585 1
0 0.464271 1
0 0.478035 1
0.0106661 0.484657 1
0.200275 0.47985 1
0.492302 0.478004 1
0.835981 0.46627 1
1 0.454963 1
1 0.460487 1
1 0.46923 1
0 0.759564 1
0.0285039 0.771832 1
0.137041 0.775662 1
0.254215 0.76611 1
0.453269 0.741421 1
0.738293 0.729061 0.983474
0.981689 0.716014 0.960861
1 0.716564 0.952743
1 0.722286 0.951354
0.210712 0.980926 1
0.254322 0.989273 1
0.29987 0.988922 1
0.366125 0.971801 1
0.50576 0.937179 0.974182
0.731258 0.908888 0.923766
0.915145 0.900313 0.897856
1 0.895201 0.890455
1 0.895613 0.884978
0.136599 1 1
0.179614 1 1
0.224857 1 1
0.303609 1 1
0.48954 1 1
0.736797 0.996063 0.94551
0.913481 0.983383 0.906645
1 0.978988 0.894926
1 0.976944 0.889418
0.167269 1 1
0.214954 1 1
0.263584 1 1
0.340627 1 1
0.52578 1 1
0.762005 1 0.959854
0.922713 1 0.910338
1 1 0.896422
1 1 0.892134
0 0 1
0 0 1
0.0951095 0 1
0.29131 0 1
0.616526 0 1
0.960067 0 1
1 0 1
1 0 1
1 0 1
0 0 1
0 0 1
0.0977188 0 1
0.297444 0 1
0.627512 0 1
0.976959 0 1
1 0 1
1 0 1
1 0 1
0 0 1
0 0 1
0.0861067 0 1
0.288518 0 1
0.621836 0.0193942 1
0.97673 0 1
1 0 1
1 0 1
1 0 1
0 0.151675 1
0 0.169818 1
0.0459144 0.180407 1
0.249088 0.190143 1
0.578103 0.224567 1
0.936355 0.192996 1
1 0.18201 1
1 0.189273 1
1 0.199939 1
0 0.464469 1
0 0.478767 1
0.0167697 0.485176 1
0.204837 0.481086 1
0.497063 0.479912 1
0.839475 0.470008 1
1 0.458732 1
1 0.463935 1
1 0.472496 1
0 0.76109 1
0.0244907 0.773037 1
0.134569 0.777157 1
0.252628 0.767147 1
0.45539 0.742687 1
0.742031 0.731182 1
0.983902 0.718868 1
1 0.719539 0.999207
1 0.7252 0.998413
0.202106 0.982635 1
0.247333 0.991089 1
0.293584 0.990234 1
0.361273 0.973037 1
0.504128 0.938109 1
0.732891 0.909728 0.967926
0.916197 0.902129 0.936904
1 0.897826 0.929488
1 0.89958 0.926192
0.223285 1 1
0.252277 1 1
0.285267 1 1
0.337942 1 1
0.492348 1 1
0.732403 1 0.972381
0.914137 0.985351 0.939147
1 0.982086 0.92369
1 0.98027 0.921065
0.190356 1 1
0.224063 1 1
0.266163 1 1
0.341329 1 1
0.524071 1 1
0.754665 1 0.984833
0.914611 1 0.938338
1 1 0.925643
1 1 0.925582
