public/textures/grade/Sony/Licorice-SLog.cube
TITLE "Generated by Resolve"
LUT_3D_SIZE 5
0 0 0.0439918
0.195285 0 0.0353857
0.701137 0 0
1 0 0
1 0 0
0 0.161593 0.138705
0.0506294 0.164248 0.0787213
0.667079 0.0530709 0
1 0 0
1 0 0
0 0.482307 0.333135
0.0664683 0.510216 0.323522
0.467933 0.467506 0.106706
1 0.381109 0
1 0.384192 0
0.128573 0.863188 0.56849
0.212161 0.897398 0.555093
0.327657 0.875074 0.454475
0.912322 0.792081 0.254536
1 0.764691 0.210269
0.313832 1 0.740658
0.351141 1 0.71696
0.40116 1 0.615244
0.899657 1 0.48336
1 0.99353 0.394293
0 0 0.264164
0.187411 0 0.218845
0.696773 0 0.106264
1 0 0.0626535
1 0 0.0597238
0 0.158633 0.223941
0.130648 0.158251 0.182177
0.688151 0.08159 0.104402
1 0.022797 0.0862745
1 0.0218814 0.101076
0 0.486152 0.369879
0.13698 0.505104 0.378149
0.484245 0.482002 0.211353
1 0.403082 0.131594
1 0.409934 0.137026
0.203784 0.858549 0.60766
0.27332 0.889357 0.59704
0.333043 0.883818 0.487541
0.924575 0.801663 0.317281
1 0.775799 0.281926
0.369024 1 0.783032
0.40412 1 0.760601
0.419715 1 0.64062
0.904891 1 0.510124
1 0.994446 0.427222
0 0 0.698405
0.157687 0 0.657557
0.645258 0 0.567559
1 0 0.465293
1 0 0.444236
0 0.097612 0.639902
0.121706 0.122408 0.623865
0.626978 0.0889448 0.552834
1 0.0423438 0.47013
1 0.0587778 0.473167
0 0.499733 0.530831
0.112612 0.517754 0.53167
0.484718 0.492485 0.467704
1 0.432258 0.361975
1 0.447303 0.378103
0.0906081 0.859083 0.705989
0.279759 0.872496 0.711147
0.449012 0.846967 0.639918
0.919661 0.80267 0.446616
1 0.78378 0.416892
0.3906 1 0.888319
0.466804 1 0.875837
0.544625 1 0.778943
0.893217 1 0.606516
1 0.988861 0.530465
0 0 1
0.146212 0 1
0.615641 0 1
1 0 0.945769
1 0 0.926436
0 0.00662242 1
0.122606 0.0455634 1
0.605158 0.0809186 1
1 0.0328832 0.957824
1 0.0471504 0.960311
0 0.469459 0.956466
0.0797131 0.492073 0.961257
0.483635 0.48014 0.902983
0.993576 0.450599 0.851377
1 0.465461 0.84303
0 0.885512 0.897124
0.168444 0.898878 0.898131
0.421485 0.857954 0.836942
0.846616 0.825513 0.759945
1 0.807111 0.691417
0.211734 1 1
0.331533 1 1
0.559594 1 0.93283
0.867155 1 0.791547
1 0.990951 0.708705
0 0 1
0.149401 0 1
0.610498 0 1
1 0 1
1 0 1
0 0 1
0.136217 0 1
0.609918 0.0860914 1
1 0.0400854 1
1 0.0532082 1
0 0.458808 1
0.0908064 0.484123 1
0.496132 0.47892 1
0.994522 0.460212 1
1 0.47129 1
0.0728313 0.888441 1
0.256825 0.90161 1
0.470787 0.860838 1
0.846067 0.834867 0.971725
1 0.831022 0.94905
0.182498 1 1
0.289876 1 1
0.523064 1 1
0.862989 1 0.961578
1 1 0.925582
