public/textures/grade/Sony/Licorice-SLog2.cube
TITLE "Generated by Resolve"
LUT_3D_SIZE 5
0 0 0.0439918
0.269871 0 0.0281682
0.801617 0 0
1 0 0
1 0 0
0 0.20119 0.159548
0.109804 0.198657 0.0876326
0.763684 0.0819409 0
1 0.0240482 0
1 0.026627 0
0 0.556832 0.383597
0.107301 0.593881 0.358343
0.56199 0.535912 0.133196
1 0.462135 0.0087892
1 0.4663 0.0180667
0.166308 0.922393 0.601907
0.245151 0.955261 0.580438
0.442786 0.90811 0.476585
0.973098 0.836667 0.28098
1 0.816373 0.252613
0.313832 1 0.740658
0.354482 1 0.707118
0.50692 1 0.605966
0.961639 1 0.430884
1 0.99353 0.394293
0 0 0.318791
0.247059 0 0.260105
0.793927 0 0.137392
1 0 0.0954604
1 0 0.0941329
0 0.200565 0.261677
0.174838 0.200244 0.216739
0.783734 0.118654 0.129702
1 0.0712444 0.11722
1 0.0805524 0.133303
0 0.561502 0.42739
0.20856 0.580423 0.433783
0.580133 0.551507 0.245792
1 0.485084 0.171511
1 0.491814 0.172595
0.249973 0.913558 0.653544
0.316014 0.941512 0.634653
0.449393 0.91722 0.515846
0.98294 0.844465 0.349187
1 0.825971 0.324742
0.382239 1 0.79556
0.419669 1 0.763775
0.517342 1 0.635538
0.966247 1 0.468544
1 0.993713 0.435859
0 0 0.794049
0.212329 0 0.743557
0.744747 0 0.647822
1 0 0.562051
1 0 0.548074
0 0.139742 0.719722
0.166186 0.164508 0.701167
0.720836 0.128176 0.628351
1 0.0946517 0.563012
1 0.114351 0.569467
0 0.578683 0.605737
0.151904 0.59585 0.604166
0.563729 0.565942 0.530709
1 0.513588 0.428305
1 0.527794 0.442496
0.111803 0.916625 0.770779
0.311238 0.923232 0.76759
0.514153 0.890639 0.669779
0.974243 0.844709 0.500496
1 0.831754 0.48098
0.359548 1 0.912474
0.456062 1 0.891432
0.589334 1 0.774945
0.952834 1 0.596735
1 0.987976 0.561944
0 0 1
0.200305 0 1
0.720043 0 1
1 0 0.998322
1 0 0.988754
0 0.0615854 1
0.167971 0.107897 1
0.703822 0.123751 1
1 0.0885328 1
1 0.105867 1
0 0.556695 0.989761
0.147402 0.57763 0.989609
0.563226 0.558648 0.921675
1 0.533165 0.877913
1 0.546304 0.872648
0 0.942657 0.95108
0.20827 0.94902 0.943557
0.511925 0.896422 0.867262
0.893782 0.868757 0.797971
1 0.855665 0.747311
0.186709 1 1
0.333196 1 1
0.619852 1 0.93608
0.91751 1 0.808728
1 0.996078 0.756283
0 0 1
0.202319 0 1
0.717403 0 1
1 0 1
1 0 1
0 0.0220035 1
0.17969 0.0757305 1
0.710124 0.130327 1
1 0.0963302 1
1 0.112795 1
0 0.551659 1
0.150011 0.574075 1
0.57406 0.56054 1
1 0.541344 1
1 0.551949 1
0.154025 0.947158 1
0.31519 0.952529 1
0.559411 0.90135 1
0.891478 0.878981 0.94786
1 0.875822 0.933257
0.182498 1 1
0.308003 1 1
0.592676 1 1
0.901991 1 0.949187
1 1 0.925582
