public/textures/grade/Sony/Parasitic-SLog3.cube
TITLE "Generated by Resolve"
LUT_3D_SIZE 5
0 0 0
0.199512 0 0
0.684108 0 0
1 0 0
1 0 0
0 0.119036 0
0.0763561 0.101183 0
0.627802 0.016083 0
1 0 0
1 0 0
0 0.462654 0
0 0.484276 0
0.419181 0.451453 0
0.978592 0.417884 0
1 0.434333 0
0 0.954269 0
0 0.981826 0
0.281178 0.955688 0
0.862181 0.903655 0
1 0.9019 0
0 1 0
0 1 0
0.270909 1 0
0.83888 1 0
1 1 0
0 0 0.174746
0.158419 0 0.157504
0.691966 0 0.0263828
1 0 0
1 0 0
0 0.107164 0.0944381
0.0569467 0.0998245 0.0871595
0.642267 0.0125429 0
1 0 0
1 0.00143435 0
0 0.466407 0
0 0.48986 0
0.427054 0.461097 0
0.998505 0.425361 0
1 0.443702 0
0 0.963317 0
0 0.990173 0
0.284367 0.962829 0
0.865782 0.907744 0
1 0.904555 0
0 1 0
0 1 0
0.269993 1 0
0.837827 1 0
1 1 0
0 0 0.807431
0.0787976 0 0.785901
0.609583 0 0.669627
1 0 0.495033
1 0 0.466529
0 0.0766613 0.701595
0.0326543 0.0716259 0.684199
0.569955 0.00190738 0.616419
1 0 0.490013
1 0 0.490135
0 0.448814 0.453239
0 0.471595 0.476005
0.381186 0.45803 0.46247
1 0.398733 0.396612
1 0.421729 0.419821
0 0.956298 0.332769
0 0.981903 0.355352
0.23975 0.963027 0.306828
0.855192 0.900465 0.188159
1 0.88896 0.19443
0 1 0.346853
0 1 0.357855
0.230503 1 0.297719
0.807553 1 0.173465
1 1 0.16231
0 0 1
0.0286107 0 1
0.523903 0 1
1 0 1
1 0 1
0 0.0426032 1
0.0043183 0.0444648 1
0.481239 0.00390631 1
1 0 1
1 0 1
0 0.433539 1
0 0.457862 1
0.376181 0.44213 1
1 0.389288 1
1 0.4009 1
0 0.942809 0.963073
0 0.966522 0.986877
0.223331 0.940246 0.960754
0.815549 0.873915 0.894591
1 0.845319 0.872023
0 1 0.979568
0 1 0.990295
0.195895 1 0.940322
0.762631 1 0.839124
0.983505 1 0.768704
0 0 1
0.0172427 0 1
0.511055 0 1
1 0 1
1 0 1
0 0.0376287 1
0.00204471 0.0419928 1
0.477607 0.00486763 1
1 0 1
1 0 1
0 0.436683 1
0 0.462135 1
0.382269 0.447456 1
1 0.401938 1
1 0.412192 1
0 0.946365 1
0 0.969268 1
0.222965 0.940673 1
0.813901 0.870146 1
1 0.84387 1
0 1 1
0 1 1
0.191119 1 1
0.763653 1 1
0.977172 1 1
