public/textures/grade/Sony/Parasitic-SLog.cube
TITLE "Generated by Resolve"
LUT_3D_SIZE 9
0 0 0
0.0993973 0 0
0.284321 0 0
0.489357 0 0
0.685924 0 0
0.861677 0 0
1 0 0
1 0 0
1 0 0
0 0.0615244 0
0.0187533 0.0485542 0
0.225193 0.012726 0
0.448035 0 0
0.656092 0 0
0.819028 0 0
0.999161 0 0
1 0 0
1 0 0
0 0.164263 0
0 0.162829 0
0.1196 0.141711 0
0.36289 0.10515 0
0.598627 0.0718242 0
0.791775 0.0527352 0
0.947723 0.0469062 0
1 0.043946 0
1 0.052903 0
0 0.296529 0
0 0.303014 0
0.0254368 0.297765 0
0.252735 0.275868 0
0.51577 0.244419 0
0.74905 0.221698 0
0.92166 0.216922 0
1 0.217823 0
1 0.231006 0
0 0.458656 0
0 0.475319 0
0 0.483818 0
0.15465 0.472679 0
0.417029 0.449317 0
0.675029 0.425284 0
0.87747 0.415824 0
1 0.418265 0
1 0.432288 0
0 0.646372 0
0 0.668635 0
0 0.682658 0
0.0859236 0.67837 0
0.338369 0.660487 0
0.598672 0.637201 0
0.823331 0.624262 0
1 0.62414 0
1 0.634836 0
0 0.846677 0
0 0.868986 0
0 0.881834 0
0.0491493 0.875898 0
0.295735 0.857206 0
0.549615 0.834653 0
0.777157 0.818067 0
0.957992 0.812345 0
1 0.817075 0
0 1 0
0 1 0
0 1 0
0.025864 1 0
0.270954 1 0
0.522789 1 0
0.748577 0.980957 0
0.92694 0.968322 0
1 0.9664 0
0 1 0
0 1 0
0 1 0
0.0295567 1 0
0.269276 1 0
0.517143 1 0
0.739178 1 0
0.913756 1 0
1 1 0
0 0 0.0830091
0.0742046 0 0.0740826
0.274556 0 0.0345464
0.48954 0 0
0.693141 0 0
0.856428 0 0
1 0 0
1 0 0
1 0 0
0 0.0529183 0.0397955
0.0115663 0.0452888 0.0319219
0.22977 0.00746166 0
0.453101 0 0
0.664714 0 0
0.833906 0 0
0.99353 0 0
1 0 0
1 0 0
0 0.158404 0
0 0.158465 0
0.117815 0.141665 0
0.372396 0.103944 0
0.611505 0.0715038 0
0.808408 0.0531624 0
0.950256 0.0521706 0
1 0.0494698 0
1 0.0588693 0
0 0.294972 0
0 0.302831 0
0.028809 0.300496 0
0.256596 0.2804 0
0.52932 0.24773 0
0.76791 0.224491 0
0.944137 0.219928 0
1 0.224903 0
1 0.238453 0
0 0.462425 0
0 0.48011 0
0 0.489693 0
0.156847 0.480446 0
0.423743 0.457023 0
0.689555 0.43154 0
0.897719 0.421393 0
1 0.425788 0
1 0.439612 0
0 0.654231 0
0 0.676677 0
0 0.691234 0
0.0874342 0.687892 0
0.340597 0.670512 0
0.6065 0.64651 0
0.830289 0.631251 0
1 0.630747 0
1 0.641001 0
0 0.854124 0
0 0.876295 0
0 0.889128 0
0.0547341 0.883116 0
0.298344 0.865034 0
0.554528 0.840833 0
0.782055 0.82356 0
0.962493 0.817258 0
1 0.821454 0
0 1 0
0 1 0
0 1 0
0.0299229 1 0
0.273487 1 0
0.525643 1 0
0.751446 0.984497 0
0.92932 0.971023 0
1 0.968505 0
0 1 0
0 1 0
0 1 0
0.0314336 1 0
0.270191 1 0
0.518029 1 0
0.740001 1 0
0.914015 1 0
1 1 0
0 0 0.260426
0.0481575 0 0.255222
0.231693 0 0.232853
0.471046 0 0.174029
0.693294 0 0.104738
0.860533 0 0.0512703
1 0 0.0176699
1 0 0.00112917
1 0 0
0 0.0455024 0.208896
0.00376898 0.0377661 0.203952
0.186175 0.00834669 0.191333
0.440497 0 0.140108
0.667567 0 0.0850538
0.846983 0 0.048127
0.986236 0 0.0312047
1 0 0.023743
1 0 0.0290684
0 0.148714 0.136858
0 0.148684 0.137102
0.0935225 0.141527 0.130007
0.381323 0.0970169 0.0773022
0.622904 0.0665904 0.0500038
0.825025 0.0490425 0.0352941
0.974426 0.0485084 0.0369726
1 0.0523079 0.0415808
1 0.0621347 0.0512093
0 0.288243 0.0564431
0 0.296773 0.0665141
0.0315862 0.298009 0.0604105
0.254185 0.281437 0.0150912
0.544945 0.245991 0
0.789654 0.222263 0
0.972503 0.217609 0.00177005
1 0.229068 0.0285954
1 0.242557 0.0406806
0 0.461509 0
0 0.479393 0
0 0.490425 0
0.154009 0.484428 0
0.426276 0.461326 0
0.705364 0.43331 0
0.923033 0.421485 0
1 0.428473 0
1 0.443397 0
0 0.657923 0
0 0.6804 0
0 0.695506 0
0.08365 0.693767 0
0.336172 0.677424 0
0.610559 0.652384 0
0.845518 0.634928 0
1 0.633509 0
1 0.643305 0
0 0.857816 0
0 0.879881 0
0 0.892592 0
0.047013 0.890288 0
0.28838 0.873243 0
0.550408 0.847761 0
0.783688 0.825772 0
0.963302 0.81796 0
1 0.821683 0
0 1 0
0 1 0
0 1 0
0.0288853 1 0
0.271397 1 0
0.524056 1 0
0.750332 0.983886 0
0.928054 0.969619 0
1 0.966522 0
0 1 0
0 1 0
0 1 0
0.0281529 1 0
0.266087 1 0
0.514321 1 0
0.736812 1 0
0.910811 1 0
1 1 0
0 0 0.512139
0.0257267 0 0.506432
0.184543 0 0.488594
0.418143 0 0.445014
0.668315 0 0.36585
0.862608 0 0.283452
1 0 0.233616
1 0 0.20795
1 0 0.198444
0 0.0320592 0.458915
0 0.0247807 0.452857
0.146899 0.0034638 0.441016
0.386023 0 0.409049
0.644892 0 0.341314
0.847959 0 0.274342
0.982361 0 0.23212
1 0 0.218418
1 0 0.22092
0 0.138155 0.368994
0 0.139467 0.365515
0.0887617 0.131807 0.358557
0.326436 0.0989853 0.347036
0.6103 0.0587625 0.300526
0.833432 0.0388037 0.256123
0.997711 0.0371862 0.233799
1 0.0498054 0.232441
1 0.0597848 0.242603
0 0.277668 0.272068
0 0.286412 0.280903
0.0348363 0.289509 0.284047
0.217929 0.281651 0.276158
0.559716 0.23386 0.218799
0.811383 0.211414 0.198169
1 0.207431 0.195575
1 0.220295 0.209369
1 0.241917 0.231373
0 0.454749 0.18735
0 0.472282 0.203479
0 0.483116 0.210636
0.148379 0.480522 0.194507
0.419821 0.459648 0.133608
0.724178 0.427497 0.100877
0.951522 0.414191 0.11252
1 0.42005 0.138445
1 0.439475 0.171923
0 0.655604 0.115084
0 0.677836 0.134005
0 0.692714 0.142367
0.0776074 0.692912 0.125734
0.324071 0.678889 0.0812848
0.609125 0.653513 0.0347906
0.860166 0.632822 0.0310521
1 0.628565 0.0548104
1 0.639353 0.0891432
0 0.856291 0.0747539
0 0.87863 0.0952163
0 0.892119 0.104311
0.0346685 0.891722 0.0866865
0.272435 0.87602 0.0475776
0.537911 0.851087 0.00442512
0.782986 0.827314 0
0.968536 0.815381 0.00242618
1 0.817441 0.0314336
0 1 0.0647593
0 1 0.0810559
0 1 0.0871595
0.0211948 1 0.0762341
0.253697 1 0.038529
0.506828 1 0
0.741207 0.982391 0
0.92285 0.96405 0
1 0.959564 0
0 1 0.0796521
0 1 0.0907607
0 1 0.0913252
0.018555 1 0.0744335
0.255589 1 0.0442054
0.503685 1 0.00917067
0.728496 1 0
0.903075 1 0
1 1 0
0 0 0.813443
0.000762951 0 0.804196
0.147799 0 0.782193
0.359411 0 0.742611
0.612055 0 0.673091
0.831128 0 0.580026
1 0 0.518975
1 0 0.484337
1 0 0.466667
0 0.0138857 0.759365
0 0.00819409 0.748196
0.120134 0 0.729183
0.331777 0 0.697627
0.5888 0 0.641108
0.81825 0 0.565087
0.977737 0 0.500801
1 0 0.475151
1 0 0.474235
0 0.123522 0.657465
0 0.12578 0.648661
0.0775311 0.119097 0.637385
0.283864 0.0968032 0.624689
0.554879 0.0591592 0.598917
0.809903 0.0312047 0.549233
0.999008 0.024918 0.507759
1 0.037171 0.488807
1 0.0524147 0.495796
0 0.266636 0.538262
0 0.27689 0.544732
0.0258335 0.280903 0.548226
0.215274 0.271321 0.547112
0.500237 0.235294 0.546014
0.799405 0.200763 0.512108
1 0.193225 0.48246
1 0.204181 0.475013
1 0.228031 0.485847
0 0.44509 0.449226
0 0.462745 0.466896
0 0.473106 0.477241
0.146395 0.471031 0.475181
0.380011 0.457008 0.461173
0.741253 0.410285 0.407523
0.977951 0.396765 0.394232
1 0.40209 0.399741
1 0.420722 0.418524
0 0.647944 0.377783
0 0.669932 0.398917
0 0.683757 0.411154
0.075639 0.683696 0.406653
0.31107 0.671336 0.379583
0.597757 0.647501 0.309087
0.8766 0.620935 0.276783
1 0.613764 0.287678
1 0.622843 0.310765
0 0.850614 0.336431
0 0.872755 0.357198
0 0.88603 0.367147
0.0243381 0.884749 0.356527
0.25565 0.870237 0.322621
0.51667 0.847532 0.26363
0.77528 0.822416 0.21416
0.977386 0.806989 0.207065
1 0.806317 0.222309
0 1 0.327321
0 1 0.343893
0 1 0.349828
0.00314336 1 0.336324
0.229984 1 0.297032
0.480552 1 0.241352
0.721447 0.979263 0.191226
0.915877 0.959213 0.17203
1 0.951507 0.176593
0 1 0.343236
0 1 0.354208
0 1 0.354345
0.00283818 1 0.337377
0.229282 1 0.296391
0.471687 1 0.239597
0.70161 1 0.188815
0.887221 1 0.163668
1 1 0.161151
0 0 1
0 0 1
0.119554 0 1
0.315663 0 1
0.554696 0 0.956085
0.797681 0 0.88394
1 0 0.822522
1 0 0.778378
1 0 0.752209
0 0 1
0 0 1
0.0983139 0 1
0.295003 0 0.969558
0.534752 0 0.913268
0.767773 0 0.841276
0.94815 0 0.774456
1 0 0.750423
1 0 0.747051
0 0.108125 0.945647
0 0.11194 0.92842
0.0661479 0.10724 0.911162
0.260822 0.0900587 0.891234
0.507317 0.0603037 0.86743
0.763729 0.0318456 0.831159
0.971542 0.0207065 0.790738
1 0.0295109 0.763714
1 0.0431067 0.769329
0 0.255161 0.814069
0 0.26659 0.81973
0.0175021 0.270939 0.824887
0.207721 0.261753 0.826932
0.461067 0.23563 0.827955
0.74902 0.202762 0.81706
0.987243 0.187991 0.789578
1 0.1944 0.771832
1 0.215991 0.772747
0 0.436316 0.723644
0 0.454719 0.742214
0 0.465629 0.753613
0.138735 0.463493 0.753521
0.378332 0.447242 0.748058
0.683558 0.411353 0.753445
0.962386 0.385916 0.734371
1 0.386862 0.719646
1 0.403601 0.723629
0 0.640436 0.654154
0 0.662196 0.675944
0 0.675441 0.689204
0.0728618 0.674723 0.688533
0.307347 0.661204 0.675044
0.562905 0.641169 0.655055
0.889616 0.600641 0.613077
1 0.592325 0.603754
1 0.600519 0.611429
0 0.843687 0.613931
0 0.865538 0.635142
0 0.877714 0.646494
0.0192264 0.875013 0.641901
0.249943 0.858656 0.621714
0.501717 0.835569 0.585428
0.759899 0.811536 0.514626
0.98587 0.791074 0.483101
1 0.787213 0.488731
0 1 0.606165
0 1 0.623133
0 1 0.629206
0 1 0.618631
0.216617 1 0.589059
0.461509 0.996246 0.542519
0.69749 0.969879 0.478218
0.902968 0.948745 0.429648
1 0.937987 0.418021
0 1 0.623072
0 1 0.634089
0 1 0.633829
0 1 0.617456
0.208682 1 0.580499
0.447578 1 0.527611
0.673548 1 0.463737
0.86453 1 0.412589
1 1 0.390661
0 0 1
0 0 1
0.100938 0 1
0.296956 0 1
0.535958 0 1
0.780102 0 1
0.987778 0 1
1 0 1
1 0 1
0 0 1
0 0 1
0.0835126 0 1
0.274998 0 1
0.50312 0 1
0.734936 0 1
0.937133 0 1
1 0 0.993439
1 0 0.989731
0 0.0961471 1
0 0.101732 1
0.0585184 0.0993057 1
0.247074 0.0858167 1
0.480278 0.0611124 1
0.72668 0.0361181 1
0.936904 0.0246891 1
1 0.02533 1
1 0.036286 1
0 0.246677 1
0 0.259144 1
0.0139162 0.264134 1
0.202426 0.255772 1
0.444648 0.234562 1
0.713558 0.207721 1
0.952316 0.192172 1
1 0.195727 1
1 0.215183 1
0 0.43061 0.964996
0 0.449393 0.983886
0 0.460594 0.996201
0.135409 0.457938 0.99855
0.375204 0.441886 0.996582
0.652842 0.414267 1
0.921431 0.389746 1
1 0.385382 0.994461
1 0.398474 0.996048
0 0.63592 0.897414
0 0.657832 0.919661
0 0.671061 0.933349
0.0678416 0.670115 0.933272
0.302113 0.656291 0.921645
0.561578 0.633814 0.910567
0.841016 0.601236 0.921233
1 0.583322 0.916121
1 0.587396 0.913375
0 0.839307 0.858717
0 0.860822 0.880293
0 0.872404 0.891936
0.0141909 0.868864 0.888472
0.246189 0.85127 0.870939
0.499092 0.826032 0.845777
0.735759 0.802655 0.822446
0.990936 0.772076 0.796262
1 0.766766 0.789593
0 1 0.852079
0 1 0.869276
0 1 0.875486
0 1 0.865965
0.21059 1 0.841367
0.457588 0.983536 0.80795
0.687343 0.955489 0.770214
0.887663 0.936126 0.71107
1 0.921828 0.683238
0 1 0.869429
0 1 0.880446
0 1 0.880125
0 1 0.863905
0.198215 1 0.8318
0.43856 1 0.7897
0.660777 1 0.741466
0.844816 1 0.684047
0.990707 1 0.64181
0 0 1
0 0 1
0.0883955 0 1
0.284291 0 1
0.52282 0 1
0.766873 0 1
0.974762 0 1
1 0 1
1 0 1
0 0 1
0 0 1
0.0746624 0 1
0.265553 0 1
0.492958 0 1
0.725567 0 1
0.930358 0 1
1 0 1
1 0 1
0 0.0896162 1
0 0.0964675 1
0.0547036 0.0952773 1
0.241962 0.0834058 1
0.469352 0.0626688 1
0.710018 0.0401617 1
0.929091 0.0251011 1
1 0.0231632 1
1 0.034287 1
0 0.243198 1
0 0.256641 1
0.0130922 0.262226 1
0.202304 0.255253 1
0.438636 0.236728 1
0.696971 0.213809 1
0.929335 0.199954 1
1 0.203632 1
1 0.220172 1
0 0.429526 1
0 0.448722 1
0 0.460029 1
0.137682 0.457252 1
0.376089 0.441871 1
0.643381 0.417792 1
0.897978 0.396643 1
1 0.391714 1
1 0.402777 1
0 0.635889 1
0 0.657893 1
0 0.67071 1
0.0678874 0.669764 1
0.302281 0.655268 1
0.561532 0.631998 1
0.820615 0.605035 1
1 0.587625 1
1 0.588174 1
0 0.839231 1
0 0.860487 1
0 0.871366 1
0.0119173 0.867475 1
0.243595 0.849256 1
0.495872 0.823362 1
0.734264 0.797971 1
0.956161 0.772427 1
1 0.760327 1
0 1 1
0 1 1
0 1 1
0 1 1
0.206806 1 1
0.455055 0.977737 0.997864
0.686992 0.947585 0.967742
0.876143 0.926696 0.946944
1 0.906981 0.935195
0 1 1
0 1 1
0 1 1
0 1 1
0.192279 1 1
0.434928 1 0.981308
0.660533 1 0.944076
0.841856 1 0.912505
0.978332 1 0.870161
0 0 1
0 0 1
0.0817273 0 1
0.277272 0 1
0.514931 0 1
0.758144 0 1
0.965545 0 1
1 0 1
1 0 1
0 0 1
0 0 1
0.0714885 0 1
0.261494 0 1
0.488197 0 1
0.721218 0 1
0.927977 0 1
1 0 1
1 0 1
0 0.0882277 1
0 0.0960555 1
0.0556344 0.0957809 1
0.242466 0.0847944 1
0.469963 0.0647898 1
0.711818 0.0424201 1
0.932235 0.0274205 1
1 0.0256657 1
1 0.0369879 1
0 0.244236 1
0 0.258427 1
0.0157473 0.264485 1
0.205463 0.258228 1
0.440024 0.241871 1
0.691569 0.222217 1
0.918898 0.210163 1
1 0.210666 1
1 0.223423 1
0 0.4327 1
0 0.452354 1
0 0.463615 1
0.14345 0.461143 1
0.381048 0.446403 1
0.643061 0.423987 1
0.89012 0.405234 1
1 0.400732 1
1 0.41117 1
0 0.640146 1
0 0.662196 1
0 0.674922 1
0.072694 0.673503 1
0.307073 0.658564 1
0.564981 0.63473 1
0.816434 0.610086 1
1 0.594598 1
1 0.59443 1
0 0.84329 1
0 0.864256 1
0 0.874754 1
0.0139925 0.870253 1
0.245335 0.851286 1
0.49691 0.824247 1
0.735393 0.798047 1
0.944366 0.775723 1
1 0.763653 1
0 1 1
0 1 1
0 1 1
0 1 1
0.206256 1 1
0.454154 0.977111 1
0.685191 0.946426 1
0.874144 0.924102 1
1 0.906279 1
0 1 1
0 1 1
0 1 1
0 1 1
0.189761 1 1
0.432959 1 1
0.65951 1 1
0.843076 1 1
0.977172 1 1
