public/textures/grade/Sony/Parasitic-SLog.cube
TITLE "Generated by Resolve"
LUT_3D_SIZE 5
0 0 0
0.284321 0 0
0.685924 0 0
1 0 0
1 0 0
0 0.164263 0
0.1196 0.141711 0
0.598627 0.0718242 0
0.947723 0.0469062 0
1 0.052903 0
0 0.458656 0
0 0.483818 0
0.417029 0.449317 0
0.87747 0.415824 0
1 0.432288 0
0 0.846677 0
0 0.881834 0
0.295735 0.857206 0
0.777157 0.818067 0
1 0.817075 0
0 1 0
0 1 0
0.269276 1 0
0.739178 1 0
1 1 0
0 0 0.260426
0.231693 0 0.232853
0.693294 0 0.104738
1 0 0.0176699
1 0 0
0 0.148714 0.136858
0.0935225 0.141527 0.130007
0.622904 0.0665904 0.0500038
0.974426 0.0485084 0.0369726
1 0.0621347 0.0512093
0 0.461509 0
0 0.490425 0
0.426276 0.461326 0
0.923033 0.421485 0
1 0.443397 0
0 0.857816 0
0 0.892592 0
0.28838 0.873243 0
0.783688 0.825772 0
1 0.821683 0
0 1 0
0 1 0
0.266087 1 0
0.736812 1 0
1 1 0
0 0 0.813443
0.147799 0 0.782193
0.612055 0 0.673091
1 0 0.518975
1 0 0.466667
0 0.123522 0.657465
0.0775311 0.119097 0.637385
0.554879 0.0591592 0.598917
0.999008 0.024918 0.507759
1 0.0524147 0.495796
0 0.44509 0.449226
0 0.473106 0.477241
0.380011 0.457008 0.461173
0.977951 0.396765 0.394232
1 0.420722 0.418524
0 0.850614 0.336431
0 0.88603 0.367147
0.25565 0.870237 0.322621
0.77528 0.822416 0.21416
1 0.806317 0.222309
0 1 0.343236
0 1 0.354345
0.229282 1 0.296391
0.70161 1 0.188815
1 1 0.161151
0 0 1
0.100938 0 1
0.535958 0 1
0.987778 0 1
1 0 1
0 0.0961471 1
0.0585184 0.0993057 1
0.480278 0.0611124 1
0.936904 0.0246891 1
1 0.036286 1
0 0.43061 0.964996
0 0.460594 0.996201
0.375204 0.441886 0.996582
0.921431 0.389746 1
1 0.398474 0.996048
0 0.839307 0.858717
0 0.872404 0.891936
0.246189 0.85127 0.870939
0.735759 0.802655 0.822446
1 0.766766 0.789593
0 1 0.869429
0 1 0.880125
0.198215 1 0.8318
0.660777 1 0.741466
0.990707 1 0.64181
0 0 1
0.0817273 0 1
0.514931 0 1
0.965545 0 1
1 0 1
0 0.0882277 1
0.0556344 0.0957809 1
0.469963 0.0647898 1
0.932235 0.0274205 1
1 0.0369879 1
0 0.4327 1
0 0.463615 1
0.381048 0.446403 1
0.89012 0.405234 1
1 0.41117 1
0 0.84329 1
0 0.874754 1
0.245335 0.851286 1
0.735393 0.798047 1
1 0.763653 1
0 1 1
0 1 1
0.189761 1 1
0.65951 1 1
0.977172 1 1
