public/textures/grade/Sony/Parasitic-SLog2.cube
TITLE "Generated by Resolve"
LUT_3D_SIZE 33
0 0 0
0 0 0
0 0 0
0.0608988 0 0
0.117067 0 0
0.173693 0 0
0.230426 0 0
0.287358 0 0
0.34461 0 0
0.401663 0 0
0.457954 0 0
0.512627 0 0
0.565789 0 0
0.617151 0 0
0.666072 0 0
0.711482 0 0
0.751919 0 0
0.787274 0 0
0.838102 0 0
0.893751 0 0
0.946883 0 0
0.997162 0 0
1 0 0
1 0 0
1 0 0
1 0 0
1 0 0
1 0 0
1 0 0
1 0 0
1 0 0
1 0 0
1 0 0
0 0 0
0 0 0
0 0 0
0.0551003 0 0
0.112108 0 0
0.169299 0 0
0.22649 0 0
0.283513 0 0
0.341039 0 0
0.398306 0 0
0.454887 0 0
0.509865 0 0
0.563363 0 0
0.614893 0 0
0.663996 0 0
0.709636 0 0
0.750439 0 0
0.78613 0 0
0.834836 0 0
0.890303 0 0
0.943206 0 0
0.993286 0 0
1 0 0
1 0 0
1 0 0
1 0 0
1 0 0
1 0 0
1 0 0
1 0 0
1 0 0
1 0 0
1 0 0
0 0.0169375 0
0 0.0163882 0
0 0.0125734 0
0.0281071 0.0027924 0
0.0884871 0 0
0.148363 0 0
0.207538 0 0
0.266423 0 0
0.325551 0 0
0.384207 0 0
0.442069 0 0
0.498299 0 0
0.552819 0 0
0.605325 0 0
0.655406 0 0
0.702327 0 0
0.744701 0 0
0.782223 0 0
0.818891 0 0
0.873045 0 0
0.924575 0 0
0.973236 0 0
1 0 0
1 0 0
1 0 0
1 0 0
1 0 0
1 0 0
1 0 0
1 0 0
1 0 0
1 0 0
1 0 0
0 0.0426337 0
0 0.0421149 0
0 0.0386969 0
0 0.0327916 0
0.0590066 0.0226596 0
0.122118 0.0112001 0
0.184894 0 0
0.246662 0 0
0.307759 0 0
0.367605 0 0
0.426734 0 0
0.484276 0 0
0.539925 0 0
0.593408 0 0
0.644465 0 0
0.692546 0 0
0.736522 0 0
0.775937 0 0
0.810422 0 0
0.852872 0 0
0.902876 0 0
0.950088 0 0
0.993729 0 0
1 0 0
1 0 0
1 0 0
1 0 0
1 0 0
1 0 0
1 0 0
1 0 0
1 0 0
1 0 0
0 0.0706951 0
0 0.0702831 0
0 0.0677348 0
0 0.0646677 0
0.0279393 0.0564279 0
0.0897078 0.0463264 0
0.154467 0.0350195 0
0.21944 0.0236057 0
0.283803 0.0123293 0
0.346746 0.00137331 0
0.408042 0 0
0.467124 0 0
0.523827 0 0
0.578149 0 0
0.630152 0 0
0.679362 0 0
0.724941 0 0
0.766171 0 0
0.802838 0 0
0.834943 0 0
0.879545 0 0
0.925856 0 0
0.968841 0 0
1 0 0
1 0 0
1 0 0
1 0 0
1 0 0
1 0 0
1 0 0
1 0 0
1 0 0
1 0 0
0 0.100908 0
0 0.100465 0
0 0.0986496 0
0 0.09691 0
0 0.0914321 0
0.057557 0.0830549 0
0.121019 0.0730449 0
0.187152 0.0620432 0
0.253895 0.0507668 0
0.319493 0.0397192 0
0.383307 0.0289921 0
0.444785 0.0189212 0
0.50399 0.00970474 0
0.560616 0.00141909 0
0.614298 0 0
0.664881 0 0
0.711604 0 0
0.754467 0 0
0.793317 0 0
0.828046 0 0
0.858549 0 0
0.904631 0 0
0.947829 0 0
0.988266 0 0
1 0 0
1 0 0
1 0 0
1 0 0
1 0 0
1 0 0
1 0 0
1 0 0
1 0 0
0 0.132815 0
0 0.132616 0
0 0.131563 0
0 0.130785 0
0 0.127977 0
0.0275273 0.120592 0
0.0881514 0.112261 0
0.152987 0.102449 0
0.220508 0.0917983 0
0.288014 0.0809491 0
0.354238 0.0703288 0
0.418082 0.0601968 0
0.479606 0.050721 0
0.538506 0.0421454 0
0.594491 0.0344701 0
0.647547 0.0278477 0
0.69691 0.0221408 0
0.74258 0.0175021 0
0.784192 0.0141909 0
0.821546 0.0121462 0
0.854749 0.0112306 0
0.889387 0.0104067 0
0.933211 0.00717174 0
0.974334 0.00482185 0
1 0.00309758 0
1 0.00238041 0
1 0.00189212 0
1 0.00209049 0
1 0.0028687 0
1 0.00437934 0
1 0.0059968 0
1 0.00788891 0
1 0.0103304 0
0 0.166308 0
0 0.166201 0
0 0.165774 0
0 0.165682 0
0 0.164157 0
6.10361e-05 0.158679 0
0.0586862 0.151797 0
0.120958 0.143557 0
0.187121 0.133928 0
0.255222 0.123857 0
0.32311 0.113603 0
0.389197 0.103624 0
0.453208 0.0940719 0
0.514656 0.0852674 0
0.573266 0.077409 0
0.628824 0.0704967 0
0.680766 0.0646525 0
0.729259 0.0599985 0
0.773739 0.0563058 0
0.814069 0.0539559 0
0.850278 0.0527962 0
0.882551 0.0527047 0
0.923064 0.0510872 0
0.965682 0.0487678 0
1 0.0471809 0
1 0.0463569 0
1 0.0463874 0
1 0.0467079 0
1 0.0475166 0
1 0.0490883 0
1 0.0508888 0
1 0.0529946 0
1 0.0556649 0
0 0.201282 0
0 0.201251 0
0 0.201297 0
0 0.202029 0
0 0.201541 0
0 0.19852 0
0.0320745 0.192126 0
0.0918441 0.185443 0
0.155734 0.177295 0
0.222583 0.168078 0
0.290974 0.158511 0
0.358816 0.149004 0
0.425177 0.13959 0
0.489265 0.130648 0
0.550637 0.122515 0
0.608988 0.115343 0
0.663737 0.109285 0
0.715053 0.104372 0
0.762448 0.100511 0
0.805585 0.0977646 0
0.844617 0.0962997 0
0.879652 0.0959945 0
0.914824 0.0959487 0
0.958831 0.0939803 0
1 0.0924849 0
1 0.0918135 0
1 0.0918441 0
1 0.092668 0
1 0.0937057 0
1 0.0952163 0
1 0.0975357 0
1 0.0999313 0
1 0.102724 0
0 0.237324 0
0 0.2374 0
0 0.237873 0
0 0.239384 0
0 0.239918 0
0 0.238422 0
0.00810254 0.233341 0
0.0659342 0.227878 0
0.127489 0.221286 0
0.192523 0.213413 0
0.26006 0.204623 0
0.328634 0.195804 0
0.396689 0.186709 0
0.463203 0.17789 0
0.52726 0.169589 0
0.588403 0.162112 0
0.645975 0.155764 0
0.700114 0.150576 0
0.750454 0.146593 0
0.796338 0.143511 0
0.837995 0.14168 0
0.875593 0.14107 0
0.909026 0.141726 0
0.953445 0.140307 0
0.995621 0.139071 0
1 0.138613 0
1 0.138827 0
1 0.140078 0
1 0.141466 0
1 0.143282 0
1 0.14583 0
1 0.148409 0
1 0.151308 0
0 0.27451 0
0 0.274739 0
0 0.27602 0
0 0.278233 0
0 0.279652 0
0 0.279484 0
0 0.27631 0
0.0418402 0.27158 0
0.101274 0.266239 0
0.164385 0.259785 0
0.23064 0.252201 0
0.298695 0.243961 0
0.367742 0.235508 0
0.436042 0.226932 0
0.502556 0.218708 0
0.5664 0.211063 0
0.626703 0.204379 0
0.68365 0.198947 0
0.736736 0.194644 0
0.785321 0.191363 0
0.829404 0.189242 0
0.869169 0.188296 0
0.904692 0.188769 0
0.946426 0.188266 0
0.989075 0.187381 0
1 0.187198 0
1 0.18761 0
1 0.18909 0
1 0.190707 0
1 0.192798 0
1 0.195605 0
1 0.198367 0
1 0.201343 0
0 0.313085 0
0 0.313436 0
0 0.315709 0
0 0.318822 0
0 0.321111 0
0 0.322011 0
0 0.32108 0
0.0187381 0.316899 0
0.0766308 0.312551 0
0.137865 0.30724 0
0.202716 0.300938 0
0.270161 0.293889 0
0.33904 0.285878 0
0.408301 0.277607 0
0.476646 0.269535 0
0.54287 0.261921 0
0.605692 0.255085 0
0.664958 0.249241 0
0.72047 0.244739 0
0.771374 0.241199 0
0.817792 0.238865 0
0.859754 0.237659 0
0.897154 0.23769 0
0.937636 0.237766 0
0.980682 0.23711 0
1 0.237217 0
1 0.237873 0
1 0.239521 0
1 0.241276 0
1 0.243503 0
1 0.246494 0
1 0.249424 0
1 0.252567 0
0 0.353368 0
0 0.353872 0
0 0.357153 0
0 0.361135 0
0 0.364431 0
0 0.366262 0
0 0.366613 0
0 0.363912 0
0.0529183 0.360388 0
0.112703 0.356039 0
0.176333 0.350958 0
0.242496 0.344701 0
0.31104 0.33753 0
0.380636 0.329763 0
0.449958 0.321859 0
0.517784 0.31429 0
0.582635 0.307439 0
0.644373 0.301762 0
0.701778 0.296696 0
0.754818 0.292805 0
0.803372 0.29015 0
0.847501 0.288685 0
0.887266 0.288792 0
0.927413 0.288655 0
0.970779 0.288121 0
1 0.288365 0
1 0.28954 0
1 0.29102 0
1 0.292912 0
1 0.295216 0
1 0.298283 0
1 0.301274 0
1 0.304875 0
0 0.395483 0
0 0.39617 0
0 0.400351 0
0 0.405447 0
0 0.409491 0
0 0.412314 0
0 0.413657 0
0 0.413001 0
0.029633 0.409705 0
0.0889296 0.406348 0
0.151186 0.401816 0
0.216281 0.396277 0
0.284123 0.389853 0
0.353597 0.382757 0
0.423362 0.375265 0
0.492149 0.367819 0
0.55874 0.361303 0
0.621912 0.355184 0
0.681285 0.350011 0
0.736294 0.345846 0
0.786801 0.342824 0
0.833158 0.341283 0
0.874556 0.340764 0
0.915908 0.340551 0
0.95964 0.340124 0
1 0.340429 0
1 0.34168 0
1 0.343221 0
1 0.34519 0
1 0.347906 0
1 0.350683 0
1 0.353689 0
1 0.35729 0
0 0.439292 0
0 0.440162 0
0 0.445396 0
0 0.451377 0
0 0.456489 0
0 0.460121 0
0 0.462287 0
0 0.46273 0
0.007187 0.460136 0
0.0663767 0.45713 0
0.127932 0.453254 0
0.192081 0.448402 0
0.258991 0.442573 0
0.327901 0.436042 0
0.39765 0.429084 0
0.467155 0.422202 0
0.534447 0.415549 0
0.598856 0.409369 0
0.659739 0.404013 0
0.716457 0.39968 0
0.76875 0.396399 0
0.816922 0.394568 0
0.859968 0.393591 0
0.903349 0.393042 0
0.947433 0.39266 0
0.988449 0.393362 0
1 0.394308 0
1 0.395834 0
1 0.397803 0
1 0.400549 0
1 0.403265 0
1 0.406271 0
1 0.409842 0
0 0.484825 0
0 0.485832 0
0 0.491981 0
0 0.498878 0
0 0.504555 0
0 0.508736 0
0 0.511574 0
0 0.512825 0
0 0.511315 0
0.0454719 0.508247 0
0.106569 0.504875 0
0.170016 0.500664 0
0.236088 0.495476 0
0.304234 0.489448 0
0.373922 0.483268 0
0.443244 0.476509 0
0.510903 0.469947 0
0.57615 0.463798 0
0.638102 0.45832 0
0.696193 0.453864 0
0.750225 0.450614 0
0.799603 0.448112 0
0.84419 0.446769 0
0.89015 0.445853 0
0.934798 0.445747 0
0.975845 0.446128 0
1 0.446998 0
1 0.448493 0
1 0.45069 0
1 0.453101 0
1 0.455726 0
1 0.459037 0
1 0.462135 0
0 0.532113 0
0 0.532921 0
0 0.539528 0
0 0.546914 0
0 0.553185 0
0 0.557794 0
0 0.561013 0
0 0.562829 0
0 0.562722 0
0.0265049 0.559625 0
0.0873579 0.556542 0
0.150149 0.552758 0
0.215579 0.548165 0
0.283314 0.542947 0
0.352026 0.536797 0
0.421042 0.530312 0
0.488792 0.523949 0
0.554482 0.517876 0
0.617182 0.512383 0
0.676509 0.508034 0
0.731365 0.504234 0
0.781964 0.501411 0
0.828977 0.499672 0
0.876585 0.498589 0
0.921584 0.498451 0
0.962783 0.498665 0
1 0.499413 0
1 0.500954 0
1 0.502968 0
1 0.50518 0
1 0.507713 0
1 0.510903 0
1 0.513878 0
0 0.579324 0
0 0.58056 0
0 0.587381 0
0 0.595132 0
0 0.601801 0
0 0.606882 0
0 0.610529 0
0 0.612726 0
0 0.61326 0
0.0093843 0.610834 0
0.0704814 0.60795 0
0.132952 0.604654 0
0.197772 0.600504 0
0.264485 0.595376 0
0.332601 0.589593 0
0.401175 0.583398 0
0.468727 0.577188 0
0.534783 0.571435 0
0.597971 0.565988 0
0.657588 0.561135 0
0.713283 0.557122 0
0.764858 0.554025 0
0.815274 0.552254 0
0.863279 0.551125 0
0.908171 0.550484 0
0.949584 0.550561 0
0.988083 0.551186 0
1 0.552789 0
1 0.554391 0
1 0.556405 0
1 0.559136 0
1 0.561807 0
1 0.56466 0
0 0.626566 0
0 0.627863 0
0 0.635477 0
0 0.643519 0
0 0.650294 0
0 0.65568 0
0 0.659693 0
0 0.662303 0
0 0.663279 0
0 0.662196 0
0.0560616 0.659144 0
0.117968 0.655924 0
0.181994 0.651865 0
0.247974 0.646967 0
0.315419 0.641428 0
0.383474 0.635431 0
0.450996 0.629679 0
0.516762 0.623774 0
0.57998 0.618173 0
0.639933 0.613169 0
0.696162 0.608927 0
0.750027 0.605951 0
0.801495 0.604074 0
0.849607 0.602609 0
0.894682 0.60174 0
0.936217 0.601572 0
0.975158 0.60235 0
1 0.603387 0
1 0.604837 0
1 0.607019 0
1 0.609155 0
1 0.611582 0
1 0.614588 0
0 0.674876 0
0 0.676112 0
0 0.683314 0
0 0.691249 0
0 0.698512 0
0 0.704128 0
0 0.708339 0
0 0.711223 0
0 0.712566 0
0 0.712001 0
0.0442359 0.708812 0
0.105821 0.705715 0
0.169253 0.701823 0
0.234607 0.697139 0
0.301427 0.691798 0
0.369207 0.686259 0
0.43595 0.680247 0
0.501366 0.674266 0
0.564538 0.66862 0
0.624643 0.663493 0
0.682185 0.659846 0
0.73695 0.656718 0
0.788388 0.654337 0
0.836698 0.652644 0
0.881971 0.651576 0
0.923964 0.65156 0
0.9626 0.651682 0
0.997787 0.65243 0
1 0.653819 0
1 0.655619 0
1 0.657572 0
1 0.660151 0
1 0.662547 0
0 0.724315 0
0 0.725246 0
0 0.732769 0
0 0.740902 0
0 0.747738 0
0 0.752789 0
0 0.756329 0
0 0.758679 0
0 0.76022 0
0 0.760082 0
0.03505 0.757153 0
0.0963912 0.754101 0
0.159564 0.750607 0
0.224308 0.746075 0
0.290425 0.74078 0
0.357275 0.734981 0
0.423529 0.728985 0
0.488548 0.722957 0
0.551614 0.717327 0
0.611902 0.713024 0
0.669566 0.709148 0
0.724544 0.705791 0
0.776135 0.703136 0
0.824735 0.70135 0
0.870192 0.700099 0
0.911955 0.699474 0
0.950683 0.699382 0
0.986206 0.700221 0
1 0.701091 0
1 0.702388 0
1 0.704158 0
1 0.706462 0
1 0.708675 0
0 0.772747 0
0 0.774075 0
0 0.781811 0
0 0.789776 0
0 0.796719 0
0 0.801862 0
0 0.805493 0
0 0.807691 0
0 0.808362 0
0 0.807568 0
0.028748 0.804257 0
0.0898756 0.801175 0
0.152224 0.797421 0
0.216281 0.792844 0
0.281712 0.787533 0
0.347875 0.781674 0
0.413565 0.775631 0
0.477791 0.770687 0
0.540078 0.765606 0
0.600229 0.760891 0
0.657954 0.756664 0
0.713069 0.753033 0
0.765133 0.750469 0
0.813642 0.748196 0
0.859007 0.746471 0
0.90071 0.745464 0
0.939681 0.745342 0
0.974929 0.745632 0
1 0.746273 0
1 0.747478 0
1 0.748989 0
1 0.750683 0
1 0.752956 0
0 0.820401 0
0 0.821744 0
0 0.829602 0
0 0.83801 0
0 0.845045 0
0 0.850217 0
0 0.85388 0
0 0.856046 0
0 0.856718 0
0 0.855833 0
0.0177462 0.852262 0
0.0808423 0.848157 0
0.14374 0.843839 0
0.207736 0.839033 0
0.272663 0.833768 0
0.338338 0.828519 0
0.403052 0.822828 0
0.46688 0.817227 0
0.529229 0.811902 0
0.589517 0.806958 0
0.647639 0.802792 0
0.702754 0.798764 0
0.754482 0.795453 0
0.803037 0.792859 0
0.848478 0.790875 0
0.890501 0.789914 0
0.929091 0.789105 0
0.964157 0.788952 0
0.99646 0.789364 0
1 0.790387 0
1 0.791516 0
1 0.793256 0
1 0.794888 0
0 0.867048 0
0 0.868177 0
0 0.875959 0
0 0.884428 0
0 0.891432 0
0 0.896574 0
0 0.900191 0
0 0.902312 0
0 0.902876 0
0 0.901884 0
0.00737011 0.898695 0
0.0720226 0.894026 0
0.135302 0.88986 0
0.199176 0.884764 0
0.263981 0.879225 0
0.32929 0.873396 0
0.394018 0.867521 0
0.457816 0.861616 0
0.520378 0.856214 0
0.580636 0.850935 0
0.638514 0.846128 0
0.693706 0.841825 0
0.745418 0.838178 0
0.794171 0.835477 0
0.839506 0.833082 0
0.881209 0.831479 0
0.919799 0.830427 0
0.955077 0.830274 0
0.987137 0.830213 0
1 0.830594 0
1 0.831601 0
1 0.832914 0
1 0.834348 0
0 0.91191 0
0 0.913283 0
0 0.921172 0
0 0.929519 0
0 0.936172 0
0 0.941222 0
0 0.94464 0
0 0.946624 0
0 0.947188 0
0 0.946365 0
0 0.943206 0
0.065095 0.938064 0
0.128054 0.933318 0
0.191897 0.928023 0
0.25658 0.92221 0
0.321721 0.916014 0
0.386648 0.910124 0
0.450431 0.903975 0
0.512718 0.897993 0
0.572869 0.892317 0
0.63061 0.887053 0
0.685954 0.882597 0
0.737774 0.878767 0
0.786236 0.875441 0
0.831479 0.872679 0
0.87306 0.870695 0
0.911711 0.869474 0
0.946624 0.868727 0
0.978637 0.868421 0
1 0.868818 0
1 0.869261 0
1 0.870085 0
1 0.871489 0
0 0.955474 0
0 0.956542 0
0 0.96437 0
0 0.972625 0
0 0.9794 0
0 0.984314 0
0 0.98761 0
0 0.989364 0
0 0.989578 0
0 0.988327 0
0 0.985153 0
0.0592203 0.979675 0
0.122072 0.974517 0
0.186099 0.969238 0
0.250721 0.963195 0
0.31577 0.956741 0
0.380224 0.950149 0
0.443809 0.943557 0
0.505989 0.937224 0
0.566445 0.931594 0
0.624155 0.92604 0
0.679149 0.920943 0
0.730724 0.916533 0
0.779065 0.91284 0
0.824567 0.910109 0
0.866026 0.907759 0
0.904326 0.905928 0
0.939071 0.904814 0
0.971069 0.904341 0
0.999939 0.904158 0
1 0.904402 0
1 0.905257 0
1 0.906081 0
0 0.996826 0
0 0.998138 0
0 1 0
0 1 0
0 1 0
0 1 0
0 1 0
0 1 0
0 1 0
0 1 0
0 1 0
0.0555123 1 0
0.118303 1 0
0.181796 1 0
0.246174 1 0
0.311055 0.994324 0
0.375677 0.987716 0
0.439261 0.980941 0
0.501228 0.974182 0
0.561181 0.967773 0
0.618799 0.961868 0
0.673838 0.956573 0
0.725536 0.952071 0
0.773693 0.947951 0
0.818692 0.944442 0
0.860014 0.941741 0
0.898497 0.939941 0
0.933104 0.938506 0
0.964736 0.937469 0
0.993576 0.937148 0
1 0.937011 0
1 0.937331 0
1 0.938216 0
0 1 0
0 1 0
0 1 0
0 1 0
0 1 0
0 1 0
0 1 0
0 1 0
0 1 0
