public/textures/grade/Sony/Parasitic-SLog3.cube
TITLE "Generated by Resolve"
LUT_3D_SIZE 33
0 0 0
0 0 0
0.00170901 0 0
0.0365911 0 0
0.0653086 0 0
0.0916152 0 0
0.120592 0 0
0.157198 0 0
0.199512 0 0
0.247944 0 0
0.301762 0 0
0.36054 0 0
0.424018 0 0
0.489677 0 0
0.555917 0 0
0.621256 0 0
0.684108 0 0
0.741512 0 0
0.790555 0 0
0.852445 0 0
0.923735 0 0
0.989288 0 0
1 0 0
1 0 0
1 0 0
1 0 0
1 0 0
1 0 0
1 0 0
1 0 0
1 0 0
1 0 0
1 0 0
0 0.00842298 0
0 0.00682078 0
0 0.00471504 0
0.0222019 0 0
0.0522469 0 0
0.0796674 0 0
0.109545 0 0
0.146975 0 0
0.190051 0 0
0.239231 0 0
0.293858 0 0
0.353445 0 0
0.417517 0 0
0.483772 0 0
0.550683 0 0
0.616709 0 0
0.68014 0 0
0.738399 0 0
0.788678 0 0
0.844129 0 0
0.914443 0 0
0.979034 0 0
1 0 0
1 0 0
1 0 0
1 0 0
1 0 0
1 0 0
1 0 0
1 0 0
1 0 0
1 0 0
1 0 0
0 0.0211185 0
0 0.0193942 0
0 0.0178073 0
0.00761425 0.0131533 0
0.0373236 0.00769055 0
0.0656291 0.00239567 0
0.0967727 0 0
0.135653 0 0
0.179904 0 0
0.230045 0 0
0.28542 0 0
0.345617 0 0
0.410422 0 0
0.47747 0 0
0.545007 0 0
0.611536 0 0
0.675639 0 0
0.734874 0 0
0.786236 0 0
0.835065 0 0
0.904402 0 0
0.967971 0 0
1 0 0
1 0 0
1 0 0
1 0 0
1 0 0
1 0 0
1 0 0
1 0 0
1 0 0
1 0 0
1 0 0
0 0.0346227 0
0 0.0328679 0
0 0.0314794 0
0 0.0286564 0
0.0214542 0.0236515 0
0.0493172 0.0188449 0
0.081178 0.0130617 0
0.121538 0.00573739 0
0.167559 0 0
0.219318 0 0
0.275883 0 0
0.336767 0 0
0.402243 0 0
0.469902 0 0
0.538201 0 0
0.605417 0 0
0.67013 0 0
0.73019 0 0
0.782849 0 0
0.827314 0 0
0.893263 0 0
0.955871 0 0
1 0 0
1 0 0
1 0 0
1 0 0
1 0 0
1 0 0
1 0 0
1 0 0
1 0 0
1 0 0
1 0 0
0 0.0480354 0
0 0.046479 0
0 0.0455177 0
0 0.0434577 0
0.00723278 0.0393683 0
0.0337224 0.0350347 0
0.0648508 0.029633 0
0.105745 0.0224765 0
0.153262 0.0138857 0
0.20679 0.00415045 0
0.264988 0 0
0.327382 0 0
0.393652 0 0
0.461921 0 0
0.530831 0 0
0.598581 0 0
0.663935 0 0
0.72491 0 0
0.778668 0 0
0.82443 0 0
0.882078 0 0
0.943923 0 0
0.99942 0 0
1 0 0
1 0 0
1 0 0
1 0 0
1 0 0
1 0 0
1 0 0
1 0 0
1 0 0
1 0 0
0 0.0608377 0
0 0.0595102 0
0 0.0585489 0
0 0.0568856 0
0 0.0540627 0
0.0202792 0.049836 0
0.0506142 0.0451667 0
0.0908827 0.0383459 0
0.138933 0.0298161 0
0.19379 0.0200504 0
0.253513 0.00939956 0
0.317433 0 0
0.385183 0 0
0.454459 0 0
0.523644 0 0
0.592004 0 0
0.657832 0 0
0.719387 0 0
0.774258 0 0
0.821408 0 0
0.871885 0 0
0.933227 0 0
0.988418 0 0
1 0 0
1 0 0
1 0 0
1 0 0
1 0 0
1 0 0
1 0 0
1 0 0
1 0 0
1 0 0
0 0.0758373 0
0 0.0746777 0
0 0.073991 0
0 0.0729229 0
0 0.0709239 0
0.00563058 0.0671702 0
0.034638 0.0628977 0
0.073579 0.0566567 0
0.121645 0.0487526 0
0.177447 0.0390936 0
0.238727 0.028397 0
0.304128 0.016968 0
0.373327 0.00503548 0
0.44419 0 0
0.515084 0 0
0.583886 0 0
0.650172 0 0
0.712657 0 0
0.768719 0 0
0.817227 0 0
0.860487 0 0
0.921538 0 0
0.976745 0 0
1 0 0
1 0 0
1 0 0
1 0 0
1 0 0
1 0 0
1 0 0
1 0 0
1 0 0
1 0 0
0 0.0955062 0
0 0.0945144 0
0 0.0940414 0
0 0.0931258 0
0 0.0918898 0
0 0.0894789 0
0.016144 0.0854353 0
0.0534981 0.0800946 0
0.0999771 0.0728161 0
0.155749 0.0636149 0
0.218387 0.0530861 0
0.285756 0.0417487 0
0.356893 0.0298009 0
0.429435 0.0178225 0
0.502052 0.00637827 0
0.572976 0 0
0.640711 0 0
0.703944 0 0
0.761349 0 0
0.811887 0 0
0.854826 0 0
0.908629 0 0
0.964111 0 0
1 0 0
1 0 0
1 0 0
1 0 0
1 0 0
1 0 0
1 0 0
1 0 0
1 0 0
1 0 0
0 0.119036 0
0 0.118227 0
0 0.118105 0
0 0.117708 0
0 0.116793 0
0 0.115328 0
0 0.111925 0
0.0318151 0.107362 0
0.0763561 0.101183 0
0.130816 0.0929274 0
0.193515 0.0828107 0
0.262211 0.0714885 0
0.335409 0.0595254 0
0.410193 0.0476387 0
0.484947 0.0360723 0
0.55787 0.0253758 0
0.627802 0.016083 0
0.693599 0.00830091 0
0.753506 0.00225834 0
0.806455 0 0
0.851774 0 0
0.896727 0 0
0.952773 0 0
1 0 0
1 0 0
1 0 0
1 0 0
1 0 0
1 0 0
1 0 0
1 0 0
1 0 0
1 0 0
0 0.146883 0
0 0.146273 0
0 0.146517 0
0 0.146349 0
0 0.14609 0
0 0.145083 0
0 0.143328 0
0.00883497 0.138888 0
0.0514229 0.133593 0
0.103532 0.126543 0
0.165087 0.117571 0
0.234257 0.106966 0
0.30898 0.0950637 0
0.386114 0.083238 0
0.463401 0.071519 0
0.539071 0.0607309 0
0.611597 0.0511177 0
0.680079 0.0431373 0
0.742947 0.0370489 0
0.799237 0.0328222 0
0.84799 0.0307774 0
0.889494 0.0309148 0
0.944274 0.0278325 0
0.99585 0.0252995 0
1 0.0238956 0
1 0.0235752 0
1 0.0240482 0
1 0.0251774 0
1 0.0265049 0
1 0.027863 0
1 0.0296025 0
1 0.0309758 0
1 0.0323949 0
0 0.179187 0
0 0.178866 0
0 0.179355 0
0 0.179461 0
0 0.179553 0
0 0.179004 0
0 0.178149 0
0 0.175341 0
0.0265354 0.170413 0
0.076112 0.164508 0
0.135256 0.156985 0
0.203311 0.147601 0
0.27866 0.136446 0
0.357504 0.124529 0
0.437781 0.112917 0
0.51664 0.101915 0
0.592569 0.0921035 0
0.664271 0.0837415 0
0.730526 0.0773327 0
0.790448 0.0728923 0
0.842786 0.0704967 0
0.887556 0.0701762 0
0.936309 0.0691691 0
0.989548 0.0669718 0
1 0.0657206 0
1 0.0654612 0
1 0.066041 0
1 0.0674907 0
1 0.0689403 0
1 0.0704814 0
1 0.0723583 0
1 0.0737774 0
1 0.0754101 0
0 0.215747 0
0 0.215793 0
0 0.216648 0
0 0.21709 0
0 0.217334 0
0 0.21735 0
0 0.216876 0
0 0.215656 0
0.00163272 0.211643 0
0.0495155 0.206836 0
0.105638 0.20061 0
0.17113 0.192599 0
0.245655 0.182742 0
0.325643 0.171664 0
0.408286 0.160098 0
0.490669 0.149035 0
0.570535 0.13904 0
0.646159 0.130358 0
0.716121 0.123476 0
0.779904 0.118654 0
0.836118 0.115938 0
0.884489 0.115221 0
0.929519 0.115496 0
0.98436 0.113558 0
1 0.112673 0
1 0.112703 0
1 0.113542 0
1 0.114977 0
1 0.117052 0
1 0.118883 0
1 0.121019 0
1 0.122606 0
1 0.124361 0
0 0.256291 0
0 0.256825 0
0 0.257908 0
0 0.259022 0
0 0.259693 0
0 0.260121 0
0 0.260151 0
0 0.259678 0
0 0.257893 0
0.0238193 0.253529 0
0.0776532 0.248661 0
0.140291 0.242206 0
0.21265 0.23386 0
0.292287 0.224002 0
0.37644 0.213062 0
0.461784 0.202029 0
0.545541 0.191806 0
0.625422 0.182834 0
0.699504 0.175525 0
0.767285 0.170169 0
0.827253 0.166842 0
0.879103 0.165698 0
0.92314 0.166552 0
0.977951 0.165179 0
1 0.164843 0
1 0.165484 0
1 0.166659 0
1 0.168322 0
1 0.170413 0
1 0.172702 0
1 0.17467 0
1 0.176791 0
1 0.178698 0
0 0.301198 0
0 0.302113 0
0 0.303883 0
0 0.305333 0
0 0.306752 0
0 0.307454 0
0 0.308278 0
0 0.308537 0
0 0.307973 0
0 0.30486 0
0.0499275 0.301289 0
0.110246 0.296391 0
0.180072 0.289631 0
0.258183 0.281224 0
0.342458 0.271229 0
0.429603 0.260441 0
0.516716 0.250126 0
0.600748 0.240879 0
0.679011 0.233204 0
0.750637 0.227375 0
0.814359 0.223789 0
0.869718 0.222385 0
0.916838 0.222873 0
0.968963 0.222446 0
1 0.222309 0
1 0.223117 0
1 0.224598 0
1 0.226871 0
1 0.229007 0
1 0.231266 0
1 0.233677 0
1 0.235874 0
1 0.237552 0
0 0.350454 0
0 0.352117 0
0 0.354238 0
0 0.356527 0
0 0.358297 0
0 0.359792 0
0 0.360967 0
0 0.36199 0
0 0.362737 0
0 0.361883 0
0.0217441 0.358495 0
0.0804761 0.354757 0
0.148058 0.349416 0
0.224201 0.342458 0
0.30779 0.333867 0
0.395911 0.324056 0
0.485222 0.31397 0
0.572427 0.304616 0
0.654353 0.296666 0
0.729473 0.290211 0
0.796811 0.286137 0
0.85539 0.284001 0
0.905715 0.284047 0
0.957107 0.284062 0
1 0.284428 0
1 0.285542 0
1 0.287236 0
1 0.289326 0
1 0.291585 0
1 0.294255 0
1 0.296422 0
1 0.298726 0
1 0.300786 0
0 0.404456 0
0 0.406455 0
0 0.40943 0
0 0.412055 0
0 0.414572 0
0 0.416419 0
0 0.418204 0
0 0.420218 0
0 0.421576 0
0 0.422095 0
0 0.420096 0
0.0510567 0.417151 0
0.117311 0.412909 0
0.191852 0.407202 0
0.274037 0.39971 0
0.361791 0.39089 0
0.452018 0.381353 0
0.541314 0.372091 0
0.626169 0.364004 0
0.704738 0.357382 0
0.775357 0.352743 0
0.8374 0.350225 0
0.890822 0.349722 0
0.943374 0.349691 0
0.994385 0.349905 0
1 0.351019 0
1 0.352819 0
1 0.355016 0
1 0.357702 0
1 0.360037 0
1 0.3626 0
1 0.364523 0
1 0.366598 0
0 0.462654 0
0 0.465492 0
0 0.468803 0
0 0.471977 0
0 0.475166 0
0 0.477378 0
0 0.479942 0
0 0.482277 0
0 0.484276 0
0 0.485908 0
0 0.485863 0
0.0230259 0.482933 0
0.0887465 0.479454 0
0.161868 0.474647 0
0.242603 0.468284 0
0.329305 0.460472 0
0.419181 0.451453 0
0.509453 0.442512 0
0.596094 0.434272 0
0.677226 0.42742 0
0.750668 0.422309 0
0.815595 0.419211 0
0.871855 0.418067 0
0.927123 0.417655 0
0.978592 0.417884 0
1 0.418982 0
1 0.421073 0
1 0.423285 0
1 0.425589 0
1 0.428214 0
1 0.430426 0
1 0.432685 0
1 0.434333 0
0 0.524559 0
0 0.52784 0
0 0.531487 0
0 0.535348 0
0 0.538506 0
0 0.541329 0
0 0.543893 0
0 0.546639 0
0 0.549432 0
0 0.551308 0
0 0.552178 0
0 0.550332 0
0.062623 0.54725 0
0.134798 0.54316 0
0.214145 0.537621 0
0.29955 0.530678 0
0.388876 0.522606 0
0.479194 0.514122 0
0.566903 0.506111 0
0.649653 0.499092 0
0.724926 0.493294 0
0.792309 0.489754 0
0.851255 0.48777 0
0.90956 0.486915 0
0.961547 0.487144 0
1 0.488411 0
1 0.490028 0
1 0.492027 0
1 0.49427 0
1 0.496788 0
1 0.498863 0
1 0.50103 0
1 0.502983 0
0 0.588022 0
0 0.591394 0
0 0.595712 0
0 0.599527 0
0 0.603159 0
0 0.605997 0
0 0.608865 0
0 0.612268 0
0 0.615122 0
0 0.617456 0
0 0.618936 0
0 0.618738 0
0.0399023 0.615442 0
0.111528 0.611841 0
0.189731 0.606882 0
0.273838 0.60058 0
0.362112 0.593103 0
0.451911 0.585016 0
0.539742 0.577127 0
0.623346 0.570001 0
0.700282 0.564202 0
0.769238 0.560037 0
0.833112 0.55761 0
0.891875 0.556512 0
0.944121 0.556405 0
0.989578 0.557168 0
1 0.558541 0
1 0.560327 0
1 0.562646 0
1 0.564645 0
1 0.566934 0
1 0.568597 0
1 0.570443 0
0 0.651255 0
0 0.655207 0
0 0.659495 0
0 0.663554 0
0 0.667536 0
0 0.67042 0
0 0.673823 0
0 0.677165 0
0 0.680323 0
0 0.683238 0
0 0.685283 0
0 0.685817 0
0.021622 0.683131 0
0.0930343 0.679789 0
0.17026 0.675227 0
0.253147 0.669306 0
0.340063 0.662013 0
0.42887 0.654017 0
0.516365 0.64622 0
0.600137 0.638926 0
0.677775 0.632807 0
0.74905 0.628473 0
0.815076 0.625772 0
0.874159 0.624292 0
0.92665 0.623819 0
0.972305 0.624247 0
1 0.625635 0
1 0.627131 0
1 0.628809 0
1 0.630884 0
1 0.632639 0
1 0.634516 0
1 0.635843 0
0 0.71667 0
0 0.720195 0
0 0.72433 0
0 0.728618 0
0 0.732097 0
0 0.735164 0
0 0.737957 0
0 0.741207 0
0 0.744244 0
0 0.747143 0
0 0.749325 0
0 0.750271 0
0.007187 0.748363 0
0.0789197 0.744991 0
0.155291 0.740642 0
0.237034 0.73492 0
0.322988 0.728008 0
0.410971 0.720317 0
0.497795 0.712489 0
0.581308 0.704982 0
0.659419 0.699001 0
0.731914 0.694514 0
0.798459 0.6916 0
0.857725 0.689616 0
0.91046 0.688807 0
0.956207 0.688838 0
0.995285 0.68954 0
1 0.690639 0
1 0.692241 0
1 0.693782 0
1 0.695293 0
1 0.696895 0
1 0.698421 0
0 0.780789 0
0 0.784436 0
0 0.789075 0
0 0.793118 0
0 0.79707 0
0 0.799832 0
0 0.803082 0
0 0.806149 0
0 0.808988 0
0 0.811231 0
0 0.812787 0
0 0.813107 0
0 0.810956 0
0.0698405 0.807187 0
0.145144 0.802655 0
0.225864 0.797024 0
0.310475 0.789899 0
0.397375 0.782147 0
0.483116 0.774502 0
0.565606 0.767865 0
0.643915 0.76202 0
0.716854 0.757275 0
0.783413 0.753643 0
0.842802 0.751171 0
0.895445 0.749691 0
0.941146 0.749218 0
0.980194 0.749493 0
1 0.750546 0
1 0.751537 0
1 0.752651 0
1 0.754162 0
1 0.755444 0
1 0.756573 0
0 0.842588 0
0 0.846281 0
0 0.850599 0
0 0.8551 0
0 0.858717 0
0 0.861891 0
0 0.864775 0
0 0.868238 0
0 0.871046 0
0 0.873274 0
0 0.874662 0
0 0.874754 0
0 0.872724 0
0.0587015 0.867552 0
0.135241 0.862394 0
0.215808 0.856336 0
0.299641 0.849348 0
0.385138 0.841856 0
0.469963 0.83447 0
0.552529 0.827375 0
0.6309 0.820951 0
0.703761 0.815442 0
0.77026 0.811139 0
0.829923 0.808392 0
0.88249 0.806348 0
0.928069 0.80531 0
0.966995 0.805127 0
0.999863 0.805463 0
1 0.806409 0
1 0.807187 0
1 0.80827 0
1 0.809201 0
1 0.8103 0
0 0.900511 0
0 0.904601 0
0 0.908904 0
0 0.913191 0
0 0.91696 0
0 0.919738 0
0 0.922972 0
0 0.926009 0
0 0.929091 0
0 0.931212 0
0 0.932433 0
0 0.932387 0
0 0.930327 0
0.0483253 0.92488 0
0.124895 0.91928 0
0.205356 0.912825 0
0.289082 0.905455 0
0.374395 0.897444 0
0.458778 0.889158 0
0.541344 0.881544 0
0.619715 0.874571 0
0.692592 0.868544 0
0.759136 0.863752 0
0.81854 0.860227 0
0.871031 0.857664 0
0.916442 0.856077 0
0.955413 0.85565 0
0.988128 0.855558 0
1 0.855848 0
1 0.856641 0
1 0.857252 0
1 0.858106 0
1 0.858808 0
0 0.954269 0
0 0.95816 0
0 0.962585 0
0 0.966598 0
0 0.970474 0
0 0.973144 0
0 0.976287 0
0 0.979217 0
0 0.981826 0
0 0.984115 0
0 0.985092 0
0 0.984771 0
0 0.982528 0
0.0411383 0.976837 0
0.117662 0.970718 0
0.197879 0.96376 0
0.281178 0.955688 0
0.366354 0.947204 0
0.450752 0.938582 0
0.533135 0.930358 0
0.611444 0.922881 0
0.68423 0.916274 0
0.750561 0.910796 0
0.809796 0.906676 0
0.862181 0.903655 0
0.907423 0.901579 0
0.946075 0.900511 0
0.978622 0.900038 0
1 0.899977 0
1 0.900374 0
1 0.900847 0
1 0.901503 0
1 0.9019 0
0 1 0
0 1 0
0 1 0
0 1 0
0 1 0
0 1 0
0 1 0
0 1 0
0 1 0
0 1 0
0 1 0
0 1 0
0 1 0
0.0361181 1 0
0.112657 1 0
0.192584 1 0
0.275807 1 0
0.360525 0.991516 0
0.4448 0.982452 0
0.526879 0.973556 0
0.604974 0.965469 0
0.677684 0.958389 0
0.743847 0.952377 0
0.802792 0.947601 0
0.854963 0.94403 0
0.900084 0.941558 0
0.938659 0.9402 0
0.970886 0.939193 0
0.997635 0.938689 0
1 0.938827 0
1 0.938964 0
1 0.939437 0
1 0.939712 0
0 1 0
0 1 0
0 1 0
0 1 0
0 1 0
0 1 0
0 1 0
0 1 0
0 1 0
0 1 0
0 1 0
0 1 0
0 1 0
0.0331884 1 0
0.109575 1 0
0.189349 1 0
0.272267 1 0
0.356893 1 0
0.44097 1 0
0.522896 1 0
0.60061 1 0
0.672862 0.994781 0
0.738888 0.988312 0
0.797833 0.983261 0
0.849775 0.979187 0
0.894621 0.976211 0
0.932799 0.974227 0
0.96492 0.97293 0
0.991684 0.972351 0
1 0.971939 0
1 0.971817 0
1 0.971984 0
1 0.972335 0
0 1 0
0 1 0
0 1 0
0 1 0
0 1 0
0 1 0
0 1 0
0 1 0
0 1 0
