public/textures/grade/Sony/Parasitic-SLog3.cube
TITLE "Generated by Resolve"
LUT_3D_SIZE 9
0 0 0
0.0653086 0 0
0.199512 0 0
0.424018 0 0
0.684108 0 0
0.923735 0 0
1 0 0
1 0 0
1 0 0
0 0.0480354 0
0.00723278 0.0393683 0
0.153262 0.0138857 0
0.393652 0 0
0.663935 0 0
0.882078 0 0
1 0 0
1 0 0
1 0 0
0 0.119036 0
0 0.116793 0
0.0763561 0.101183 0
0.335409 0.0595254 0
0.627802 0.016083 0
0.851774 0 0
1 0 0
1 0 0
1 0 0
0 0.256291 0
0 0.259693 0
0 0.257893 0
0.21265 0.23386 0
0.545541 0.191806 0
0.827253 0.166842 0
1 0.164843 0
1 0.170413 0
1 0.178698 0
0 0.462654 0
0 0.475166 0
0 0.484276 0
0.0887465 0.479454 0
0.419181 0.451453 0
0.750668 0.422309 0
0.978592 0.417884 0
1 0.425589 0
1 0.434333 0
0 0.71667 0
0 0.732097 0
0 0.744244 0
0.007187 0.748363 0
0.322988 0.728008 0
0.659419 0.699001 0
0.91046 0.688807 0
1 0.692241 0
1 0.698421 0
0 0.954269 0
0 0.970474 0
0 0.981826 0
0 0.982528 0
0.281178 0.955688 0
0.611444 0.922881 0
0.862181 0.903655 0
1 0.899977 0
1 0.9019 0
0 1 0
0 1 0
0 1 0
0 1 0
0.26923 1 0
0.595605 1 0
0.843 1 0
0.983429 1 0
1 1 0
0 1 0
0 1 0
0 1 0
0 1 0
0.270909 1 0
0.594095 1 0
0.83888 1 0
0.977172 1 0
1 1 0
0 0 0.0585031
0.0465248 0 0.0518959
0.190387 0 0.0256809
0.423209 0 0
0.689311 0 0
0.919814 0 0
1 0 0
1 0 0
1 0 0
0 0.041886 0.0292058
0.00430304 0.0364538 0.0235294
0.156237 0.00994888 0
0.396262 0 0
0.669749 0 0
0.878294 0 0
1 0 0
1 0 0
1 0 0
0 0.114107 0
0 0.112688 0
0.07364 0.100542 0
0.341558 0.0577096 0
0.63537 0.0154269 0
0.864057 0 0
1 0 0
1 0 0
1 0 0
0 0.254719 0
0 0.25861 0
0 0.258228 0
0.214755 0.236347 0
0.555627 0.193393 0
0.841932 0.168673 0
1 0.169726 0
1 0.175692 0
1 0.183825 0
0 0.465568 0
0 0.478645 0
0 0.488487 0
0.0906691 0.484688 0
0.424247 0.457191 0
0.7626 0.426734 0
0.983566 0.423301 0
1 0.430991 0
1 0.44007 0
0 0.721782 0
0 0.737316 0
0 0.750805 0
0.00880446 0.755184 0
0.323842 0.735454 0
0.664698 0.705196 0
0.914809 0.693477 0
1 0.69662 0
1 0.702556 0
0 0.959564 0
0 0.975601 0
0 0.987167 0
0 0.987182 0
0.28423 0.960342 0
0.614282 0.926513 0
0.864836 0.906645 0
1 0.902602 0
1 0.904433 0
0 1 0
0 1 0
0 1 0
0 1 0
0.270787 1 0
0.597131 1 0
0.844343 1 0
0.984405 1 0
1 1 0
0 1 0
0 1 0
0 1 0
0 1 0
0.271809 1 0
0.594766 1 0
0.839399 1 0
0.977478 1 0
1 1 0
0 0 0.174746
0.0307927 0 0.17116
0.158419 0 0.157504
0.411643 0 0.100862
0.691966 0 0.0263828
0.914107 0 0
1 0 0
1 0 0
1 0 0
0 0.0373236 0.139788
0 0.0317998 0.136049
0.122057 0.0120241 0.127535
0.389044 0 0.0759442
0.673686 0 0.0155032
0.887434 0 0
1 0 0
1 0 0
1 0 0
0 0.107164 0.0944381
0 0.105562 0.0929885
0.0569467 0.0998245 0.0871595
0.346181 0.053254 0.0340581
0.642267 0.0125429 0
0.877424 0 0
1 0 0
1 0 0
1 0.00143435 0
0 0.24979 0.0133364
0 0.254322 0.0189975
0 0.255329 0.016144
0.213489 0.237125 0
0.567498 0.192203 0
0.85864 0.167437 0
1 0.172869 0
1 0.179187 0
1 0.187411 0
0 0.466407 0
0 0.479484 0
0 0.48986 0
0.0900893 0.488029 0
0.427054 0.461097 0
0.77644 0.429053 0
0.998505 0.425361 0
1 0.435035 0
1 0.443702 0
0 0.725063 0
0 0.741955 0
0 0.755566 0
0.00721752 0.760601 0
0.320928 0.74165 0
0.668589 0.710445 0
0.917418 0.696117 0
1 0.69897 0
1 0.704616 0
0 0.963317 0
0 0.978866 0
0 0.990173 0
0 0.989944 0
0.284367 0.962829 0
0.615213 0.928374 0
0.865782 0.907744 0
1 0.903243 0
1 0.904555 0
0 1 0
0 1 0
0 1 0
0 1 0
0.270024 1 0
0.596399 1 0
0.843687 1 0
0.983459 1 0
1 1 0
0 1 0
0 1 0
0 1 0
0 1 0
0.269993 1 0
0.593088 1 0
0.837827 1 0
0.975723 1 0
1 1 0
0 0 0.42649
0.0102388 0 0.422004
0.116243 0 0.412497
0.357671 0 0.375311
0.676707 0 0.27953
0.906828 0 0.188144
1 0 0.149691
1 0 0.137209
1 0 0.135882
0 0.024567 0.388693
0 0.019089 0.385306
0.089189 0.00502022 0.378531
0.333837 0 0.349889
0.660548 0 0.264195
0.901198 0 0.18822
1 0 0.15787
1 0 0.15314
1 0 0.155932
0 0.0966659 0.330236
0 0.0958877 0.327642
0.0496834 0.0892805 0.322683
0.291798 0.0537423 0.307103
0.635416 0.0037995 0.239353
0.89276 0 0.183429
1 0 0.167147
1 0 0.168612
1 0.000762951 0.174517
0 0.238209 0.230823
0 0.242985 0.235721
0 0.245121 0.237964
0.178988 0.237522 0.230365
0.583581 0.182116 0.166125
0.883879 0.158984 0.145586
1 0.164538 0.152758
1 0.18024 0.169009
1 0.188754 0.177432
0 0.460777 0.1234
0 0.474022 0.134981
0 0.484443 0.142123
0.0879377 0.485985 0.12871
0.424567 0.462104 0.0608072
0.799527 0.425025 0.038941
1 0.419562 0.0668803
1 0.432242 0.098909
1 0.444495 0.119615
0 0.726024 0.0375677
0 0.74284 0.0511635
0 0.75668 0.0599374
0.00140383 0.762539 0.049958
0.30927 0.746303 0.00195315
0.669551 0.713771 0
0.933471 0.695644 0
1 0.69723 0.00578317
1 0.703105 0.0257725
0 0.963134 0.00515755
0 0.978912 0.0185397
0 0.989761 0.0273136
0 0.989517 0.0253147
0.265873 0.968078 0
0.603922 0.931472 0
0.863035 0.905318 0
1 0.898589 0
1 0.899687 0
0 1 0.00738537
0 1 0.0175479
0 1 0.0228275
0 1 0.0157626
0.261662 1 0
0.588434 1 0
0.837964 1 0
0.977676 1 0
1 1 0
0 1 0.0172122
0 1 0.0255589
0 1 0.0285801
0 1 0.0180056
0.260548 1 0
0.585199 1 0
0.8309 1 0
0.968627 1 0
1 1 0
0 0 0.807431
0 0 0.799268
0.0787976 0 0.785901
0.288334 0 0.750988
0.609583 0 0.669627
0.884642 0 0.550271
1 0 0.495033
1 0 0.472618
1 0 0.466529
0 0.00166323 0.767941
0 0 0.760327
0.0604257 0 0.748119
0.269688 0 0.717739
0.593698 0 0.647456
0.879484 0 0.544961
1 0 0.484245
1 0 0.473213
1 0 0.473823
0 0.0766613 0.701595
0 0.0768749 0.694484
0.0326543 0.0716259 0.684199
0.238666 0.0486915 0.662806
0.569955 0.00190738 0.616419
0.875547 0 0.537667
1 0 0.490013
1 0 0.483696
1 0 0.490135
0 0.223651 0.570748
0 0.229969 0.572442
0 0.233097 0.57319
0.173846 0.224247 0.571084
0.522301 0.18085 0.566537
0.881529 0.143984 0.517327
1 0.145815 0.488899
1 0.163256 0.48838
1 0.177844 0.494957
0 0.448814 0.453239
0 0.462028 0.466453
0 0.471595 0.476005
0.0878767 0.473671 0.478096
0.381186 0.45803 0.46247
0.826749 0.404654 0.402319
1 0.398733 0.396612
1 0.410513 0.40853
1 0.421729 0.419821
0 0.718456 0.365606
0 0.735042 0.381231
0 0.747707 0.392401
0 0.753246 0.39295
0.291463 0.739254 0.359182
0.658839 0.707835 0.272587
0.954803 0.682918 0.25095
1 0.681208 0.266087
1 0.685832 0.278752
0 0.956298 0.332769
0 0.971466 0.346456
0 0.981903 0.355352
0 0.983047 0.350576
0.23975 0.963027 0.306828
0.576837 0.929107 0.231205
0.855192 0.900465 0.188159
1 0.889982 0.187747
1 0.88896 0.19443
0 1 0.336141
0 1 0.34638
0 1 0.351659
0 1 0.343267
0.22826 1 0.295476
0.553445 1 0.221515
0.8177 1 0.174044
0.967575 1 0.165499
1 1 0.167987
0 1 0.346853
0 1 0.354772
0 1 0.357855
0 1 0.34583
0.230503 1 0.297719
0.549722 1 0.222736
0.807553 1 0.173465
0.953948 1 0.161746
1 1 0.16231
0 0 1
0 0 1
0.0478065 0 1
0.243977 0 1
0.54342 0 1
0.85507 0 0.944488
1 0 0.876814
1 0 0.844175
1 0 0.83299
0 0 1
0 0 1
0.0347295 0 1
0.229343 0 1
0.524697 0 0.995056
0.819181 0 0.897444
1 0 0.846693
1 0 0.830747
1 0 0.829541
0 0.0557107 1
0 0.0574502 1
0.0155032 0.0547494 1
0.209369 0.0383001 1
0.508141 0.00292973 0.958755
0.820096 0 0.893278
1 0 0.84036
1 0 0.840375
1 0 0.846372
0 0.20798 0.929198
0 0.215152 0.928206
0 0.219455 0.928512
0.162875 0.211749 0.926299
0.471748 0.181476 0.922332
0.826062 0.144976 0.899565
1 0.138903 0.868696
1 0.152758 0.858244
1 0.165774 0.859129
0 0.437919 0.810208
0 0.451621 0.82414
0 0.462074 0.83505
0.0784161 0.464347 0.839628
0.378363 0.446097 0.835569
0.767834 0.402335 0.841993
1 0.383795 0.823148
1 0.391577 0.816724
1 0.401694 0.819944
0 0.709682 0.725841
0 0.725536 0.741726
0 0.737881 0.754101
0 0.741894 0.758144
0.28687 0.725612 0.741955
0.621805 0.697505 0.713909
0.973587 0.656855 0.673518
1 0.653193 0.668833
1 0.656886 0.672175
0 0.94667 0.694667
0 0.961501 0.708888
0 0.971572 0.718318
0 0.970947 0.716533
0.22858 0.948135 0.689738
0.554467 0.913161 0.638911
0.836301 0.885771 0.559731
1 0.870405 0.53431
1 0.867155 0.534005
0 1 0.699535
0 1 0.710185
0 1 0.715434
0 1 0.70753
0.208438 1 0.670802
0.526116 1 0.608469
0.787381 1 0.532799
0.949889 0.993805 0.494118
1 0.987778 0.485252
0 1 0.710643
0 1 0.718944
0 1 0.721553
0 1 0.709834
0.205875 1 0.668284
0.519005 1 0.600748
0.77348 1 0.525185
0.929381 1 0.484154
1 1 0.472313
0 0 1
0 0 1
0.0286107 0 1
0.22501 0 1
0.523903 0 1
0.836408 0 1
1 0 1
1 0 1
1 0 1
0 0 1
0 0 1
0.0188449 0 1
0.21326 0 1
0.502373 0 1
0.804227 0 1
1 0 1
1 0 1
1 0 1
0 0.0426032 1
0 0.0456703 1
0.0043183 0.0444648 1
0.196506 0.0315862 1
0.481239 0.00390631 1
0.787457 0 1
1 0 1
1 0 1
1 0 1
0 0.199298 1
0 0.207782 1
0 0.212818 1
0.15877 0.207156 1
0.454643 0.182452 1
0.78996 0.151965 1
1 0.14548 1
1 0.156802 1
1 0.165438 1
0 0.433539 1
0 0.447501 1
0 0.457862 1
0.0773785 0.460365 1
0.376181 0.44213 1
0.734783 0.408286 1
1 0.389288 1
1 0.392966 1
1 0.4009 1
0 0.706432 0.992203
0 0.722591 1
0 0.734813 1
0 0.738445 1
0.2822 0.721477 1
0.619913 0.690028 0.994034
0.928054 0.655818 1
1 0.644297 1
1 0.64564 1
0 0.942809 0.963073
0 0.95729 0.9776
0 0.966522 0.986877
0 0.965225 0.985656
0.223331 0.940246 0.960754
0.552514 0.902129 0.922728
0.815549 0.873915 0.894591
1 0.85008 0.877516
1 0.845319 0.872023
0 1 0.968658
0 1 0.978927
0 1 0.98439
0 1 0.976226
0.200687 1 0.943267
0.522637 1 0.896162
0.777249 0.99382 0.85478
0.93286 0.978775 0.808179
1 0.971038 0.788159
0 1 0.979568
0 1 0.987625
0 1 0.990295
0 1 0.978119
0.195895 1 0.940322
0.513283 1 0.8878
0.762631 1 0.839124
0.909926 1 0.792599
0.983505 1 0.768704
0 0 1
0 0 1
0.0201572 0 1
0.216678 0 1
0.514641 0 1
0.82649 0 1
1 0 1
1 0 1
1 0 1
0 0 1
0 0 1
0.0128786 0 1
0.207095 0 1
0.495064 0 1
0.797696 0 1
1 0 1
1 0 1
1 0 1
0 0.0383307 1
0 0.0420386 1
0.00163272 0.0419013 1
0.193515 0.0301518 1
0.477791 0.00360113 1
0.785824 0 1
1 0 1
1 0 1
1 0 1
0 0.197803 1
0 0.206806 1
0 0.212436 1
0.159213 0.207446 1
0.451362 0.186221 1
0.777081 0.159838 1
1 0.151659 1
1 0.157839 1
1 0.166201 1
0 0.434638 1
0 0.448951 1
0 0.459449 1
0.0812695 0.461906 1
0.378973 0.444358 1
0.727657 0.413886 1
1 0.396902 1
1 0.399893 1
1 0.407156 1
0 0.708507 1
0 0.724712 1
0 0.736843 1
0 0.740063 1
0.283665 0.722377 1
0.621057 0.689982 1
0.911971 0.660105 1
1 0.648463 1
1 0.648569 1
0 0.944228 1
0 0.958282 1
0 0.967239 1
0 0.965301 1
0.222095 0.939529 1
0.550469 0.900572 1
0.813855 0.870588 1
0.988113 0.850324 1
1 0.842268 1
0 1 1
0 1 1
0 1 1
0 1 1
0.197757 1 1
0.520821 1 1
0.777722 0.987518 1
0.92752 0.970459 0.989776
1 0.961013 0.988586
0 1 1
0 1 1
0 1 1
0 1 1
0.192035 1 1
0.511238 1 1
0.764324 1 0.994751
0.910613 1 0.973678
0.976013 1 0.959304
0 0 1
0 0 1
0.0172427 0 1
0.213931 0 1
0.511055 0 1
0.822248 0 1
1 0 1
1 0 1
1 0 1
0 0 1
0 0 1
0.0114137 0 1
0.205615 0 1
0.492668 0 1
0.795575 0 1
1 0 1
1 0 1
1 0 1
0 0.0376287 1
0 0.0417182 1
0.00204471 0.0419928 1
0.193668 0.0310369 1
0.477607 0.00486763 1
0.786633 0 1
1 0 1
1 0 1
1 0 1
0 0.19881 1
0 0.207736 1
0 0.213733 1
0.160891 0.209018 1
0.45304 0.188205 1
0.778027 0.163088 1
1 0.154208 1
1 0.160327 1
1 0.168521 1
0 0.436683 1
0 0.451194 1
0 0.462135 1
0.0839399 0.464286 1
0.382269 0.447456 1
0.727062 0.417914 1
1 0.401938 1
1 0.404776 1
1 0.412192 1
0 0.711482 1
0 0.727413 1
0 0.739361 1
0 0.742382 1
0.286046 0.724254 1
0.623285 0.691859 1
0.908965 0.663233 1
1 0.652094 1
1 0.651789 1
0 0.946365 1
0 0.960174 1
0 0.969268 1
0 0.966674 1
0.222965 0.940673 1
0.550561 0.900908 1
0.813901 0.870146 1
0.981918 0.851377 1
1 0.84387 1
0 1 1
0 1 1
0 1 1
0 1 1
0.197375 1 1
0.520195 1 1
0.776455 0.986526 1
0.925597 0.968872 1
0.998413 0.960662 1
0 1 1
0 1 1
0 1 1
0 1 1
0.191119 1 1
0.510292 1 1
0.763653 1 1
0.91075 1 1
0.977172 1 1
