public/textures/grade/Sony/Parasitic-SLog.cube
TITLE "Generated by Resolve"
LUT_3D_SIZE 33
0 0 0
0 0 0
0.0146029 0 0
0.057908 0 0
0.0993973 0 0
0.142611 0 0
0.187778 0 0
0.235218 0 0
0.284321 0 0
0.334508 0 0
0.385809 0 0
0.437675 0 0
0.489357 0 0
0.540536 0 0
0.591073 0 0
0.639673 0 0
0.685924 0 0
0.728573 0 0
0.766842 0 0
0.804013 0 0
0.861677 0 0
0.917601 0 0
0.970977 0 0
1 0 0
1 0 0
1 0 0
1 0 0
1 0 0
1 0 0
1 0 0
1 0 0
1 0 0
1 0 0
0 0.00576791 0
0 0.0037232 0
0 0 0
0.0376898 0 0
0.0815137 0 0
0.12665 0 0
0.173312 0 0
0.221653 0 0
0.271443 0 0
0.32253 0 0
0.374746 0 0
0.427619 0 0
0.480278 0 0
0.532128 0 0
0.583307 0 0
0.632639 0 0
0.679728 0 0
0.723583 0 0
0.762982 0 0
0.79765 0 0
0.849714 0 0
0.904768 0 0
0.957198 0 0
1 0 0
1 0 0
1 0 0
1 0 0
1 0 0
1 0 0
1 0 0
1 0 0
1 0 0
1 0 0
0 0.0229038 0
0 0.0205386 0
0 0.0174411 0
0.0180819 0.0103761 0
0.0626688 0.00216678 0
0.109651 0 0
0.157931 0 0
0.207691 0 0
0.258854 0 0
0.311009 0 0
0.364126 0 0
0.417777 0 0
0.471275 0 0
0.523964 0 0
0.57583 0 0
0.625711 0 0
0.67364 0 0
0.718395 0 0
0.759014 0 0
0.794995 0 0
0.83743 0 0
0.891463 0 0
0.942794 0 0
0.991043 0 0
1 0 0
1 0 0
1 0 0
1 0 0
1 0 0
1 0 0
1 0 0
1 0 0
1 0 0
0 0.0413062 0
0 0.038941 0
0 0.0364843 0
0 0.0319829 0
0.0411841 0.0244297 0
0.0888838 0.0159457 0
0.139269 0.00665293 0
0.191333 0 0
0.244373 0 0
0.298024 0 0
0.351858 0 0
0.406241 0 0
0.460517 0 0
0.514031 0 0
0.566766 0 0
0.617426 0 0
0.665919 0 0
0.711559 0 0
0.753368 0 0
0.790784 0 0
0.823667 0 0
0.876356 0 0
0.926635 0 0
0.973877 0 0
1 0 0
1 0 0
1 0 0
1 0 0
1 0 0
1 0 0
1 0 0
1 0 0
1 0 0
0 0.0615244 0
0 0.0595407 0
0 0.0578317 0
0 0.0550088 0
0.0187533 0.0485542 0
0.065095 0.0410163 0
0.116075 0.0322423 0
0.169986 0.0226139 0
0.225193 0.012726 0
0.280781 0.00271611 0
0.336767 0 0
0.392706 0 0
0.448035 0 0
0.502037 0 0
0.555474 0 0
0.606836 0 0
0.656092 0 0
0.702602 0 0
0.745647 0 0
0.784604 0 0
0.819028 0 0
0.859648 0 0
0.909056 0 0
0.955581 0 0
0.999161 0 0
1 0 0
1 0 0
1 0 0
1 0 0
1 0 0
1 0 0
1 0 0
1 0 0
0 0.0840009 0
0 0.0824292 0
0 0.0811475 0
0 0.0793774 0
0 0.0747692 0
0.0407568 0.0680247 0
0.0906081 0.0603037 0
0.14493 0.0512093 0
0.201648 0.041413 0
0.259144 0.0313268 0
0.316991 0.0212406 0
0.374777 0.0113985 0
0.432105 0.00204471 0
0.488045 0 0
0.542672 0 0
0.594736 0 0
0.644419 0 0
0.691951 0 0
0.736324 0 0
0.776684 0 0
0.812894 0 0
0.84509 0 0
0.891493 0 0
0.93785 0 0
0.981476 0 0
1 0 0
1 0 0
1 0 0
1 0 0
1 0 0
1 0 0
1 0 0
1 0 0
0 0.108873 0
0 0.107485 0
0 0.106554 0
0 0.105486 0
0 0.102953 0
0.0172274 0.0970626 0
0.0648051 0.0902266 0
0.117815 0.0819867 0
0.174792 0.0727245 0
0.233722 0.0629435 0
0.293355 0.0529183 0
0.353063 0.0431067 0
0.411978 0.0334325 0
0.469734 0.0243076 0
0.526192 0.0156558 0
0.580041 0.0077821 0
0.631586 0.000732433 0
0.680552 0 0
0.726345 0 0
0.7682 0 0
0.806134 0 0
0.840299 0 0
0.875853 0 0
0.922423 0 0
0.966537 0 0
1 0 0
1 0 0
1 0 0
1 0 0
1 0 0
1 0 0
1 0 0
1 0 0
0 0.135592 0
0 0.134661 0
0 0.134157 0
0 0.133562 0
0 0.132128 0
0 0.127749 0
0.0400244 0.121798 0
0.0909895 0.114672 0
0.146715 0.106249 0
0.205936 0.0971695 0
0.266758 0.08748 0
0.327977 0.0776532 0
0.388678 0.0679484 0
0.448249 0.0586252 0
0.506615 0.0498512 0
0.5626 0.042237 0
0.615991 0.0351263 0
0.666773 0.0288243 0
0.714595 0.0235142 0
0.75906 0.0193942 0
0.79968 0.0166323 0
0.836469 0.0151675 0
0.869032 0.0146792 0
0.91107 0.0121767 0
0.955932 0.00929274 0
0.998352 0.00726329 0
1 0.00610361 0
1 0.0056611 0
1 0.00579843 0
1 0.00680552 0
1 0.00854505 0
1 0.0108797 0
1 0.014023 0
0 0.164263 0
0 0.163653 0
0 0.16376 0
0 0.16376 0
0 0.162829 0
0 0.160311 0
0.0162661 0.154742 0
0.0655222 0.148775 0
0.1196 0.141711 0
0.177447 0.133318 0
0.238239 0.124132 0
0.300496 0.114641 0
0.36289 0.10515 0
0.42446 0.0958419 0
0.485069 0.087129 0
0.543023 0.0790417 0
0.598627 0.0718242 0
0.651637 0.065507 0
0.701717 0.0600443 0
0.748531 0.0556649 0
0.791775 0.0527352 0
0.831067 0.0508431 0
0.866316 0.0502022 0
0.901686 0.0497292 0
0.947723 0.0469062 0
0.99173 0.0452277 0
1 0.0440986 0
1 0.0437171 0
1 0.043946 0
1 0.0449836 0
1 0.0469215 0
1 0.0496681 0
1 0.052903 0
0 0.194949 0
0 0.194736 0
0 0.195102 0
0 0.195529 0
0 0.1953 0
0 0.19379 0
0 0.189517 0
0.0416571 0.184451 0
0.0935073 0.178408 0
0.149645 0.171237 0
0.209461 0.162951 0
0.271763 0.153948 0
0.335424 0.14493 0
0.39881 0.135866 0
0.461463 0.126955 0
0.521752 0.118685 0
0.579705 0.111177 0
0.635111 0.104601 0
0.687907 0.0993362 0
0.737224 0.0947738 0
0.782864 0.0912947 0
0.824643 0.0890211 0
0.862394 0.0881056 0
0.896254 0.0885023 0
0.941131 0.0868238 0
0.986068 0.0849622 0
1 0.0838788 0
1 0.08365 0
1 0.0841535 0
1 0.0855726 0
1 0.0878309 0
1 0.0906386 0
1 0.0942245 0
0 0.227344 0
0 0.227481 0
0 0.228138 0
0 0.228931 0
0 0.229236 0
0 0.228748 0
0 0.226566 0
0.0193637 0.221515 0
0.0693828 0.216403 0
0.123522 0.210376 0
0.181872 0.203281 0
0.243763 0.195422 0
0.307485 0.18674 0
0.371969 0.177844 0
0.436561 0.169024 0
0.499245 0.1608 0
0.559731 0.153155 0
0.617899 0.146563 0
0.672908 0.140688 0
0.724804 0.135912 0
0.773083 0.132265 0
0.817456 0.129732 0
0.857618 0.128466 0
0.893996 0.128832 0
0.9355 0.128054 0
0.981521 0.126497 0
1 0.125673 0
1 0.125643 0
1 0.126757 0
1 0.128435 0
1 0.130861 0
1 0.133959 0
1 0.137758 0
0 0.261051 0
0 0.261631 0
0 0.262852 0
0 0.264179 0
0 0.26511 0
0 0.265278 0
0 0.264225 0
0 0.260395 0
0.047013 0.256123 0
0.0992294 0.251087 0
0.156039 0.245304 0
0.216495 0.238315 0
0.279881 0.230488 0
0.344884 0.222095 0
0.410758 0.213413 0
0.475624 0.205386 0
0.538628 0.197772 0
0.59913 0.190799 0
0.656718 0.184634 0
0.711101 0.179477 0
0.761913 0.175525 0
0.809186 0.173114 0
0.851759 0.171664 0
0.889921 0.171466 0
0.92932 0.171359 0
0.975753 0.170077 0
1 0.169619 0
1 0.170291 0
1 0.171298 0
1 0.173175 0
1 0.175845 0
1 0.179278 0
1 0.183429 0
0 0.296529 0
0 0.297551 0
0 0.299336 0
0 0.301488 0
0 0.303014 0
0 0.303761 0
0 0.303563 0
0 0.301671 0
0.0254368 0.297765 0
0.0766003 0.293889 0
0.13138 0.288853 0
0.190249 0.282795 0
0.252735 0.275868 0
0.317739 0.268254 0
0.384665 0.260258 0
0.450843 0.252201 0
0.51577 0.244419 0
0.578668 0.237308 0
0.638849 0.231037 0
0.695705 0.225666 0
0.74905 0.221698 0
0.798184 0.218647 0
0.842924 0.216953 0
0.883268 0.216571 0
0.92166 0.216922 0
0.968429 0.215824 0
1 0.21593 0
1 0.21651 0
1 0.217823 0
1 0.219928 0
1 0.222766 0
1 0.226719 0
1 0.231006 0
0 0.333867 0
0 0.335576 0
0 0.338033 0
0 0.340566 0
0 0.342779 0
0 0.344366 0
0 0.345052 0
0 0.344518 0
0.00366217 0.341421 0
0.0540169 0.338186 0
0.107637 0.334188 0
0.165133 0.329107 0
0.226398 0.323003 0
0.291112 0.316411 0
0.358083 0.308827 0
0.425223 0.301106 0
0.491676 0.293416 0
0.55642 0.286168 0
0.618845 0.279896 0
0.678035 0.27451 0
0.733333 0.270039 0
0.784588 0.266667 0
0.831388 0.264591 0
0.873747 0.263874 0
0.912688 0.264668 0
0.95996 0.26389 0
1 0.263813 0
1 0.264515 0
1 0.26598 0
1 0.268299 0
1 0.271702 0
1 0.27541 0
1 0.279774 0
0 0.373388 0
0 0.375769 0
0 0.378775 0
0 0.381918 0
0 0.38471 0
0 0.386984 0
0 0.388785 0
0 0.389197 0
0 0.387518 0
0.0315404 0.384405 0
0.0842756 0.38114 0
0.140887 0.377111 0
0.201389 0.372107 0
0.264988 0.365911 0
0.331594 0.358831 0
0.399069 0.351522 0
0.466545 0.344137 0
0.532952 0.337194 0
0.597009 0.330739 0
0.657938 0.324971 0
0.715251 0.320272 0
0.768643 0.316686 0
0.817502 0.314321 0
0.862104 0.313527 0
0.902281 0.313771 0
0.949691 0.313115 0
0.994644 0.313222 0
1 0.314076 0
1 0.315633 0
1 0.318395 0
1 0.321508 0
1 0.325322 0
1 0.329778 0
0 0.414923 0
0 0.417868 0
0 0.421515 0
0 0.425391 0
0 0.428885 0
0 0.431998 0
0 0.434165 0
0 0.435431 0
0 0.435355 0
0.00915541 0.432563 0
0.0618296 0.429801 0
0.11783 0.426444 0
0.177264 0.421942 0
0.240116 0.41651 0
0.306157 0.410056 0
0.373434 0.403159 0
0.441611 0.396429 0
0.508751 0.389471 0
0.57406 0.38294 0
0.636545 0.377066 0
0.695567 0.372107 0
0.750942 0.368399 0
0.801892 0.365927 0
0.848142 0.364538 0
0.890318 0.364309 0
0.938277 0.363653 0
0.983536 0.363806 0
1 0.365042 0
1 0.366766 0
1 0.369192 0
1 0.37232 0
1 0.376104 0
1 0.38056 0
0 0.458656 0
0 0.462242 0
0 0.466407 0
0 0.471183 0
0 0.475319 0
0 0.478782 0
0 0.481453 0
0 0.483192 0
0 0.483818 0
0 0.482475 0
0.0407111 0.479805 0
0.0960098 0.476677 0
0.15465 0.472679 0
0.216632 0.467826 0
0.282094 0.462119 0
0.349248 0.456062 0
0.417029 0.449317 0
0.48455 0.442542 0
0.550683 0.436072 0
0.61442 0.430198 0
0.675029 0.425284 0
0.731975 0.421317 0
0.78439 0.418311 0
0.832319 0.416556 0
0.87747 0.415824 0
0.925795 0.415213 0
0.971588 0.415625 0
1 0.416663 0
1 0.418265 0
1 0.420661 0
1 0.423774 0
1 0.427527 0
1 0.432288 0
0 0.504234 0
0 0.508507 0
0 0.513558 0
0 0.51841 0
0 0.522835 0
0 0.526665 0
0 0.529809 0
0 0.532006 0
0 0.533471 0
0 0.53315 0
0.0204776 0.530327 0
0.0758068 0.527611 0
0.133883 0.524102 0
0.195148 0.519768 0
0.259998 0.514733 0
0.326284 0.508888 0
0.39379 0.502586 0
0.461387 0.496101 0
0.527932 0.489723 0
0.592767 0.484199 0
0.654261 0.478996 0
0.712306 0.474632 0
0.766125 0.471351 0
0.815488 0.46923 0
0.863996 0.468147 0
0.912856 0.467704 0
0.958709 0.467796 0
1 0.46865 0
1 0.470176 0
1 0.47248 0
1 0.475685 0
1 0.479484 0
1 0.483757 0
0 0.551064 0
0 0.555962 0
0 0.561105 0
0 0.566369 0
0 0.571115 0
0 0.575219 0
0 0.578958 0
0 0.581613 0
0 0.58323 0
0 0.583581 0
0.00195315 0.581338 0
0.0576791 0.578729 0
0.115801 0.575967 0
0.176379 0.572015 0
0.240177 0.567117 0
0.30576 0.561624 0
0.372763 0.555642 0
0.440192 0.549462 0
0.507179 0.543603 0
0.572061 0.537713 0
0.634241 0.532387 0
0.693187 0.527825 0
0.748104 0.524269 0
0.79881 0.521965 0
0.850507 0.520684 0
0.899458 0.51989 0
0.945556 0.519844 0
0.988815 0.520546 0
1 0.52192 0
1 0.524315 0
1 0.527306 0
1 0.530739 0
1 0.534783 0
0 0.59884 0
0 0.603693 0
0 0.609064 0
0 0.614603 0
0 0.619715 0
0 0.624445 0
0 0.628214 0
0 0.631083 0
0 0.633051 0
0 0.633906 0
0 0.632959 0
0.0421454 0.630304 0
0.0995804 0.627375 0
0.159609 0.623728 0
0.222766 0.619181 0
0.287678 0.614008 0
0.354116 0.608316 0
0.421439 0.60264 0
0.487953 0.596536 0
0.552972 0.590677 0
0.615549 0.58529 0
0.67512 0.58056 0
0.731167 0.577111 0
0.78471 0.574487 0
0.836759 0.572763 0
0.886 0.571801 0
0.932326 0.571588 0
0.97583 0.572198 0
1 0.573617 0
1 0.57554 0
1 0.57818 0
1 0.58143 0
1 0.585245 0
0 0.646372 0
0 0.65156 0
0 0.657206 0
0 0.662959 0
0 0.668635 0
0 0.673335 0
0 0.677317 0
0 0.680446 0
0 0.682658 0
0 0.684108 0
0 0.68394 0
0.0286259 0.681147 0
0.0859236 0.67837 0
0.145434 0.674907 0
0.207935 0.670558 0
0.272572 0.665995 0
0.338369 0.660487 0
0.404868 0.654612 0
0.471077 0.648585 0
0.535973 0.64271 0
0.598672 0.637201 0
0.65893 0.63267 0
0.715999 0.628885 0
0.771054 0.62623 0
0.823331 0.624262 0
0.872724 0.623026 0
0.919295 0.622644 0
0.963134 0.623224 0
1 0.62414 0
1 0.625788 0
1 0.628092 0
1 0.631083 0
1 0.634836 0
0 0.696544 0
0 0.701457 0
0 0.707103 0
0 0.712856 0
0 0.717861 0
0 0.722148 0
0 0.725994 0
0 0.72932 0
0 0.732006 0
0 0.733532 0
0 0.733654 0
0.0175326 0.731273 0
0.074876 0.728511 0
0.133944 0.7252 0
0.196185 0.721355 0
0.259815 0.716564 0
0.324956 0.711162 0
0.39086 0.705333 0
0.456657 0.699367 0
0.52134 0.693462 0
0.584314 0.688228 0
0.644633 0.683558 0
0.702632 0.679927 0
0.757916 0.677028 0
0.810437 0.67483 0
0.860334 0.673686 0
0.906889 0.672877 0
0.950484 0.672831 0
0.99144 0.673487 0
1 0.674891 0
1 0.676966 0
1 0.679866 0
1 0.68307 0
0 0.746883 0
0 0.752102 0
0 0.757931 0
0 0.763638 0
0 0.768811 0
0 0.773236 0
0 0.776837 0
0 0.779904 0
0 0.781643 0
0 0.782361 0
0 0.78233 0
0.00868238 0.780529 0
0.066804 0.777829 0
0.125505 0.77467 0
0.186786 0.770535 0
0.249744 0.765805 0
0.31426 0.760449 0
0.379553 0.754635 0
0.445106 0.748898 0
0.509346 0.743038 0
0.571496 0.738231 0
0.632044 0.733761 0
0.690196 0.729839 0
0.745586 0.726574 0
0.79855 0.724407 0
0.848249 0.722622 0
0.894911 0.721553 0
0.938521 0.721157 0
0.979385 0.721386 0
1 0.722454 0
1 0.724498 0
1 0.726818 0
1 0.729641 0
0 0.797238 0
0 0.802457 0
0 0.808194 0
0 0.813977 0
0 0.819211 0
0 0.823835 0
0 0.827741 0
0 0.830488 0
0 0.832258 0
0 0.83299 0
0 0.832502 0
0 0.830549 0
0.0594644 0.826535 0
0.1187 0.822721 0
0.179873 0.818296 0
0.242161 0.813489 0
0.305653 0.808316 0
0.370062 0.803235 0
0.434241 0.797803 0
0.497673 0.79237 0
0.559869 0.787213 0
0.620508 0.782452 0
0.678828 0.778256 0
0.734661 0.775051 0
0.787305 0.772107 0
0.836988 0.769894 0
0.883665 0.768475 0
0.927306 0.767788 0
0.968444 0.768017 0
1 0.768627 0
1 0.769909 0
1 0.771878 0
1 0.774426 0
0 0.846677 0
0 0.851957 0
0 0.857755 0
0 0.8636 0
0 0.868986 0
0 0.873732 0
0 0.877379 0
0 0.880079 0
0 0.881834 0
0 0.882567 0
0 0.882429 0
0 0.880323 0
0.0491493 0.875898 0
0.108568 0.871885 0
0.169772 0.867292 0
0.232181 0.86247 0
0.295735 0.857206 0
0.359777 0.85153 0
0.423911 0.845792 0
0.487404 0.840131 0
0.549615 0.834653 0
0.610483 0.829725 0
0.668864 0.825223 0
0.724437 0.821317 0
0.777157 0.818067 0
0.82681 0.815473 0
0.873365 0.813565 0
0.917189 0.812772 0
0.957992 0.812345 0
0.995499 0.812619 0
1 0.813489 0
1 0.814969 0
1 0.817075 0
0 0.89543 0
0 0.90074 0
0 0.906523 0
0 0.912703 0
0 0.917952 0
0 0.922408 0
0 0.926009 0
0 0.928618 0
0 0.930312 0
0 0.931197 0
0 0.930617 0
0 0.928527 0
0.0403754 0.923919 0
0.0998703 0.919554 0
0.161166 0.914855 0
0.223545 0.909834 0
0.286885 0.904158 0
0.35082 0.898161 0
0.414801 0.892027 0
0.478248 0.886015 0
0.540703 0.880476 0
0.60145 0.87509 0
0.659693 0.870054 0
0.71516 0.865675 0
0.767834 0.862028 0
0.817502 0.859113 0
0.864317 0.857176 0
0.907683 0.855573 0
0.948241 0.854612 0
0.985626 0.854505 0
1 0.855055 0
1 0.856443 0
1 0.858091 0
0 0.943038 0
0 0.948318 0
0 0.954452 0
0 0.960189 0
0 0.965301 0
0 0.969604 0
0 0.973083 0
0 0.975647 0
0 0.977432 0
0 0.977813 0
0 0.977005 0
0 0.974807 0
0.0336919 0.970077 0
0.0936446 0.965743 0
0.15462 0.960525 0
0.216632 0.95494 0
0.27985 0.948974 0
0.34374 0.942718 0
0.407767 0.9364 0
0.471214 0.930129 0
0.533303 0.923919 0
0.593912 0.918059 0
0.652155 0.912718 0
0.707561 0.907942 0
0.760235 0.903975 0
0.809842 0.900679 0
0.856291 0.898054 0
0.89958 0.896132 0
0.940002 0.894759 0
0.977096 0.894118 0
1 0.894438 0
1 0.895247 0
1 0.896544 0
0 0.989807 0
0 0.994995 0
0 1 0
0 1 0
0 1 0
0 1 0
0 1 0
0 1 0
0 1 0
