public/textures/grade/Sony/Parasitic-SLog2.cube
TITLE "Generated by Resolve"
LUT_3D_SIZE 9
0 0 0
0.117067 0 0
0.34461 0 0
0.565789 0 0
0.751919 0 0
0.946883 0 0
1 0 0
1 0 0
1 0 0
0 0.0706951 0
0.0279393 0.0564279 0
0.283803 0.0123293 0
0.523827 0 0
0.724941 0 0
0.879545 0 0
1 0 0
1 0 0
1 0 0
0 0.201282 0
0 0.201541 0
0.155734 0.177295 0
0.425177 0.13959 0
0.663737 0.109285 0
0.844617 0.0962997 0
1 0.0924849 0
1 0.0937057 0
1 0.102724 0
0 0.353368 0
0 0.364431 0
0.0529183 0.360388 0
0.31104 0.33753 0
0.582635 0.307439 0
0.803372 0.29015 0
0.970779 0.288121 0
1 0.292912 0
1 0.304875 0
0 0.532113 0
0 0.553185 0
0 0.562722 0
0.215579 0.548165 0
0.488792 0.523949 0
0.731365 0.504234 0
0.921584 0.498451 0
1 0.502968 0
1 0.513878 0
0 0.724315 0
0 0.747738 0
0 0.76022 0
0.159564 0.750607 0
0.423529 0.728985 0
0.669566 0.709148 0
0.870192 0.700099 0
1 0.701091 0
1 0.708675 0
0 0.91191 0
0 0.936172 0
0 0.947188 0
0.128054 0.933318 0
0.386648 0.910124 0
0.63061 0.887053 0
0.831479 0.872679 0
0.978637 0.868421 0
1 0.871489 0
0 1 0
0 1 0
0 1 0
0.113832 1 0
0.369772 1 0
0.611597 1 0
0.810178 1 0
0.954879 0.996368 0
1 0.994827 0
0 1 0
0 1 0
0 1 0
0.117067 1 0
0.369009 1 0
0.607874 1 0
0.803677 1 0
0.945464 1 0
1 1 0
0 0 0.0982528
0.0885786 0 0.0880446
0.336187 0 0.0365148
0.568795 0 0
0.763897 0 0
0.940398 0 0
1 0 0
1 0 0
1 0 0
0 0.0612192 0.0485389
0.0181125 0.0533303 0.0404822
0.289189 0.00691234 0
0.531334 0 0
0.7364 0 0
0.882368 0 0
1 0 0
1 0 0
1 0 0
0 0.195773 0
0 0.197864 0
0.155856 0.178698 0
0.437263 0.139284 0
0.680781 0.109819 0
0.867155 0.0972457 0
1 0.0987259 0
1 0.100343 0
1 0.109712 0
0 0.353628 0
0 0.366247 0
0.0557717 0.36553 0
0.316243 0.343694 0
0.598535 0.312291 0
0.82623 0.294331 0
0.9832 0.294911 0
1 0.301015 0
1 0.312764 0
0 0.537758 0
0 0.559838 0
0 0.570504 0
0.217716 0.557794 0
0.496788 0.533242 0
0.748012 0.512047 0
0.931075 0.50602 0
1 0.510689 0
1 0.521538 0
0 0.731655 0
0 0.755673 0
0 0.770687 0
0.158831 0.761685 0
0.425345 0.740414 0
0.677012 0.717845 0
0.876387 0.706706 0
1 0.707485 0
1 0.714595 0
0 0.919966 0
0 0.943999 0
0 0.954543 0
0.132723 0.940612 0
0.390784 0.916487 0
0.635248 0.892851 0
0.835813 0.877577 0
0.982513 0.872694 0
1 0.875059 0
0 1 0
0 1 0
0 1 0
0.116701 1 0
0.372107 1 0
0.614023 1 0
0.812573 1 0
0.95671 0.998459 0
1 0.996323 0
0 1 0
0 1 0
0 1 0
0.118105 1 0
0.36965 1 0
0.608515 1 0
0.804257 1 0
0.945754 1 0
1 1 0
0 0 0.328664
0.0554665 0 0.322866
0.284977 0 0.292149
0.549462 0 0.221469
0.767987 0 0.146334
0.929381 0 0.0939803
1 0 0.0647288
1 0 0.0506752
1 0 0.0479896
0 0.0513619 0.269322
0.00822461 0.0431525 0.263981
0.238773 0.00668345 0.247303
0.5178 0 0.187472
0.741955 0 0.129534
0.902449 0 0.0950332
1 0 0.0803845
1 0 0.0765545
1 0 0.0816663
0 0.183825 0.173373
0 0.186389 0.176242
0.126604 0.179095 0.16907
0.450599 0.131029 0.112245
0.699321 0.103273 0.0872358
0.89279 0.0912337 0.0774548
1 0.0957046 0.0835279
1 0.103273 0.0915084
1 0.113146 0.101228
0 0.346517 0.0841688
0 0.360235 0.0977951
0.0565194 0.363897 0.0896468
0.313817 0.34522 0.0357519
0.618875 0.310185 0.00350958
0.855131 0.291371 0.0118563
1 0.29102 0.0341039
1 0.305226 0.0644083
1 0.317372 0.0760967
0 0.537682 0.00213626
0 0.559731 0.0189975
0 0.571939 0.0172732
0.211917 0.563149 0
0.499428 0.538155 0
0.766323 0.513695 0
0.961471 0.50547 0
1 0.512215 0
1 0.52488 0.0200961
0 0.73463 0
0 0.76022 0
0 0.775647 0
0.150027 0.768948 0
0.417929 0.748318 0
0.680476 0.72369 0
0.887144 0.709361 0
1 0.708537 0
1 0.715434 0
0 0.923018 0
0 0.946914 0
0 0.957076 0
0.122408 0.946288 0
0.37882 0.923766 0
0.631174 0.896925 0
0.835508 0.877379 0
0.981598 0.871458 0
1 0.873228 0
0 1 0
0 1 0
0 1 0
0.11252 1 0
0.367529 1 0
0.610574 1 0
0.809583 1 0
0.953597 0.994934 0
1 0.991867 0
0 1 0
0 1 0
0 1 0
0.11223 1 0
0.36347 1 0
0.602914 1 0
0.799069 1 0
0.94052 1 0
1 1 0
0 0 0.621958
0.0294041 0 0.613611
0.230091 0 0.587243
0.491356 0 0.53138
0.740826 0 0.444129
0.913451 0 0.360876
1 0 0.323171
1 0 0.301869
1 0 0.2934
0 0.0350805 0.560479
0 0.0282139 0.552087
0.19205 0.00187686 0.533639
0.458991 0 0.492332
0.716854 0 0.41976
0.90367 0 0.355581
1 0 0.317647
1 0 0.309987
1 0 0.313176
0 0.171817 0.439765
0 0.176013 0.43714
0.121904 0.168078 0.430426
0.392844 0.132403 0.421317
0.687922 0.0937819 0.377493
0.904479 0.0785534 0.33814
1 0.0814832 0.321157
1 0.0974899 0.322438
1 0.109392 0.333089
0 0.3355 0.333394
0 0.349432 0.347341
0.0580453 0.354559 0.352468
0.274586 0.344518 0.342397
0.636866 0.29572 0.284642
0.881254 0.277089 0.267216
1 0.277256 0.268269
1 0.290257 0.281788
1 0.309575 0.301427
0 0.530358 0.249928
0 0.551949 0.270237
0 0.563714 0.277897
0.202716 0.558206 0.25742
0.491447 0.535317 0.190784
0.785962 0.505776 0.159365
0.992615 0.495384 0.170947
1 0.500648 0.19292
1 0.513863 0.216754
0 0.731624 0.189334
0 0.756817 0.211093
0 0.771511 0.217838
0.138857 0.766812 0.19382
0.401404 0.748547 0.141802
0.676997 0.723079 0.0948806
0.900343 0.705196 0.0899672
1 0.701778 0.107317
1 0.707683 0.129442
0 0.919753 0.161288
0 0.943496 0.182498
0 0.953964 0.188815
0.10428 0.94612 0.160983
0.357458 0.924941 0.113985
0.615335 0.898314 0.0684825
0.832395 0.876677 0.0519265
0.985138 0.866926 0.0602426
1 0.866804 0.0772717
0 1 0.159564
0 1 0.176013
0 1 0.177829
0.0966354 1 0.15436
0.342306 1 0.107103
0.58938 1 0.0624857
0.798062 1 0.0417792
0.947051 0.988357 0.0444495
1 0.983322 0.0567941
0 1 0.173404
0 1 0.185016
0 1 0.18146
0.0988022 1 0.156771
0.344564 1 0.114092
0.584161 1 0.0688334
0.786221 1 0.0456855
0.930892 1 0.0445563
1 1 0.0443275
0 0 0.938445
0.00354009 0 0.921721
0.190036 0 0.889906
0.430304 0 0.83711
0.68307 0 0.755596
0.89482 0 0.673838
1 0 0.626444
1 0 0.596857
1 0 0.581781
0 0.0160678 0.87219
0 0.011368 0.857343
0.162707 0 0.828565
0.402731 0 0.786374
0.66186 0 0.723262
0.8719 0 0.651682
1 0 0.597147
1 0 0.584466
1 0 0.586221
0 0.157153 0.736187
0 0.162768 0.727901
0.111315 0.155871 0.717693
0.349187 0.131121 0.708904
0.633555 0.0940261 0.687404
0.880049 0.0713817 0.647181
1 0.0698405 0.615732
1 0.0832837 0.602991
1 0.10103 0.606867
0 0.324956 0.612604
0 0.340032 0.626215
0.0484474 0.345602 0.6336
0.272114 0.333791 0.632044
0.576699 0.296544 0.633249
0.867628 0.265965 0.604883
1 0.262181 0.581537
1 0.273426 0.577279
1 0.291356 0.585397
0 0.52108 0.529686
0 0.542565 0.551171
0 0.553704 0.562325
0.199649 0.547982 0.556603
0.452247 0.53106 0.539727
0.802563 0.48661 0.49044
1 0.475502 0.47895
1 0.480385 0.483619
1 0.492775 0.495949
0 0.724544 0.469581
0 0.748806 0.493065
0 0.761898 0.504326
0.134646 0.756497 0.494499
0.386236 0.73904 0.462501
0.663584 0.715023 0.391257
0.913619 0.691402 0.358755
1 0.684703 0.364828
1 0.689067 0.379248
0 0.912764 0.442069
0 0.93608 0.463706
0 0.946105 0.470893
0.0920119 0.937407 0.452811
0.338491 0.916777 0.412573
0.591608 0.891966 0.350195
0.821866 0.868986 0.301595
0.989441 0.856077 0.291386
1 0.853742 0.298375
0 1 0.441276
0 1 0.458137
0 1 0.459907
0.0758526 1 0.436454
0.317556 1 0.391073
0.561318 1 0.331411
0.776562 0.997009 0.281666
0.937026 0.980514 0.261753
1 0.973632 0.260471
0 1 0.456092
0 1 0.467674
0 1 0.463783
0.0781109 1 0.437812
0.314473 1 0.387808
0.552071 1 0.32781
0.759091 1 0.277745
0.913054 1 0.253086
1 1 0.246647
0 0 1
0 0 1
0.164721 0 1
0.39382 0 1
0.646082 0 1
0.876554 0 0.969528
1 0 0.913649
1 0 0.876234
1 0 0.855238
0 0 1
0 0 1
0.141741 0 1
0.366354 0 1
0.612207 0 0.971237
0.825986 0 0.902525
0.998383 0 0.862226
1 0 0.848005
1 0 0.849104
0 0.144045 1
0 0.151247 0.986481
0.10251 0.146471 0.972641
0.328054 0.126818 0.958679
0.590997 0.0965286 0.941024
0.839017 0.0730297 0.912963
1 0.0682078 0.883284
1 0.0791485 0.866224
1 0.0923934 0.871077
0 0.31574 0.873655
0 0.331792 0.888731
0.0420539 0.337438 0.899077
0.266255 0.325811 0.900496
0.540063 0.297948 0.902647
0.820905 0.268818 0.895628
1 0.25893 0.876875
1 0.266346 0.86717
1 0.281971 0.869337
0 0.513985 0.7935
0 0.535836 0.815564
0 0.547326 0.827649
0.192859 0.541314 0.823697
0.450874 0.522225 0.815839
0.74786 0.487709 0.823621
1 0.465614 0.811292
1 0.4663 0.801648
1 0.476905 0.803418
0 0.718288 0.734966
0 0.742336 0.75906
0 0.754589 0.771359
0.130755 0.747951 0.764782
0.382559 0.72903 0.745922
0.632547 0.707546 0.724483
0.923171 0.67155 0.689586
1 0.663661 0.680507
1 0.667018 0.683253
0 0.906279 0.708782
0 0.928756 0.730541
0 0.937896 0.738888
0.0859846 0.927657 0.727001
0.33341 0.904616 0.700847
0.578302 0.878981 0.66389
0.806241 0.85745 0.599481
0.992905 0.84004 0.568536
1 0.835081 0.568521
0 1 0.709224
0 1 0.72636
0 1 0.728374
0.0647135 1 0.709422
0.306615 1 0.674769
0.544976 1 0.627939
0.754482 0.985931 0.568063
0.922927 0.968688 0.523751
1 0.959594 0.509773
0 1 0.724514
0 1 0.736141
0 1 0.732219
0.0618906 1 0.70782
0.298863 1 0.666697
0.53225 1 0.614191
0.734234 1 0.554589
0.891997 1 0.508583
0.999634 1 0.487739
0 0 1
0 0 1
0.149111 0 1
0.37789 0 1
0.630259 0 1
0.861509 0 1
1 0 1
1 0 1
1 0 1
0 0 1
0 0 1
0.130175 0 1
0.350729 0 1
0.589731 0 1
0.811246 0 1
0.991379 0 1
1 0 1
1 0 1
0 0.135653 1
0 0.144198 1
0.0979324 0.141512 1
0.317327 0.125338 1
0.568475 0.0993973 1
0.808789 0.0785229 1
0.996078 0.07364 1
1 0.0776074 1
1 0.0877241 1
0 0.310536 1
0 0.32726 1
0.041001 0.333211 1
0.263844 0.322621 1
0.526375 0.298939 1
0.791287 0.274571 1
1 0.263951 1
1 0.269245 1
1 0.283452 1
0 0.51046 1
0 0.532815 1
0 0.544381 1
0.191211 0.537926 1
0.44918 0.518456 1
0.722057 0.490974 1
0.964736 0.469642 1
1 0.466224 1
1 0.474128 1
0 0.715648 0.948379
0 0.73962 0.972869
0 0.751614 0.98558
0.126894 0.744625 0.979538
0.378302 0.725216 0.962203
0.631189 0.701366 0.948943
0.879911 0.672435 0.960525
1 0.656519 0.959503
1 0.656611 0.956939
0 0.903227 0.923354
0 0.925246 0.945434
0 0.933639 0.953902
0.0813458 0.922499 0.94284
0.330007 0.897978 0.918395
0.576425 0.870375 0.890837
0.787366 0.848905 0.869429
0.994125 0.823575 0.850202
1 0.817212 0.842741
0 1 0.924437
0 1 0.941726
0 1 0.943725
0.0580301 1 0.925902
0.302144 1 0.895094
0.543023 0.997909 0.860426
0.747631 0.972244 0.827558
0.90901 0.956802 0.780056
1 0.945403 0.754055
0 1 0.939757
0 1 0.951263
0 1 0.947158
0.0525521 1 0.923659
0.29189 1 0.887007
0.527672 1 0.846021
0.726223 1 0.804517
0.876249 1 0.75761
0.986038 1 0.722805
0 0 1
0 0 1
0.139681 0 1
0.368048 0 1
0.619852 0 1
0.850904 0 1
1 0 1
1 0 1
1 0 1
0 0 1
0 0 1
0.124285 0 1
0.34403 0 1
0.582834 0 1
0.8056 0 1
0.98819 0 1
1 0 1
1 0 1
0 0.13196 1
0 0.141604 1
0.0965133 0.139864 1
0.314702 0.125505 1
0.559976 0.102998 1
0.796872 0.0835431 1
0.994171 0.0746014 1
1 0.0772869 1
1 0.0874647 1
0 0.309483 1
0 0.326863 1
0.0422522 0.333211 1
0.265431 0.323781 1
0.522469 0.302403 1
0.778637 0.280995 1
0.989944 0.271504 1
1 0.276539 1
1 0.290044 1
0 0.510994 1
0 0.533715 1
0 0.545312 1
0.193988 0.538537 1
0.450843 0.519295 1
0.714763 0.494636 1
0.946578 0.476036 1
1 0.471916 1
1 0.478401 1
0 0.716793 1
0 0.740703 1
0 0.752453 1
0.12723 0.745022 1
0.378576 0.724941 1
0.631464 0.70016 1
0.863996 0.675425 1
1 0.66006 1
1 0.657893 1
0 0.90399 1
0 0.925612 1
0 0.933425 1
0.0797894 0.921675 1
0.328054 0.896422 1
0.573739 0.868223 1
0.785672 0.845106 1
0.965286 0.82417 1
1 0.812833 1
0 1 1
0 1 1
0 1 1
0.0546883 1 1
0.299397 1 1
0.54139 0.993408 1
0.747692 0.965896 0.985656
0.901656 0.948791 0.968658
1 0.933974 0.962402
0 1 1
0 1 1
0 1 1
0.0471656 1 1
0.287861 1 1
0.52578 1 1
0.727489 1 0.96759
0.876097 1 0.943664
0.976562 1 0.915007
0 0 1
0 0 1
0.13489 0 1
0.36286 0 1
0.61384 0 1
0.844251 0 1
1 0 1
1 0 1
1 0 1
0 0 1
0 0 1
0.122637 0 1
0.341512 0 1
0.580041 0 1
0.803662 0 1
0.987976 0 1
1 0 1
1 0 1
0 0.131762 1
0 0.142184 1
0.0980545 0.141146 1
0.316091 0.127306 1
0.561654 0.105211 1
0.799252 0.0860761 1
0.997574 0.0772259 1
1 0.079881 1
1 0.0903334 1
0 0.311299 1
0 0.329168 1
0.0452735 0.335866 1
0.26894 0.327092 1
0.523339 0.307576 1
0.774685 0.287907 1
0.982651 0.279438 1
1 0.284657 1
1 0.29781 1
0 0.514397 1
0 0.537118 1
0 0.548775 1
0.199115 0.541955 1
0.454704 0.522805 1
0.71429 0.499428 1
0.9402 0.482399 1
1 0.478477 1
1 0.484367 1
0 0.720455 1
0 0.744244 1
0 0.755718 1
0.130663 0.748043 1
0.381613 0.727153 1
0.633921 0.702037 1
0.860502 0.678782 1
1 0.664698 1
1 0.662135 1
0 0.907134 1
0 0.928679 1
0 0.936034 1
0.0810559 0.923415 1
0.329107 0.89781 1
0.574136 0.868788 1
0.785977 0.844633 1
0.956771 0.825833 1
1 0.815213 1
0 1 1
0 1 1
0 1 1
0.0542458 1 1
0.298802 1 1
0.540719 0.992859 1
0.746044 0.964767 1
0.899687 0.946761 1
1 0.933669 1
0 1 1
0 1 1
0 1 1
0.045594 1 1
0.286183 1 1
0.524422 1 1
0.726802 1 1
0.876936 1 1
0.977172 1 1
