public/textures/grade/Sony/Parasitic-SLog2.cube
TITLE "Generated by Resolve"
LUT_3D_SIZE 5
0 0 0
0.34461 0 0
0.751919 0 0
1 0 0
1 0 0
0 0.201282 0
0.155734 0.177295 0
0.663737 0.109285 0
1 0.0924849 0
1 0.102724 0
0 0.532113 0
0 0.562722 0
0.488792 0.523949 0
0.921584 0.498451 0
1 0.513878 0
0 0.91191 0
0 0.947188 0
0.386648 0.910124 0
0.831479 0.872679 0
1 0.871489 0
0 1 0
0 1 0
0.369009 1 0
0.803677 1 0
1 1 0
0 0 0.328664
0.284977 0 0.292149
0.767987 0 0.146334
1 0 0.0647288
1 0 0.0479896
0 0.183825 0.173373
0.126604 0.179095 0.16907
0.699321 0.103273 0.0872358
1 0.0957046 0.0835279
1 0.113146 0.101228
0 0.537682 0.00213626
0 0.571939 0.0172732
0.499428 0.538155 0
0.961471 0.50547 0
1 0.52488 0.0200961
0 0.923018 0
0 0.957076 0
0.37882 0.923766 0
0.835508 0.877379 0
1 0.873228 0
0 1 0
0 1 0
0.36347 1 0
0.799069 1 0
1 1 0
0 0 0.938445
0.190036 0 0.889906
0.68307 0 0.755596
1 0 0.626444
1 0 0.581781
0 0.157153 0.736187
0.111315 0.155871 0.717693
0.633555 0.0940261 0.687404
1 0.0698405 0.615732
1 0.10103 0.606867
0 0.52108 0.529686
0 0.553704 0.562325
0.452247 0.53106 0.539727
1 0.475502 0.47895
1 0.492775 0.495949
0 0.912764 0.442069
0 0.946105 0.470893
0.338491 0.916777 0.412573
0.821866 0.868986 0.301595
1 0.853742 0.298375
0 1 0.456092
0 1 0.463783
0.314473 1 0.387808
0.759091 1 0.277745
1 1 0.246647
0 0 1
0.149111 0 1
0.630259 0 1
1 0 1
1 0 1
0 0.135653 1
0.0979324 0.141512 1
0.568475 0.0993973 1
0.996078 0.07364 1
1 0.0877241 1
0 0.51046 1
0 0.544381 1
0.44918 0.518456 1
0.964736 0.469642 1
1 0.474128 1
0 0.903227 0.923354
0 0.933639 0.953902
0.330007 0.897978 0.918395
0.787366 0.848905 0.869429
1 0.817212 0.842741
0 1 0.939757
0 1 0.947158
0.29189 1 0.887007
0.726223 1 0.804517
0.986038 1 0.722805
0 0 1
0.13489 0 1
0.61384 0 1
1 0 1
1 0 1
0 0.131762 1
0.0980545 0.141146 1
0.561654 0.105211 1
0.997574 0.0772259 1
1 0.0903334 1
0 0.514397 1
0 0.548775 1
0.454704 0.522805 1
0.9402 0.482399 1
1 0.484367 1
0 0.907134 1
0 0.936034 1
0.329107 0.89781 1
0.785977 0.844633 1
1 0.815213 1
0 1 1
0 1 1
0.286183 1 1
0.726802 1 1
0.977172 1 1
