public/textures/grade/Arri/Gems-LogC4.cube
TITLE "Generated by Resolve"
LUT_3D_SIZE 33
0 0 0.00798047
0.000518807 4.57771e-05 0.00425727
0.00663767 0.00161746 0.0027924
0.0243229 0 0
0.051606 0 0
0.090013 0 0
0.145586 0 0
0.218723 0.00434882 0
0.309651 0.0205997 0
0.418967 0.0550546 0
0.508568 0.117632 0
0.491722 0.203815 0
0.330388 0.296544 0.265263
0.346532 0.346532 0.346532
0.381338 0.381338 0.381338
0.406668 0.406668 0.406668
0.42472 0.42472 0.42472
0.449577 0.449577 0.449577
0.471519 0.471519 0.471519
0.488212 0.488212 0.488212
0.500786 0.500786 0.500786
0.510246 0.510246 0.510246
0.517281 0.517281 0.517281
0.522484 0.522484 0.522484
0.526284 0.526284 0.526284
0.529046 0.529046 0.529046
0.53109 0.53109 0.53109
0.532601 0.532601 0.532601
0.533623 0.533623 0.533623
0.534325 0.534325 0.534325
0.534798 0.534798 0.534798
0.535164 0.535164 0.535164
0.535439 0.535439 0.535439
0 0.00337224 0.00781262
0 0.00276188 0.00402838
0.00630198 0.00233463 0.00128176
0.0217594 0.00210575 0
0.0482032 0.00149538 0
0.0874647 0 0
0.144091 6.10361e-05 0
0.218036 0.00556954 0
0.309377 0.0216526 0
0.418921 0.0553597 0
0.508568 0.117632 0
0.491722 0.203815 0
0.330388 0.296559 0.265278
0.346532 0.346532 0.346532
0.381338 0.381338 0.381338
0.406668 0.406668 0.406668
0.424704 0.424704 0.424704
0.449577 0.449577 0.449577
0.471519 0.471519 0.471519
0.488212 0.488212 0.488212
0.500786 0.500786 0.500786
0.510246 0.510246 0.510246
0.517281 0.517281 0.517281
0.522469 0.522469 0.522469
0.526284 0.526284 0.526284
0.529046 0.529046 0.529046
0.531075 0.531075 0.531075
0.532601 0.532601 0.532601
0.533623 0.533623 0.533623
0.534325 0.534325 0.534325
0.534798 0.534798 0.534798
0.535164 0.535164 0.535164
0.535424 0.535424 0.535424
0 0.00779736 0.00762951
0 0.00700389 0.00444038
0.0012665 0.00715648 0.00169375
0.0180362 0.00596628 0
0.0460822 0.00418097 0
0.0853132 0.00257877 0
0.142061 0.00308232 0
0.216388 0.0089723 0
0.307988 0.0252995 0
0.418021 0.0594797 0
0.509377 0.120516 0
0.491768 0.204395 0
0.330373 0.296574 0.265324
0.346532 0.346532 0.346532
0.381353 0.381353 0.381353
0.406668 0.406668 0.406668
0.424704 0.424704 0.424704
0.449577 0.449577 0.449577
0.471519 0.471519 0.471519
0.488212 0.488212 0.488212
0.500786 0.500786 0.500786
0.510246 0.510246 0.510246
0.517281 0.517281 0.517281
0.522469 0.522469 0.522469
0.526284 0.526284 0.526284
0.529046 0.529046 0.529046
0.531075 0.531075 0.531075
0.532586 0.532586 0.532586
0.533623 0.533623 0.533623
0.534325 0.534325 0.534325
0.534798 0.534798 0.534798
0.535164 0.535164 0.535164
0.535424 0.535424 0.535424
0 0.0156405 0.00839246
0 0.0153048 0.0052491
0 0.0159609 0.00250248
0.00791943 0.0151522 0
0.0371557 0.0132601 0
0.0781872 0.0102235 0
0.137758 0.00823987 0
0.211612 0.0140993 0
0.303517 0.0306401 0
0.414374 0.065156 0
0.509346 0.125063 0
0.492775 0.206256 0
0.331075 0.29781 0.266819
0.347005 0.347005 0.347005
0.381353 0.381353 0.381353
0.406668 0.406668 0.406668
0.424689 0.424689 0.424689
0.449561 0.449561 0.449561
0.471504 0.471504 0.471504
0.488197 0.488197 0.488197
0.500786 0.500786 0.500786
0.510231 0.510231 0.510231
0.517281 0.517281 0.517281
0.522469 0.522469 0.522469
0.526268 0.526268 0.526268
0.529046 0.529046 0.529046
0.531075 0.531075 0.531075
0.532586 0.532586 0.532586
0.533623 0.533623 0.533623
0.534325 0.534325 0.534325
0.534798 0.534798 0.534798
0.535164 0.535164 0.535164
0.535424 0.535424 0.535424
0 0.0289311 0.00901808
0 0.0292973 0.00614939
0 0.0304417 0.00401312
0 0.0330663 0
0.0193027 0.0295109 0
0.0620432 0.0266728 0
0.122377 0.0234531 0
0.200443 0.0242771 0
0.2934 0.0378271 0
0.404623 0.0720836 0
0.504891 0.12987 0
0.498497 0.207736 0
0.337453 0.298329 0.26125
0.348363 0.348363 0.348363
0.382483 0.382483 0.382483
0.406928 0.406928 0.406928
0.424674 0.424674 0.424674
0.449561 0.449561 0.449561
0.471504 0.471504 0.471504
0.488197 0.488197 0.488197
0.500771 0.500771 0.500771
0.510231 0.510231 0.510231
0.517266 0.517266 0.517266
0.522469 0.522469 0.522469
0.526268 0.526268 0.526268
0.52903 0.52903 0.52903
0.531075 0.531075 0.531075
0.532586 0.532586 0.532586
0.533608 0.533608 0.533608
0.53431 0.53431 0.53431
0.534798 0.534798 0.534798
0.535164 0.535164 0.535164
0.535424 0.535424 0.535424
0 0.047837 0.00935378
0 0.0486763 0.00700389
0 0.0505074 0.00563058
0 0.0531777 0.000427253
0 0.0536049 0
0.0363928 0.0501564 0
0.0966201 0.04654 0
0.177356 0.0450599 0
0.274678 0.0523384 0
0.38854 0.0797742 0
0.494255 0.1337 0
0.508949 0.208179 0
0.354253 0.296391 0.240024
0.349126 0.349126 0.349126
0.383749 0.383749 0.383749
0.411399 0.411399 0.411399
0.429541 0.429541 0.429541
0.449546 0.449546 0.449546
0.471489 0.471489 0.471489
0.488182 0.488182 0.488182
0.500771 0.500771 0.500771
0.510216 0.510216 0.510216
0.517266 0.517266 0.517266
0.522454 0.522454 0.522454
0.526268 0.526268 0.526268
0.52903 0.52903 0.52903
0.53106 0.53106 0.53106
0.53257 0.53257 0.53257
0.533608 0.533608 0.533608
0.53431 0.53431 0.53431
0.534783 0.534783 0.534783
0.535149 0.535149 0.535149
0.535424 0.535424 0.535424
0 0.075227 0.0112917
0 0.0766003 0.00956741
0 0.0791943 0.00900282
0 0.0827649 0.00505074
0 0.0874495 0
0.00125124 0.0832074 0
0.0615244 0.0788434 0
0.143297 0.0749981 0
0.243809 0.0784466 0
0.362203 0.0966201 0
0.476234 0.13724 0
0.515602 0.207279 0
0.380957 0.292088 0.202075
0.349035 0.349035 0.349035
0.388052 0.388052 0.388052
0.418692 0.418692 0.418692
0.439857 0.439857 0.439857
0.458213 0.458213 0.458213
0.474617 0.474617 0.474617
0.488182 0.488182 0.488182
0.500755 0.500755 0.500755
0.510216 0.510216 0.510216
0.51725 0.51725 0.51725
0.522438 0.522438 0.522438
0.526253 0.526253 0.526253
0.529015 0.529015 0.529015
0.531044 0.531044 0.531044
0.53257 0.53257 0.53257
0.533608 0.533608 0.533608
0.53431 0.53431 0.53431
0.534783 0.534783 0.534783
0.535149 0.535149 0.535149
0.535409 0.535409 0.535409
0 0.117891 0.0214542
0 0.119783 0.0207523
0 0.122942 0.0215152
0 0.126635 0.0192874
0 0.130648 0.0114137
0 0.135561 0
0.0166629 0.126284 0
0.0973983 0.12018 0
0.201007 0.116335 0
0.322271 0.122667 0
0.449714 0.148425 0
0.507774 0.204913 0
0.417182 0.28574 0.145083
0.34931 0.34931 0.34931
0.391211 0.391211 0.391211
0.423651 0.423651 0.423651
0.447868 0.447868 0.447868
0.465095 0.465095 0.465095
0.48484 0.48484 0.48484
0.498039 0.498039 0.498039
0.503731 0.503731 0.503731
0.510201 0.510201 0.510201
0.517235 0.517235 0.517235
0.522423 0.522423 0.522423
0.526238 0.526238 0.526238
0.529 0.529 0.529
0.531029 0.531029 0.531029
0.532555 0.532555 0.532555
0.533593 0.533593 0.533593
0.534295 0.534295 0.534295
0.534783 0.534783 0.534783
0.535134 0.535134 0.535134
0.535409 0.535409 0.535409
0 0.171344 0.046952
0 0.173693 0.0476234
0 0.177295 0.0500191
0 0.181735 0.050309
0 0.186297 0.0457465
0 0.190127 0.0330968
0 0.193713 0.00759899
0.0404212 0.181186 0.00773632
0.145953 0.173602 0
0.270802 0.16936 0
0.408576 0.177188 0
0.50399 0.210269 0
0.459419 0.278447 0.0687572
0.350027 0.350027 0.350027
0.392844 0.392844 0.392844
0.427329 0.427329 0.427329
0.453712 0.453712 0.453712
0.473854 0.473854 0.473854
0.490349 0.490349 0.490349
0.506569 0.506569 0.506569
0.518059 0.518059 0.518059
0.5243 0.5243 0.5243
0.525399 0.525399 0.525399
0.522789 0.522789 0.522789
0.526223 0.526223 0.526223
0.528984 0.528984 0.528984
0.531014 0.531014 0.531014
0.532525 0.532525 0.532525
0.533578 0.533578 0.533578
0.534279 0.534279 0.534279
0.534768 0.534768 0.534768
0.535134 0.535134 0.535134
0.535393 0.535393 0.535393
0 0.235126 0.0961471
0 0.237797 0.0982376
0 0.242313 0.10309
0 0.247807 0.106706
0 0.253147 0.10634
0 0.257359 0.0992447
0 0.260441 0.0817884
0 0.263462 0.0476844
0.0769055 0.248493 0.0477607
0.209232 0.239124 0
0.349935 0.235828 0
0.489128 0.245151 0
0.51931 0.283894 0
0.419257 0.347082 0.255573
0.396719 0.396719 0.396719
0.430991 0.430991 0.430991
0.458717 0.458717 0.458717
0.480491 0.480491 0.480491
0.497551 0.497551 0.497551
0.511498 0.511498 0.511498
0.525017 0.525017 0.525017
0.534844 0.534844 0.534844
0.541146 0.541146 0.541146
0.545174 0.545174 0.545174
0.546685 0.546685 0.546685
0.546914 0.546914 0.546914
0.545922 0.545922 0.545922
0.544396 0.544396 0.544396
0.54258 0.54258 0.54258
0.540902 0.540902 0.540902
0.539666 0.539666 0.539666
0.538735 0.538735 0.538735
0.537987 0.537987 0.537987
0 0.307637 0.159182
0 0.311223 0.162707
0 0.316365 0.1682
0 0.323156 0.174136
0 0.330037 0.177829
0 0.335363 0.176577
0 0.339345 0.169665
0 0.341863 0.154299
0 0.342962 0.123461
0.13753 0.327504 0.11957
0.284764 0.318151 0.0595407
0.436011 0.315419 0
0.562387 0.325795 0
0.554589 0.361074 0.078584
0.467216 0.410971 0.334554
0.449088 0.449088 0.449088
0.475898 0.475898 0.475898
0.49807 0.49807 0.49807
0.515297 0.515297 0.515297
0.528664 0.528664 0.528664
0.538491 0.538491 0.538491
0.545403 0.545403 0.545403
0.551415 0.551415 0.551415
0.555795 0.555795 0.555795
0.559014 0.559014 0.559014
0.561334 0.561334 0.561334
0.563317 0.563317 0.563317
0.564828 0.564828 0.564828
0.56556 0.56556 0.56556
0.566079 0.566079 0.566079
0.566445 0.566445 0.566445
0.566735 0.566735 0.566735
0.566918 0.566918 0.566918
0 0.381216 0.229129
0 0.385824 0.233219
0 0.392752 0.239719
0 0.401862 0.247166
0 0.411307 0.253269
0 0.419348 0.256092
0 0.425635 0.255467
0 0.429084 0.248585
0.00457771 0.43032 0.234272
0.0579232 0.429877 0.208484
0.220005 0.41561 0.202655
0.374182 0.40734 0.15227
0.522393 0.406302 0.0682994
0.641993 0.414893 0.00292973
0.661707 0.438895 0.0965133
0.613993 0.473564 0.275013
0.570397 0.50634 0.420523
0.546029 0.533196 0.516701
0.552148 0.552148 0.552148
0.565332 0.565332 0.565332
0.575433 0.575433 0.575433
0.582406 0.582406 0.582406
0.587045 0.587045 0.587045
0.589944 0.589944 0.589944
0.591562 0.591562 0.591562
0.592477 0.592477 0.592477
0.593256 0.593256 0.593256
0.593484 0.593484 0.593484
0.593561 0.593561 0.593561
0.593637 0.593637 0.593637
0.593652 0.593652 0.593652
0.593774 0.593774 0.593774
0.593927 0.593927 0.593927
0 0.451194 0.301442
0 0.457847 0.306813
0 0.466804 0.314031
0 0.478843 0.322911
0 0.491432 0.330922
0 0.502464 0.336095
0 0.511666 0.338491
0 0.517662 0.336736
0.0409552 0.520409 0.330205
0.0975357 0.519814 0.316503
0.161654 0.520439 0.289113
0.326085 0.505577 0.28864
0.471656 0.501518 0.242222
0.602228 0.503227 0.197604
0.711833 0.510964 0.151751
0.784039 0.524224 0.142306
0.818601 0.541238 0.172122
0.833829 0.55935 0.218357
0.842268 0.576013 0.263432
0.845716 0.589471 0.301869
0.845228 0.600137 0.335012
0.841703 0.608759 0.364538
0.834897 0.615305 0.390661
0.827283 0.620142 0.412818
0.819806 0.623621 0.430976
0.812451 0.626215 0.446265
0.806149 0.628107 0.458274
0.801038 0.629374 0.467247
0.796826 0.63035 0.474311
0.793591 0.631052 0.479606
0.791241 0.631495 0.483238
0.789364 0.631815 0.485985
0.7879 0.632074 0.488167
0 0.52221 0.373388
0 0.529473 0.378683
0 0.539651 0.386023
0 0.553201 0.395132
0 0.567422 0.4038
0 0.580804 0.410895
0.00799573 0.592218 0.415671
0.0513924 0.599908 0.416663
0.104143 0.604288 0.414725
0.150011 0.605386 0.407935
0.203235 0.60499 0.391821
0.287526 0.606897 0.365209
0.446036 0.592477 0.371374
0.57026 0.594705 0.328649
0.673548 0.598962 0.308583
0.756634 0.607691 0.290364
0.820493 0.618524 0.281483
0.867414 0.63003 0.282933
0.901244 0.640909 0.290562
0.926238 0.650217 0.299977
0.944854 0.657649 0.309331
0.959426 0.663554 0.3187
0.970504 0.667262 0.326207
0.979385 0.669947 0.332769
0.986252 0.671595 0.337957
0.991241 0.672572 0.341817
0.995178 0.673091 0.344854
0.998077 0.673381 0.347112
1 0.673503 0.348745
1 0.673564 0.349874
1 0.673579 0.350774
1 0.673594 0.3514
1 0.673594 0.351843
0 0.594171 0.439582
0 0.602502 0.445487
0 0.613306 0.452888
0.00207523 0.627268 0.462104
0.0258946 0.64152 0.471031
0.0570993 0.654688 0.478706
0.0955062 0.665324 0.48423
0.13463 0.673152 0.487724
0.171542 0.678019 0.488411
0.206516 0.679728 0.484627
0.256489 0.681102 0.473426
0.319631 0.685161 0.449592
0.444175 0.677958 0.44715
0.564782 0.672679 0.443275
0.661067 0.679652 0.410636
0.73724 0.686168 0.403265
0.795407 0.695079 0.398718
0.839506 0.705043 0.399451
0.872374 0.714794 0.405097
0.896895 0.72372 0.414603
0.914885 0.731304 0.425544
0.92874 0.737575 0.436545
0.939025 0.741924 0.445396
0.946975 0.745373 0.453223
0.953109 0.747784 0.459434
0.957687 0.749126 0.463478
0.961105 0.75024 0.466911
0.963638 0.751034 0.469505
0.965591 0.751553 0.471427
0.96701 0.751919 0.472786
0.968032 0.752178 0.473793
0.968795 0.752346 0.47451
0.969345 0.752453 0.474983
0.0392615 0.666621 0.500282
0.0493935 0.673961 0.505531
0.066041 0.68426 0.512886
0.0905318 0.696437 0.521462
0.119402 0.708125 0.52987
0.147555 0.718303 0.537255
0.175967 0.727306 0.543679
0.20412 0.734386 0.548089
0.231647 0.739162 0.549981
0.266407 0.742184 0.547066
0.315312 0.745144 0.537316
0.373373 0.749813 0.517876
0.466789 0.748409 0.506996
0.582223 0.740353 0.513237
0.669062 0.74287 0.501762
0.737743 0.751049 0.481529
0.789441 0.758816 0.485298
0.828229 0.767758 0.493721
0.857084 0.777096 0.506645
0.878477 0.785946 0.521981
0.894102 0.793576 0.537179
0.905379 0.799802 0.550774
0.914031 0.804974 0.562936
0.920348 0.808637 0.572213
0.925093 0.811688 0.580163
0.928481 0.813993 0.586343
0.930983 0.815305 0.590249
0.932921 0.81651 0.593683
0.934295 0.81738 0.596231
0.935317 0.818006 0.598108
0.936019 0.818448 0.599435
0.936553 0.818769 0.600412
0.936919 0.818967 0.601053
0.127489 0.730907 0.553735
0.139055 0.736461 0.558434
0.155032 0.743755 0.564721
0.17525 0.752346 0.572213
0.196124 0.761318 0.579934
0.217502 0.76994 0.587152
0.239368 0.777722 0.593347
0.261616 0.784039 0.597848
0.289815 0.789014 0.598871
0.328038 0.792981 0.595026
0.376501 0.79675 0.585
0.430549 0.801923 0.566827
0.514565 0.800885 0.558175
0.616999 0.792721 0.566552
0.694423 0.793561 0.565438
0.753902 0.800336 0.560586
0.800641 0.809567 0.5617
0.834684 0.817884 0.576593
0.860304 0.826734 0.593866
0.879362 0.835279 0.612711
0.89305 0.842741 0.630594
0.902892 0.848875 0.646357
0.910048 0.853803 0.659678
0.915419 0.857969 0.67126
0.919295 0.861021 0.679774
0.922271 0.863416 0.686275
0.924453 0.865263 0.691295
0.926009 0.866621 0.695018
0.927169 0.867597 0.697765
0.928008 0.868315 0.699779
0.928557 0.868742 0.70106
0.928923 0.869001 0.701854
0.929183 0.869184 0.702388
0.198779 0.784726 0.602335
0.20795 0.789197 0.606516
0.220752 0.795178 0.6121
0.236347 0.801938 0.618433
0.25333 0.808606 0.624674
0.27068 0.814298 0.629969
0.291249 0.819089 0.633967
0.318898 0.823209 0.635416
0.352361 0.827787 0.634562
0.393286 0.831601 0.629877
0.441886 0.835966 0.621057
0.492866 0.842023 0.606577
0.576501 0.838972 0.60856
0.663966 0.832929 0.62031
0.730007 0.833463 0.625635
0.781689 0.839658 0.631022
0.821683 0.849119 0.634867
0.851652 0.857572 0.650721
0.874052 0.865782 0.670695
0.89102 0.87393 0.691493
0.903441 0.881102 0.710475
0.912428 0.887007 0.726665
0.918975 0.891768 0.740047
0.923949 0.895827 0.751461
0.927398 0.898817 0.760067
0.930022 0.901198 0.766995
0.93196 0.903029 0.772274
0.933379 0.904387 0.776181
0.934371 0.905364 0.77908
0.935042 0.905959 0.780743
0.935485 0.906355 0.781872
0.935882 0.906722 0.782895
0.936141 0.906966 0.783566
0.254353 0.826642 0.64184
0.261952 0.830274 0.645411
0.272984 0.835126 0.650233
0.285527 0.839902 0.65507
0.300404 0.844297 0.659373
0.320562 0.848188 0.662821
0.34757 0.851484 0.665461
0.380957 0.854307 0.666697
0.421225 0.857023 0.666331
0.46566 0.860548 0.663844
0.513237 0.865583 0.658717
0.560449 0.872297 0.649592
0.640681 0.867872 0.660807
0.714427 0.864256 0.675181
0.770459 0.865904 0.685389
0.812284 0.871 0.692515
0.846342 0.879408 0.705104
0.873365 0.88893 0.717418
0.89276 0.896498 0.737972
0.907591 0.90396 0.758358
0.918853 0.910842 0.777371
0.92726 0.916747 0.79379
0.933242 0.921263 0.806531
0.937621 0.924819 0.816632
0.940978 0.927794 0.824994
0.943404 0.929992 0.831281
0.945113 0.931579 0.835828
0.946441 0.93286 0.839445
0.947387 0.933806 0.8421
0.948074 0.934493 0.844053
0.948562 0.934981 0.845457
0.948913 0.935347 0.846479
0.949142 0.935576 0.847135
0.299138 0.856962 0.671885
0.306828 0.85951 0.674723
0.318196 0.862516 0.678233
0.333852 0.865644 0.682155
0.354864 0.868727 0.686381
0.381277 0.871672 0.690486
0.412055 0.874174 0.693721
0.449104 0.876905 0.696696
0.49131 0.879835 0.698619
0.53637 0.883268 0.699077
0.582055 0.888014 0.69752
0.626398 0.895567 0.694362
0.700313 0.890608 0.711437
0.761654 0.888914 0.726772
0.808316 0.891646 0.738674
0.844114 0.897047 0.74931
0.87158 0.903822 0.761364
0.894896 0.91284 0.775692
0.912139 0.920501 0.794522
0.925109 0.927398 0.813794
0.935164 0.933837 0.8318
0.942718 0.9393 0.847013
0.948425 0.943832 0.859602
0.952422 0.947158 0.868894
0.955474 0.949874 0.876417
0.957565 0.951751 0.881666
0.959213 0.953307 0.885969
0.960433 0.954467 0.889189
0.961318 0.955337 0.891539
0.961959 0.955962 0.893263
0.962341 0.956344 0.894331
0.9626 0.956588 0.895033
0.962783 0.956771 0.895537
0.34789 0.877119 0.695796
0.359686 0.879057 0.699031
0.374426 0.881102 0.702647
0.393286 0.88333 0.706828
0.417456 0.885832 0.71162
0.446143 0.88835 0.716564
0.479454 0.891005 0.721477
0.515785 0.893645 0.725612
0.55697 0.896956 0.729747
0.600534 0.901076 0.733333
0.643778 0.906279 0.73547
0.686748 0.912276 0.737713
0.751339 0.90869 0.756619
0.802319 0.908721 0.771832
0.841749 0.912154 0.784772
0.872175 0.917601 0.796994
0.895308 0.923842 0.809598
0.914031 0.931105 0.823026
0.92961 0.938949 0.840009
0.941314 0.945663 0.858686
0.95021 0.951583 0.875196
0.956939 0.956603 0.889067
0.96202 0.960739 0.900389
0.965774 0.963943 0.909148
0.968627 0.966522 0.916136
0.970703 0.968444 0.921279
0.972061 0.969711 0.924727
0.973159 0.970764 0.927535
0.973938 0.971527 0.92958
0.974517 0.972091 0.931075
0.974914 0.972488 0.932143
0.975219 0.972778 0.932921
0.975387 0.972961 0.933394
0.40528 0.890929 0.718151
0.417685 0.892378 0.721386
0.434287 0.894179 0.725505
0.454612 0.896193 0.73022
0.478676 0.898375 0.735332
0.507027 0.900786 0.740887
0.540002 0.903593 0.74699
0.576577 0.906813 0.75314
0.615167 0.910414 0.758831
0.654963 0.914748 0.76405
0.695262 0.920378 0.768978
0.737377 0.925292 0.775967
0.791928 0.923186 0.793866
0.835569 0.924331 0.809125
0.869505 0.928237 0.82266
0.895476 0.933577 0.83534
0.915602 0.939712 0.848676
0.930968 0.945876 0.861234
0.944244 0.952987 0.875517
0.954406 0.95903 0.892287
0.962646 0.964828 0.908186
0.968826 0.969619 0.921218
0.97348 0.973495 0.93167
0.976806 0.97641 0.939483
0.979355 0.978744 0.945647
0.981247 0.980514 0.950301
0.982681 0.981888 0.953887
0.983734 0.982895 0.956512
0.98436 0.983505 0.958114
0.984878 0.984024 0.959442
0.985275 0.984405 0.960449
0.98555 0.984695 0.961166
0.985718 0.984848 0.961578
0.460304 0.900908 0.738552
0.473198 0.902251 0.742031
0.488731 0.903777 0.746044
0.509163 0.905776 0.751186
0.533196 0.908034 0.756985
0.561105 0.910643 0.763378
0.592157 0.913558 0.770047
0.626276 0.91693 0.776944
0.663249 0.920989 0.784176
0.700587 0.925704 0.791058
0.736492 0.931197 0.796933
0.776837 0.935439 0.806836
0.824491 0.934676 0.824414
0.86186 0.936385 0.838834
0.891493 0.940597 0.852522
0.914488 0.946105 0.865904
0.931746 0.951797 0.878691
0.944945 0.957443 0.891051
0.956008 0.963546 0.903151
0.965362 0.969512 0.91902
0.972427 0.974594 0.932799
0.978149 0.979187 0.945113
0.982589 0.983017 0.95523
0.985733 0.98584 0.962646
0.988128 0.988067 0.968429
0.989731 0.989578 0.972335
0.990997 0.990799 0.975448
0.991913 0.991699 0.977722
0.992569 0.99234 0.979355
0.992935 0.992706 0.98027
0.993286 0.993042 0.98114
0.99353 0.993301 0.981765
0.993683 0.993439 0.982132
0.507958 0.908492 0.756466
0.520562 0.909804 0.760052
0.536126 0.911391 0.764401
0.555596 0.913375 0.769711
0.578027 0.915602 0.775525
0.604044 0.918212 0.782055
0.633921 0.921355 0.789364
0.666743 0.925017 0.797192
0.70074 0.929152 0.804913
0.735302 0.933928 0.812482
0.769772 0.939757 0.820279
0.806897 0.943297 0.831037
0.848615 0.943236 0.847456
0.882597 0.945815 0.86247
0.908919 0.95024 0.876127
0.928618 0.955261 0.88838
0.944137 0.960876 0.901274
0.956085 0.966369 0.913909
0.965286 0.971572 0.9243
0.973342 0.976883 0.937896
0.980133 0.981994 0.951568
0.985504 0.986419 0.963302
0.989425 0.989868 0.97232
0.992386 0.992569 0.979309
0.994492 0.994553 0.984375
0.996139 0.996155 0.988418
0.997253 0.997238 0.991119
0.998154 0.998123 0.993423
0.998795 0.998779 0.995026
0.999268 0.999252 0.99617
0.999619 0.999573 0.996994
1 0.999329 0.998062
1 0.999252 0.998611
0.547677 0.914504 0.771847
0.559625 0.915785 0.775464
0.573816 0.917281 0.779538
0.591623 0.919158 0.784619
0.613703 0.921538 0.790875
0.639063 0.924331 0.797879
0.66743 0.927596 0.805524
0.697765 0.931243 0.813336
0.729778 0.935454 0.821469
0.762585 0.940368 0.829801
0.794095 0.945983 0.837736
0.829328 0.949248 0.849439
0.867613 0.950011 0.865782
0.898177 0.952895 0.880308
0.921324 0.957061 0.892897
0.939727 0.962356 0.905852
0.953857 0.967849 0.918654
0.964416 0.972946 0.930541
0.972686 0.977829 0.940703
0.979675 0.982559 0.95256
0.985962 0.987427 0.965454
0.990784 0.991501 0.97612
0.994507 0.994827 0.984741
0.997314 0.997436 0.991409
0.999481 0.999527 0.996735
1 1 1
1 1 1
1 1 1
1 1 1
1 1 1
1 1 1
1 1 1
1 1 1
0.577874 0.919051 0.783948
0.588434 0.920211 0.787167
0.602762 0.921798 0.791547
0.619944 0.923705 0.796719
0.641581 0.926223 0.803296
0.665583 0.92903 0.810269
0.692103 0.932235 0.817761
0.721035 0.935958 0.825788
0.752056 0.940337 0.834501
0.783108 0.945251 0.843183
0.812238 0.950637 0.850996
0.846281 0.953841 0.863539
0.881514 0.955032 0.879362
0.909346 0.958007 0.893187
0.930938 0.962341 0.905898
0.948028 0.96762 0.918837
0.960815 0.972824 0.930999
0.97055 0.977737 0.94258
0.978347 0.982559 0.953017
0.984314 0.986679 0.96318
0.990082 0.991226 0.975174
0.994659 0.995148 0.985397
0.998352 0.99852 0.994141
1 1 1
1 1 1
1 1 1
1 1 1
1 1 1
1 1 1
1 1 1
1 1 1
1 1 1
1 1 1
0.600656 0.922484 0.793301
0.611627 0.923766 0.796841
0.624994 0.925292 0.801053
0.641733 0.92726 0.806287
0.662196 0.929717 0.81268
0.684855 0.932479 0.819486
0.710369 0.935714 0.827008
0.738659 0.939544 0.835401
0.768322 0.943923 0.84419
0.797665 0.94873 0.852781
0.826276 0.954223 0.861387
0.858671 0.957244 0.873945
0.891402 0.958618 0.889067
0.917586 0.961761 0.902678
0.938308 0.966384 0.915846
0.953918 0.971359 0.928023
0.96585 0.976394 0.939864
0.975174 0.981323 0.951537
0.982483 0.985977 0.961868
0.987884 0.989792 0.971267
0.993072 0.993942 0.982147
0.997559 0.997848 0.992325
1 1 1
1 1 1
1 1 1
1 1 1
1 1 1
1 1 1
1 1 1
1 1 1
1 1 1
1 1 1
1 1 1
0.617792 0.925093 0.800488
0.628595 0.92639 0.804044
0.641428 0.927916 0.808194
0.658106 0.929946 0.813611
0.677012 0.932265 0.819547
0.698894 0.935012 0.826291
0.723949 0.938323 0.833997
0.751492 0.942184 0.842496
0.779904 0.946487 0.851179
