public/textures/grade/Arri/Gems-LogC4.cube
TITLE "Generated by Resolve"
LUT_3D_SIZE 5
0 0 0.00798047
0.309651 0.0205997 0
0.42472 0.42472 0.42472
0.526284 0.526284 0.526284
0.535439 0.535439 0.535439
0 0.171344 0.046952
0.145953 0.173602 0
0.453712 0.453712 0.453712
0.526223 0.526223 0.526223
0.535393 0.535393 0.535393
0.127489 0.730907 0.553735
0.289815 0.789014 0.598871
0.800641 0.809567 0.5617
0.919295 0.861021 0.679774
0.929183 0.869184 0.702388
0.547677 0.914504 0.771847
0.729778 0.935454 0.821469
0.953857 0.967849 0.918654
0.999481 0.999527 0.996735
1 1 1
0.655589 0.931014 0.816815
0.804807 0.952117 0.866529
0.977722 0.984771 0.960571
1 1 1
1 1 1
0 0 0.333211
0.197269 0.0812695 0.357794
0.458717 0.458717 0.458717
0.537926 0.537926 0.537926
0.548608 0.548608 0.548608
0 0.174182 0.298024
0.164248 0.191379 0.240986
0.499382 0.499382 0.499382
0.53785 0.53785 0.53785
0.548516 0.548516 0.548516
0.194156 0.755901 0.60502
0.345235 0.810849 0.654185
0.824598 0.833127 0.639551
0.931197 0.873487 0.733684
0.939467 0.879606 0.750332
0.626917 0.919707 0.829496
0.791775 0.944686 0.876631
0.972808 0.981414 0.956893
1 1 1
1 1 1
0.723583 0.937835 0.86772
0.856519 0.961028 0.911711
0.993378 0.995834 0.988952
1 1 1
1 1 1
0.0164645 0.0164645 0.0164645
0.115648 0.119356 0.171496
0.803647 0.57847 0.990478
0.996811 0.707424 0.91545
1 0.714504 0.915923
0.0999619 0.0999619 0.0999619
0.15462 0.226047 0.476188
0.821347 0.619608 0.994141
0.996307 0.721019 0.928481
1 0.714473 0.915846
0.325734 0.703075 0.783795
0.374685 0.8309 0.960449
0.859709 0.866819 0.879377
0.95108 0.903639 0.899763
0.957107 0.90901 0.905684
0.664576 0.940139 0.990173
0.844266 0.96318 0.985992
0.992264 0.994842 0.995117
1 1 1
1 1 1
0.773266 0.956664 0.992248
0.904448 0.976989 0.990967
1 1 1
1 1 1
1 1 1
0.129641 0.129641 0.129641
0.23183 0.253086 0.313619
0.79649 0.582666 1
0.972625 0.735546 1
0.986099 0.737957 1
0.201205 0.201205 0.201205
0.280751 0.346685 0.459068
0.786114 0.616724 1
0.944366 0.744442 1
0.959457 0.749371 1
0.626413 0.626413 0.626413
0.414664 0.838499 1
0.881621 0.892531 0.941573
0.944839 0.932845 0.955673
0.950027 0.937926 0.957885
0.67628 0.9364 1
0.884123 0.967987 0.99884
1 1 1
1 1 1
1 1 1
0.777615 0.953277 1
0.931792 0.98088 0.998764
1 1 1
1 1 1
1 1 1
0.166476 0.166476 0.166476
0.262837 0.293324 0.359304
0.791836 0.595605 1
0.952529 0.730068 1
0.982498 0.747829 1
0.229267 0.229267 0.229267
0.315221 0.378058 0.46772
0.783276 0.634211 1
0.936355 0.753796 1
0.951431 0.758755 1
0.638086 0.638086 0.638086
0.42501 0.844083 1
0.887465 0.899001 0.947097
0.94844 0.937743 0.961074
0.953552 0.942824 0.963195
0.684108 0.937667 1
0.887449 0.969055 1
1 1 1
1 1 1
1 1 1
0.763622 0.951125 1
0.933486 0.981414 0.999756
1 1 1
1 1 1
1 1 1
