public/textures/grade/Arri/Gems-LogC4.cube
TITLE "Generated by Resolve"
LUT_3D_SIZE 9
0 0 0.00798047
0.051606 0 0
0.309651 0.0205997 0
0.330388 0.296544 0.265263
0.42472 0.42472 0.42472
0.500786 0.500786 0.500786
0.526284 0.526284 0.526284
0.533623 0.533623 0.533623
0.535439 0.535439 0.535439
0 0.0289311 0.00901808
0.0193027 0.0295109 0
0.2934 0.0378271 0
0.337453 0.298329 0.26125
0.424674 0.424674 0.424674
0.500771 0.500771 0.500771
0.526268 0.526268 0.526268
0.533608 0.533608 0.533608
0.535424 0.535424 0.535424
0 0.171344 0.046952
0 0.186297 0.0457465
0.145953 0.173602 0
0.459419 0.278447 0.0687572
0.453712 0.453712 0.453712
0.518059 0.518059 0.518059
0.526223 0.526223 0.526223
0.533578 0.533578 0.533578
0.535393 0.535393 0.535393
0 0.451194 0.301442
0 0.491432 0.330922
0.0409552 0.520409 0.330205
0.471656 0.501518 0.242222
0.818601 0.541238 0.172122
0.845228 0.600137 0.335012
0.819806 0.623621 0.430976
0.796826 0.63035 0.474311
0.7879 0.632074 0.488167
0.127489 0.730907 0.553735
0.196124 0.761318 0.579934
0.289815 0.789014 0.598871
0.514565 0.800885 0.558175
0.800641 0.809567 0.5617
0.89305 0.842741 0.630594
0.919295 0.861021 0.679774
0.927169 0.867597 0.697765
0.929183 0.869184 0.702388
0.34789 0.877119 0.695796
0.417456 0.885832 0.71162
0.55697 0.896956 0.729747
0.751339 0.90869 0.756619
0.895308 0.923842 0.809598
0.95021 0.951583 0.875196
0.968627 0.966522 0.916136
0.973938 0.971527 0.92958
0.975387 0.972961 0.933394
0.547677 0.914504 0.771847
0.613703 0.921538 0.790875
0.729778 0.935454 0.821469
0.867613 0.950011 0.865782
0.953857 0.967849 0.918654
0.985962 0.987427 0.965454
0.999481 0.999527 0.996735
1 1 1
1 1 1
0.631113 0.927153 0.806165
0.688319 0.934234 0.824887
0.788693 0.94847 0.85655
0.903929 0.963195 0.901442
0.972442 0.981048 0.9514
0.996963 0.997452 0.99115
1 1 1
1 1 1
1 1 1
0.655589 0.931014 0.816815
0.709422 0.937972 0.834989
0.804807 0.952117 0.866529
0.914031 0.966949 0.911513
0.977722 0.984771 0.960571
1 0.99942 0.999664
1 1 1
1 1 1
1 1 1
0 0 0.071046
0.0249638 0.00590524 0.0713054
0.313436 0.0153353 0
0.315435 0.289509 0.267124
0.435172 0.435172 0.435172
0.50454 0.50454 0.50454
0.52874 0.52874 0.52874
0.535485 0.535485 0.535485
0.537194 0.537194 0.537194
0 0.0300755 0.0821393
0.0230106 0.0327459 0.052491
0.294255 0.0464637 0
0.33846 0.29366 0.254124
0.435126 0.435126 0.435126
0.504524 0.504524 0.504524
0.528725 0.528725 0.528725
0.53547 0.53547 0.53547
0.537194 0.537194 0.537194
0 0.176822 0.109255
0 0.19173 0.110063
0.153719 0.183032 0.0324865
0.509468 0.281331 0.0393378
0.466514 0.466514 0.466514
0.52311 0.52311 0.52311
0.528695 0.528695 0.528695
0.535439 0.535439 0.535439
0.537163 0.537163 0.537163
0 0.465522 0.327138
0 0.503609 0.355108
0.0784924 0.532311 0.3579
0.486564 0.516838 0.275044
0.84506 0.55201 0.191897
0.87689 0.6047 0.327596
0.861753 0.624292 0.408911
0.846952 0.629389 0.443458
0.841062 0.630655 0.454292
0.149676 0.740246 0.566125
0.213443 0.770581 0.592782
0.306432 0.797986 0.61091
0.534844 0.811048 0.574487
0.811032 0.819669 0.58616
0.897337 0.848508 0.65156
0.922805 0.865125 0.694606
0.930083 0.870832 0.710475
0.932097 0.87248 0.71516
0.358312 0.878859 0.700648
0.429816 0.887495 0.717479
0.571725 0.899382 0.738415
0.762554 0.913008 0.768597
0.905699 0.931151 0.831769
0.955184 0.956405 0.891051
0.971237 0.969284 0.925292
0.975952 0.973709 0.936828
0.977279 0.975006 0.940139
0.547402 0.914473 0.771771
0.61355 0.921523 0.790829
0.729732 0.935454 0.821469
0.869871 0.950835 0.868193
0.958434 0.971023 0.927275
0.990829 0.991821 0.977478
1 1 1
1 1 1
1 1 1
0.630884 0.927123 0.806088
0.688197 0.934218 0.824857
0.788663 0.948455 0.85655
0.903929 0.963195 0.901442
0.974945 0.982788 0.955901
1 1 1
1 1 1
1 1 1
1 1 1
0.655375 0.930983 0.816739
0.7093 0.937957 0.834958
0.804776 0.952102 0.866529
0.914031 0.966949 0.911513
0.979477 0.985992 0.963729
1 1 1
1 1 1
1 1 1
1 1 1
0 0 0.333211
0.000762951 0 0.331533
0.197269 0.0812695 0.357794
0.628092 0.25243 0.0780346
0.458717 0.458717 0.458717
0.512108 0.512108 0.512108
0.537926 0.537926 0.537926
0.546273 0.546273 0.546273
0.548608 0.548608 0.548608
0 0.00389105 0.317281
0 0.0213626 0.31632
0.194141 0.104189 0.342199
0.665278 0.260838 0.0733806
0.458701 0.458701 0.458701
0.512108 0.512108 0.512108
0.537911 0.537911 0.537911
0.546258 0.546258 0.546258
0.548577 0.548577 0.548577
0 0.174182 0.298024
0 0.189654 0.314519
0.164248 0.191379 0.240986
0.68191 0.27541 0.0407721
0.499382 0.499382 0.499382
0.544198 0.544198 0.544198
0.53785 0.53785 0.53785
0.546166 0.546166 0.546166
0.548516 0.548516 0.548516
0 0.475776 0.392065
0 0.512459 0.417899
0.145357 0.541939 0.423545
0.49778 0.531731 0.344594
0.884474 0.563928 0.242664
0.962173 0.608133 0.328435
0.986603 0.620783 0.379156
0.992035 0.622248 0.399237
0.993164 0.622293 0.405646
0.194156 0.755901 0.60502
0.251774 0.784756 0.631205
0.345235 0.810849 0.654185
0.546471 0.829908 0.615503
0.824598 0.833127 0.639551
0.907591 0.858869 0.697093
0.931197 0.873487 0.733684
0.937682 0.878233 0.746487
0.939467 0.879606 0.750332
0.427359 0.880262 0.750591
0.50396 0.890242 0.773251
0.633463 0.906828 0.798108
0.787915 0.929885 0.815045
0.920653 0.942901 0.871458
0.963104 0.964096 0.91696
0.976486 0.974701 0.942428
0.980529 0.978485 0.951339
0.981674 0.979614 0.953979
0.626917 0.919707 0.829496
0.68925 0.928496 0.8486
0.791775 0.944686 0.876631
0.898604 0.965118 0.908202
0.972808 0.981414 0.956893
0.99733 0.997726 0.992966
1 1 1
1 1 1
1 1 1
0.702083 0.933684 0.859052
0.754726 0.942 0.876371
0.842313 0.957366 0.903792
0.932143 0.976272 0.93756
0.988922 0.992706 0.98201
1 1 1
1 1 1
1 1 1
1 1 1
0.723583 0.937835 0.86772
0.7729 0.945891 0.884306
0.856519 0.961028 0.911711
0.941176 0.979355 0.945602
0.993378 0.995834 0.988952
1 1 1
1 1 1
1 1 1
1 1 1
0 0 0.257023
0 0 0.328984
0.115511 0.0469673 0.601633
0.558129 0.365026 0.801083
1 0.472282 0.532204
1 0.506065 0.486763
1 0.539467 0.515602
1 0.547173 0.525612
1 0.548943 0.528496
0 0.00392157 0.316167
0 0.0247807 0.39942
0.122423 0.0818494 0.659434
0.561486 0.379019 0.79675
1 0.479011 0.539712
1 0.506065 0.486717
1 0.539483 0.515587
1 0.547189 0.525567
1 0.548959 0.52845
0 0.0833906 0.391363
0 0.126284 0.497932
0.0910353 0.185611 0.681651
0.531319 0.385748 0.74461
1 0.511116 0.557595
1 0.539681 0.529198
1 0.540352 0.51722
1 0.547234 0.52546
1 0.549004 0.528328
0.293965 0.293965 0.293965
0.227176 0.385031 0.417594
0.0556039 0.540505 0.678462
0.515938 0.549157 0.608576
0.909239 0.591882 0.530938
1 0.629892 0.552605
1 0.641688 0.581369
1 0.643183 0.594141
1 0.643488 0.598474
0.219669 0.701946 0.680949
0.213687 0.762219 0.741115
0.274113 0.824903 0.800198
0.621042 0.826535 0.767025
0.839567 0.848463 0.754482
0.923033 0.872541 0.790326
0.944808 0.885573 0.814206
0.950744 0.89012 0.823255
0.952224 0.891386 0.825895
0.354284 0.893278 0.872297
0.449882 0.90901 0.892378
0.629725 0.923247 0.904067
0.829877 0.933639 0.897627
0.932616 0.954162 0.920226
0.971801 0.972549 0.949783
0.983459 0.981826 0.966903
0.986862 0.985061 0.972839
0.987778 0.985992 0.974517
0.608225 0.937316 0.927932
0.684077 0.945541 0.93698
0.80499 0.95761 0.946258
0.925139 0.971267 0.953841
0.982803 0.989273 0.980102
1 1 1
1 1 1
1 1 1
1 1 1
0.699886 0.950439 0.943694
0.760067 0.957351 0.950713
0.858701 0.968551 0.959777
0.953689 0.982452 0.971191
0.997345 0.999374 0.998154
1 1 1
1 1 1
1 1 1
1 1 1
0.725032 0.954101 0.947936
0.781247 0.960739 0.954604
0.873457 0.971649 0.963623
0.961746 0.985626 0.976165
1 1 1
1 1 1
1 1 1
1 1 1
1 1 1
0.0164645 0.0164645 0.0164645
0.0386664 0.0386664 0.0386664
0.115648 0.119356 0.171496
0.375189 0.281453 0.651987
0.803647 0.57847 0.990478
0.937758 0.696208 0.917418
0.996811 0.707424 0.91545
1 0.71313 0.915587
1 0.714504 0.915923
0.0344396 0.0344396 0.0344396
0.0605478 0.0605478 0.0605478
0.131823 0.145251 0.26566
0.40209 0.293339 0.746487
0.814862 0.595605 0.99765
0.937789 0.696193 0.917403
0.996811 0.707424 0.915434
1 0.71313 0.915572
1 0.714488 0.915908
0.0999619 0.0999619 0.0999619
0.133532 0.137484 0.145617
0.15462 0.226047 0.476188
0.448997 0.329366 0.936309
0.821347 0.619608 0.994141
0.937713 0.718593 0.927581
0.996307 0.721019 0.928481
1 0.717113 0.920012
1 0.714473 0.915846
0.256687 0.256687 0.256687
0.311116 0.311116 0.311116
0.374273 0.432517 0.478645
0.511666 0.571862 0.899214
0.783429 0.681849 0.896925
0.899413 0.748806 0.866255
0.938735 0.764706 0.875807
0.950912 0.768643 0.88368
0.954376 0.769619 0.886641
0.325734 0.703075 0.783795
0.294133 0.774548 0.8907
0.374685 0.8309 0.960449
0.642588 0.846113 0.925231
0.859709 0.866819 0.879377
0.93225 0.891295 0.888182
0.95108 0.903639 0.899763
0.955886 0.907851 0.904341
0.957107 0.90901 0.905684
0.409735 0.899001 0.975509
0.524758 0.913054 0.981613
0.689616 0.929641 0.976043
0.843427 0.946777 0.96231
0.947265 0.964141 0.960586
0.980117 0.980667 0.976043
0.990051 0.988815 0.985824
0.992813 0.991562 0.989212
0.993912 0.992172 0.990433
0.664576 0.940139 0.990173
0.741253 0.948867 0.988693
0.844266 0.96318 0.985992
0.937682 0.979568 0.984665
0.992264 0.994842 0.995117
1 1 1
1 1 1
1 1 1
1 1 1
0.750408 0.953033 0.991821
0.808316 0.960586 0.990707
0.891249 0.973877 0.989807
0.966613 0.98941 0.99205
1 1 1
1 1 1
1 1 1
1 1 1
1 1 1
0.773266 0.956664 0.992248
0.827329 0.96408 0.991333
0.904448 0.976989 0.990967
0.97406 0.991974 0.994003
1 1 1
1 1 1
1 1 1
1 1 1
1 1 1
0.0678416 0.0678416 0.0678416
0.0889906 0.0889906 0.0889906
0.181994 0.188693 0.221561
0.413352 0.329885 0.76672
0.798886 0.569772 1
0.93373 0.695521 1
0.967041 0.720241 1
0.976349 0.729442 1
0.978653 0.731685 1
0.088777 0.088777 0.088777
0.110445 0.110445 0.110445
0.195102 0.210941 0.275196
0.429831 0.339895 0.838178
0.801984 0.577569 1
0.928923 0.698589 1
0.969284 0.723445 1
0.976349 0.729442 1
0.978653 0.731685 1
0.153933 0.153933 0.153933
0.179019 0.179019 0.179019
0.233982 0.29012 0.42089
0.48101 0.402274 1
0.795239 0.598199 1
0.918593 0.710475 1
0.953628 0.734676 1
0.973693 0.746929 1
0.979828 0.750317 1
0.298756 0.298756 0.298756
0.335744 0.335744 0.335744
0.440772 0.471534 0.497536
0.528786 0.619028 0.983948
0.782666 0.697643 0.999268
0.879911 0.77145 0.963958
0.908705 0.791882 0.962509
0.917693 0.796094 0.966461
0.92018 0.796933 0.968048
0.611292 0.611292 0.611292
0.52578 0.68838 0.744503
0.394476 0.829282 1
0.663859 0.85565 0.999237
0.872282 0.881682 0.928527
0.923445 0.910796 0.93904
0.938781 0.924437 0.942275
0.943084 0.928405 0.944366
0.944259 0.929503 0.945083
0.450187 0.8972 1
0.567758 0.913237 1
0.737972 0.931899 0.99823
0.876051 0.951919 0.981125
0.958343 0.971511 0.977569
0.986984 0.986954 0.987778
0.994812 0.994629 0.995087
0.997497 0.997345 0.997757
0.998138 0.998016 0.998383
0.692012 0.938582 1
0.772976 0.949859 1
0.875456 0.965881 0.994949
0.956664 0.983764 0.992416
0.999695 0.999725 1
1 1 1
1 1 1
1 1 1
1 1 1
0.770748 0.952087 1
0.834592 0.962112 1
0.915846 0.976761 0.996323
0.980255 0.993072 0.99704
1 1 1
1 1 1
1 1 1
1 1 1
1 1 1
0.791333 0.955779 1
0.849592 0.965225 1
0.925704 0.979477 0.996735
0.986236 0.995438 0.99826
1 1 1
1 1 1
1 1 1
1 1 1
1 1 1
0.129641 0.129641 0.129641
0.136278 0.136278 0.136278
0.23183 0.253086 0.313619
0.46215 0.377584 0.94754
0.79649 0.582666 1
0.919982 0.696864 1
0.972625 0.735546 1
0.985504 0.740154 1
0.986099 0.737957 1
0.147051 0.147051 0.147051
0.153841 0.153841 0.153841
0.243717 0.274098 0.350134
0.47599 0.395956 0.988876
0.795071 0.589288 1
0.919448 0.702342 1
0.963745 0.73431 1
0.983825 0.746075 1
0.988067 0.74757 1
0.201205 0.201205 0.201205
0.209491 0.209491 0.209491
0.280751 0.346685 0.459068
0.507485 0.469337 1
0.786114 0.616724 1
0.906386 0.719631 1
0.944366 0.744442 1
0.956161 0.748623 1
0.959457 0.749371 1
0.333944 0.333944 0.333944
0.347936 0.347936 0.347936
0.499229 0.499321 0.499382
0.545785 0.658579 1
0.790799 0.724743 1
0.880156 0.78909 0.977523
0.905653 0.808011 0.973754
0.913146 0.811933 0.976135
0.915251 0.812741 0.977356
0.626413 0.626413 0.626413
0.602869 0.661341 0.681971
0.414664 0.838499 1
0.686244 0.866087 1
0.881621 0.892531 0.941573
0.930205 0.919768 0.952529
0.944839 0.932845 0.955673
0.949035 0.93695 0.957412
0.950027 0.937926 0.957885
0.467506 0.900557 1
0.552926 0.912566 1
0.750652 0.934905 1
0.886015 0.956008 0.98851
0.963989 0.975631 0.983932
0.990738 0.990677 0.992096
0.998306 0.998276 0.998566
1 1 1
1 1 1
0.67628 0.9364 1
0.769406 0.949859 1
0.884123 0.967987 0.99884
0.964263 0.986526 0.995209
1 1 1
1 1 1
1 1 1
1 1 1
1 1 1
0.759609 0.950118 1
0.834333 0.96228 1
0.923873 0.978683 0.998688
0.986618 0.995438 0.998734
1 1 1
1 1 1
1 1 1
1 1 1
1 1 1
0.777615 0.953277 1
0.84773 0.964965 1
0.931792 0.98088 0.998764
0.991592 0.997436 0.999619
1 1 1
1 1 1
1 1 1
1 1 1
1 1 1
0.158022 0.158022 0.158022
0.157687 0.157687 0.157687
0.255085 0.283894 0.350286
0.484199 0.409583 1
0.793072 0.592065 1
0.917952 0.703777 1
0.958572 0.731929 1
0.980896 0.745647 1
0.986648 0.748531 1
0.172915 0.172915 0.172915
0.17261 0.17261 0.17261
0.265827 0.303212 0.380514
0.496635 0.430274 1
0.791089 0.599512 1
0.914961 0.708721 1
0.951202 0.732769 1
0.969512 0.742397 1
0.976425 0.746242 1
0.222599 0.222599 0.222599
0.222354 0.222354 0.222354
0.305745 0.371008 0.468071
0.508797 0.498772 1
0.783871 0.629847 1
0.901396 0.727352 1
0.938338 0.751461 1
0.950088 0.755611 1
0.953552 0.756436 1
0.35137 0.35137 0.35137
0.352834 0.352834 0.352834
0.513207 0.513207 0.513207
0.554147 0.676509 1
0.795834 0.738033 1
0.88127 0.798505 0.978378
0.905425 0.816785 0.974227
0.912337 0.82063 0.976074
0.91426 0.821424 0.977111
0.635584 0.635584 0.635584
0.625025 0.651957 0.661418
0.423072 0.843076 1
0.695537 0.870985 1
0.886091 0.897459 0.945678
0.93312 0.923659 0.956176
0.947631 0.936629 0.959762
0.951675 0.940627 0.961364
0.952758 0.941711 0.961898
0.477913 0.902586 1
0.540169 0.911406 1
0.754376 0.935973 1
0.890227 0.957748 0.990417
0.966537 0.977417 0.985824
0.992325 0.992264 0.993667
0.999741 0.99971 0.999908
1 1 1
1 1 1
0.68162 0.937285 1
0.763409 0.949203 1
0.88687 0.968811 1
0.96698 0.98764 0.996155
1 1 1
1 1 1
1 1 1
1 1 1
1 1 1
0.749996 0.94876 1
0.830396 0.961822 1
0.925734 0.979248 0.999481
0.988968 0.996399 0.999344
1 1 1
1 1 1
1 1 1
1 1 1
1 1 1
0.767178 0.951629 1
0.843076 0.964324 1
0.933181 0.981308 0.999481
0.993149 0.998077 1
1 1 1
1 1 1
1 1 1
1 1 1
1 1 1
0.166476 0.166476 0.166476
0.166155 0.166155 0.166155
0.262837 0.293324 0.359304
0.490852 0.420905 1
0.791836 0.595605 1
0.916243 0.705745 1
0.952529 0.730068 1
0.975708 0.743893 1
0.982498 0.747829 1
0.181262 0.181262 0.181262
0.181048 0.181048 0.181048
0.273564 0.312871 0.389761
0.503075 0.441932 1
0.789517 0.603037 1
0.912902 0.710704 1
0.950011 0.735073 1
0.962982 0.740353 1
0.970336 0.744198 1
0.229267 0.229267 0.229267
0.229023 0.229023 0.229023
0.315221 0.378058 0.46772
0.50959 0.508461 1
0.783276 0.634211 1
0.899931 0.730098 1
0.936355 0.753796 1
0.948028 0.757992 1
0.951431 0.758755 1
0.357046 0.357046 0.357046
0.356863 0.356863 0.356863
0.517922 0.517922 0.517922
0.557031 0.682124 1
0.79707 0.741863 0.999725
0.881529 0.801251 0.97908
0.905333 0.819333 0.974792
0.912108 0.823163 0.97644
0.913939 0.823926 0.97731
0.638086 0.638086 0.638086
0.633738 0.64799 0.65301
0.42501 0.844083 1
0.698405 0.87245 1
0.887465 0.899001 0.947097
0.934081 0.924926 0.957458
0.94844 0.937743 0.961074
0.952499 0.941756 0.962692
0.953552 0.942824 0.963195
0.48098 0.903151 1
0.535378 0.910887 1
0.755245 0.936355 1
0.891478 0.958267 0.991119
0.967208 0.977874 0.986389
0.992813 0.992752 0.994156
1 1 1
1 1 1
1 1 1
0.684108 0.937667 1
0.760708 0.948867 1
0.887449 0.969055 1
0.967758 0.987961 0.99646
1 1 1
1 1 1
1 1 1
1 1 1
1 1 1
0.749081 0.948653 1
0.82858 0.961563 1
0.926268 0.979431 0.999802
0.989654 0.996689 0.999527
1 1 1
1 1 1
1 1 1
1 1 1
1 1 1
0.763622 0.951125 1
0.841062 0.964004 1
0.933486 0.981414 0.999756
0.993591 0.99826 1
1 1 1
1 1 1
1 1 1
1 1 1
1 1 1
