public/textures/grade/Arri/Guardians-LogC4.cube
TITLE "Generated by Resolve"
LUT_3D_SIZE 5
0 0.00570687 0.0021973
0.332341 0 0
0.928496 0 0
1 0 0.0261387
1 0 0.065095
0 0.250813 0
0.25333 0.237537 0
0.870893 0.148074 0
1 0 0.0248722
1 0 0.0641184
0 0.749371 0
0.220554 0.770352 0
0.756954 0.761425 0.0331884
0.967681 0.775311 0.189059
0.993027 0.776699 0.227955
0.142153 0.998032 0.0764782
0.378714 1 0.126329
0.804852 0.986954 0.163958
0.979385 0.993576 0.271473
0.999802 0.995605 0.309285
0.199954 1 0.118944
0.413046 1 0.160037
0.818158 1 0.19173
0.985779 1 0.27718
1 1 0.316304
0 0 0.359274
0.304295 0 0.299886
0.91519 0 0.209918
1 0 0.25716
1 0 0.280217
0 0.250614 0.249653
0.224491 0.253971 0.259861
0.866331 0.162249 0.23093
1 0 0.256397
1 0 0.279484
0 0.757641 0.169955
0.240299 0.783261 0.233616
0.767193 0.772442 0.279271
0.967865 0.777981 0.363378
0.99234 0.77847 0.386465
0.164355 1 0.296208
0.394491 1 0.337346
0.812818 0.992569 0.373373
0.978973 0.992966 0.442542
0.998474 0.994202 0.46244
0.219471 1 0.320333
0.427039 1 0.353887
0.825269 1 0.386419
0.985138 1 0.453117
1 1 0.472618
0 0.0790112 1
0.231876 0.0642557 1
0.869291 0 0.930465
1 0 0.904097
1 0 0.904112
0 0.276432 0.928405
0.198901 0.292195 0.91693
0.822843 0.230762 0.86772
1 0 0.901335
1 0 0.904036
0 0.749859 0.760815
0.236316 0.785977 0.796506
0.746654 0.77937 0.793576
0.961425 0.779736 0.802976
0.985168 0.780728 0.809628
0.158846 0.996277 0.822797
0.389075 1 0.841978
0.800717 0.985214 0.831083
0.969818 0.983276 0.834943
0.989288 0.984573 0.83856
0.213962 1 0.841108
0.420844 1 0.85481
0.812848 1 0.841321
0.975067 1 0.843259
0.993759 1 0.846342
0 0.296071 1
0.17055 0.318151 1
0.811612 0.268421 1
1 0.0716869 1
1 0 1
0 0.400229 1
0.164523 0.430472 1
0.788663 0.404181 1
1 0.325292 1
1 0.278889 1
0 0.770443 0.97789
0.231617 0.806332 0.999969
0.755459 0.799283 0.980102
0.959503 0.801114 0.987076
0.983352 0.801709 0.990753
0.112413 0.990723 0.998718
0.381659 1 1
0.799741 0.989105 0.996628
0.967346 0.985443 0.994415
0.988022 0.986023 0.995483
0.168109 1 1
0.411688 1 1
0.810468 1 1
0.972808 1 0.999161
0.992325 1 1
0 0.346654 1
0.156817 0.373068 1
0.800137 0.337179 1
1 0.210605 1
1 0.127764 1
0 0.434852 1
0.154604 0.467063 1
0.782254 0.447059 1
1 0.388113 1
1 0.354696 1
0 0.777874 1
0.22739 0.812955 1
0.757122 0.806287 1
0.959594 0.807813 1
0.98381 0.808682 1
0.114275 0.992523 1
0.377401 1 1
0.80061 0.990723 1
0.9682 0.986709 1
0.988617 0.987289 1
0.148486 1 1
0.406897 1 1
0.810727 1 1
0.973007 1 1
0.992615 1 1
