public/textures/grade/Arri/Guardians-LogC4.cube
TITLE "Generated by Resolve"
LUT_3D_SIZE 33
0 0.00570687 0.0021973
0.0174716 0.00268559 0
0.0391394 0.000320439 0
0.0690318 0 0
0.107927 0 0
0.153231 0 0
0.205829 0 0
0.265721 0 0
0.332341 0 0
0.404654 0 0
0.482231 0 0
0.562387 0 0
0.643381 0 0
0.72253 0 0
0.797574 0 0
0.866636 0 0
0.928496 0 0
0.981933 0 0
1 0 0
1 0 0
1 0 0
1 0 0
1 0 0.00030518
1 0 0.0138247
1 0 0.0261387
1 0 0.0363928
1 0 0.0444495
1 0 0.0507515
1 0 0.0555123
1 0 0.0591135
1 0 0.0618448
1 0 0.063859
1 0 0.065095
0 0.0168154 0
0.011368 0.0140993 0
0.0340734 0.0106203 0
0.0642557 0.00633249 0
0.103883 0.000198367 0
0.149767 0 0
0.202655 0 0
0.263218 0 0
0.330739 0 0
0.404242 0 0
0.482246 0 0
0.562402 0 0
0.643397 0 0
0.722545 0 0
0.797589 0 0
0.866636 0 0
0.928496 0 0
0.981933 0 0
1 0 0
1 0 0
1 0 0
1 0 0
1 0 0.000274662
1 0 0.0137789
1 0 0.0261082
1 0 0.036347
1 0 0.044419
1 0 0.0507057
1 0 0.0554818
1 0 0.0590829
1 0 0.061799
1 0 0.0638285
1 0 0.0650645
0 0.0297551 0
0.00552377 0.0272679 0
0.0269474 0.0242924 0
0.0590677 0.0196841 0
0.100465 0.0137026 0
0.147265 0.0062562 0
0.200748 0 0
0.26096 0 0
0.328084 0 0
0.400854 0 0
0.478935 0 0
0.560143 0 0
0.643397 0 0
0.722545 0 0
0.797589 0 0
0.866651 0 0
0.928496 0 0
0.981933 0 0
1 0 0
1 0 0
1 0 0
1 0 0
1 0 0.000213626
1 0 0.0137331
1 0 0.0260471
1 0 0.0363012
1 0 0.044358
1 0 0.05066
1 0 0.0554513
1 0 0.0590372
1 0 0.0617533
1 0 0.0637675
1 0 0.0650339
0 0.0498054 0
0 0.0480507 0
0.0167544 0.045594 0
0.0484779 0.0415808 0
0.0923323 0.035523 0
0.141283 0.0284428 0
0.196292 0.0196689 0
0.257816 0.00907912 0
0.325551 0 0
0.398291 0 0
0.476249 0 0
0.557244 0 0
0.639124 0 0
0.719661 0 0
0.797604 0 0
0.866651 0 0
0.928512 0 0
0.981933 0 0
1 0 0
1 0 0
1 0 0
1 0 0
1 0 0.00015259
1 0 0.0136568
1 0 0.0259709
1 0 0.0362249
1 0 0.0442817
1 0 0.0505837
1 0 0.0553902
1 0 0.0589609
1 0 0.0616922
1 0 0.0637064
1 0 0.0649729
0 0.0780652 0
0 0.0768292 0
0.00317388 0.0752575 0
0.0342412 0.0723583 0
0.0782635 0.0673228 0
0.129549 0.0606546 0
0.186572 0.0523537 0
0.249699 0.0426795 0
0.318853 0.0311589 0
0.392874 0.0175326 0
0.471458 0.00140383 0
0.552087 0 0
0.634089 0 0
0.715023 0 0
0.792416 0 0
0.864607 0 0
0.928512 0 0
0.981949 0 0
1 0 0
1 0 0
1 0 0
1 0 0
1 0 4.57771e-05
1 0 0.01355
1 0 0.0258793
1 0 0.0361334
1 0 0.0441901
1 0 0.0504921
1 0 0.055314
1 0 0.0588693
1 0 0.0616007
1 0 0.0636149
1 0 0.0648966
0 0.112261 0
0 0.11133 0
0 0.110918 0
0.0182956 0.108888 0
0.0615549 0.10515 0
0.113222 0.099382 0
0.172305 0.0920272 0
0.237583 0.0832837 0
0.308156 0.0729839 0
0.383261 0.0608835 0
0.462516 0.0468452 0
0.544167 0.0307012 0
0.626474 0.0119326 0
0.706569 0 0
0.783764 0 0
0.856504 0 0
0.923079 0 0
0.981949 0 0
1 0 0
1 0 0
1 0 0
1 0 0
1 0 0
1 0 0.0134127
1 0 0.0257267
1 0 0.0359808
1 0 0.0440528
1 0 0.0503548
1 0 0.0552224
1 0 0.058732
1 0 0.0614633
1 0 0.0634775
1 0 0.0648051
0 0.152483 0
0 0.152102 0
0 0.15227 0
0 0.151736 0
0.043061 0.148974 0
0.0942702 0.144701 0
0.154147 0.138506 0
0.220859 0.130571 0
0.292851 0.121447 0
0.369253 0.110842 0
0.449577 0.0987259 0
0.531655 0.0850385 0
0.614084 0.0693828 0
0.694881 0.0516365 0
0.771878 0.0307012 0
0.844099 0.00534066 0
0.909636 0 0
0.969863 0 0
1 0 0
1 0 0
1 0 0
1 0 0
1 0 0
1 0 0.0131991
1 0 0.0255283
1 0 0.0357824
1 0 0.0438544
1 0 0.0501564
1 0 0.0550698
1 0 0.0585489
1 0 0.061265
1 0 0.0632944
1 0 0.0646525
0 0.198886 0
0 0.19884 0
0 0.199893 0
0 0.200595 0
0.022797 0.19881 0
0.0738842 0.195743 0
0.133501 0.191089 0
0.200931 0.184649 0
0.274205 0.176379 0
0.352056 0.167163 0
0.433082 0.156909 0
0.515679 0.145281 0
0.598016 0.132525 0
0.678599 0.118334 0
0.755322 0.102617 0
0.8271 0.0834974 0
0.893065 0.0603799 0
0.952056 0.0303655 0
1 0 0
1 0 0
1 0 0
1 0 0
1 0 0
1 0 0.0129244
1 0 0.0252537
1 0 0.035523
1 0 0.0435798
1 0 0.0498817
1 0 0.0548714
1 0 0.0582895
1 0 0.0610056
1 0 0.063035
1 0 0.0644541
0 0.250813 0
0 0.251438 0
0 0.252995 0
0 0.254658 0
0.000579843 0.254566 0
0.0536049 0.252461 0
0.112764 0.249073 0
0.179767 0.244068 0
0.25333 0.237537 0
0.332113 0.229831 0
0.413886 0.220691 0
0.496941 0.211017 0
0.579339 0.200824 0
0.659648 0.189792 0
0.735653 0.177722 0
0.806531 0.164309 0
0.870893 0.148074 0
0.928878 0.128222 0
0.980972 0.102861 0
1 0.0699474 0
1 0.0278019 0.0074464
1 0 0.0135348
1 0 0.0144961
1 0 0.0130007
1 0 0.0248722
1 0 0.0351415
1 0 0.0431983
1 0 0.0495155
1 0 0.0545205
1 0 0.0579232
1 0 0.0606546
1 0 0.0626688
1 0 0.0641184
0 0.308385 0
0 0.309255 0
0 0.311666 0
0 0.314107 0
0 0.315221 0
0.0330358 0.314107 0
0.092607 0.312154 0
0.158953 0.308446 0
0.232242 0.303288 0
0.311254 0.296971 0
0.393668 0.28954 0
0.476677 0.281544 0
0.559335 0.273182 0
0.639246 0.264652 0
0.714458 0.255863 0
0.784131 0.246433 0
0.847578 0.236118 0
0.903853 0.223362 0
0.953994 0.207614 0
0.997269 0.188434 0.00787366
1 0.163867 0.0246586
1 0.135149 0.0410315
1 0.102373 0.054902
1 0.0667735 0.0652171
1 0.0302434 0.071809
1 0 0.0740368
1 0 0.0743114
1 0 0.0734112
1 0 0.0716716
1 0 0.0697642
1 0 0.0685588
1 0 0.0675364
1 0 0.0669871
0 0.369879 0
0 0.371405 0
0 0.374136 0
0 0.37731 0
0 0.379767 0
0.0149233 0.379858 0
0.0746014 0.378607 0
0.140597 0.376349 0
0.213489 0.372778 0
0.291539 0.367544 0
0.373678 0.361547 0
0.45713 0.355184 0
0.539452 0.348424 0
0.618784 0.341833 0
0.693294 0.335698 0
0.762173 0.329473 0
0.824216 0.322866 0
0.879179 0.31574 0
0.927352 0.306447 0
0.968658 0.29546 0.0162203
1 0.281758 0.0357671
1 0.265721 0.0548104
1 0.248295 0.0721599
1 0.230182 0.0872358
1 0.212268 0.0988785
1 0.195941 0.108278
1 0.18172 0.115602
1 0.169589 0.120714
1 0.160021 0.124895
1 0.152316 0.127352
1 0.146715 0.129778
1 0.142321 0.131044
1 0.138964 0.132067
0 0.434775 0
0 0.436469 0
0 0.439597 0
0 0.443366 0
0 0.446662 0
0 0.448188 0
0.061265 0.447562 0
0.126406 0.446159 0
0.198566 0.443702 0
0.275959 0.44004 0
0.356985 0.435187 0
0.439673 0.430091 0
0.521248 0.425025 0
0.600076 0.420218 0
0.673808 0.415579 0
0.74165 0.411719 0
0.802563 0.408072 0
0.85597 0.404379 0
0.90309 0.400092 0.00495918
0.942351 0.394308 0.0245823
0.975555 0.387213 0.0457618
1 0.37879 0.0662852
1 0.36939 0.0845197
1 0.359747 0.100496
1 0.3505 0.113466
1 0.342229 0.124376
1 0.335149 0.132677
1 0.329198 0.13872
1 0.324407 0.143603
1 0.320775 0.146731
1 0.317952 0.14931
1 0.316091 0.151476
1 0.314687 0.153033
0 0.500877 0
0 0.503166 0
0 0.506661 0
0 0.510964 0
0 0.514855 0
0 0.516945 0
0.0531014 0.517037 0
0.118334 0.516808 0
0.189334 0.51519 0
0.265064 0.512291 0
0.345083 0.508797 0
0.426596 0.504845 0
0.507073 0.500511 0
0.584909 0.496941 0
0.657679 0.494163 0
0.724315 0.491859 0
0.784237 0.490135 0
0.836469 0.488792 0
0.882109 0.487648 0.0133516
0.919905 0.485557 0.0345769
0.951522 0.482185 0.0564736
0.976959 0.478447 0.0774853
0.997497 0.473991 0.0964065
1 0.46923 0.112856
1 0.464637 0.126375
1 0.460472 0.137102
1 0.456794 0.145724
1 0.453834 0.152132
1 0.451453 0.157107
1 0.449577 0.160845
1 0.448188 0.163348
1 0.44715 0.165362
1 0.446372 0.166796
0 0.566979 0
0 0.569329 0
0 0.573083 0
0 0.577752 0
0 0.58201 0
0 0.584817 0
0.0531167 0.58558 0
0.116915 0.585748 0
0.18674 0.585016 0
0.26125 0.5832 0
0.339086 0.580148 0
0.41886 0.576959 0
0.498177 0.573846 0
0.574395 0.570947 0
0.64596 0.568902 0
0.711589 0.56788 0
0.770214 0.567651 0
0.821439 0.568185 0.00415045
0.865751 0.568597 0.0248875
0.902205 0.568689 0.0470893
0.93254 0.567926 0.069398
0.95671 0.567025 0.0905623
0.976043 0.565057 0.109483
0.991058 0.563226 0.125856
1 0.561257 0.139635
1 0.559365 0.150637
1 0.557778 0.158999
1 0.556359 0.165774
1 0.5552 0.170565
1 0.554253 0.174243
1 0.553567 0.176806
1 0.553079 0.178683
1 0.552728 0.17998
0 0.631113 0
0 0.634043 0
0 0.63798 0
0 0.642756 0
0 0.64715 0
0.00205997 0.649683 0
0.0607156 0.650996 0
0.123522 0.651972 0
0.191775 0.651804 0
0.264042 0.650324 0
0.34023 0.648142 0
0.417868 0.645441 0
0.495018 0.642695 0
0.569528 0.640421 0
0.639673 0.639155 0
0.703853 0.638834 0
0.761044 0.639048 0
0.811078 0.640513 0.0172732
0.853986 0.64213 0.0390326
0.889555 0.643458 0.0618906
0.918807 0.644236 0.0844129
0.942016 0.645014 0.105882
0.960464 0.6448 0.124727
0.974929 0.644587 0.141314
0.985611 0.644221 0.154986
0.993667 0.643336 0.165393
0.999817 0.642786 0.174029
1 0.642283 0.180514
1 0.641901 0.185321
1 0.641627 0.188846
1 0.641382 0.191546
1 0.641199 0.193454
1 0.641047 0.194736
0 0.692424 0
0 0.695277 0
0 0.699535 0
0 0.70425 0
0 0.708156 0
0.0199741 0.710552 0
0.0761578 0.712566 0
0.137148 0.713863 0
0.203098 0.713787 0
0.273716 0.712932 0
0.347753 0.711192 0
0.423056 0.708827 0
0.497551 0.706142 0
0.57023 0.704234 0
0.63859 0.703288 0
0.700908 0.703029 0
0.756954 0.70399 0.0148623
0.805707 0.705806 0.033814
0.847517 0.707973 0.0559243
0.881941 0.710048 0.079057
0.910262 0.711711 0.101686
0.932631 0.713039 0.12282
0.950393 0.714214 0.142092
0.963928 0.714611 0.158007
0.974289 0.715038 0.171603
0.982116 0.715236 0.182437
0.987716 0.715007 0.190433
0.991974 0.714977 0.196735
0.994873 0.715023 0.201541
0.997147 0.714992 0.204974
0.998749 0.714961 0.20766
0.999878 0.714946 0.209628
1 0.7149 0.211017
0 0.749371 0
0 0.75227 0
0 0.756085 0
0 0.760494 0
0 0.764157 0
0.0443885 0.766567 0
0.0978561 0.768856 0
0.156878 0.770245 0
0.220554 0.770352 0
0.288914 0.769741 0
0.360555 0.768246 0
0.433448 0.766079 0
0.505592 0.763714 0
0.575708 0.761563 0
0.6421 0.760647 0.00425727
0.702586 0.760403 0.0177768
0.756954 0.761425 0.0331884
0.804242 0.763409 0.0518196
0.844999 0.765759 0.0738079
0.878538 0.768154 0.0970932
0.90602 0.770245 0.119722
0.927657 0.772061 0.140902
0.944762 0.773358 0.159594
0.957855 0.774609 0.175647
0.967681 0.775311 0.189059
0.975052 0.775738 0.199405
0.980606 0.776135 0.20766
0.98471 0.776379 0.214115
0.98761 0.776577 0.218814
0.989776 0.776684 0.222431
0.991318 0.776776 0.224933
0.992309 0.776745 0.226688
0.993027 0.776699 0.227955
0 0.801068 0
0 0.803861 0
0 0.807462 0
0 0.811276 0
0.0273594 0.813977 0
0.0729076 0.816892 0
0.123934 0.819165 0
0.180362 0.820615 0
0.242237 0.821057 0
0.307836 0.820218 0
0.376867 0.818845 0
0.447517 0.816953 0.00503548
0.517464 0.814679 0.0110781
0.585077 0.812375 0.0168765
0.648875 0.810788 0.023209
0.707774 0.810651 0.0370794
0.76022 0.8112 0.0523995
0.806348 0.813046 0.0704204
0.845991 0.815396 0.091722
0.878645 0.817899 0.114977
0.90515 0.820203 0.137423
0.926116 0.822202 0.158556
0.942672 0.823743 0.177035
0.955489 0.825147 0.19321
0.964965 0.826062 0.20621
0.972045 0.826688 0.216678
0.977356 0.827237 0.224842
0.981308 0.827634 0.230976
0.984085 0.827924 0.235782
0.986084 0.828077 0.239002
0.987381 0.828077 0.241352
0.988342 0.828138 0.243168
0.989029 0.828199 0.244495
0 0.846738 0
0 0.849271 0
0 0.852644 0
0.0240635 0.855375 0
0.0614633 0.858412 0
0.104326 0.861204 0
0.152743 0.863401 0
0.206332 0.864424 0.000122072
0.265553 0.864851 0.0087892
0.32903 0.864317 0.0168154
0.395605 0.862852 0.0239414
0.463371 0.860594 0.0300908
0.531304 0.858396 0.0363317
0.596841 0.856214 0.0423285
0.65832 0.8542 0.0480201
0.714748 0.853208 0.0547341
0.765866 0.853788 0.0715343
0.810697 0.855375 0.0886549
0.849027 0.857328 0.108415
0.880888 0.859831 0.131365
0.906752 0.862074 0.153826
0.927184 0.864225 0.174884
0.943404 0.86598 0.193515
0.955612 0.867201 0.209293
0.964935 0.868345 0.222354
0.971847 0.869154 0.232883
0.976791 0.869535 0.240665
0.980606 0.869978 0.246738
0.983291 0.870314 0.25127
0.98529 0.870542 0.254749
0.986694 0.87071 0.257328
0.987701 0.870848 0.259022
0.988357 0.870909 0.260349
0 0.885832 0
0.00709545 0.887999 0
0.0314183 0.890593 0
0.0605173 0.893492 0
0.0952468 0.896406 0
0.135241 0.898848 0.00721752
0.181323 0.900816 0.0167697
0.233082 0.9019 0.0258793
0.289662 0.902113 0.0344244
0.350759 0.901473 0.0423133
0.414572 0.899718 0.0489052
0.480262 0.897566 0.0551461
0.545937 0.895277 0.0611734
0.609445 0.893065 0.0669718
0.668879 0.890867 0.072282
0.723705 0.889632 0.0784314
0.772641 0.889372 0.0873884
0.816159 0.890547 0.105165
0.853422 0.892241 0.123537
0.884581 0.894682 0.145525
0.909987 0.89691 0.168124
0.929808 0.898817 0.188968
0.945663 0.900603 0.207752
0.957549 0.901823 0.223423
0.966628 0.902998 0.23653
0.973175 0.903624 0.246616
0.97818 0.904265 0.254658
0.981826 0.904723 0.260807
0.984405 0.905104 0.265278
0.986328 0.905348 0.268681
0.987655 0.905516 0.270985
0.98851 0.905547 0.272648
0.989075 0.905531 0.273854
0.0288701 0.918425 0
0.0463111 0.920775 0.000228885
0.0679789 0.923217 0.00697337
0.0948653 0.925765 0.014786
0.127596 0.928527 0.0238499
0.165362 0.930709 0.0328527
0.208759 0.932113 0.0415351
0.258106 0.933028 0.0503548
0.312566 0.933013 0.0585184
0.371252 0.932128 0.0659495
0.433295 0.930556 0.0727703
0.496544 0.928069 0.0783856
0.560052 0.925536 0.0839246
0.621775 0.923217 0.0894942
0.679835 0.921218 0.0950637
0.732845 0.919417 0.100221
0.780179 0.91873 0.106279
0.822156 0.919203 0.118853
0.858671 0.920821 0.137148
0.889006 0.922972 0.157519
0.913878 0.925109 0.179828
0.933455 0.927153 0.200992
0.948699 0.928588 0.219333
0.960235 0.929717 0.234836
0.969055 0.9308 0.247944
0.975494 0.931472 0.257939
0.980331 0.932067 0.265919
0.983948 0.932509 0.27219
0.986465 0.932891 0.276738
0.988357 0.933135 0.280034
0.98967 0.933333 0.282506
0.9906 0.933471 0.284337
0.991119 0.933501 0.285527
0.0654459 0.945937 0.0202335
0.081117 0.947692 0.02533
0.10135 0.949966 0.0319677
0.126238 0.952178 0.0392309
0.156497 0.954376 0.047303
0.192477 0.956268 0.0558022
0.234058 0.95761 0.064332
0.28127 0.958251 0.0725872
0.333516 0.95819 0.0805371
0.390295 0.957046 0.0874495
0.449882 0.955047 0.0934157
0.511681 0.952758 0.0992294
0.57348 0.950179 0.10457
0.633066 0.947326 0.109148
0.689693 0.94519 0.114382
0.741817 0.943587 0.119799
0.787884 0.942641 0.125322
0.828199 0.942306 0.130968
0.863584 0.94342 0.148074
0.893233 0.945342 0.166979
0.917632 0.947341 0.188281
0.936812 0.949233 0.209491
0.95201 0.950912 0.228382
0.963424 0.952102 0.244099
0.972015 0.953079 0.257053
0.978256 0.953674 0.267216
0.983001 0.954269 0.275044
0.986526 0.954665 0.281224
0.988876 0.954864 0.285603
0.990646 0.955001 0.288746
0.991928 0.955169 0.291295
0.992844 0.955291 0.293126
0.993378 0.955352 0.294392
0.0960098 0.967651 0.0423133
0.110872 0.969451 0.0474861
0.129458 0.971222 0.053193
0.153201 0.973358 0.0603037
0.181598 0.975189 0.0676738
0.215702 0.976761 0.0755322
0.255558 0.977951 0.0836652
0.300984 0.978454 0.0915847
0.351446 0.978073 0.0988785
0.405982 0.976669 0.10518
0.464485 0.974777 0.111254
0.524514 0.972274 0.116564
0.58471 0.969512 0.121477
0.643076 0.96669 0.125978
0.69839 0.964355 0.130785
0.749279 0.962478 0.135683
0.794583 0.961471 0.1411
0.83418 0.961013 0.146563
0.868223 0.961288 0.155932
0.897246 0.962905 0.174746
0.921279 0.964828 0.19472
0.940291 0.966796 0.216083
0.955123 0.968246 0.234806
0.966262 0.969314 0.250492
0.974746 0.970275 0.263539
0.980911 0.970901 0.273869
0.985611 0.971496 0.281849
0.989105 0.971908 0.287907
0.991379 0.972076 0.292348
0.993164 0.972259 0.295598
0.994415 0.972427 0.298161
0.995331 0.972549 0.300023
0.995834 0.97261 0.301213
0.121828 0.984909 0.0614633
0.135424 0.986328 0.0658885
0.153124 0.987945 0.0712902
0.175357 0.98967 0.0775769
0.202548 0.991318 0.0845502
0.235218 0.992737 0.0920424
0.273579 0.993606 0.0995651
0.317327 0.993881 0.10695
0.366461 0.993439 0.114015
0.419959 0.992187 0.120485
0.476661 0.990112 0.12607
0.535225 0.987289 0.130709
0.594278 0.984512 0.1355
0.651652 0.981674 0.139895
0.705898 0.979202 0.144381
0.75581 0.977127 0.148852
0.800244 0.975891 0.153857
0.839094 0.975204 0.158862
0.872312 0.975158 0.164034
0.90074 0.976501 0.180835
0.924407 0.978286 0.199649
0.943084 0.980056 0.220081
0.957763 0.981491 0.239139
0.968856 0.98262 0.255116
0.977264 0.983581 0.268299
0.983459 0.984314 0.278828
0.987884 0.984634 0.286534
0.991302 0.985 0.292622
0.993667 0.98529 0.297276
0.995453 0.985504 0.300557
0.996674 0.985656 0.303105
0.997574 0.985763 0.304936
0.998047 0.985824 0.306081
0.142153 0.998032 0.0764782
0.155337 0.999374 0.0807507
0.171954 1 0.0856794
0.193072 1 0.0914321
0.219684 1 0.0983444
0.251087 1 0.105257
0.28809 1 0.112413
0.330861 1 0.1196
0.378714 1 0.126329
0.430808 1 0.132219
0.486122 1 0.137377
0.544091 0.998962 0.14226
0.601968 0.996002 0.146593
0.658351 0.993027 0.150652
0.711757 0.990417 0.154849
0.761059 0.988327 0.159258
0.804852 0.986954 0.163958
0.84332 0.986267 0.168963
0.876112 0.986099 0.173938
0.903624 0.986709 0.184802
0.927001 0.988388 0.203296
0.945602 0.990204 0.222934
0.960174 0.991638 0.242115
0.971084 0.992676 0.258213
0.979385 0.993576 0.271473
0.985336 0.994079 0.281712
0.989883 0.994598 0.289799
0.993271 0.994965 0.29601
0.995636 0.995254 0.300618
0.997406 0.995468 0.304051
0.998505 0.995499 0.306325
0.999359 0.99556 0.308003
0.999802 0.995605 0.309285
0.15845 1 0.0885176
0.170748 1 0.092134
0.186969 1 0.0971237
0.207294 1 0.102449
0.232837 1 0.10898
0.263432 1 0.115602
0.299641 1 0.122591
0.341283 1 0.129458
0.388083 1 0.135775
0.439353 1 0.14136
0.49395 1 0.146532
0.550927 1 0.151049
0.608042 1 0.1552
0.663783 1 0.159182
0.716487 0.99884 0.163104
0.765209 0.996643 0.167254
0.808637 0.99527 0.171939
0.846693 0.994476 0.176745
0.879042 0.994141 0.181399
0.905943 0.994339 0.18703
0.929122 0.995941 0.206226
0.94754 0.997711 0.224903
0.961959 0.999084 0.243839
0.972763 1 0.260075
0.981048 1 0.273426
0.986984 1 0.283803
0.991516 1 0.292042
0.994904 1 0.298314
0.997238 1 0.302998
0.998993 1 0.306508
1 1 0.308751
1 1 0.310491
1 1 0.311757
0.170718 1 0.0974746
0.182879 1 0.101335
0.198245 1 0.105547
0.218006 1 0.110842
0.242893 1 0.11693
0.272847 1 0.12343
0.308354 1 0.130114
0.349157 1 0.13666
0.395254 1 0.142794
0.446113 1 0.148547
0.500084 1 0.153658
0.555886 1 0.157565
0.612634 1 0.161669
0.667948 1 0.165667
0.720211 1 0.169512
0.768322 1 0.173266
0.811414 1 0.177829
0.849088 1 0.182361
0.881178 1 0.186892
0.907881 1 0.19144
0.930632 1 0.208103
0.948913 1 0.226169
0.963287 1 0.24477
0.974273 1 0.261524
0.982361 1 0.274723
0.988418 1 0.285542
0.992752 1 0.293507
0.996094 1 0.299763
0.998413 1 0.304463
1 1 0.307866
1 1 0.31046
1 1 0.31223
1 1 0.313466
0.179721 1 0.104082
0.191608 1 0.107759
0.206592 1 0.111818
0.226291 1 0.117205
0.250492 1 0.122927
0.279911 1 0.129213
0.314946 1 0.13579
0.355047 1 0.141985
0.400687 1 0.148074
