public/textures/grade/Arri/Guardians-LogC4.cube
TITLE "Generated by Resolve"
LUT_3D_SIZE 9
0 0.00570687 0.0021973
0.107927 0 0
0.332341 0 0
0.643381 0 0
0.928496 0 0
1 0 0
1 0 0.0261387
1 0 0.0555123
1 0 0.065095
0 0.0780652 0
0.0782635 0.0673228 0
0.318853 0.0311589 0
0.634089 0 0
0.928512 0 0
1 0 0
1 0 0.0258793
1 0 0.055314
1 0 0.0648966
0 0.250813 0
0.000579843 0.254566 0
0.25333 0.237537 0
0.579339 0.200824 0
0.870893 0.148074 0
1 0.0278019 0.0074464
1 0 0.0248722
1 0 0.0545205
1 0 0.0641184
0 0.500877 0
0 0.514855 0
0.189334 0.51519 0
0.507073 0.500511 0
0.784237 0.490135 0
0.951522 0.482185 0.0564736
1 0.464637 0.126375
1 0.451453 0.157107
1 0.446372 0.166796
0 0.749371 0
0 0.764157 0
0.220554 0.770352 0
0.505592 0.763714 0
0.756954 0.761425 0.0331884
0.90602 0.770245 0.119722
0.967681 0.775311 0.189059
0.98761 0.776577 0.218814
0.993027 0.776699 0.227955
0.0288701 0.918425 0
0.127596 0.928527 0.0238499
0.312566 0.933013 0.0585184
0.560052 0.925536 0.0839246
0.780179 0.91873 0.106279
0.913878 0.925109 0.179828
0.969055 0.9308 0.247944
0.986465 0.932891 0.276738
0.991119 0.933501 0.285527
0.142153 0.998032 0.0764782
0.219684 1 0.0983444
0.378714 1 0.126329
0.601968 0.996002 0.146593
0.804852 0.986954 0.163958
0.927001 0.988388 0.203296
0.979385 0.993576 0.271473
0.995636 0.995254 0.300618
0.999802 0.995605 0.309285
0.18677 1 0.109255
0.256306 1 0.127718
0.405005 1 0.152285
0.618814 1 0.170275
0.815122 1 0.185504
0.932677 1 0.210254
0.984176 1 0.276204
1 1 0.306081
1 1 0.31519
0.199954 1 0.118944
0.26746 1 0.136461
0.413046 1 0.160037
0.623728 1 0.177218
0.818158 1 0.19173
0.9346 1 0.211368
0.985779 1 0.27718
1 1 0.306935
1 1 0.316304
0 0.00570687 0.100237
0.0959335 0 0.0818036
0.328573 0 0.0429694
0.641032 0 0.00285344
0.925658 0 0
1 0 0.0339055
1 0 0.0855116
1 0 0.111635
1 0 0.120073
0 0.0777447 0.0734569
0.0601511 0.0731518 0.0718395
0.318364 0.0348669 0.0383764
0.632807 0 0.00738537
0.925689 0 0
1 0 0.0336309
1 0 0.0853437
1 0 0.111406
1 0 0.119844
0 0.253193 0.000549325
0.00419623 0.258488 0.0115663
0.257618 0.243427 0.0118868
0.583566 0.207935 0.00756847
0.872007 0.15462 0.028275
1 0.0319524 0.0737621
1 0 0.0846571
1 0 0.110567
1 0 0.119005
0 0.505501 0
0 0.520134 0
0.197223 0.52256 0
0.515084 0.509148 0.00650034
0.78909 0.497459 0.0475624
0.952712 0.48629 0.118914
1 0.466804 0.178927
1 0.453223 0.205554
1 0.448157 0.214542
0 0.754208 0
0.00764477 0.769055 0
0.230747 0.776928 0.0225986
0.514626 0.771282 0.056672
0.763165 0.767987 0.106264
0.907942 0.773068 0.178714
0.968231 0.776684 0.236835
0.987701 0.777386 0.262303
0.993179 0.7776 0.270314
0.0351873 0.920974 0.0221256
0.132815 0.930922 0.0521706
0.317769 0.935958 0.0890822
0.564996 0.929046 0.121736
0.786221 0.924086 0.170169
0.916274 0.927657 0.239841
0.969558 0.931502 0.294835
0.986572 0.933181 0.318929
0.99118 0.93373 0.326589
0.141833 0.998016 0.0763867
0.219486 1 0.0982986
0.378637 1 0.126329
0.602899 0.996628 0.155322
0.807858 0.989425 0.195727
0.930129 0.991379 0.265599
0.979919 0.99411 0.320409
0.995712 0.995361 0.344442
0.999939 0.995773 0.351904
0.186481 1 0.109163
0.256107 1 0.127672
0.404913 1 0.152285
0.618784 1 0.170291
0.816785 1 0.203159
0.936065 1 0.271122
0.984985 1 0.327276
1 1 0.35111
1 1 0.358465
0.19968 1 0.118868
0.267277 1 0.136431
0.412955 1 0.160037
0.623713 1 0.177218
0.819333 1 0.205097
0.937926 1 0.272221
0.986481 1 0.328573
1 1 0.352834
1 1 0.360159
0 0 0.359274
0.0695811 0 0.345342
0.304295 0 0.299886
0.627176 0 0.240833
0.91519 0 0.209918
1 0 0.225711
1 0 0.25716
1 0 0.274449
1 0 0.280217
0 0.0744945 0.329961
0.05066 0.0708476 0.324392
0.294072 0.0403143 0.289418
0.619974 0 0.241856
0.915221 0 0.20972
1 0 0.225544
1 0 0.256992
1 0 0.274296
1 0 0.280064
0 0.250614 0.249653
0 0.259098 0.259617
0.224491 0.253971 0.259861
0.581384 0.213886 0.224186
0.866331 0.162249 0.23093
1 0.0407111 0.259556
1 0 0.256397
1 0 0.273716
1 0 0.279484
0 0.506203 0.164157
0 0.522835 0.189075
0.19762 0.529519 0.208728
0.519524 0.516121 0.210498
0.791836 0.504082 0.232334
0.951476 0.491005 0.279591
1 0.470909 0.321752
1 0.457008 0.340932
1 0.451728 0.347402
0 0.757641 0.169955
0.0236973 0.773617 0.201389
0.240299 0.783261 0.233616
0.521035 0.777676 0.252827
0.767193 0.772442 0.279271
0.909087 0.775662 0.324895
0.967865 0.777981 0.363378
0.986954 0.778347 0.380957
0.99234 0.77847 0.386465
0.057084 0.926741 0.24361
0.151369 0.93724 0.26981
0.331136 0.94226 0.298283
0.573632 0.934707 0.31725
0.790219 0.927092 0.340703
0.916777 0.92813 0.380804
0.968994 0.931197 0.415747
0.98555 0.932433 0.431556
0.990051 0.932891 0.436393
0.164355 1 0.296208
0.239536 1 0.314778
0.394491 1 0.337346
0.613367 1 0.352895
0.812818 0.992569 0.373373
0.93051 0.991241 0.409949
0.978973 0.992966 0.442542
0.994354 0.993881 0.457679
0.998474 0.994202 0.46244
0.206897 1 0.314992
0.274434 1 0.33048
0.41944 1 0.350301
0.629084 1 0.364065
0.822202 1 0.383505
0.936599 1 0.418906
0.983642 1 0.450858
0.998566 1 0.465812
1 1 0.470451
0.219471 1 0.320333
0.285023 1 0.335027
0.427039 1 0.353887
0.634089 1 0.367605
0.825269 1 0.386419
0.938628 1 0.421729
0.985138 1 0.453117
1 1 0.468132
1 1 0.472618
0 0.00517281 0.744045
0.0359503 0 0.733028
0.268345 0 0.694209
0.596841 0 0.63064
0.893935 0 0.580865
1 0 0.568246
1 0 0.575753
1 0 0.581964
1 0 0.584253
0 0.081178 0.705242
0.0206912 0.0809644 0.699702
0.257832 0.0589303 0.670909
0.590326 0 0.620615
0.890593 0 0.580743
1 0 0.56817
1 0 0.575692
1 0 0.581903
1 0 0.584192
0 0.249683 0.615091
0 0.260029 0.620188
0.218067 0.257542 0.609842
0.553689 0.226642 0.576883
0.847944 0.177707 0.564263
1 0.0670024 0.580209
1 0 0.575647
1 0 0.581659
1 0 0.583947
0 0.50135 0.50898
0 0.520134 0.528038
0.186282 0.53228 0.541466
0.486656 0.526253 0.539895
0.78764 0.5084 0.52549
0.944427 0.496651 0.55082
1 0.477333 0.575662
1 0.463981 0.587335
1 0.459281 0.591272
0 0.752743 0.4851
0.0264591 0.771145 0.510964
0.23772 0.783673 0.534401
0.512718 0.779309 0.540658
0.765332 0.772335 0.541604
0.906813 0.775006 0.561975
0.964752 0.777401 0.582422
0.983703 0.778058 0.591959
0.988998 0.778149 0.595056
0.0603799 0.922591 0.537743
0.153323 0.934279 0.558618
0.329793 0.940337 0.577935
0.568841 0.933074 0.584192
0.786694 0.924361 0.587366
0.913542 0.924804 0.602777
0.96527 0.927642 0.619074
0.98172 0.928893 0.626535
0.986236 0.929335 0.629084
0.166186 1 0.583505
0.240497 1 0.597635
0.392813 1 0.61178
0.608637 0.999207 0.614923
0.808484 0.988174 0.615686
0.926146 0.98616 0.627894
0.974319 0.987808 0.641978
0.989593 0.988708 0.648859
0.993637 0.988968 0.651026
0.208225 1 0.601205
0.275242 1 0.612772
0.417624 1 0.624598
0.624445 1 0.626307
0.817517 1 0.625879
0.93196 1 0.637186
0.978714 1 0.650324
0.993683 1 0.657023
0.99762 1 0.659159
0.220813 1 0.606439
0.285496 1 0.617182
0.425086 1 0.628275
0.629221 1 0.629648
0.820462 1 0.62916
0.933684 1 0.639948
0.980194 1 0.653025
0.994888 1 0.65922
0.998764 1 0.661326
0 0.0790112 1
0 0.0811475 1
0.231876 0.0642557 1
0.565347 0.00965896 0.96492
0.869291 0 0.930465
1 0 0.90956
1 0 0.904097
1 0 0.904036
1 0 0.904112
0 0.135424 1
0 0.140932 1
0.222889 0.131121 0.985443
0.556085 0.0886397 0.942657
0.85922 0.00047303 0.915236
1 0 0.909545
1 0 0.904082
1 0 0.904021
1 0 0.904097
0 0.276432 0.928405
0 0.288197 0.930434
0.198901 0.292195 0.91693
0.527016 0.270161 0.885801
0.822843 0.230762 0.86772
1 0.14789 0.881239
1 0 0.901335
1 0 0.903563
1 0 0.904036
0 0.50901 0.812802
0 0.527001 0.824292
0.183673 0.54345 0.82948
0.490333 0.538399 0.816129
0.771923 0.525887 0.804395
0.933745 0.515175 0.814939
1 0.498192 0.829664
1 0.486854 0.837766
1 0.482536 0.840238
0 0.749859 0.760815
0.0217288 0.770474 0.781186
0.236316 0.785977 0.796506
0.505852 0.783886 0.79501
0.746654 0.77937 0.793576
0.904845 0.777279 0.792004
0.961425 0.779736 0.802976
0.979995 0.780529 0.808011
0.985168 0.780728 0.809628
0.0538186 0.917632 0.788556
0.148882 0.931517 0.805814
0.327749 0.939452 0.81857
0.562936 0.932738 0.816953
0.777844 0.923812 0.812314
0.909834 0.922423 0.812619
0.96199 0.924971 0.81886
0.978302 0.926253 0.822324
0.982818 0.926711 0.823438
0.158846 0.996277 0.822797
0.235706 1 0.833753
0.389075 1 0.841978
0.602487 0.996933 0.838209
0.800717 0.985214 0.831083
0.921309 0.982101 0.830793
0.969818 0.983276 0.834943
0.985199 0.984298 0.837705
0.989288 0.984573 0.83856
0.201297 1 0.836881
0.27013 1 0.845426
0.413397 1 0.851621
0.617899 1 0.846784
0.810086 1 0.839002
0.926604 1 0.83772
0.973861 1 0.841413
0.988678 1 0.843687
0.992645 1 0.844511
0.213962 1 0.841108
0.28069 1 0.849073
0.420844 1 0.85481
0.622766 1 0.849577
0.812848 1 0.841321
0.928267 1 0.839826
0.975067 1 0.843259
0.989822 1 0.845518
0.993759 1 0.846342
0 0.203128 1
0 0.208896 1
0.195209 0.213077 1
0.533196 0.184543 1
0.835218 0.127108 1
1 0 1
1 0 1
1 0 1
1 0 1
0 0.238895 1
0 0.245747 1
0.190448 0.253422 1
0.526833 0.229831 1
0.826108 0.182864 1
1 0.0726482 1
1 0 1
1 0 1
1 0 1
0 0.341146 1
0 0.350423 1
0.179553 0.366354 1
0.509377 0.353079 1
0.801312 0.326955 1
0.97937 0.27744 1
1 0.197864 1
1 0.13727 1
1 0.112428 1
0 0.536919 0.975387
0 0.549477 0.981598
0.179126 0.573343 0.985458
0.489723 0.570886 0.968444
0.764538 0.561471 0.955337
0.925597 0.553048 0.961456
0.994904 0.540734 0.973053
1 0.531868 0.979446
1 0.528511 0.981704
0 0.759518 0.917067
0.00282292 0.775326 0.929534
0.23563 0.79585 0.942657
0.510246 0.794354 0.935332
0.75259 0.7888 0.926848
0.900084 0.788464 0.928435
0.959304 0.790295 0.935042
0.978103 0.791058 0.93846
0.983413 0.791196 0.93962
0.0330663 0.91548 0.925032
0.13463 0.932555 0.941863
0.325643 0.943023 0.95201
0.564248 0.936614 0.94551
0.776303 0.927764 0.937148
0.90338 0.926421 0.937377
0.961898 0.92697 0.937881
0.978058 0.928313 0.940261
0.982376 0.928542 0.940871
0.138064 0.993286 0.951232
0.224292 1 0.963287
0.386435 1 0.968917
0.602121 0.998703 0.960708
0.798474 0.986725 0.950393
0.917327 0.98291 0.948074
0.968246 0.983368 0.948928
0.984039 0.984009 0.949691
0.988251 0.984298 0.950118
0.180987 1 0.963073
0.259342 1 0.972534
0.410239 1 0.976211
0.617029 1 0.967239
0.80734 1 0.956115
0.923156 1 0.952911
0.971862 1 0.953445
0.987289 1 0.954376
0.991226 1 0.954574
0.193866 1 0.966644
0.269261 1 0.975204
0.416831 1 0.978363
0.621164 1 0.96907
0.809903 1 0.957763
0.924956 1 0.954452
0.97322 1 0.955001
0.988327 1 0.955734
0.992355 1 0.956054
0 0.296071 1
0 0.297856 1
0.17055 0.318151 1
0.514046 0.301808 1
0.811612 0.268421 1
0.995071 0.197696 1
1 0.0716869 1
1 0 1
1 0 1
0 0.321965 1
0 0.32369 1
0.168551 0.346166 1
0.510018 0.33228 1
0.805646 0.303548 1
0.986221 0.245533 1
1 0.147997 1
1 0.0698558 1
1 0.036759 1
0 0.400229 1
0 0.402731 1
0.164523 0.430472 1
0.499641 0.422675 1
0.788663 0.404181 1
0.961242 0.373098 1
1 0.325292 1
1 0.291585 1
1 0.278889 1
0 0.565423 1
0 0.569741 1
0.173068 0.602701 1
0.489479 0.601724 1
0.762356 0.594202 1
0.921401 0.588342 1
0.989181 0.578943 1
1 0.572274 1
1 0.569741 1
0 0.770443 0.97789
0 0.778637 0.983825
0.231617 0.806332 0.999969
0.512947 0.805081 0.990463
0.755459 0.799283 0.980102
0.90042 0.799496 0.98143
0.959503 0.801114 0.987076
0.978256 0.801816 0.989975
0.983352 0.801709 0.990753
0.0405432 0.92015 0.981414
0.111513 0.93312 0.993118
0.32137 0.947768 1
0.565637 0.941253 0.996307
0.778637 0.931899 0.985733
0.90605 0.930037 0.984161
0.960586 0.931044 0.986542
0.977722 0.932082 0.988357
0.982223 0.93228 0.988769
0.112413 0.990723 0.998718
0.206119 1 1
0.381659 1 1
0.602625 1 1
0.799741 0.989105 0.996628
0.917708 0.985077 0.993255
0.967346 0.985443 0.994415
0.983429 0.985885 0.995224
0.988022 0.986023 0.995483
0.156985 1 1
0.242832 1 1
0.405921 1 1
0.617151 1 1
0.808255 1 1
0.923232 1 0.997391
0.97142 1 0.997971
0.987015 1 0.998764
0.991333 1 0.999069
0.168109 1 1
0.252445 1 1
0.411688 1 1
0.620645 1 1
0.810468 1 1
0.924743 1 0.99852
0.972808 1 0.999161
0.988083 1 0.999741
0.992325 1 1
0 0.334966 1
0 0.334478 1
0.160281 0.360418 1
0.506798 0.348287 1
0.802838 0.321447 1
0.982361 0.268559 1
1 0.181796 1
1 0.114565 1
1 0.0862593 1
0 0.357214 1
0 0.356771 1
0.158892 0.384375 1
0.50396 0.374395 1
0.798062 0.350683 1
0.975143 0.306249 1
1 0.235645 1
1 0.1832 1
1 0.162341 1
0 0.426841 1
0 0.426505 1
0.157244 0.45861 1
0.495979 0.452857 1
0.783902 0.437171 1
0.954253 0.411963 1
1 0.373877 1
1 0.347555 1
1 0.337484 1
0 0.579293 1
0 0.57966 1
0.168994 0.616587 1
0.489189 0.616388 1
0.761379 0.609232 1
0.91986 0.604425 1
0.987076 0.596414 1
1 0.590661 1
1 0.58854 1
0 0.776104 0.996811
0 0.779629 0.999237
0.228916 0.81149 1
0.514473 0.810483 1
0.756756 0.804654 0.996597
0.900877 0.804578 0.997604
0.959747 0.806363 1
0.978515 0.806867 1
0.98381 0.807034 1
0.0450599 0.922789 0.999207
0.0964675 0.932296 1
0.317891 0.949874 1
0.566155 0.943648 1
0.779812 0.934035 1
0.907088 0.932021 0.998917
0.960998 0.933059 1
0.977966 0.933883 1
0.982696 0.934249 1
0.113191 0.992035 1
0.194202 1 1
0.378622 1 1
0.602731 1 1
0.800519 0.990433 1
0.918441 0.986236 1
0.968063 0.98645 1
0.984039 0.986816 1
0.988525 0.98703 1
0.142351 1 1
0.232731 1 1
0.402609 1 1
0.617227 1 1
0.808881 1 1
0.923629 1 1
0.971832 1 1
0.987335 1 1
0.991623 1 1
0.153536 1 1
0.241825 1 1
0.408194 1 1
0.620295 1 1
0.810712 1 1
0.925093 1 1
0.973037 1 1
0.988388 1 1
0.992538 1 1
0 0.346654 1
0 0.346197 1
0.156817 0.373068 1
0.50457 0.362081 1
0.800137 0.337179 1
0.978531 0.288838 1
1 0.210605 1
1 0.151446 1
1 0.127764 1
0 0.36788 1
0 0.367468 1
0.155978 0.396231 1
0.501915 0.386877 1
0.795758 0.364599 1
0.971771 0.323857 1
1 0.259464 1
1 0.212711 1
1 0.194217 1
0 0.434852 1
0 0.434531 1
0.154604 0.467063 1
0.495018 0.462272 1
0.782254 0.447059 1
0.952087 0.42356 1
1 0.388113 1
1 0.363745 1
1 0.354696 1
0 0.583795 1
0 0.583627 1
0.167391 0.621073 1
0.489021 0.621134 1
0.760922 0.613962 1
0.919097 0.609186 1
0.986038 0.601648 1
1 0.596155 1
1 0.594049 1
0 0.777874 1
0 0.780026 1
0.22739 0.812955 1
0.514519 0.81207 1
0.757122 0.806287 1
0.900954 0.806241 1
0.959594 0.807813 1
0.978515 0.808515 1
0.98381 0.808682 1
0.0463874 0.923552 1
0.091371 0.931838 1
0.316762 0.9505 1
0.565957 0.944183 1
0.780011 0.934585 1
0.907332 0.932586 1
0.961074 0.933639 1
0.978027 0.934447 1
0.982742 0.934798 1
0.114275 0.992523 1
0.189807 1 1
0.377401 1 1
0.60264 1 1
0.80061 0.990723 1
0.918624 0.986542 1
0.9682 0.986709 1
0.984131 0.987076 1
0.988617 0.987289 1
0.140108 1 1
0.228717 1 1
0.401572 1 1
0.61709 1 1
0.809003 1 1
0.923751 1 1
0.971939 1 1
0.987366 1 1
0.991684 1 1
0.148486 1 1
0.237873 1 1
0.406897 1 1
0.619928 1 1
0.810727 1 1
0.925048 1 1
0.973007 1 1
0.988434 1 1
0.992615 1 1
