public/textures/grade/Arri/Licorice-LogC4.cube
TITLE "Generated by Resolve"
LUT_3D_SIZE 9
0 0 0.0443732
0.0390936 0 0.0348974
0.372381 0 0.0199435
0.78613 0 0
1 0 0
1 0 0.0141299
1 0 0.0471962
1 0 0.0671092
1 0 0.0741741
0 0.05832 0.0555428
0.00276188 0.0545663 0.0424048
0.349264 0 0.026627
0.790356 0 0
1 0 0
1 0 0.0138857
1 0 0.0470283
1 0 0.0669108
1 0 0.0739757
0 0.258198 0.191363
0 0.267689 0.193805
0.19086 0.246571 0.0864729
0.728054 0.142535 0
1 0.0486 0
1 0 0.0417334
1 0 0.0464485
1 0 0.0662394
1 0 0.0732891
0 0.544823 0.375463
0.0242008 0.561776 0.383352
0.119951 0.580774 0.318364
0.554955 0.51725 0.127474
1 0.442069 0.0353704
1 0.408316 0.0771649
1 0.384146 0.11931
1 0.370306 0.129717
1 0.365484 0.132937
0.124117 0.84213 0.554559
0.17229 0.862287 0.55227
0.221363 0.873426 0.511681
0.443076 0.823957 0.423972
0.892348 0.768002 0.247471
1 0.737743 0.228916
1 0.73048 0.244266
1 0.728771 0.252796
1 0.728222 0.25539
0.253071 1 0.66804
0.275105 1 0.661311
0.300542 1 0.623362
0.438865 1 0.540673
0.848951 0.940002 0.40032
1 0.913939 0.34966
1 0.906264 0.357031
1 0.904585 0.361868
1 0.90399 0.363302
0.311864 1 0.716762
0.324697 1 0.705653
0.340291 1 0.664317
0.480827 1 0.586603
0.863935 1 0.474311
1 0.979309 0.391516
1 0.970611 0.396475
1 0.968551 0.400473
1 0.967956 0.401709
0.332235 1 0.730434
0.342565 1 0.718257
0.354849 1 0.675883
0.502663 1 0.600946
0.872969 1 0.493339
1 0.998901 0.403037
1 0.990097 0.406928
1 0.987884 0.410834
1 0.987182 0.412009
0.338399 1 0.734249
0.34786 1 0.721614
0.358999 1 0.679118
0.509239 1 0.604974
0.875746 1 0.498543
1 1 0.406134
1 0.995499 0.409583
1 0.99324 0.413504
1 0.992615 0.414755
0 0 0.1346
0.0428626 0 0.115648
0.372793 0 0.0587472
0.786084 0 0.0304875
1 0 0.0272984
1 0 0.0496681
1 0 0.088365
1 0 0.110369
1 0 0.117708
0 0.0580453 0.117968
0.0220645 0.0558022 0.0990616
0.355962 0.00189212 0.068513
0.793164 0 0.0361028
1 0 0.0271458
1 0 0.0495003
1 0 0.0881666
1 0 0.110185
1 0 0.11751
0 0.261311 0.210925
0 0.270466 0.215503
0.194736 0.255802 0.140093
0.738643 0.156893 0.0523079
1 0.0675822 0.0520943
1 0 0.0753338
1 0 0.08748
1 0 0.109468
1 0 0.116823
0 0.548821 0.387778
0.0508736 0.564797 0.397894
0.15668 0.582635 0.346838
0.565423 0.526558 0.176318
1 0.451209 0.106386
1 0.415213 0.124804
1 0.390509 0.143343
1 0.37612 0.153353
1 0.37084 0.157
0.149706 0.844282 0.56495
0.194064 0.863935 0.563256
0.240894 0.874754 0.525093
0.450019 0.831586 0.44094
0.89926 0.773571 0.278141
1 0.740703 0.255863
1 0.732708 0.264576
1 0.73077 0.270054
1 0.730205 0.271611
0.261082 1 0.672892
0.282841 1 0.66627
0.307469 1 0.628107
0.443641 1 0.547219
0.856123 0.944045 0.415076
1 0.915328 0.368215
1 0.906477 0.370703
1 0.904631 0.373693
1 0.904189 0.374868
0.311818 1 0.716793
0.324666 1 0.705715
0.340291 1 0.664363
0.482124 1 0.587732
0.867613 1 0.479942
1 0.980591 0.407965
1 0.970565 0.40911
1 0.968185 0.41149
1 0.967544 0.412543
0.332204 1 0.730495
0.342535 1 0.718288
0.354849 1 0.675914
0.502602 1 0.600961
0.875227 1 0.496117
1 1 0.418585
1 0.989868 0.419501
1 0.987305 0.42182
1 0.986633 0.422843
0.338369 1 0.734279
0.34786 1 0.721675
0.358999 1 0.679149
0.509194 1 0.60499
0.877363 1 0.500496
1 1 0.421225
1 0.995254 0.422263
1 0.992676 0.424536
1 0.991867 0.425452
0 0 0.395407
0.0264897 0 0.380331
0.331609 0 0.323476
0.769223 0 0.222019
1 0 0.188144
1 0 0.207477
1 0 0.240558
1 0 0.258732
1 0 0.264881
0 0.0319219 0.373846
0.00822461 0.041474 0.365454
0.32015 0.0134432 0.319036
0.779049 0 0.224735
1 0 0.187961
1 0 0.207309
1 0 0.240406
1 0 0.258595
1 0 0.264729
0 0.266606 0.314168
0 0.275608 0.310887
0.239765 0.261891 0.267414
0.749844 0.184146 0.185092
1 0.112459 0.186908
1 0 0.229313
1 0 0.239826
1 0 0.258015
1 0 0.264179
0 0.551919 0.438361
0.0112764 0.567193 0.448768
0.238926 0.563012 0.435401
0.570779 0.536065 0.272801
1 0.465095 0.205173
1 0.4309 0.208499
1 0.406516 0.231327
1 0.392691 0.24564
1 0.387549 0.250843
0.209522 0.833555 0.619013
0.273594 0.847395 0.625422
0.314366 0.8542 0.589548
0.44715 0.837552 0.48249
0.901946 0.77705 0.33814
1 0.744701 0.31104
1 0.737209 0.314794
1 0.735088 0.319524
1 0.734478 0.321172
0.33576 1 0.732784
0.355642 1 0.726665
0.375784 1 0.687312
0.448661 1 0.580453
0.858854 0.944335 0.456718
1 0.914855 0.411353
1 0.905974 0.412253
1 0.90428 0.415747
1 0.903883 0.417014
0.38439 1 0.776547
0.396643 1 0.765927
0.408774 1 0.724437
0.492927 1 0.620706
0.870298 1 0.517861
1 0.97879 0.449226
1 0.968444 0.449165
1 0.966155 0.45182
1 0.965545 0.452781
0.401022 1 0.788006
0.410895 1 0.776379
0.419898 1 0.734508
0.513481 1 0.633021
0.877775 1 0.53341
1 0.99823 0.459648
1 0.987381 0.459403
1 0.984771 0.461738
1 0.984115 0.462745
0.405661 1 0.790799
0.414771 1 0.778943
0.422858 1 0.737133
0.519295 1 0.636316
0.880003 1 0.537606
1 1 0.462364
1 0.992538 0.461997
1 0.989868 0.464363
1 0.989181 0.465278
0 0 0.768856
0.00543221 0 0.760357
0.30045 0 0.715297
0.731075 0 0.63949
1 0 0.567193
1 0 0.555535
1 0 0.56733
1 0 0.575143
1 0 0.578012
0 0.00204471 0.742718
0 0.0169985 0.739513
0.285939 0.0378119 0.701595
0.734554 0 0.642161
1 0 0.574731
1 0 0.555459
1 0 0.567269
1 0 0.575067
1 0 0.577951
0 0.243168 0.673213
0 0.258381 0.678187
0.226474 0.256107 0.652125
0.679316 0.212772 0.597116
1 0.135592 0.552239
1 0.00547799 0.577829
1 0 0.571298
1 0 0.574807
1 0 0.577707
0 0.571435 0.594034
0 0.588495 0.603738
0.188281 0.581979 0.582986
0.551217 0.554391 0.520211
1 0.493858 0.430091
1 0.469337 0.447623
1 0.451377 0.477653
1 0.437888 0.495613
1 0.431983 0.501961
0.0132753 0.843427 0.720562
0.149874 0.855177 0.72781
0.303349 0.842573 0.707042
0.494011 0.821286 0.624186
0.893965 0.780713 0.47953
1 0.753216 0.450919
1 0.747311 0.453391
1 0.745892 0.457465
1 0.74551 0.458747
0.286198 1 0.833738
0.337484 1 0.832456
0.421073 1 0.806317
0.530419 0.97818 0.713893
0.849775 0.94136 0.569604
1 0.913573 0.525338
1 0.906203 0.523033
1 0.905104 0.524651
1 0.904631 0.525093
0.378485 1 0.883162
0.41181 1 0.87628
0.47396 1 0.847532
0.562188 1 0.746441
0.857877 0.999924 0.622065
1 0.975128 0.556466
1 0.965545 0.552834
1 0.963653 0.553338
1 0.963195 0.553719
0.407767 1 0.897292
0.435737 1 0.88896
0.493568 1 0.860014
0.573648 1 0.755322
0.864164 1 0.636393
1 0.993866 0.56553
1 0.983459 0.56144
1 0.981216 0.561791
1 0.980667 0.561975
0.415885 1 0.900954
0.442481 1 0.8925
0.499565 1 0.863493
0.576898 1 0.757687
0.865934 1 0.640223
1 0.999176 0.568048
1 0.988388 0.56376
1 0.986267 0.563714
1 0.985611 0.563577
0 0 1
0 0 1
0.266133 0.00814832 1
0.71107 0 0.983124
1 0 0.936889
1 0 0.903899
1 0 0.905303
1 0 0.907805
1 0 0.908919
0 0.0264744 1
0 0.0461891 1
0.249973 0.0787213 1
0.698024 0.0551919 0.971862
1 0 0.941543
1 0 0.903868
1 0 0.905287
1 0 0.90779
1 0 0.908888
0 0.257053 0.988998
0 0.274235 0.996735
0.206134 0.277455 0.976974
0.642893 0.263081 0.926223
1 0.193881 0.903456
1 0.0894026 0.91986
1 0 0.939406
1 0 0.919387
1 0 0.908827
0 0.570596 0.903014
0 0.588647 0.912139
0.201297 0.585336 0.894591
0.542657 0.563272 0.840131
0.932448 0.528161 0.803037
1 0.498054 0.794675
1 0.472755 0.813581
1 0.457954 0.825452
1 0.452583 0.829831
0 0.865309 0.874311
0.0489357 0.880766 0.883696
0.216663 0.869429 0.860838
0.49482 0.829877 0.800809
0.825269 0.805936 0.742718
1 0.779431 0.688319
1 0.772732 0.678325
1 0.771923 0.680797
1 0.771496 0.681712
0.0877089 1 0.961364
0.186267 1 0.959243
0.310857 1 0.925872
0.558984 0.966613 0.858488
0.8271 0.943435 0.75079
1 0.924834 0.700374
1 0.917128 0.686442
1 0.915557 0.683787
1 0.91519 0.683238
0.231357 1 1
0.284413 1 0.990539
0.375418 1 0.95491
0.611109 1 0.88896
0.8383 1 0.772
1 0.979675 0.705348
1 0.970275 0.694621
1 0.968277 0.692271
1 0.967681 0.69163
0.272618 1 1
0.315526 1 0.999542
0.400259 1 0.964401
0.630411 1 0.899306
0.844221 1 0.780301
1 0.996704 0.708141
1 0.98645 0.697047
1 0.984176 0.694209
1 0.983566 0.693507
0.283864 1 1
0.324147 1 1
0.407645 1 0.966995
0.635782 1 0.902129
0.846098 1 0.782742
1 1 0.708858
1 0.990951 0.697322
1 0.988434 0.694408
1 0.987808 0.693706
0 0.122774 1
0 0.137407 1
0.213962 0.158755 1
0.667216 0.16466 1
1 0.0769207 1
1 0 1
1 0 1
1 0 1
1 0 1
0 0.184039 1
0 0.197177 1
0.2038 0.213107 1
0.653101 0.216495 1
1 0.139193 1
1 0.00503548 1
1 0 1
1 0 1
1 0 1
0 0.33463 1
0 0.347204 1
0.179934 0.356115 1
0.60763 0.357305 1
1 0.300328 1
1 0.229068 1
1 0.13611 1
1 0.0694743 1
1 0.0424964 1
0 0.596536 1
0 0.610086 1
0.191409 0.613184 1
0.534432 0.590829 1
0.911772 0.565576 0.977127
1 0.537285 0.976715
1 0.515908 0.990662
1 0.503838 0.999878
1 0.499565 1
0.0816968 0.874449 1
0.162478 0.887999 1
0.307912 0.880262 1
0.528115 0.841215 0.942596
0.818204 0.820005 0.893507
1 0.80473 0.876707
1 0.799725 0.867109
1 0.798535 0.866545
1 0.797955 0.866529
0.0691844 1 1
0.153201 1 1
0.276326 1 1
0.528054 0.984237 0.950286
0.823865 0.94699 0.891585
0.975799 0.943954 0.864118
1 0.938537 0.85388
1 0.937194 0.849958
1 0.936843 0.848814
0.145693 1 1
0.220371 1 1
0.327474 1 1
0.57438 1 0.969924
0.833158 1 0.894911
0.98024 0.995605 0.859464
1 0.988952 0.857694
1 0.98735 0.854124
1 0.986908 0.852979
0.193759 1 1
0.252796 1 1
0.350866 1 1
0.592676 1 0.977432
0.83624 1 0.896651
0.985077 1 0.860655
1 1 0.856779
1 1 0.853223
1 1 0.85211
0.206363 1 1
0.261219 1 1
0.357366 1 1
0.597604 1 0.979385
0.837064 1 0.897139
0.986419 1 0.860746
1 1 0.856123
1 1 0.852781
1 1 0.851652
0 0.264836 1
0 0.268498 1
0.175708 0.289891 1
0.625574 0.298863 1
1 0.23386 1
1 0.13991 1
1 0 1
1 0 1
1 0 1
0 0.302007 1
0 0.30576 1
0.171145 0.32604 1
0.614145 0.333639 1
1 0.273106 1
1 0.192828 1
1 0.0812543 1
1 0 1
1 0 1
0 0.41062 1
0 0.414969 1
0.163378 0.432135 1
0.57821 0.437034 1
0.987228 0.386694 1
1 0.333837 1
1 0.274495 1
1 0.235676 1
1 0.221103 1
0 0.629831 1
0 0.635309 1
0.188083 0.647013 1
0.526741 0.621851 1
0.899779 0.600824 1
1 0.575021 1
1 0.556893 1
1 0.547143 1
1 0.543572 1
0.0757458 0.885573 1
0.120455 0.893492 1
0.297993 0.892012 1
0.523522 0.850904 1
0.818112 0.828977 0.95491
1 0.815625 0.937819
1 0.811322 0.933364
1 0.81001 0.933028
1 0.809613 0.93312
0.217334 1 1
0.248188 1 1
0.333593 1 1
0.532509 0.992798 0.988907
0.810498 0.959152 0.934203
0.973007 0.95053 0.907668
1 0.946258 0.903777
1 0.945296 0.902251
1 0.945037 0.901732
0.149187 1 1
0.208789 1 1
0.319188 1 1
0.565484 1 1
0.835248 1 0.94461
0.972885 0.998611 0.912886
1 0.994949 0.908949
1 0.993729 0.907393
1 0.993362 0.906783
0.168276 1 1
0.235859 1 1
0.339284 1 1
0.581765 1 1
0.845685 1 0.949386
0.975875 1 0.915648
1 1 0.91046
1 1 0.909102
1 1 0.908446
0.178927 1 1
0.243214 1 1
0.344457 1 1
0.58558 1 1
0.848127 1 0.9505
0.976654 1 0.916213
1 1 0.910506
1 1 0.909361
1 1 0.908721
0 0.318898 1
0 0.318212 1
0.162219 0.34313 1
0.606653 0.351995 1
1 0.293172 1
1 0.217868 1
1 0.117342 1
1 0.0433509 1
1 0.0132601 1
0 0.350362 1
0 0.349737 1
0.159533 0.373571 1
0.59617 0.381506 1
1 0.326192 1
1 0.259449 1
1 0.175753 1
1 0.117082 1
1 0.0940108 1
0 0.445426 1
0 0.445045 1
0.157977 0.467094 1
0.567254 0.465873 1
0.974136 0.423468 1
1 0.37705 1
1 0.327688 1
1 0.296742 1
1 0.284993 1
0 0.646387 1
0 0.646876 1
0.186465 0.663905 1
0.522789 0.637217 1
0.89485 0.617319 1
1 0.59263 1
1 0.576074 1
1 0.567071 1
1 0.563851 1
0.0789807 0.891432 1
0.101656 0.895674 1
0.295018 0.898146 1
0.522072 0.856153 1
0.818402 0.833585 0.972366
1 0.820981 0.953521
1 0.8168 0.950637
1 0.815869 0.950347
1 0.815473 0.950439
0.251881 1 1
0.271458 1 1
0.353338 1 1
0.544488 0.994904 0.999771
0.809003 0.962798 0.94667
0.972671 0.953338 0.920714
1 0.949126 0.917128
1 0.948241 0.916197
1 0.948013 0.915862
0.183703 1 1
0.228138 1 1
0.317708 1 1
0.563424 1 1
0.830854 1 0.95639
0.971832 1 0.926909
1 0.996643 0.920867
1 0.995483 0.919844
1 0.995163 0.919478
0.174929 1 1
0.229435 1 1
0.336294 1 1
0.579171 1 1
0.841031 1 0.960952
0.97435 1 0.929778
1 1 0.922881
1 1 0.921889
1 1 0.921538
0.176913 1 1
0.236576 1 1
0.340917 1 1
0.582498 1 1
0.84303 1 0.961791
0.974777 1 0.930236
1 1 0.923186
1 1 0.922423
1 1 0.922118
0 0.335286 1
0 0.334722 1
0.158267 0.359121 1
0.600549 0.367971 1
1 0.31075 1
1 0.240284 1
1 0.148562 1
1 0.08336 1
1 0.0570077 1
0 0.364965 1
0 0.364355 1
0.156298 0.388113 1
0.590967 0.396338 1
1 0.34197 1
1 0.279026 1
1 0.201678 1
1 0.149035 1
1 0.128283 1
0 0.456168 1
0 0.455726 1
0.155962 0.477745 1
0.563745 0.474601 1
0.970077 0.434638 1
1 0.38996 1
1 0.343465 1
1 0.314504 1
1 0.303548 1
0 0.651698 1
0 0.651514 1
0.18613 0.669413 1
0.521782 0.642176 1
0.893019 0.622782 1
1 0.598321 1
1 0.581933 1
1 0.573419 1
1 0.570321 1
0.0805982 0.893446 1
0.0954604 0.896193 1
0.294163 0.900298 1
0.52163 0.857877 1
0.818433 0.835157 0.977234
1 0.822797 0.957961
1 0.818662 0.95523
1 0.817563 0.955032
1 0.81706 0.954803
0.261311 1 1
0.27779 1 1
0.358938 1 1
0.548135 0.99559 1
0.80885 0.963912 0.950256
0.972351 0.954055 0.924285
1 0.949981 0.920836
1 0.949111 0.919997
1 0.948898 0.919676
0.193378 1 1
0.233265 1 1
0.320455 1 1
0.562905 1 1
0.82977 1 0.959808
0.971496 1 0.9308
1 0.99707 0.924208
1 0.996002 0.923262
1 0.995666 0.922927
0.18262 1 1
0.232609 1 1
0.335409 1 1
0.57847 1 1
0.83975 1 0.964263
0.973938 1 0.933715
1 1 0.926329
1 1 0.925261
1 1 0.924941
0.182712 1 1
0.234272 1 1
0.339727 1 1
0.581628 1 1
0.841672 1 0.965042
0.974319 1 0.934142
1 1 0.926665
1 1 0.925841
1 1 0.925582
