public/textures/grade/Arri/Licorice-LogC4.cube
TITLE "Generated by Resolve"
LUT_3D_SIZE 33
0 0 0.0443732
0 0 0.042298
0 0 0.0384985
0 0 0.034638
0.0390936 0 0.0348974
0.0938277 0 0.0370794
0.168856 0 0.0377203
0.267094 0 0.0296941
0.372381 0 0.0199435
0.474403 0 0.00972
0.578393 0 0
0.683268 0 0
0.78613 0 0
0.88365 0 0
0.974243 0 0
1 0 0
1 0 0
1 0 0
1 0 0
1 0 0.00143435
1 0 0.0141299
1 0 0.0255894
1 0 0.0349279
1 0 0.0403601
1 0 0.0471962
1 0 0.0536049
1 0 0.0590982
1 0 0.0634928
1 0 0.0671092
1 0 0.06981
1 0 0.0715648
1 0 0.0730602
1 0 0.0741741
0 0 0.0424659
0 0 0.0406653
0 0 0.0378576
0 0 0.0327001
0.0364996 0 0.0337682
0.0913558 0 0.0367437
0.166354 0 0.0380407
0.265599 0 0.0304112
0.372137 0 0.0204318
0.47454 0 0.00987259
0.578408 0 0
0.683284 0 0
0.78613 0 0
0.88365 0 0
0.974258 0 0
1 0 0
1 0 0
1 0 0
1 0 0
1 0 0.00141909
1 0 0.0140841
1 0 0.0255589
1 0 0.0349126
1 0 0.0403449
1 0 0.0471809
1 0 0.0535897
1 0 0.0590829
1 0 0.0634623
1 0 0.0670787
1 0 0.0697948
1 0 0.0715343
1 0 0.0730297
1 0 0.0741436
0 0.00682078 0.0393683
0 0.00628672 0.037644
0 0.00520333 0.035523
0 0.00294499 0.0327459
0.0311894 0 0.0316014
0.0858473 0 0.0357824
0.161105 0 0.0387884
0.261494 0 0.0323186
0.370275 0 0.0222019
0.474571 0 0.0116579
0.579446 0 0.000732433
0.684092 0 0
0.786145 0 0
0.88365 0 0
0.974258 0 0
1 0 0
1 0 0
1 0 0
1 0 0
1 0 0.00137331
1 0 0.0140383
1 0 0.0255283
1 0 0.0348821
1 0 0.0403296
1 0 0.0471351
1 0 0.0535439
1 0 0.0590524
1 0 0.063447
1 0 0.0670329
1 0 0.069749
1 0 0.0715038
1 0 0.0729992
1 0 0.0740978
0 0.0290532 0.0380713
0 0.0289006 0.036347
0 0.028275 0.0337072
0 0.0268101 0.0305943
0.0206455 0.023331 0.0292821
0.0737163 0.0150149 0.0332189
0.149416 1.5259e-05 0.0390021
0.251194 0 0.0349889
0.364065 0 0.0245365
0.47219 0 0.0139773
0.579385 0 0.00321965
0.685756 0 0
0.789151 0 0
0.885664 0 0
0.974258 0 0
1 0 0
1 0 0
1 0 0
1 0 0
1 0 0.00131228
1 0 0.0139773
1 0 0.0254826
1 0 0.0348516
1 0 0.0402991
1 0 0.0470893
1 0 0.0534981
1 0 0.0590066
1 0 0.063386
1 0 0.0669871
1 0 0.0697032
1 0 0.071458
1 0 0.0729534
1 0 0.074052
0 0.05832 0.0555428
0 0.0584268 0.0537881
0 0.0582742 0.0510109
0 0.0573129 0.046952
0.00276188 0.0545663 0.0424048
0.0500496 0.0525216 0.0341344
0.127077 0.039765 0.0374456
0.229267 0.0197604 0.0365759
0.349264 0 0.026627
0.463828 0 0.0158846
0.574319 0 0.00564584
0.684138 0 0
0.790356 0 0
0.890059 0 0
0.979812 0 0
1 0 0
1 0 0
1 0 0
1 0 0
1 0 0.00123598
1 0 0.0138857
1 0 0.0254063
1 0 0.0347906
1 0 0.0402533
1 0 0.0470283
1 0 0.0534371
1 0 0.0589303
1 0 0.0633249
1 0 0.0669108
1 0 0.0696422
1 0 0.071397
1 0 0.0728771
1 0 0.0739757
0 0.0972763 0.088014
0 0.0978256 0.0864118
0 0.0982376 0.0834974
0 0.0979477 0.0780957
0 0.0956893 0.0708171
0.0238041 0.0919203 0.0630045
0.0942397 0.0869154 0.0438544
0.199069 0.0666056 0.0398108
0.323445 0.0416876 0.0285344
0.446525 0.0176699 0.0182498
0.563073 0 0.00753796
0.677012 0 0
0.785489 0 0
0.887984 0 0
0.983459 0 0
1 0 0
1 0 0
1 0 0
1 0 0
1 0 0.00114443
1 0 0.0137789
1 0 0.0253147
1 0 0.0347295
1 0 0.0401923
1 0 0.046952
1 0 0.0533608
1 0 0.058854
1 0 0.0632334
1 0 0.0668193
1 0 0.0695354
1 0 0.0712902
1 0 0.0727855
1 0 0.0738842
0 0.145388 0.127672
0 0.146853 0.127535
0 0.148211 0.126528
0 0.149172 0.123354
0 0.14844 0.116701
0 0.145876 0.106737
0.0462654 0.143175 0.0754101
0.157656 0.126329 0.0489967
0.287831 0.0987259 0.0316014
0.418479 0.0706035 0.0198062
0.542138 0.0468757 0.0091249
0.661677 0.0233463 0
0.776226 0 0
0.883482 0 0
0.981109 0 0
1 0 0
1 0 0
1 0 0
1 0 0
1 0 0.000991836
1 0 0.0136263
1 0 0.0251774
1 0 0.0346227
1 0 0.040116
1 0 0.0468452
1 0 0.0532235
1 0 0.0587167
1 0 0.0630961
1 0 0.0666819
1 0 0.069398
1 0 0.0711528
1 0 0.0726482
1 0 0.0737469
0 0.198566 0.158175
0 0.200458 0.159304
0 0.202808 0.16054
0 0.205371 0.161273
0 0.206516 0.159213
0 0.205768 0.152407
0.0299535 0.199969 0.135729
0.112383 0.191546 0.085008
0.242161 0.170718 0.0424659
0.379049 0.141405 0.0225528
0.509789 0.113863 0.00877394
0.636316 0.0873274 0
0.75639 0.0615549 0
0.86836 0.0388495 0
0.970733 0.016144 0
1 0 0
1 0 0
1 0 0.0009308
1 0 0.01149
1 0 0.0164034
1 0 0.0180056
1 0 0.0249943
1 0 0.0344854
1 0 0.0400244
1 0 0.0466773
1 0 0.0530556
1 0 0.0585336
1 0 0.0629129
1 0 0.0664988
1 0 0.0692149
1 0 0.0709697
1 0 0.0724498
1 0 0.0735485
0 0.258198 0.191363
0 0.260685 0.19295
0 0.263279 0.194217
0 0.265797 0.194751
0 0.267689 0.193805
0 0.267628 0.189425
0.024918 0.264469 0.178866
0.0576333 0.268711 0.124071
0.19086 0.246571 0.0864729
0.330526 0.223468 0.0374914
0.469734 0.194629 0.0143282
0.602396 0.167636 0
0.728054 0.142535 0
0.844968 0.118639 0
0.951354 0.09514 0
1 0.0709239 0
1 0.0486 0
1 0.0272374 0.00517281
1 0.00268559 0.0184634
1 0 0.0306096
1 0 0.0417334
1 0 0.0445716
1 0 0.0415961
1 0 0.0403296
1 0 0.0464485
1 0 0.0528267
1 0 0.0582895
1 0 0.0626841
1 0 0.0662394
1 0 0.0689555
1 0 0.0707103
1 0 0.0721752
1 0 0.0732891
0 0.324239 0.230991
0 0.326436 0.232319
0 0.329213 0.233814
0 0.332433 0.23508
0 0.33492 0.234958
0 0.33576 0.232273
0.0340581 0.334646 0.224659
0.0592813 0.33959 0.186801
0.14583 0.328283 0.14609
0.275257 0.309606 0.0822156
0.421393 0.28423 0.0371252
0.561761 0.256153 0.0104677
0.692943 0.230396 0
0.814282 0.207691 0
0.924697 0.187259 0
1 0.16817 0
1 0.14963 0
1 0.130861 0.00292973
1 0.110216 0.0176394
1 0.0858625 0.0332341
1 0.0584726 0.047837
1 0.0320745 0.0592203
1 0.00361639 0.0635996
1 0 0.0730602
1 0 0.0760662
1 0 0.0785687
1 0 0.0792859
1 0 0.0787976
1 0 0.0788586
1 0 0.0785077
1 0 0.0779583
1 0 0.0774395
1 0 0.0770581
0 0.394522 0.275319
0 0.39707 0.276967
0 0.400656 0.279194
0 0.404562 0.281178
0 0.407462 0.281712
0 0.408942 0.280171
0.0411688 0.41149 0.270191
0.0665293 0.416632 0.242603
0.0999924 0.4168 0.194339
0.230838 0.393057 0.171069
0.364157 0.378042 0.0831922
0.514672 0.350484 0.0440375
0.65304 0.324086 0.0144808
0.7785 0.301015 0
0.892607 0.280964 0
0.993713 0.26392 0
1 0.248707 0
1 0.234684 0.00358587
1 0.221042 0.0184024
1 0.20647 0.0345464
1 0.190326 0.0504158
1 0.172686 0.0644236
1 0.154162 0.0751507
1 0.13463 0.0804456
1 0.115877 0.0865949
1 0.0987106 0.0923171
1 0.0835126 0.0972457
1 0.0704662 0.100908
1 0.061387 0.102449
1 0.0539254 0.109438
1 0.0490425 0.111269
1 0.0453651 0.112566
1 0.0428168 0.113603
0 0.468391 0.323842
0 0.471611 0.32607
0 0.475334 0.328466
0 0.479774 0.330999
0 0.483391 0.332326
0.0284123 0.486336 0.330556
0.055848 0.491646 0.317403
0.0814832 0.496605 0.295857
0.0996567 0.49958 0.257359
0.187945 0.485374 0.22829
0.321157 0.461585 0.1953
0.458427 0.447593 0.100969
0.607309 0.421286 0.0618143
0.739498 0.39707 0.0298009
0.856977 0.376806 0.0115053
0.96051 0.360174 0.00404364
1 0.346319 0.00518807
1 0.334707 0.0134279
1 0.324269 0.0264897
1 0.314397 0.0422522
1 0.304326 0.058381
1 0.294118 0.0732738
1 0.28368 0.086183
1 0.273426 0.0951247
1 0.263844 0.10045
1 0.255344 0.103334
1 0.24799 0.106706
1 0.242466 0.109712
1 0.23769 0.111864
1 0.234012 0.113558
1 0.23122 0.114931
1 0.229084 0.115618
1 0.227527 0.11635
0 0.544823 0.375463
0 0.548012 0.377676
0 0.552377 0.380606
0 0.557046 0.383429
0.0242008 0.561776 0.383352
0.0514687 0.568078 0.376761
0.0790265 0.573602 0.365652
0.103059 0.578103 0.347845
0.119951 0.580774 0.318364
0.157336 0.576303 0.280156
0.281468 0.552529 0.262882
0.416648 0.531426 0.214801
0.554955 0.51725 0.127474
0.695659 0.493629 0.0915847
0.819242 0.472663 0.0594186
0.925765 0.455558 0.0414588
1 0.442069 0.0353704
1 0.431449 0.0387121
1 0.422629 0.0487068
1 0.415366 0.0623789
1 0.408316 0.0771649
1 0.401709 0.0918593
1 0.395254 0.103456
1 0.389441 0.112535
1 0.384146 0.11931
1 0.379507 0.123873
1 0.375677 0.126986
1 0.372702 0.128435
1 0.370306 0.129717
1 0.36849 0.130922
1 0.367178 0.131884
1 0.366262 0.132525
1 0.365484 0.132937
0 0.621042 0.427893
0 0.624674 0.430457
0.00994888 0.629297 0.432532
0.0317693 0.636225 0.431708
0.0572061 0.643061 0.428717
0.0842603 0.649226 0.422934
0.108354 0.654078 0.413001
0.128573 0.658289 0.397848
0.144015 0.660945 0.37406
0.153796 0.660426 0.336294
0.246998 0.642481 0.31664
0.381643 0.617182 0.293935
0.513985 0.601099 0.227848
0.648386 0.586069 0.157259
0.778698 0.565209 0.12723
0.890364 0.547967 0.102541
0.985122 0.534142 0.0876478
1 0.523644 0.0838178
1 0.515602 0.0886549
1 0.509514 0.0982528
1 0.504051 0.109148
1 0.499352 0.119783
1 0.495415 0.12958
1 0.491936 0.137545
1 0.488807 0.143862
1 0.486015 0.148363
1 0.483772 0.151781
1 0.482048 0.154223
1 0.48072 0.155947
1 0.479744 0.157092
1 0.479026 0.157946
1 0.478431 0.158526
1 0.477989 0.158923
0.0252842 0.698268 0.474739
0.0360418 0.702419 0.475502
0.0521553 0.708247 0.476112
0.0740368 0.714992 0.475456
0.098024 0.721355 0.472694
0.119768 0.726909 0.467353
0.139483 0.731685 0.458564
0.15642 0.735409 0.445182
0.16968 0.737301 0.42472
0.17911 0.73695 0.394156
0.226474 0.726574 0.365774
0.351125 0.701747 0.350469
0.484413 0.678813 0.31725
0.610315 0.668132 0.232807
0.737453 0.652003 0.188357
0.853941 0.634089 0.16434
0.95259 0.620188 0.146777
1 0.60943 0.137819
1 0.601648 0.136889
1 0.595804 0.140795
1 0.591409 0.147356
1 0.587823 0.155016
1 0.584848 0.162127
1 0.58262 0.168627
1 0.580346 0.173571
1 0.578729 0.177752
1 0.577493 0.180941
1 0.576638 0.1832
1 0.575875 0.18497
1 0.575265 0.18613
1 0.574838 0.18706
1 0.574502 0.187701
1 0.574228 0.188174
0.0750286 0.77322 0.516258
0.0861677 0.777203 0.51693
0.10074 0.782483 0.517342
0.118761 0.78883 0.516686
0.136873 0.794827 0.514168
0.154269 0.800015 0.509209
0.170367 0.804242 0.501091
0.184573 0.807355 0.488884
0.195956 0.808606 0.47068
0.204578 0.808072 0.444694
0.218494 0.802594 0.410452
0.328984 0.779843 0.397742
0.460685 0.754376 0.377279
0.586084 0.737026 0.329763
0.70193 0.729397 0.240162
0.819074 0.712856 0.21854
0.920699 0.698726 0.200885
1 0.687556 0.188876
1 0.679255 0.183902
1 0.67335 0.184283
1 0.669429 0.188144
1 0.666346 0.193088
1 0.66392 0.198398
1 0.662287 0.203601
1 0.661051 0.207919
1 0.659831 0.211231
1 0.65919 0.214054
1 0.65864 0.216236
1 0.658213 0.217731
1 0.657847 0.21886
1 0.657633 0.219638
1 0.65742 0.220218
1 0.657267 0.220645
0.124117 0.84213 0.554559
0.132937 0.846235 0.555306
0.144137 0.851209 0.555535
0.158068 0.856962 0.554757
0.17229 0.862287 0.55227
0.186328 0.866819 0.547433
0.19968 0.87042 0.539773
0.211566 0.872694 0.528222
0.221363 0.873426 0.511681
0.228916 0.872389 0.488502
0.233631 0.868055 0.455879
0.316594 0.849332 0.438926
0.443076 0.823957 0.423972
0.56817 0.80206 0.393256
0.682261 0.790188 0.33019
0.788678 0.782803 0.26125
0.892348 0.768002 0.247471
0.979217 0.756481 0.235111
1 0.74786 0.228428
1 0.741878 0.227039
1 0.737743 0.228916
1 0.734951 0.232471
1 0.73286 0.236515
1 0.731579 0.240772
1 0.73048 0.244266
1 0.729854 0.247318
1 0.729473 0.249805
1 0.729091 0.251514
1 0.728771 0.252796
1 0.728557 0.253773
1 0.728435 0.254551
1 0.728313 0.255085
1 0.728222 0.25539
0.164767 0.904692 0.589258
0.171939 0.908568 0.589899
0.181186 0.91313 0.589853
0.192264 0.918074 0.58883
0.203677 0.922621 0.586145
0.215259 0.92636 0.581369
0.226398 0.929274 0.573953
0.23653 0.931014 0.563058
0.244846 0.930907 0.547448
0.251362 0.929274 0.526101
0.255497 0.924666 0.496727
0.31223 0.909682 0.474784
0.43209 0.88484 0.462058
0.556481 0.860868 0.440009
0.669856 0.844495 0.395193
0.772717 0.837507 0.318807
0.86891 0.827466 0.285649
0.95584 0.815595 0.275517
1 0.806958 0.268894
1 0.800671 0.26656
1 0.796475 0.267491
1 0.793362 0.269871
1 0.791287 0.273121
1 0.790112 0.276646
1 0.789136 0.279606
1 0.788708 0.282231
1 0.788418 0.284413
1 0.787945 0.285908
1 0.787778 0.287114
1 0.787625 0.288014
1 0.787564 0.28864
1 0.787472 0.289113
1 0.787396 0.289448
0.199542 0.95993 0.619944
0.20531 0.963104 0.620157
0.213031 0.967132 0.619821
0.221942 0.971313 0.618494
0.23154 0.975341 0.615763
0.240909 0.978134 0.610742
0.250187 0.980224 0.603387
0.258824 0.981231 0.592752
0.266148 0.980774 0.578042
0.271641 0.978469 0.55787
0.275074 0.973068 0.530556
0.31397 0.960266 0.505226
0.42829 0.936126 0.493812
0.550683 0.910857 0.475914
0.663722 0.891722 0.44181
0.76408 0.881117 0.382818
0.853697 0.876143 0.319158
0.938201 0.864607 0.308766
1 0.855497 0.302861
1 0.849149 0.300572
1 0.844724 0.301015
1 0.841566 0.302892
1 0.839673 0.30576
1 0.838209 0.308476
1 0.83743 0.311177
1 0.836698 0.313268
1 0.836469 0.31516
1 0.836301 0.316609
1 0.836194 0.317754
1 0.835996 0.318425
1 0.835798 0.318929
1 0.835706 0.319326
1 0.835645 0.319631
0.22855 1 0.646143
0.233814 1 0.646189
0.240238 1 0.645518
0.24741 1 0.643824
0.255177 1 0.640696
0.263035 1 0.63563
0.270832 1 0.628153
0.278294 1 0.617777
0.284642 1 0.603326
0.28925 1 0.583658
0.2925 1 0.5579
0.32076 1 0.530602
0.431098 0.977249 0.519829
0.551278 0.951461 0.504173
0.663584 0.930709 0.475959
0.76257 0.917845 0.427619
0.849012 0.912139 0.359213
0.927001 0.90399 0.33492
0.996414 0.894636 0.33048
1 0.887968 0.328206
1 0.883513 0.328527
1 0.880385 0.330114
1 0.878218 0.33228
1 0.876905 0.334768
1 0.875822 0.336843
1 0.875242 0.338811
1 0.874937 0.340444
1 0.874678 0.341634
1 0.874372 0.342412
1 0.87422 0.343114
1 0.874144 0.343664
1 0.874083 0.343984
1 0.874022 0.344244
0.253071 1 0.66804
0.257633 1 0.667796
0.262776 1 0.666712
0.268681 1 0.664729
0.275105 1 0.661311
0.281834 1 0.656031
0.288457 1 0.648219
0.294865 1 0.637568
0.300542 1 0.623362
0.304906 1 0.604318
0.307561 1 0.579385
0.330404 1 0.550988
0.438865 1 0.540673
0.556878 0.98323 0.52639
0.667323 0.96144 0.50135
0.764904 0.94728 0.459495
0.848951 0.940002 0.40032
0.921843 0.934447 0.35697
0.98909 0.925368 0.351781
1 0.918608 0.349599
1 0.913939 0.34966
1 0.910674 0.350912
1 0.908721 0.353017
1 0.907164 0.355062
1 0.906264 0.357031
1 0.905409 0.358572
1 0.905043 0.360021
1 0.904768 0.361074
1 0.904585 0.361868
1 0.904311 0.362387
1 0.904143 0.362768
1 0.904051 0.363058
1 0.90399 0.363302
0.272877 1 0.685573
0.276783 1 0.685039
0.281178 1 0.683696
0.286412 1 0.681514
0.291844 1 0.677668
0.297627 1 0.671946
0.30341 1 0.663859
0.308934 1 0.652903
0.313771 1 0.638575
0.317723 1 0.619867
0.320424 1 0.595789
0.342458 1 0.567117
0.44892 1 0.556985
0.565072 1 0.543542
0.673869 0.985275 0.520485
0.769558 0.970275 0.48246
0.851743 0.962142 0.429282
0.921904 0.957397 0.375204
0.985183 0.949142 0.367758
1 0.942306 0.365682
1 0.937636 0.36553
1 0.934279 0.366613
1 0.931945 0.368231
1 0.930495 0.370138
1 0.929381 0.371817
1 0.928725 0.373373
1 0.928298 0.374701
1 0.927886 0.375601
1 0.927718 0.376349
1 0.927535 0.376913
1 0.927459 0.37731
1 0.927367 0.3776
1 0.927291 0.377829
0.289128 1 0.699214
0.292439 1 0.698344
0.296147 1 0.696635
0.300465 1 0.69395
0.305486 1 0.690013
0.310582 1 0.684001
0.315633 1 0.675639
0.320394 1 0.664408
0.324804 1 0.649973
0.328374 1 0.631449
0.330755 1 0.607828
0.355108 1 0.579538
0.460624 1 0.569711
0.574365 1 0.556542
0.681453 1 0.534661
0.775357 0.987976 0.499031
0.855955 0.979278 0.449546
0.924605 0.975021 0.389715
0.983963 0.9673 0.379583
1 0.960311 0.377508
1 0.955474 0.376867
1 0.952163 0.377905
1 0.949905 0.379492
1 0.94844 0.381292
1 0.947234 0.382849
1 0.946471 0.384268
1 0.946029 0.385504
1 0.94551 0.386297
1 0.945281 0.386999
1 0.945068 0.387503
1 0.944961 0.387884
1 0.944854 0.388159
1 0.944793 0.388357
0.301869 1 0.709285
0.304768 1 0.708217
0.308034 1 0.706294
0.312093 1 0.703487
0.31635 1 0.699092
0.320775 1 0.692836
0.325368 1 0.684245
0.329686 1 0.672892
0.333577 1 0.658366
0.336873 1 0.639963
0.339223 1 0.616571
0.366644 1 0.588907
0.471473 1 0.579385
0.583383 1 0.566491
0.688472 1 0.545068
0.780438 1 0.511055
0.859968 0.992325 0.464012
0.927718 0.98793 0.407614
0.984131 0.981247 0.388937
1 0.973983 0.386206
1 0.969238 0.385412
1 0.965866 0.38616
1 0.96347 0.38764
1 0.961715 0.389227
1 0.960647 0.390814
1 0.959747 0.392096
1 0.959319 0.393286
1 0.958953 0.394202
1 0.958724 0.394903
1 0.95845 0.395331
1 0.958236 0.395666
1 0.958144 0.395941
1 0.958083 0.396139
0.311864 1 0.716762
0.314229 1 0.715312
0.317357 1 0.71339
0.320821 1 0.710246
0.324697 1 0.705653
0.328969 1 0.699351
0.33315 1 0.6907
0.337011 1 0.679179
0.340291 1 0.664317
0.34342 1 0.646067
0.345983 1 0.622782
0.376898 1 0.595987
0.480827 1 0.586603
0.591058 1 0.573831
0.694636 1 0.552773
0.785443 1 0.519814
0.863935 1 0.474311
0.930495 0.997497 0.420096
0.985824 0.991501 0.397269
1 0.984161 0.392599
1 0.979309 0.391516
1 0.975814 0.391882
1 0.97348 0.393408
1 0.971786 0.394995
1 0.970611 0.396475
1 0.969802 0.397864
1 0.969329 0.399008
1 0.968948 0.399863
1 0.968551 0.400473
1 0.968292 0.400885
1 0.968139 0.401266
1 0.968017 0.401511
1 0.967956 0.401709
0.319341 1 0.722072
0.321523 1 0.720531
0.324468 1 0.718471
0.327733 1 0.715267
0.331289 1 0.710582
0.335256 1 0.704143
0.338994 1 0.695232
0.342519 1 0.683604
0.345602 1 0.668757
0.348409 1 0.650645
0.351171 1 0.627176
0.38529 1 0.601312
0.48867 1 0.592111
0.597131 1 0.579248
0.699641 1 0.558495
0.789303 1 0.526207
0.866819 1 0.481773
0.932754 1 0.429084
0.987411 0.999176 0.403418
1 0.991699 0.397177
1 0.98674 0.395911
1 0.983291 0.396063
1 0.980987 0.397543
1 0.979263 0.399115
1 0.978119 0.400671
1 0.977127 0.401862
1 0.976593 0.403006
1 0.976165 0.403861
1 0.975799 0.404425
1 0.975494 0.404837
1 0.975357 0.405203
1 0.975219 0.405447
1 0.975143 0.405676
0.325017 1 0.725872
0.327062 1 0.724285
0.329854 1 0.722133
0.332891 1 0.718837
0.33637 1 0.714107
0.33994 1 0.707485
0.34342 1 0.698466
0.346822 1 0.686854
0.349737 1 0.671992
0.352148 1 0.653788
0.355123 1 0.630228
0.391959 1 0.605158
0.49456 1 0.595987
0.602335 1 0.583261
0.703685 1 0.562585
0.792416 1 0.530648
0.869322 1 0.486931
0.934829 1 0.435294
0.988891 1 0.407767
1 0.997223 0.401007
1 0.992081 0.399023
1 0.988678 0.399039
1 0.986358 0.400397
1 0.984604 0.401968
1 0.983398 0.403479
1 0.982437 0.404715
1 0.981857 0.405814
1 0.98143 0.406668
1 0.98114 0.407324
1 0.980911 0.407752
1 0.980743 0.408118
1 0.980529 0.408301
1 0.980438 0.408484
0.329198 1 0.728527
0.33138 1 0.727047
0.333806 1 0.724666
0.336843 1 0.721416
0.339956 1 0.716503
0.343374 1 0.709819
0.3467 1 0.700801
0.349905 1 0.689113
0.352605 1 0.674205
