public/textures/grade/Arri/Licorice-LogC4.cube
TITLE "Generated by Resolve"
LUT_3D_SIZE 5
0 0 0.0443732
0.372381 0 0.0199435
1 0 0
1 0 0.0471962
1 0 0.0741741
0 0.258198 0.191363
0.19086 0.246571 0.0864729
1 0.0486 0
1 0 0.0464485
1 0 0.0732891
0.124117 0.84213 0.554559
0.221363 0.873426 0.511681
0.892348 0.768002 0.247471
1 0.73048 0.244266
1 0.728222 0.25539
0.311864 1 0.716762
0.340291 1 0.664317
0.863935 1 0.474311
1 0.970611 0.396475
1 0.967956 0.401709
0.338399 1 0.734249
0.358999 1 0.679118
0.875746 1 0.498543
1 0.995499 0.409583
1 0.992615 0.414755
0 0 0.395407
0.331609 0 0.323476
1 0 0.188144
1 0 0.240558
1 0 0.264881
0 0.266606 0.314168
0.239765 0.261891 0.267414
1 0.112459 0.186908
1 0 0.239826
1 0 0.264179
0.209522 0.833555 0.619013
0.314366 0.8542 0.589548
0.901946 0.77705 0.33814
1 0.737209 0.314794
1 0.734478 0.321172
0.38439 1 0.776547
0.408774 1 0.724437
0.870298 1 0.517861
1 0.968444 0.449165
1 0.965545 0.452781
0.405661 1 0.790799
0.422858 1 0.737133
0.880003 1 0.537606
1 0.992538 0.461997
1 0.989181 0.465278
0 0 1
0.266133 0.00814832 1
1 0 0.936889
1 0 0.905303
1 0 0.908919
0 0.257053 0.988998
0.206134 0.277455 0.976974
1 0.193881 0.903456
1 0 0.939406
1 0 0.908827
0 0.865309 0.874311
0.216663 0.869429 0.860838
0.825269 0.805936 0.742718
1 0.772732 0.678325
1 0.771496 0.681712
0.231357 1 1
0.375418 1 0.95491
0.8383 1 0.772
1 0.970275 0.694621
1 0.967681 0.69163
0.283864 1 1
0.407645 1 0.966995
0.846098 1 0.782742
1 0.990951 0.697322
1 0.987808 0.693706
0 0.264836 1
0.175708 0.289891 1
1 0.23386 1
1 0 1
1 0 1
0 0.41062 1
0.163378 0.432135 1
0.987228 0.386694 1
1 0.274495 1
1 0.221103 1
0.0757458 0.885573 1
0.297993 0.892012 1
0.818112 0.828977 0.95491
1 0.811322 0.933364
1 0.809613 0.93312
0.149187 1 1
0.319188 1 1
0.835248 1 0.94461
1 0.994949 0.908949
1 0.993362 0.906783
0.178927 1 1
0.344457 1 1
0.848127 1 0.9505
1 1 0.910506
1 1 0.908721
0 0.335286 1
0.158267 0.359121 1
1 0.31075 1
1 0.148562 1
1 0.0570077 1
0 0.456168 1
0.155962 0.477745 1
0.970077 0.434638 1
1 0.343465 1
1 0.303548 1
0.0805982 0.893446 1
0.294163 0.900298 1
0.818433 0.835157 0.977234
1 0.818662 0.95523
1 0.81706 0.954803
0.193378 1 1
0.320455 1 1
0.82977 1 0.959808
1 0.99707 0.924208
1 0.995666 0.922927
0.182712 1 1
0.339727 1 1
0.841672 1 0.965042
1 1 0.926665
1 1 0.925582
