public/textures/grade/Arri/Parasitic-LogC4.cube
TITLE "Generated by Resolve"
LUT_3D_SIZE 5
0 0 0
0.42649 0 0
1 0 0
1 0 0
1 0 0.0193332
0 0.252247 0
0.213718 0.224598 0
0.923552 0.104005 0
1 0 0
1 0 0.0180819
0 0.82237 0
0 0.849867 0
0.757504 0.789181 0
1 0.775051 0
1 0.771679 0
0 1 0
0 1 0
0.715251 1 0
1 1 0
1 1 0
0 1 0
0.0166171 1 0
0.715312 1 0
1 1 0
1 1 0
0 0 0.419959
0.355581 0 0.375723
1 0 0.192996
1 0 0.237919
1 0 0.262226
0 0.238209 0.222416
0.175906 0.234485 0.226734
0.979507 0.0990311 0.181674
1 0 0.237049
1 0 0.261387
0 0.83331 0.000427253
0 0.866056 0.0166629
0.763531 0.798459 0
1 0.770825 0.049897
1 0.766629 0.0792248
0 1 0
0 1 0
0.710353 1 0
1 1 0
1 1 0
0 1 0
0.0122835 1 0
0.709621 1 0
0.995483 1 0
1 1 0
0 0.0464942 1
0.189532 0.0260166 1
0.929793 0 1
1 0 0.987427
1 0 0.982116
0 0.256672 1
0.128222 0.267384 1
0.926467 0.155932 1
1 0 0.972763
1 0 0.98204
0 0.817349 0.828092
0 0.850004 0.861463
0.713085 0.782345 0.801266
1 0.728298 0.787778
1 0.723369 0.796414
0 1 0.83476
0 1 0.828031
0.640589 1 0.714397
0.966033 1 0.627955
1 1 0.62414
0 1 0.841123
0 1 0.827024
0.6365 1 0.706798
0.95317 1 0.619181
0.993545 1 0.614084
0 0.275486 1
0.0872663 0.293446 1
0.888533 0.200198 1
1 0 1
1 0 1
0 0.391318 1
0.0478523 0.418372 1
0.871962 0.336095 1
1 0.238422 1
1 0.188754 1
0 0.840009 1
0 0.871275 1
0.701381 0.796094 1
1 0.746548 1
1 0.740093 1
0 1 1
0 1 1
0.635798 1 1
0.949859 0.98909 1
0.988327 0.984573 1
0 1 1
0 1 1
0.631388 1 1
0.941024 1 0.99881
0.977768 1 0.994949
0 0.330785 1
0.0563668 0.353857 1
0.880934 0.268208 1
1 0.122896 1
1 0.0406806 1
0 0.430533 1
0.0221561 0.460075 1
0.859663 0.381506 1
1 0.299855 1
1 0.264073 1
0 0.848981 1
0 0.879652 1
0.699001 0.803174 1
1 0.754559 1
1 0.748257 1
0 1 1
0 1 1
0.634043 1 1
0.948074 0.989197 1
0.986679 0.984405 1
0 1 1
0 1 1
0.629725 1 1
0.940307 1 1
0.977172 1 1
