public/textures/grade/Arri/Parasitic-LogC4.cube
TITLE "Generated by Resolve"
LUT_3D_SIZE 33
0 0 0
0 0 0
0 0 0
0.0521248 0 0
0.115114 0 0
0.184558 0 0
0.260273 0 0
0.341787 0 0
0.42649 0 0
0.512169 0 0
0.595315 0 0
0.674281 0 0
0.74461 0 0
0.802319 0 0
0.887617 0 0
0.968078 0 0
1 0 0
1 0 0
1 0 0
1 0 0
1 0 0
1 0 0
1 0 0
1 0 0
1 0 0
1 0 0
1 0 0
1 0 0.00500496
1 0 0.00947585
1 0 0.0131991
1 0 0.0157168
1 0 0.0178225
1 0 0.0193332
0 0.000350958 0
0 0 0
0 0 0
0.0385748 0 0
0.104524 0 0
0.176379 0 0
0.253468 0 0
0.336645 0 0
0.423224 0 0
0.511406 0 0
0.595331 0 0
0.674296 0 0
0.744595 0 0
0.802319 0 0
0.887633 0 0
0.968093 0 0
1 0 0
1 0 0
1 0 0
1 0 0
1 0 0
1 0 0
1 0 0
1 0 0
1 0 0
1 0 0
1 0 0
1 0 0.00497444
1 0 0.00944533
1 0 0.0131685
1 0 0.015671
1 0 0.0177768
1 0 0.0193027
0 0.0154574 0
0 0.0137179 0
0 0.010956 0
0.0216831 0.00187686 0
0.0895094 0 0
0.163394 0 0
0.242359 0 0
0.327108 0 0
0.414923 0 0
0.503594 0 0
0.589563 0 0
0.671504 0 0
0.744595 0 0
0.802319 0 0
0.887633 0 0
0.968093 0 0
1 0 0
1 0 0
1 0 0
1 0 0
1 0 0
1 0 0
1 0 0
1 0 0
1 0 0
1 0 0
1 0 0
1 0 0.00491341
1 0 0.00939956
1 0 0.0131228
1 0 0.0156252
1 0 0.017731
1 0 0.0192416
0 0.0379492 0
0 0.0362402 0
0 0.0336461 0
0 0.0281071 0
0.06421 0.0153201 0
0.142626 0 0
0.225498 0 0
0.312291 0 0
0.40238 0 0
0.493065 0 0
0.580621 0 0
0.66421 0 0
0.739254 0 0
0.800687 0 0
0.887648 0 0
0.968109 0 0
1 0 0
1 0 0
1 0 0
1 0 0
1 0 0
1 0 0
1 0 0
1 0 0
1 0 0
1 0 0
1 0 0
1 0 0.00485237
1 0 0.00932326
1 0 0.0130465
1 0 0.0155642
1 0 0.0176547
1 0 0.0191806
0 0.0687724 0
0 0.0674144 0
0 0.0654612 0
0 0.0623789 0
0.0295415 0.0528725 0
0.107362 0.0390936 0
0.19472 0.0221714 0
0.287358 0.00383001 0
0.38114 0 0
0.474357 0 0
0.564523 0 0
0.650736 0 0
0.729458 0 0
0.795819 0 0
0.870039 0 0
0.963027 0 0
1 0 0
1 0 0
1 0 0
1 0 0
1 0 0
1 0 0
1 0 0
1 0 0
1 0 0
1 0 0
1 0 0
1 0 0.00474556
1 0 0.00923171
1 0 0.0129549
1 0 0.0154879
1 0 0.0175631
1 0 0.0190738
0 0.106081 0
0 0.104952 0
0 0.103716 0
0 0.102068 0
0 0.0963302 0
0.0665446 0.0849775 0
0.153552 0.0700542 0
0.250416 0.0522927 0
0.34931 0.0335393 0
0.4477 0.0141756 0
0.541924 0 0
0.630274 0 0
0.711162 0 0
0.782773 0 0
0.841535 0 0
0.927733 0 0
1 0 0
1 0 0
1 0 0
1 0 0
1 0 0
1 0 0
1 0 0
1 0 0
1 0 0
1 0 0
1 0 0
1 0 0.00460822
1 0 0.00909438
1 0 0.0128023
1 0 0.0153811
1 0 0.0174258
1 0 0.0189364
0 0.149294 0
0 0.148623 0
0 0.147875 0
0 0.147356 0
0 0.144839 0
0.0273136 0.136095 0
0.109133 0.124376 0
0.204852 0.108598 0
0.307134 0.0906691 0
0.41033 0.0719005 0
0.509483 0.053666 0
0.603372 0.0356451 0
0.689387 0.0179446 0
0.765591 0.000518807 0
0.829175 0 0
0.883589 0 0
0.963455 0 0
1 0 0
1 0 0
1 0 0
1 0 0
1 0 0
1 0 0
1 0 0
1 0 0
1 0 0
1 0 0
1 0 0.00440986
1 0 0.00891127
1 0 0.0126192
1 0 0.0152285
1 0 0.0172274
1 0 0.0187381
0 0.198398 0
0 0.198032 0
0 0.198093 0
0 0.198566 0
0 0.197635 0
0 0.192096 0
0.0679789 0.183017 0
0.15877 0.170703 0
0.259632 0.154955 0
0.366186 0.137453 0
0.471214 0.119783 0
0.57084 0.10251 0
0.66302 0.0858778 0
0.745403 0.0701915 0
0.817288 0.0547646 0
0.87631 0.0382086 0
0.930495 0.0176547 0
0.995758 0 0
1 0 0
1 0 0
1 0 0
1 0 0
1 0 0
1 0 0
1 0 0
1 0 0
1 0 0
1 0 0.0041352
1 0 0.00863661
1 0 0.0123445
1 0 0.0150149
1 0 0.0169528
1 0 0.0184634
0 0.252247 0
0 0.252522 0
0 0.253132 0
0 0.254612 0
0 0.255253 0
0 0.253346 0
0.0311284 0.246159 0
0.116426 0.236988 0
0.213718 0.224598 0
0.320272 0.209506 0
0.42884 0.192752 0
0.534585 0.176165 0
0.633707 0.160403 0
0.723003 0.145953 0
0.801907 0.132052 0
0.868971 0.118639 0
0.923552 0.104005 0
0.980926 0.0836805 0
1 0.0565194 0
1 0.0222171 0
1 0 0
1 0 0
1 0 0
1 0 0
1 0 0
1 0 0
1 0 0
1 0 0.00375372
1 0 0.00828565
1 0 0.0119631
1 0 0.0147402
1 0 0.0165713
1 0 0.0180819
0 0.311086 0
0 0.311772 0
0 0.313497 0
0 0.316136 0
0 0.318151 0
0 0.318669 0
0 0.314824 0
0.0777295 0.308141 0
0.170275 0.298878 0
0.274083 0.286687 0
0.384115 0.272068 0
0.494667 0.256336 0
0.600092 0.241184 0
0.696208 0.227436 0
0.782162 0.21474 0
0.855756 0.203235 0
0.917723 0.192325 0
0.970489 0.179507 0
1 0.160891 0
1 0.138903 0
1 0.112383 0
1 0.082414 0
1 0.0493782 0
1 0.0146334 0.0106355
1 0 0.0185702
1 0 0.0237736
1 0 0.0258183
1 0 0.0259556
1 0 0.0242771
1 0 0.0228733
1 0 0.0220035
1 0 0.0211795
1 0 0.0209201
0 0.375235 0
0 0.376898 0
0 0.379355 0
0 0.383307 0
0 0.387228 0
0 0.3897 0
0 0.389258 0
0.0413062 0.384024 0
0.130755 0.377539 0
0.230777 0.367697 0
0.33962 0.355398 0
0.451759 0.34165 0
0.561151 0.327382 0
0.662593 0.314168 0
0.754223 0.302586 0
0.833494 0.292699 0
0.900832 0.283696 0
0.958129 0.274968 0
1 0.262974 0
1 0.248463 0
1 0.231891 0
1 0.213306 0
1 0.194049 0
1 0.174563 0.00953689
1 0.155718 0.0250706
1 0.138796 0.03682
1 0.124163 0.047013
1 0.11194 0.0542611
1 0.102312 0.0599374
1 0.0944381 0.0643168
1 0.0888838 0.0675364
1 0.0844434 0.0695964
1 0.0811933 0.0708476
0 0.445258 0
0 0.447333 0
0 0.450767 0
0 0.456001 0
0 0.461463 0
0 0.465599 0
0 0.467445 0
0.00541695 0.464103 0
0.093843 0.459052 0
0.19144 0.45156 0
0.297871 0.441138 0
0.409583 0.429038 0
0.520592 0.416266 0
0.62536 0.404196 0
0.720378 0.393332 0
0.804471 0.384344 0
0.876249 0.376959 0
0.937926 0.370138 0
0.993835 0.362799 0
1 0.353262 0
1 0.342977 0
1 0.33167 0
1 0.319875 0
1 0.308232 0
1 0.297383 0.00500496
1 0.287999 0.0190585
1 0.280018 0.0298161
1 0.273365 0.0375525
1 0.268208 0.0435035
1 0.264118 0.0484016
1 0.26099 0.0520333
1 0.259068 0.0546426
1 0.257542 0.0564431
0 0.51957 0
0 0.52253 0
0 0.526772 0
0 0.532982 0
0 0.539284 0
0 0.543938 0
0 0.54699 0
0 0.546792 0
0.0623026 0.541909 0
0.15761 0.535546 0
0.261891 0.527123 0
0.37174 0.516716 0
0.482017 0.504982 0
0.587915 0.49398 0
0.685924 0.484108 0
0.77261 0.475868 0
0.847501 0.46949 0
0.91194 0.464103 0
0.971054 0.459022 0
1 0.452918 0
1 0.446342 0
1 0.439597 0
1 0.432639 0
1 0.425696 0
1 0.419409 0
1 0.413779 0
1 0.409171 0
1 0.405356 0.0080415
1 0.402411 0.0147707
1 0.400214 0.0192874
1 0.398474 0.0229343
1 0.397223 0.0256046
1 0.396277 0.0274662
0 0.595911 0
0 0.598871 0
0 0.603662 0
0 0.610498 0
0 0.617304 0
0 0.622889 0
0 0.62678 0
0 0.627619 0
0.03682 0.623835 0
0.131151 0.618631 0
0.232929 0.610864 0
0.340551 0.601572 0
0.449546 0.591409 0
0.554665 0.581155 0
0.653147 0.571756 0
0.741619 0.564218 0
0.818463 0.558541 0
0.88719 0.55433 0
0.94786 0.550439 0
0.99913 0.546441 0
1 0.542397 0
1 0.538323 0
1 0.533928 0
1 0.529839 0
1 0.526268 0
1 0.522988 0
1 0.520226 0
1 0.518166 0
1 0.516381 0
1 0.515007 0
1 0.51397 0
1 0.513237 0
1 0.512673 0
0 0.671672 0
0 0.674968 0
0 0.679866 0
0 0.686976 0
0 0.694011 0
0 0.699779 0
0 0.703944 0
0 0.705913 0
0.0180514 0.703334 0
0.111238 0.698222 0
0.211353 0.691417 0
0.316915 0.682658 0
0.424048 0.672847 0
0.527916 0.663218 0
0.626001 0.654459 0
0.714778 0.647242 0
0.794293 0.641993 0
0.864897 0.638346 0
0.925368 0.635508 0
0.976135 0.632807 0
1 0.630106 0
1 0.62771 0
1 0.625071 0
1 0.622721 0
1 0.620569 0
1 0.618448 0
1 0.616846 0
1 0.615549 0
1 0.614588 0
1 0.613794 0
1 0.61323 0
1 0.612833 0
1 0.612512 0
0 0.748898 0
0 0.752117 0
0 0.757717 0
0 0.764416 0
0 0.770291 0
0 0.775402 0
0 0.778775 0
0 0.779858 0
0.00489815 0.778134 0
0.0988632 0.773083 0
0.197131 0.766629 0
0.300465 0.758175 0
0.405371 0.748241 0
0.508095 0.738766 0
0.60502 0.730983 0
0.694286 0.724224 0
0.77435 0.719387 0
0.844892 0.715938 0
0.905333 0.71342 0
0.955718 0.711315 0
0.996872 0.709453 0
1 0.707622 0
1 0.706203 0
1 0.704585 0
1 0.703288 0
1 0.702159 0
1 0.700893 0
1 0.700099 0
1 0.699535 0
1 0.699046 0
1 0.698695 0
1 0.698528 0
1 0.69836 0
0 0.82237 0
0 0.825879 0
0 0.831159 0
0 0.837659 0
0 0.843626 0
0 0.848524 0
0 0.851728 0
0 0.852644 0
0 0.849867 0
0.0894484 0.84329 0
0.187182 0.836286 0
0.28867 0.827863 0
0.391165 0.818662 0
0.492164 0.809491 0
0.588586 0.801495 0
0.677653 0.794308 0
0.757504 0.789181 0
0.827787 0.785565 0
0.887587 0.7832 0
0.937774 0.781186 0
0.978561 0.779599 0
1 0.778195 0
1 0.776883 0
1 0.775937 0
1 0.775051 0
1 0.774136 0
1 0.77351 0
1 0.773022 0
1 0.772656 0
1 0.772366 0
1 0.772122 0
1 0.771878 0
1 0.771679 0
0 0.890471 0
0 0.894209 0
0 0.899458 0
0 0.90547 0
0 0.910887 0
0 0.915358 0
0 0.91809 0
0 0.918685 0
0 0.916121 0
0.0797131 0.908782 0
0.176715 0.90132 0
0.277363 0.892744 0
0.379538 0.883085 0
0.479973 0.873152 0
0.575647 0.864164 0
0.664683 0.856748 0
0.743801 0.85069 0
0.813687 0.846662 0
0.873442 0.843946 0
0.923247 0.841871 0
0.963577 0.840284 0
0.995514 0.839109 0
1 0.83798 0
1 0.837201 0
1 0.836423 0
1 0.835691 0
1 0.835218 0
1 0.834867 0
1 0.834638 0
1 0.834333 0
1 0.833997 0
1 0.833875 0
1 0.833768 0
0 0.952224 0
0 0.955932 0
0 0.961227 0
0 0.966415 0
0 0.971252 0
0 0.975067 0
0 0.97731 0
0 0.977035 0
0 0.973968 0
0.0745251 0.966583 0
0.170581 0.958572 0
0.269841 0.949126 0
0.371603 0.939071 0
0.471611 0.928786 0
0.566476 0.918837 0
0.654536 0.910353 0
0.733562 0.903975 0
0.802899 0.899321 0
0.861982 0.895949 0
0.911498 0.893721 0
0.951415 0.891966 0
0.983215 0.890761 0
1 0.88983 0
1 0.888823 0
1 0.888228 0
1 0.887694 0
1 0.887007 0
1 0.886687 0
1 0.886473 0
1 0.88629 0
1 0.886137 0
1 0.886076 0
1 0.885985 0
0 1 0
0 1 0
0 1 0
0 1 0
0 1 0
0 1 0
0 1 0
0 1 0
0 1 0
0.0724956 1 0
0.167224 1 0
0.266117 0.997238 0
0.367025 0.986648 0
0.466377 0.975875 0
0.56051 0.965316 0
0.647837 0.956283 0
0.726085 0.948928 0
0.794797 0.943572 0
0.853361 0.939681 0
0.902586 0.93727 0
0.942229 0.935393 0
0.973617 0.933791 0
0.998245 0.932769 0
1 0.931716 0
1 0.93109 0
1 0.930343 0
1 0.929915 0
1 0.929595 0
1 0.929381 0
1 0.929198 0
1 0.92903 0
1 0.928862 0
1 0.928725 0
0 1 0
0 1 0
0 1 0
0 1 0
0 1 0
0 1 0
0 1 0
0 1 0
0 1 0
0.0729992 1 0
0.166918 1 0
0.264515 1 0
0.364401 1 0
0.46305 1 0
0.557 1 0
0.643381 0.994125 0
0.721233 0.986038 0
0.789288 0.97995 0
0.847501 0.975723 0
0.896254 0.972854 0
0.935607 0.970794 0
0.966934 0.969253 0
0.991028 0.967803 0
1 0.966567 0
1 0.965835 0
1 0.965087 0
1 0.964584 0
1 0.964279 0
1 0.96405 0
1 0.963867 0
1 0.963714 0
1 0.963653 0
1 0.963546 0
0 1 0
0 1 0
0 1 0
0 1 0
0 1 0
0 1 0
0 1 0
0 1 0
0 1 0
0.0758831 1 0
0.168231 1 0
0.265156 1 0
0.364218 1 0
0.461692 1 0
0.555016 1 0
0.641245 1 0
0.718578 1 0
0.785855 1 0
0.843351 1 0
0.8916 1 0
0.930709 0.998962 0
0.961715 0.997192 0
0.985901 0.995941 0
1 0.994705 0
1 0.993835 0
1 0.992981 0
1 0.992462 0
1 0.992081 0
1 0.991684 0
1 0.991363 0
1 0.991196 0
1 0.991119 0
1 0.991043 0
0 1 0
0 1 0
0 1 0
0 1 0
0 1 0
0 1 0
0 1 0
0 1 0
0 1 0
0.0789502 1 0
0.170459 1 0
0.2663 1 0
0.364462 1 0
0.461387 1 0
0.554055 1 0
0.639658 1 0
0.716716 1 0
0.783734 1 0
0.840696 1 0
0.888533 1 0
0.927443 1 0
0.958434 1 0
0.982254 1 0
1 1 0
1 1 0
1 1 0
1 1 0
1 1 0
1 1 0
1 1 0
1 1 0
1 1 0
1 1 0
0 1 0
0 1 0
0 1 0
0 1 0
0 1 0
0 1 0
0 1 0
0 1 0
0 1 0
0.0828107 1 0
0.173281 1 0
0.268025 1 0
0.365545 1 0
0.461936 1 0
0.554055 1 0
0.63917 1 0
0.71577 1 0
0.782406 1 0
0.839063 1 0
0.886534 1 0
0.92517 1 0
0.955901 1 0
0.979644 1 0
0.997772 1 0
1 1 0
1 1 0
1 1 0
1 1 0
1 1 0
1 1 0
1 1 0
1 1 0
1 1 0
0 1 0
0 1 0
0 1 0
0 1 0
0 1 0
0 1 0
0 1 0
0 1 0
0 1 0
0.0859083 1 0
0.175494 1 0
0.269947 1 0
0.36669 1 0
0.462501 1 0
0.554147 1 0
0.638987 1 0
0.715251 1 0
0.78175 1 0
0.838239 1 0
0.885298 1 0
0.923735 1 0
0.954452 1 0
0.978134 1 0
0.996094 1 0
1 1 0
1 1 0
1 1 0
1 1 0
1 1 0
1 1 0
1 1 0
1 1 0
1 1 0
0 1 0
0 1 0
0 1 0
0 1 0
0 1 0
0 1 0
0 1 0
0 1 0
0.00390631 1 0
0.0889601 1 0
0.177646 1 0
0.271702 1 0
0.367941 1 0
0.463355 1 0
0.554589 1 0
0.639109 1 0
0.715236 1 0
0.781521 1 0
0.837751 1 0
0.884581 1 0
0.922866 1 0
0.953445 1 0
0.976974 1 0
0.994827 1 0
1 1 0
1 1 0
1 1 0
1 1 0
1 1 0
1 1 0
1 1 0
1 1 0
1 1 0
0 1 0
0 1 0
0 1 0
0 1 0
0 1 0
0 1 0
0 1 0
0 1 0
0.00682078 1 0
0.0915389 1 0
0.17969 1 0
0.272969 1 0
0.368887 1 0
0.464057 1 0
0.555047 1 0
0.63917 1 0
0.715129 1 0
0.781186 1 0
0.837278 1 0
0.884047 1 0
0.922103 1 0
0.95259 1 0
0.976135 1 0
0.994217 1 0
1 1 0
1 1 0
1 1 0
1 1 0
1 1 0
1 1 0
1 1 0
1 1 0
1 1 0
0 1 0
0 1 0
0 1 0
0 1 0
0 1 0
0 1 0
0 1 0
0 1 0
0.0099031 1 0
