public/textures/grade/Arri/Parasitic-LogC4.cube
TITLE "Generated by Resolve"
LUT_3D_SIZE 9
0 0 0
0.115114 0 0
0.42649 0 0
0.74461 0 0
1 0 0
1 0 0
1 0 0
1 0 0.00947585
1 0 0.0193332
0 0.0687724 0
0.0295415 0.0528725 0
0.38114 0 0
0.729458 0 0
1 0 0
1 0 0
1 0 0
1 0 0.00923171
1 0 0.0190738
0 0.252247 0
0 0.255253 0
0.213718 0.224598 0
0.633707 0.160403 0
0.923552 0.104005 0
1 0 0
1 0 0
1 0 0.00828565
1 0 0.0180819
0 0.51957 0
0 0.539284 0
0.0623026 0.541909 0
0.482017 0.504982 0
0.847501 0.46949 0
1 0.446342 0
1 0.419409 0
1 0.402411 0.0147707
1 0.396277 0.0274662
0 0.82237 0
0 0.843626 0
0 0.849867 0
0.391165 0.818662 0
0.757504 0.789181 0
0.978561 0.779599 0
1 0.775051 0
1 0.772656 0
1 0.771679 0
0 1 0
0 1 0
0 1 0
0.364401 1 0
0.721233 0.986038 0
0.935607 0.970794 0
1 0.965835 0
1 0.96405 0
1 0.963546 0
0 1 0
0 1 0
0 1 0
0.36669 1 0
0.715251 1 0
0.923735 1 0
1 1 0
1 1 0
1 1 0
0 1 0
0 1 0
0.0122835 1 0
0.370459 1 0
0.715175 1 0
0.92137 1 0
1 1 0
1 1 0
1 1 0
0 1 0
0 1 0
0.0166171 1 0
0.371603 1 0
0.715312 1 0
0.92108 1 0
1 1 0
1 1 0
1 1 0
0 0 0.0935225
0.0848554 0 0.0857404
0.422217 0 0.0185702
0.754269 0 0
1 0 0
1 0 0
1 0 0.0420996
1 0 0.070634
1 0 0.0799268
0 0.0616922 0.0454414
0.0175326 0.0522927 0.0394598
0.383688 0 0
0.737942 0 0
1 0 0
1 0 0
1 0 0.041825
1 0 0.0704356
1 0 0.0796826
0 0.249866 0
0 0.254551 0
0.215396 0.229068 0
0.649897 0.162921 0
0.945037 0.104402 0
1 0 0.0222171
1 0 0.0408179
1 0 0.0695201
1 0 0.0787366
0 0.525307 0
0 0.545464 0
0.0645457 0.550393 0
0.489387 0.513893 0
0.865309 0.473579 0
1 0.448615 0
1 0.420737 0.0348058
1 0.403449 0.0702525
1 0.397375 0.0820325
0 0.828824 0
0 0.850202 0
0 0.856641 0
0.392981 0.827848 0
0.761898 0.794263 0
0.979309 0.780438 0
1 0.774578 0
1 0.771725 0
1 0.770901 0
0 1 0
0 1 0
0 1 0
0.366262 1 0
0.724086 0.989715 0
0.935653 0.970901 0
1 0.964172 0
1 0.962112 0
1 0.961563 0
0 1 0
0 1 0
0 1 0
0.366842 1 0
0.716243 1 0
0.923949 1 0
1 1 0
1 1 0
1 1 0
0 1 0
0 1 0
0.0121157 1 0
0.370413 1 0
0.715602 1 0
0.92163 1 0
1 1 0
1 1 0
1 1 0
0 1 0
0 1 0
0.0164492 1 0
0.371557 1 0
0.715526 1 0
0.921202 1 0
1 1 0
1 1 0
1 1 0
0 0 0.419959
0.0366369 0 0.414343
0.355581 0 0.375723
0.749187 0 0.26067
1 0 0.192996
1 0 0.204593
1 0 0.237919
1 0 0.256458
1 0 0.262226
0 0.0547951 0.359289
0 0.0464637 0.35581
0.317449 0 0.334844
0.731136 0 0.245151
1 0 0.192767
1 0 0.20444
1 0 0.237736
1 0 0.256275
1 0 0.262058
0 0.238209 0.222416
0 0.244068 0.23035
0.175906 0.234485 0.226734
0.672068 0.15697 0.167712
0.979507 0.0990311 0.181674
1 0 0.22443
1 0 0.237049
1 0 0.255619
1 0 0.261387
0 0.524102 0.0853285
0 0.544915 0.103365
0.0609598 0.55375 0.0965591
0.489845 0.519768 0.0266728
0.896895 0.47158 0.0448463
1 0.441855 0.125338
1 0.414282 0.196551
1 0.397391 0.23064
1 0.391424 0.241215
0 0.83331 0.000427253
0 0.854734 0.0204318
0 0.866056 0.0166629
0.375448 0.839063 0
0.763531 0.798459 0
0.987533 0.778637 0.00190738
1 0.770825 0.049897
1 0.76762 0.0719005
1 0.766629 0.0792248
0 1 0
0 1 0
0 1 0
0.356207 1 0
0.7178 0.987625 0
0.929808 0.964446 0
1 0.957504 0.00109865
1 0.955398 0.0196078
1 0.954879 0.0257267
0 1 0
0 1 0
0 1 0
0.360906 1 0
0.710353 1 0
0.916518 1 0
1 1 0
1 1 0
1 1 0
0 1 0
0 1 0
0.00816358 1 0
0.364004 1 0
0.709453 1 0
0.913725 1 0
0.996323 1 0
1 1 0
1 1 0
0 1 0
0 1 0
0.0122835 1 0
0.365393 1 0
0.709621 1 0
0.913314 1 0
0.995483 1 0
1 1 0
1 1 0
0 0 0.885969
0 0 0.874159
0.259403 0 0.834226
0.667826 0 0.740612
0.989517 0 0.637903
1 0 0.60766
1 0 0.609216
1 0 0.613092
1 0 0.614893
0 0.0544747 0.817197
0 0.0515908 0.805234
0.231067 0.0178836 0.772992
0.645548 0 0.707393
0.968994 0 0.624537
1 0 0.607584
1 0 0.60914
1 0 0.613016
1 0 0.614816
0 0.232471 0.651881
0 0.241443 0.655238
0.159594 0.233692 0.657923
0.60238 0.16968 0.657496
0.977813 0.100832 0.616693
1 0.00578317 0.599893
1 0 0.605295
1 0 0.612741
1 0 0.614542
0 0.514076 0.511513
0 0.534874 0.532891
0.0571145 0.544228 0.544381
0.440543 0.519173 0.527169
0.929915 0.451606 0.485084
1 0.422248 0.517281
1 0.396445 0.559442
1 0.381018 0.580301
1 0.375586 0.587945
0 0.82475 0.430961
0 0.846662 0.452094
0 0.856825 0.457572
0.346014 0.831983 0.412482
0.750362 0.791455 0.325216
1 0.763485 0.326314
1 0.752728 0.354238
1 0.749081 0.368414
1 0.74786 0.373388
0 1 0.417166
0 1 0.428824
0 1 0.422965
0.313863 1 0.364645
0.682734 0.983505 0.283711
0.918379 0.956039 0.263005
1 0.946288 0.275242
1 0.943358 0.283787
1 0.942641 0.286809
0 1 0.419638
0 1 0.423651
0 1 0.411276
0.314977 1 0.349462
0.669886 1 0.270497
0.894636 1 0.246281
0.986893 1 0.254276
1 1 0.260624
1 1 0.26302
0 1 0.420417
0 1 0.42179
0 1 0.406958
0.318608 1 0.344381
0.668147 1 0.266072
0.889448 1 0.241169
0.980072 1 0.24802
1 1 0.254047
1 1 0.256367
0 1 0.420798
0 1 0.421393
0 1 0.405646
0.320043 1 0.342901
0.668101 1 0.264866
0.888182 1 0.239643
0.9785 1 0.246387
1 1 0.25214
1 1 0.254414
0 0.0464942 1
0 0.0470893 1
0.189532 0.0260166 1
0.571771 0 1
0.929793 0 1
1 0 1
1 0 0.987427
1 0 0.983215
1 0 0.982116
0 0.106691 1
0 0.110918 1
0.174716 0.09691 1
0.564996 0.0381476 1
0.901686 0 0.981979
1 0 1
1 0 0.987411
1 0 0.9832
1 0 0.982101
0 0.256672 1
0 0.26772 1
0.128222 0.267384 1
0.533593 0.222049 1
0.926467 0.155932 1
1 0.0763714 0.977935
1 0 0.972763
1 0 0.971237
1 0 0.98204
0 0.520104 0.900282
0 0.539284 0.920058
0.0354772 0.552468 0.936553
0.428382 0.525322 0.929747
0.86569 0.467048 0.947021
1 0.429847 0.952102
1 0.405005 0.966201
1 0.391684 0.975341
1 0.386755 0.978439
0 0.817349 0.828092
0 0.840375 0.851286
0 0.850004 0.861463
0.337041 0.821378 0.834699
0.713085 0.782345 0.801266
1 0.740001 0.781201
1 0.728298 0.787778
1 0.724498 0.794156
1 0.723369 0.796414
0 1 0.823011
0 1 0.837201
0 1 0.833585
0.297688 1 0.793561
0.657389 0.96524 0.736721
0.896315 0.939361 0.671351
1 0.926604 0.656855
1 0.922667 0.657237
1 0.921675 0.657893
0 1 0.83476
0 1 0.839918
0 1 0.828031
0.292775 1 0.780774
0.640589 1 0.714397
0.864424 1 0.650065
0.966033 1 0.627955
0.999146 1 0.624628
1 1 0.62414
0 1 0.839673
0 1 0.841733
0 1 0.827008
0.293828 1 0.77734
0.637263 1 0.708415
0.856962 1 0.644022
0.955795 1 0.621027
0.987869 1 0.616754
0.996429 1 0.616083
0 1 0.841123
0 1 0.842496
0 1 0.827024
0.294682 1 0.776669
0.6365 1 0.706798
0.855146 1 0.642466
0.95317 1 0.619181
0.985061 1 0.614786
0.993545 1 0.614084
0 0.176455 1
0 0.181094 1
0.134676 0.181964 1
0.531304 0.137133 1
0.897978 0.0624094 1
1 0 1
1 0 1
1 0 1
1 0 1
0 0.214633 1
0 0.220493 1
0.123522 0.224521 1
0.524605 0.182467 1
0.895354 0.11693 1
1 0 1
1 0 1
1 0 1
1 0 1
0 0.325612 1
0 0.334432 1
0.0870527 0.346944 1
0.494224 0.311574 1
0.892195 0.255589 1
1 0.197223 1
1 0.114046 1
1 0.0536965 1
1 0.0297704 1
0 0.551141 1
0 0.564065 1
0.0102693 0.584741 1
0.411017 0.558785 1
0.824689 0.508843 1
1 0.471626 1
1 0.448875 1
1 0.437095 1
1 0.433036 1
0 0.827054 1
0 0.844083 1
0 0.858824 1
0.3252 0.829023 1
0.706188 0.786389 1
0.974166 0.749676 1
1 0.733913 1
1 0.729351 1
1 0.728084 1
0 1 1
0 1 1
0 1 1
0.28777 1 1
0.654582 0.958419 0.97499
0.880766 0.930694 0.950759
0.999802 0.913878 0.947494
1 0.909163 0.945953
1 0.907759 0.945541
0 1 1
0 1 1
0 1 1
0.281636 1 1
0.63856 1 0.958572
0.857755 1 0.926986
0.951278 0.99266 0.904341
0.985718 0.988937 0.893706
0.995636 0.987808 0.891539
0 1 1
0 1 1
0 1 1
0.2822 1 1
0.634531 1 0.953887
0.850706 1 0.919203
0.941344 1 0.895537
0.973098 1 0.885008
0.981964 1 0.882216
0 1 1
0 1 1
0 1 1
0.282734 1 1
0.6336 1 0.952682
0.84892 1 0.917159
0.939025 1 0.893339
0.970077 1 0.882765
0.978851 1 0.880064
0 0.275486 1
0 0.277058 1
0.0872663 0.293446 1
0.502937 0.257435 1
0.888533 0.200198 1
1 0.117189 1
1 0 1
1 0 1
1 0 1
0 0.303792 1
0 0.305364 1
0.0776837 0.324239 1
0.494942 0.289555 1
0.886809 0.234257 1
1 0.16466 1
1 0.063386 1
1 0 1
1 0 1
0 0.391318 1
0 0.39379 1
0.0478523 0.418372 1
0.467262 0.387488 1
0.871962 0.336095 1
1 0.288869 1
1 0.238422 1
1 0.202029 1
1 0.188754 1
0 0.584588 1
0 0.588998 1
0 0.619486 1
0.396399 0.593362 1
0.806134 0.546242 1
1 0.510658 1
1 0.489586 1
1 0.479408 1
1 0.476036 1
0 0.840009 1
0 0.848371 1
0 0.871275 1
0.316777 0.840345 1
0.701381 0.796094 1
0.95877 0.762448 1
1 0.746548 1
1 0.741726 1
1 0.740093 1
0 1 1
0 1 1
0 1 1
0.280339 1 1
0.650874 0.960555 1
0.877501 0.931716 1
0.982315 0.917372 1
1 0.911864 1
1 0.910185 1
0 1 1
0 1 1
0 1 1
0.274464 1 1
0.635798 1 1
0.857313 1 1
0.949859 0.98909 1
0.979461 0.985748 1
0.988327 0.984573 1
0 1 1
0 1 1
0 1 1
0.274784 1 1
0.632029 1 1
0.851423 1 1
0.942977 1 1
0.972244 1 0.998032
0.980285 1 0.997375
0 1 1
0 1 1
0 1 1
0.275227 1 1
0.631388 1 1
0.849943 1 1
0.941024 1 0.99881
0.969894 1 0.995773
0.977768 1 0.994949
0 0.31783 1
0 0.317342 1
0.0637827 0.33994 1
0.488579 0.306584 1
0.883406 0.252415 1
1 0.186954 1
1 0.0951095 1
1 0.0290379 1
1 0.00233463 1
0 0.342611 1
0 0.342153 1
0.0552682 0.366567 1
0.481239 0.334585 1
0.88011 0.28159 1
1 0.225162 1
1 0.147662 1
1 0.0944076 1
1 0.0738079 1
0 0.421271 1
0 0.420874 1
0.0289921 0.450263 1
0.45449 0.421118 1
0.863066 0.370947 1
1 0.327123 1
1 0.286442 1
1 0.257801 1
1 0.24686 1
0 0.601007 1
0 0.601358 1
0 0.636133 1
0.388907 0.610224 1
0.798627 0.563424 1
1 0.528511 1
1 0.508461 1
1 0.498985 1
1 0.49575 1
0 0.846845 1
0 0.850584 1
0 0.877867 1
0.313558 0.846418 1
0.699596 0.801587 1
0.954238 0.768277 1
1 0.752789 1
1 0.747692 1
1 0.746303 1
0 1 1
0 1 1
0 1 1
0.277012 1 1
0.6495 0.96228 1
0.876493 0.932998 1
0.979416 0.919066 1
1 0.91371 1
1 0.912276 1
0 1 1
0 1 1
0 1 1
0.271122 1 1
0.634638 1 1
0.856382 1 1
0.948623 0.989273 1
0.978454 0.985626 1
0.987182 0.984527 1
0 1 1
0 1 1
0 1 1
0.271702 1 1
0.630915 1 1
0.850736 1 1
0.942336 1 1
0.971481 1 1
0.979507 1 1
0 1 1
0 1 1
0 1 1
0.272236 1 1
0.630213 1 1
0.849546 1 1
0.940764 1 1
0.969787 1 1
0.977707 1 1
0 0.330785 1
0 0.330266 1
0.0563668 0.353857 1
0.48365 0.321386 1
0.880934 0.268208 1
1 0.20705 1
1 0.122896 1
1 0.0637522 1
1 0.0406806 1
0 0.354498 1
0 0.35404 1
0.0484321 0.37969 1
0.47631 0.34815 1
0.877211 0.295857 1
1 0.24271 1
1 0.171084 1
1 0.122866 1
1 0.104265 1
0 0.430533 1
0 0.430167 1
0.0221561 0.460075 1
0.450614 0.431601 1
0.859663 0.381506 1
1 0.33872 1
1 0.299855 1
1 0.274083 1
1 0.264073 1
0 0.606241 1
0 0.606058 1
0 0.641505 1
0.386313 0.615671 1
0.796353 0.568704 1
1 0.533959 1
1 0.514183 1
1 0.504891 1
1 0.501747 1
0 0.848981 1
0 0.85124 1
0 0.879652 1
0.311955 0.848188 1
0.699001 0.803174 1
0.952605 0.770169 1
1 0.754559 1
1 0.749645 1
1 0.748257 1
0 1 1
0 1 1
0 1 1
0.275669 1 1
0.648844 0.962661 1
0.876036 0.933288 1
0.978454 0.919478 1
1 0.914229 1
1 0.91281 1
0 1 1
0 1 1
0 1 1
0.269871 1 1
0.634043 1 1
0.855909 1 1
0.948074 0.989197 1
0.977966 0.985489 1
0.986679 0.984405 1
0 1 1
0 1 1
0 1 1
0.270451 1 1
0.630411 1 1
0.850385 1 1
0.941848 1 1
0.970825 1 1
0.978897 1 1
0 1 1
0 1 1
0 1 1
0.270909 1 1
0.629725 1 1
0.849134 1 1
0.940307 1 1
0.969299 1 1
0.977172 1 1
